/* XPM */
static char *b0a2765541174dafe45e2d84de573970s0Q5wcXtd3K71giz[] = {
/* columns rows colors chars-per-pixel */
"660 494 256 2 ",
"   c #020201",
".  c #0B0201",
"X  c #0B0A05",
"o  c #02020B",
"O  c #080908",
"+  c #130201",
"@  c #1B0201",
"#  c #130A03",
"$  c #1C0A02",
"%  c #17080B",
"&  c #191408",
"*  c #040915",
"=  c #1A0A13",
"-  c #191615",
";  c #09140C",
":  c #230201",
">  c #2B0101",
",  c #230B02",
"<  c #2B0C01",
"1  c #26080B",
"2  c #330201",
"3  c #3C0201",
"4  c #330B02",
"5  c #3B0C01",
"6  c #38070B",
"7  c #2C1302",
"8  c #271507",
"9  c #331402",
"0  c #391805",
"q  c #240C15",
"w  c #271517",
"e  c #371916",
"r  c #380814",
"t  c #182610",
"y  c #392506",
"u  c #382617",
"i  c #2E2C11",
"p  c #311A25",
"a  c #0F2831",
"s  c #382627",
"d  c #32302B",
"f  c #0C1427",
"g  c #430201",
"h  c #4C0201",
"j  c #430B01",
"k  c #4A0A05",
"l  c #530201",
"z  c #5B0201",
"x  c #570A04",
"c  c #471704",
"v  c #571803",
"b  c #471916",
"n  c #521215",
"m  c #630201",
"M  c #6B0201",
"N  c #680A04",
"B  c #730201",
"V  c #7B0201",
"C  c #770B03",
"Z  c #681703",
"A  c #781703",
"S  c #6F1315",
"D  c #482604",
"F  c #572704",
"G  c #493605",
"H  c #593605",
"J  c #472716",
"K  c #572816",
"L  c #583617",
"P  c #483618",
"I  c #672803",
"U  c #782803",
"Y  c #683804",
"T  c #783705",
"R  c #673817",
"E  c #783816",
"W  c #6E2816",
"Q  c #501929",
"!  c #4E2F2C",
"~  c #6D352A",
"^  c #69182B",
"/  c #364928",
"(  c #55480E",
")  c #694606",
"_  c #784605",
"`  c #684617",
"'  c #784817",
"]  c #72560E",
"[  c #77680D",
"{  c #534C2F",
"}  c #774827",
"|  c #6E5030",
" . c #716832",
".. c #556832",
"X. c #1C344C",
"o. c #563345",
"O. c #225066",
"+. c #51504B",
"@. c #71554A",
"#. c #726C4E",
"$. c #706D6D",
"%. c #576262",
"&. c #840201",
"*. c #8B0201",
"=. c #870A03",
"-. c #930201",
";. c #9B0201",
":. c #970B03",
">. c #841B01",
",. c #881703",
"<. c #971902",
"1. c #8D1414",
"2. c #A30201",
"3. c #A80702",
"4. c #B70602",
"5. c #A81803",
"6. c #B71903",
"7. c #AD1514",
"8. c #8C2301",
"9. c #872803",
"0. c #932401",
"q. c #9B2402",
"w. c #972A04",
"e. c #873704",
"r. c #973704",
"t. c #873816",
"y. c #922F16",
"u. c #A72803",
"i. c #B72803",
"p. c #A83704",
"a. c #B83703",
"s. c #AE3316",
"d. c #8E3528",
"f. c #AD3627",
"g. c #991A26",
"h. c #C60602",
"j. c #C71803",
"k. c #D50D05",
"l. c #EA1003",
"z. c #C62903",
"x. c #C73803",
"c. c #D63804",
"v. c #D02F0D",
"b. c #E72703",
"n. c #E63903",
"m. c #F43009",
"M. c #D33529",
"N. c #874806",
"B. c #984706",
"V. c #895508",
"C. c #975706",
"Z. c #874717",
"A. c #974816",
"S. c #895617",
"D. c #975917",
"F. c #A74705",
"G. c #B84705",
"H. c #A75706",
"J. c #B75705",
"K. c #A64917",
"L. c #A75818",
"P. c #B75117",
"I. c #936A0D",
"U. c #A76705",
"Y. c #B76705",
"T. c #A87604",
"R. c #A8641B",
"E. c #B66819",
"W. c #B4770E",
"Q. c #985826",
"!. c #8C502E",
"~. c #AE542A",
"^. c #996528",
"/. c #906B33",
"(. c #A96725",
"). c #B66926",
"_. c #B97428",
"`. c #B07135",
"'. c #C84604",
"]. c #D84704",
"[. c #C85605",
"{. c #D85606",
"}. c #CF4F16",
"|. c #E74903",
" X c #F74A03",
".X c #E95604",
"XX c #F85604",
"oX c #EE5217",
"OX c #CD6E0F",
"+X c #FA6605",
"@X c #F06D0E",
"#X c #CF5329",
"$X c #F15629",
"%X c #C77829",
"&X c #C87935",
"*X c #D06F2C",
"=X c #F26D2E",
"-X c #8B5749",
";X c #8F6D51",
":X c #AD734E",
">X c #927468",
",X c #AA7969",
"<X c #A8564E",
"1X c #CC754B",
"2X c #E76C4E",
"3X c #A53847",
"4X c #708E62",
"5X c #4B884B",
"6X c #B18D07",
"7X c #B48931",
"8X c #9C8F11",
"9X c #CE8C08",
"0X c #EF910B",
"qX c #D3AC0A",
"wX c #F3AD0B",
"eX c #C98438",
"rX c #D38931",
"tX c #F18E32",
"yX c #EEAC2D",
"uX c #F3CE0D",
"iX c #F3DA1D",
"pX c #B48751",
"aX c #948A6E",
"sX c #B18B72",
"dX c #99955F",
"fX c #D08C4D",
"gX c #F0934D",
"hX c #F9AB52",
"jX c #CA9371",
"kX c #F6AE6D",
"lX c #E09E6C",
"zX c #FCD264",
"xX c #94CA7F",
"cX c #166899",
"vX c #5C7291",
"bX c #0977C7",
"nX c #158FAE",
"mX c #6797A5",
"MX c #10A1DC",
"NX c #5AA4D3",
"BX c #10E4F0",
"VX c #5DEDED",
"CX c #B39487",
"ZX c #9EA195",
"AX c #C99A86",
"SX c #D0AB93",
"DX c #E8B395",
"FX c #D6B6A6",
"GX c #E8BAA6",
"HX c #EA9A89",
"JX c #EDC6AF",
"KX c #ECDA9E",
"LX c #F8FAF8",
"PX c #E8F1DC",
"IX c #9EDCCC",
"UX c #8B7791",
/* pixels */
"O.O.cXcXcXvXvXvXvXcXcXcXcXcXbXbXMXMXMXMXMXMXMXMXMXMXMXMXMXBXMXMXMXMXMXMXMXMXMXMXMXMXMXMXNXNXNXmXNXZXZXZXZXZXaX%.vXvXvXvXZXFXSXaX>XCXSX>XUXCXCXFXCX>X>XCXCXCXCXAXSXjXfXlXfX:XpX;X{ | /.' I Q.-X} Y T &XeXrXhXtXyXtX0X0X0XOXOXOXY.H.Y.F.A r.#X*XA z m z S z W y.y.=X5.].@X+X+X+XtXtX9XyXhXrXJ.tX0X@X+X@X{.tXgXM m C C =.:.:.;.;.2.4.4.3.7.s.s.e.T _ Y Y F ' U U U e.Z.} } | | R T T T ).Z.U Z A.y.t.e.Z k j c v c c k k k k 3 > > : > 2 3 x n ^ @.@.! @ . + + % + @ 1 1 > > 6 q 1 1 + .   . O * = @ > > 6 g k h h z z z z ^ ^ ^ Q n r r r 3 h Z Z n 6 2 3 h x n > , $ 2 3 h n b , $ 7 6 5 6 4 < $ & % + + 1 : : : > > < 9 J ! w   = w i p i w w w i i w w w w p w s p s s s i p w w w w w w w w w w w w w w w w w & # X X         . . . . . . . . . .             + + . . .               o o o o                                                   X & & X     . : F Z.D.N.N.N.N._ V.S.V.N._ N.e.' T Y Y T U 9.A Z I Z Z A A U U U A Z Z v v c c b K b b b < $   . . @ : @ +   O         .                 . + # + $ , + + @ $ + @ @ @ + @ , , % .   o o                               X w s p p Q Q p p w s s u s ! d X.O.X.X.a O.O.O.cXcXcXcXcXbXbXbXcXcXcXcXbXcXbXbXbXcXcXcXcXcXcXcXcXcXcXO.O.O.cXcXO.O.O.O.X.X.X.X.X.a a a f X.o.o.o.~ L P i K ;XQ @ . : M 7.;.7.:XFXZXO.;   - - p O   ;     O ; * * * f f * a f - ; O   . . + + + + @ @ @ @ : , @ @ 0 ( ` ( ( ( ( . ",
"O.O.cXcXvXvXvXvXvXcXcXcXcXcXbXbXbXnXMXMXMXMXMXMXMXMXMXMXMXBXBXBXBXBXMXMXBXBXBXBXBXMXMXMXNXNXNXnXNXZXZXZXZXZXZX$.vXvXvXvXmXFXSXsX#.>XZXCXCXCX>XCXaX>X>XCXCXCXCXCXjXpXfXfXfXpXsX;X{ | /.' I Q.-X} ' T &XE.J.9XY.Y.Y.Y.OXOXOXOXOX9XrXtXrXOX=XgX2XC m m z S N d.~.#X*Xu..X@X+X+X+XtXtXtXhXhXrXr.OXtX@X+X@X'.tXgXM M B V =.*.-.-.;.2.4.4.4.7.u.,.U I T Y T I E U E U I I F K ~ ~ R I T T L.e.Z x t.t.t.e.I x j c c c c k j k k 3 > > : > 2 3 x n W @.@.! @ . + + % + @ : 1 > > 6 r 1 1 $ + .   . = p e 6 > > 2 g k n S S m S ^ ^ ^ Q Q Q r r 3 h Z Z n 6 > 3 h x k > , , 5 k g k b : @ , 4 6 3 2 : @ & & @ + + @ : > : < : , e s w + + # & - & & & & & & & & = = = = & & & & & # # # & $ $ $ $ $ $ $ # # # # # X X X # X X           . + + + . . . . . . . . . . . . . . .                         . . .                         . .                     . . . . + $ c I N.N.e.e.T T Y _ _ _ Y T T T T Y Y Y U U 9.U U I W U A A I I I Z Z Z I F D c c c 3 5 4 : $ . . . @ : @ +   O         .                 . + $ + $ , @ @ , $ @ @ , , @ @ @ @ . .   o o                               % p p e r r r r 1 q w u s s d o.+.O.X.X.X.X.O.cXcXcXcXcXbXbXbXbXbXbXbXbXbXMXbXbXbXbXcXcXbXbXbXbXcXcXcXcXO.O.cXO.O.O.O.O.X.X.X.X.X.a a a f X.o.@.~ K 7 & & c | K < , > M :.3.7.W ! d ;   * O = X   t t   O   o o o o * * * * * * o X . + + # # $ @ @ : : : : , @ , y ` ` ( ( ( ( # ",
"O.cXvXvXvXvXvXvXvXvXvXcXcXcXbXbXbXbXnXMXMXMXMXMXMXMXBXMXBXBXBXBXBXBXBXBXBXBXBXBXBXBXBXBXBXBXBXnXNXNXmXZXZXZXZXvXvXvXvXvXvXZXCXCX>X$.CXCXCX,X>X>X>X;X>X,X,X,XsXsXsXpX`.fXfXpXsX;X{ { /.S.I Q.-X!.Z.I `.R.H.tXOXOXOX9XyXyXyXhXhXhXhXzXhXgXhXkXkXy.m z l Z N d.<X2X}.u..X=X+X+X+XtXtXtXhXhX%Xr.J.tX@X+X@Xa.gXkXm B B V =.*.*.-.-.;.3.4.4.6.<.=.C A Z Z T I I v I Z I Z v F K K W I I U A.Z.I h U t.t.t.I x j j c k n k j k k 2 > : : > > 3 x n W !.@.{ $ . + + = @ @ : 6 6 2 6 6 > 1 w e 8 . . = p e e e r 6 6 k k l h h g k n Q Q Q r q q 3 h Z Z j > 2 g l x k 2 $ 7 b n g 3 4 : @ : 4 5 3 2 : @ @ $ $ @ + + : > : : @ @ , e e q . . + + + . + + . . . . . + + . . . . . . . . . . . . . . . . . . . . . . . . . .                 .                                               . . . + + + + + . . . . . . . . . + + + @ $ $ $ , $ , , , , 7 7 7 7 7 7 9 y G Y _ T T e.N.e.T T T Y Y Y T T T Y Y Y Y U U 9.U I R I I A Z I F F F F F F c c 5 5 3 2 c c c D y 8 8 > : @ +             . .               . # & $ @ @ @ @ + + + + @ @ @ @ , , + .   o o                         O     = s p r r > 6 b J J P { { ! d o.+.O.X.X.O.O.O.cXcXcXbXbXbXbXbXbXbXbXbXbXbXMXbXbXbXbXbXbXbXbXbXbXbXcXcXcXcXcXO.O.O.O.O.O.O.X.X.X.a a a a f d o.3Xd.I 0 y i | | ! ! u 5 B 2.4.7.N @       o   %     / / t %.%.d * o o o o * o o       . # $ $ $ $ , 1 1 1 1 , : , , y ( ` ( ( ( ( # ",
"vXvXvXvXvXUXvXvXvXvXvXcXcXcXbXbXbXnXMXMXMXMXMXMXMXMXBXBXBXBXBXBXBXBXBXBXMXBXBXBXBXBXBXBXBXBXBXMXMXNXNXmXZXZXmXmXvXvXvXvXvXUXCXSXaX#.>XCX>X>X>X>X,X>X>X>X>X,X,X,XsX:X`.fXfXpXaX#.{ {  .!.I !.-X!.' F `.C.U.hXyXhXhXzXzXzXzXzXzXzXzXzXzXhXhXkXkX#XN z l Z z t.!.~.G.5.].=X+X+X+XtXtXhXhXhXrXJ.J.@X+XXX@Xa.2XkXM B M B &.&.*.*.*.-.2.4.4.6.5.:.,.<.>.A U Z Z x I I Z Z v v c v W I I T A.`.t.h x t.t.t.U v k c c k c j j k k 6 > : : > > 3 x n W !.-X| , + @ + 1 @ @ > 6 2 2 6 6 2 > 0 J u 8 @ + + s ! ! ~ ! b 3 2 k k g g k Q Q n r r q q 2 g Z Z 5 > 2 g l z k 2 @ , K ^ k 2 > > : < 5 k g 2 : : + + @ : @ @ @ @ @ @ @ + @ < w q + . . . . + + + + + + + + + + + + + + + + + + + . . . + + + + + + + + + + + + . + # # # # # X X . . . X X X X X X X X X X X X X X X X ; X X X # & 8 0 0 0 0 0 9 D D D D D D D D D D G G H H L L L L L L L R R ` ` ` R L L L ` ' Y T U I U T T I T _ _ _ Y T T T Y Y H F I U A U F F K K Z Z F F D D c 0 9 4 > > 2 2 3 ~ } ` } ` { ! e > : @ .           .               . . # % 1 @ : < 9 4 4 0 9 9 < : : < < 1 .   o o                         O     - s e r Q K | -X;X;X;XaX#.@.! ! o.O.X.a O.O.cXcXcXcXcXbXbXnXnXnXMXMXnXnXnXMXbXnXnXnXnXnXnXnXMXnXnXnXnXcXcXcXcXO.O.O.O.O.O.X.X.X.a a a a f s ~ d.f.9.I (  .@.@.{ ! y k *.3.3.7.S :     o     %   X / +.$.PXIXmXa o o o o o o o       . + + , , , , 1 : 1 1 : , , 7 y ( ( ( ( ( ( . ",
"vXvXvXvXvXUXUXvXvXvXmXmXcXcXcXbXMXMXMXMXMXMXMXMXMXMXBXBXBXBXBXBXVXVXVXBXMXBXBXBXBXBXBXBXBXBXBXMXMXNXNXNXmXmXmXmXvXvXvXvXvX$.CXFXCX$.>XCX,X>X>X>XsX,X>X>X,X,X,X,XAXpX`.1XfX:XaX#.{ {  .!.F !./.!.' c D.N.H.hXhXzXzXzXzXzXzXzXzXzXzXzXzXhXhXhXkX~.N N z Z l Z Z A P.u.].@X@X+X+X@XtXhXzXkXhX*XJ.[.@X+X@Xi.2XkXB B M B V &.&.&.&.-.2.3.4.4.6.3.3.5.,.V N z Z g 3 k l Z x Z v k W W E t.A.:X!.g h E t.t.U v k j c n c j j j k 5 2 > : : > g x x K } -X| 8 + @ @ : : : < 6 2 2 6 6 6 : 4 u J J 6 : @ . + u ! @.@.@.@.~ ~ ~ ~ ~ @.~ ! r Q s p 2 g Z Z 5 6 2 g z z h 2 @ , K ~ k 2 > 4 : 2 g x h 3 > 4 : @ + @ : 1 % + + @ @ @ @ , 1 1 @ + + + @ @ $ , , , , , , 1 1 1 , 8 , 8 8 8 8 8 8 8 0 0 0 0 0 e 7 7 7 7 8 8 8 8 8 8 8 8 8 8 i i 8 t t t t t t t t t t t t t t t t t t t t t t 8 { |  .} } !.S.Z.' ' ' ' ' ' ' ' ' ' ' ' ' ' ' ' ' ' ' ' ' ' ' ' ' ' ' ' _ _ _ ' Z.S.D.A.Z.D.D.S.T Y Y Y Y Y I I R R H F Z A A Z F J J K n n D J e w 8 @ + @ : > 3 2 3 W R R } L P P b 3 2 2 @ .       . .                 . % 1 : : 0 L | } } } | ~ K 3 > > : @ .                               O     w p r r ~ /.pXjXsXsXsXsXaX#.! o.o.+.O.X.cXcXcXnXnXnXnXnXnXnXnXMXMXMXMXMXMXnXMXMXMXMXMXMXMXMXMXMXMXMXnXnXnXnXcXO.O.O.O.O.O.X.X.X.X.a a a f L t.s.s.y.I y ! s e w = @ x 3.4.4.:.N :     o o . .   O - d mXPXZX%.* o o o o o o         . + @ , , , , : : : : : , , 7 P ` ` ( ` ( ( . ",
"vXvXvXvXvXvXZXZXvXvXmXmXvXcXcXbXMXMXMXMXMXMXMXMXMXMXBXBXBXBXBXVXVXIXIXVXBXBXBXBXBXBXBXBXBXVXBXBXMXNXNXNXNXNXNXNXmXNXmXvXvX$.UXFXCX>X#.aXCX,X>X>X,X,X,X,X,X,X,X,XAXpX`.fXfX,X>X#.+.{  ./.F !./.!.' c V.N.B.hXhXyXhXhXhXzXhXyXyXrXrXW.W.H.H.P.#Xm z z x Z z Z N N P.a.].+X@X+X+X@XA J.fXgXgXhXtXtX+X+X@Xa.=XkX,.C B B V &.&.&.&.*.2.2.3.4.4.4.3.2.5.<.y.~.jX!.j j x t.9.t.I h v W E !.e.:X!.3 2 W t.t.U v j j c v v k j j c 5 2 < : : > g x l S ~ -X| 0 @ @ @ : : : > 4 2 3 k c c 2 < 9 b J c c 4 $ + $ w u s ! ! ! ~ @.@.@.@.@.| Q o.o.! 5 g Z x 3 r 2 g z z h 5 @ @ b ~ n 2 2 0 > 2 h x x g 3 b K 9 @ + + @ = % + # @ @ @ : : @ 1 $ @ , , 7 7 < 7 7 7 7 8 8 w 8 8 8 8 7 0 0 e e y y e e 0 y y y 0 0 0 0 9 0 9 8 8 8 8 8 8 8 8 8 i i i i t t i i i i i i i i t t t t t t t t 8 8 G ( ` ' _ N.N.T _ _ _ _ _ _ _ _ _ _ _ _ _ Y T T T T T T T T T _ T _ _ _ _ _ _ _ T ' Z._ T T T Y T Y Y Y Y Y Y I R F c c Z Z N x c 9 9 7 4 2 , $ # O     . + > 3 g 2 > 3 2 5 F 2 @ < j k n n r +     . . .                 . @ 1 : 2 J | !./.!.} | | K h 3 2 > @ .                                     w s e Q ~ :XpXpXpX:X;XdX#.@.~ @.@.+.O.cXMXBXBXBXBXBXVXVXVXVXVXVXVXVXVXBXBXBXBXBXBXBXBXBXBXBXBXBXBXBXBXBXBXnXnXcXcXcXO.O.O.X.X.X.X.a a a f ~ f.s.s.f.Z @ + . * *   @ W 7.4.7.:.x < X O * % - .       - +.%.a *   o o o o o           + % 1 , , , , : : 1 : , : , y P | | ` | { { # ",
"vXvXvXvXvXvXZXZXvXvXmXmXvXvXcXnXMXMXMXMXMXMXMXMXMXMXBXBXBXBXBXVXIXPXIXVXVXBXBXBXBXBXBXBXVXVXBXMXMXMXNXNXNXNXNXNXNXNXNXmXvXvXUXZXZX>X@.>XCXsX>X>X>X,X,X,X,X,X,X,XsX:X:XjXjXsXaX#.+.{  ./.F ' /./.' F _ N.B.rXhX%XH.C.rXhXeXU.W.W.rXW.W.H.J.%X*Xz l l l Z N U A A s.a.].+X+X+X+X@Xr.H.E._.L.%XL.OX+X+X+Xx.=XgXs.C B V V &.&.&.&.*.;.2.3.4.h.4.4.3.2.:.u.2XJXpXc 2 U &X~.~.t.h k F E Q.U :XQ.g > K t.y.U v j j v K W c j j c 5 2 > < > > g x l x ~ -X| 0 @ , @ : : : > 2 2 3 n v K 5 4 5 c c F v c , . . + $ @ 1 q @ w e e ! ! ! u e ! s p 5 k I x 2 6 2 3 z N l n : @ j ^ n 3 2 5 2 3 l z z g j K } K 4 @ + + = = O X + @ , : : : , @ @ , < 9 9 < 9 9 9 4 9 6 6 4 7 7 7 9 0 0 0 0 0 9 9 9 9 9 9 9 0 0 0 0 9 9 9 9 , 7 7 8 8 8 8 8 8 8 8 8 8 8 & & 8 8 8 8 8 8 8 t ; t & & & & & $ y H ` _ _ Z.N.e.T _ T _ T T T T _ _ _ _ T Y T T _ _ _ _ _ _ _ _ T T T T T T Y T Y E E Y Y Y Y F Y H F F F R R R K c 4 5 x N m h > + . . + + .     o     . @ 6 k k 3 > > : 4 c : @ : j l n ^ e @ . . . . .                 + : 6 2 5 c K R E I F D K v z l l 3 : .                                   . w ! Q ^ ~ } ' _ /./.H ( P { | -X>X+.O.nXBXBXBXBXBXBXVXVXPXLXLXLXLXIXVXBXBXBXBXBXBXBXBXBXBXBXBXBXBXBXBXBXBXMXnXcXcXcXO.O.O.X.X.X.X.a a a f -X~.M.M.3XS 1 = f f f * r ~ 3.4.4.1.Z 4 & - - % - +       - d o       O O o   o         . + $ 1 , , , < < 1 1 1 : : , 0 P ( ( G ( P P . ",
"vXvXvX%.%.vXmXmXvXvXvXvXvXvXmXNXMXMXMXMXMXMXMXMXMXMXBXBXBXBXBXBXVXIXIXVXVXBXBXBXBXVXBXBXVXVXBXMXMXMXNXNXNXNXNXNXNXNXNXNXmXvXvXZXZX>X@.#.CXaX>X>X,X,X,X;X,X,X>X,X>X;X:XlXlXsXaX$.+.{  ./.F ' /.!.' I _ N.e.%XrXB.x Z _.hX7XU.rXrXrXrXhXgXtXrX&Xl Z Z x Z x A A A w.p.'.XX+X+X@XtXtX%XC.N.T L.B.J..X+XXX'.=XgX#X=.B V &.&.&.&.&.*.-.;.3.4.h.4.4.4.4.2.:.*XJXjXc c I &X#XP.y.h g v E Q.T 1X`.v : K t.t.U v j j v K ~ F j j j 5 > : > > 2 g x l v ~ -X| 0 , , @ 1 : : > 2 2 3 n F I c c c c v v v F < + + 7 0 7 + + + = = # & 8 8 + + @ . + > c E v 2 6 2 3 z N x n < @ 5 K n 3 2 5 2 3 l m z h k K !.R F 4 @ . O % = O . + @ , : : @ @ @ , < 9 4 < 4 4 4 4 4 < < < 7 7 7 7 9 0 0 0 0 0 0 0 0 0 0 0 9 5 9 9 9 9 9 9 7 7 7 9 9 9 7 8 8 8 8 8 8 8 8 8 8 8 8 8 8 8 8 8 8 t 8 & & & 8 8 $ y H F F Y Y I Y Y I I I I I I I I I I I I I I I I I I I I I I Y Y Y I I I I I F F F D F L H D D c 5 5 c K L R D 5 : 2 l M m g @ .     . .       o o   + : 3 k x k 4 0 7 P ~ 4 : 4 k l N ^ b @ . . . . .                 + > 3 k g 3 > 5 v Z v > 3 l M M N j : .                                   . e ~ ~ S S 0 < 3 !.!.< 8 8 ! @.3X>X%.O.nXBXBXBXBXBXBXVXPXLXLXLXLXLXPXVXBXBXBXBXBXVXVXVXVXBXBXBXBXBXBXBXBXBXBXnXnXcXcXO.O.O.X.X.X.X.a a a f <X#XM.M.3X^ r p f f f * e d.2.h.2.1.x < # - - % . %   X - d +.  o o       o o   o       . + @ , < < < < 1 1 1 1 1 : @ 7 y y y 8 8 8 y . ",
"vXvXvXO.O.O.vXvXvXvXvXvXvXvXvXNXMXMXMXMXMXMXMXMXMXMXMXBXBXBXBXBXBXVXVXBXBXBXBXMXBXBXBXBXBXBXBXBXMXMXMXMXNXNXNXNXNXNXNXNXNXmXvXmXZXZX>X>X>X>X>X>X>X,X,X>X;X-X;X,XsX,XpXlX:XsXCX$.%.{ | /.) Y !./.' v N.B.e.rXtX%XB.B.rXhXtXrXhXhXhXhXhXhXhXgX&XZ T Z x x Z Z A A 8.G.x.|.@XXX@X@XOXkXhX_.D.R.R.F.'.XX.X.XOX2X*XB V V &.*.&.&.&.:.-.3.5.4.j.v.k.4.2.-.:.s.JXjXY 4 x *X#X}.F.z g j E Q.e.&X`.F @ 4 U t.t.Z j j c K R W v c c 5 > @ > > 2 h x l x ~ -X@.J @ @ : : : : > 6 2 g v I I v F K K k E B.T 4 , 9 D P y y u $ +.d p d i 8 8 , , p u c W t.x 3 > 2 h N m l n 4 : 2 n n 3 > j g h z m S l 2 2 F } } b + . . O O O . + @ , : : @ @ @ @ , : < 4 4 4 4 > > 4 4 < < < < < 9 9 9 0 9 9 0 0 0 0 0 0 0 5 0 0 0 9 9 9 7 7 9 9 7 7 7 7 7 8 8 8 8 8 9 9 8 8 8 8 8 8 8 8 8 8 8 8 8 8 8 8 7 7 4 4 5 5 c j c c c c c c c c c c c c c c c c D D c c c c v F F F c c c 0 0 0 9 4 < @ + + + + @ : : > 5 J b < 4 > : 3 z C M l @               o   O   + 6 h N l n 0 { +.{ { ~ D F Z N S n 2 + . . . . .               . @ 6 x S l 2 2 4 c I x 2 2 z B V S n :                                 o . + r ~ ~ S N 4 0 K -X-X! ! P ~ -X3X-X+.O.MXBXBXBXBXBXVXVXLXLXLXLXLXLXLXVXVXBXBXBXVXVXPXLXPXVXBXBXBXBXBXBXBXBXBXnXnXcXO.O.O.X.X.X.X.X.X.a a p <X3XM.M.3Xg.r * f * * o r S 3.3.;.B k @   - -   + .   - d d -                           . $ , < < < < < > < 1 1 < : : 9 y 0 0 7 9 8 8 + ",
"$.%.%.O.O.O.O.vXvXvXvXvXZXvXvXNXMXMXMXMXMXMXMXMXMXMXMXBXBXBXBXBXBXBXBXBXBXBXBXBXBXBXBXBXBXBXBXBXMXMXMXMXMXNXNXNXNXNXNXNXNXmXnXmXZXSXZX>X>X>XCX>X>XCXCXCX,X>X>XCXsXsXpXlXsXsXCXZX%.{ | /.) Y !./.' I Z.B.e.*XgX*Xr.r.E.hXtX%XhXhXhXzXhXhXhXhXkXA.e.I x x Z Z A A ,.G.x.].@XXX@X@XJ.rX`.^.^.`.fXOX@X+X.X{.[.=X*XB M B V V V V V &.V *.:.3.6.v.j.4.2.:.,.K.PXlXY 2 v #XOX[.F.N h j E Q.B.).).I + : W t.t.v 3 3 c v ~ W K v v c 5 4 > 2 2 h m l x ~ -X@.J @ @ : : : : > 6 6 3 v I I F I v Z l A.E.E.:XR > > c H L { { $.+.+.#.#.#.@.{ ! ! s c I E x 3 2 3 h z z l k 6 : 2 n n 3 2 j g l m B S x 3 5 j F R b : + . . o   . . + @ @ @ @ + @ @ , : < > > 4 4 > 4 4 < : , , : , , < < < 9 9 9 9 9 0 0 0 9 9 9 9 9 9 4 < 7 7 7 9 7 7 7 7 9 9 9 7 7 7 7 7 7 8 8 8 8 8 8 8 7 7 7 7 8 8 8 8 7 7 7 4 9 4 9 9 9 9 9 9 9 9 9 7 9 9 9 9 9 9 9 9 < 4 4 4 4 4 4 4 2 > > : @ @ @ @ < : @ . .   . . + : > > > > : @ e 6 > j N C M l @     o                 + j z B S x +   ; t { @.!.!.d.d.d.^ 3 @ . . . . .               . : l S S N h c D K E v 5 g M *.:.1.x :         .                   o   o . @ b W d.1.S L @.-X-X@.@.@.! ~ -X3X-X+.O.BXBXBXBXBXBXVXIXLXLXLXLXLXLXLXIXVXVXBXVXVXLXLXLXLXPXVXVXBXBXBXBXBXBXMXnXcXcXO.O.O.X.X.X.X.X.a a a d <X3Xg.g.f.~ b = * * o & D 9.5.2.:.z j < X X O = . - d d d -                             . $ 1 < < < < < > > : : @ @ : 9 b 0 0 0 y y 8 $ ",
"vX%.O.O.O.O.O.cXvXvXvXUXZXZXvXvXnXbXbXbXbXMXMXMXMXMXMXMXBXBXBXBXBXBXBXMXMXBXBXBXBXBXBXBXBXBXBXBXMXMXMXMXMXNXNXNXNXMXMXMXnXnXcXvXZXFXZX>X$.aXZX>X$.>XCXCXCX>X>XCXsXsXjXlXjXsXaXZX$.{ | /.) Y !./.' T A.B.r.*XgX*XJ.F.J.hXgXOXhXhXyXhXyXhXtXhXhXU e.Z x x Z Z A A >.'.x.x.+XXX+X.XF.E.D.S.^.pXlXgXtXtXtX=X*XgXfX>.B C =.=.=.=.,.,.=.<.5.5.6.z.z.6.6.5.,.K.KXlXY 5 Z P.{.'.G.>.g 3 R Q.B.E.(.Y + + I t.t.v 3 2 j c R W F F K K c 5 2 3 g l N z x ~ -X| J : @ : : : : > 6 6 3 v I Y I I I Z z K.rXtX).`.(.S.I c c H | #.@.@.>X>X;X#.;X@.! e j I U l 3 2 3 x N m l g c > 2 n n 3 2 j g z M V S N g j j c c 5 > + + .     . . . + + + + + + @ @ : : > : > 4 4 < 4 < : , , , , , , , < < < 9 9 9 9 9 9 9 9 9 9 9 7 < < 7 7 7 7 7 9 0 0 0 0 9 9 9 7 7 7 7 7 7 7 7 7 7 7 7 9 7 7 7 8 7 7 8 8 8 8 w w 8 8 < , , , , , , , , , , , , , @ @ + @ , : : : : @ : @ @ + + . + + + + .         . + @ 2 6 2 > 4 e e w > j N C B l @                     . : n M =.C x +   ;   # < I U A 1.1.n > + .   . . .       . .     + 2 N 1.&.C x F J L R c 5 h C :.:.1.z @         . .               o o o   . > n W 1.:.1.n @.+.! o.o.! ! ~ <X3X<X%.cXBXBXBXBXBXVXVXLXLXLXLXLXLXLXLXLXIXVXIXIXLXLXLXLXLXLXLXIXVXBXBXBXBXBXMXnXcXO.O.O.O.X.X.a a a a a X.X.-Xg.=.=.y.E c , i w i P } (.}.G.f.z 2 @ X O X - p s d i ;     . X   X X                 + $ < < < < < : < : : : < < 4 J L L K J y u e $ ",
"vX%.O.O.O.O.cXcXvXvXvXvXUXZXUXvXNXbXbXbXMXMXMXMXMXMXMXMXMXMXBXBXBXMXMXMXMXMXBXBXBXBXBXBXBXBXBXMXMXMXMXNXNXNXNXNXNXMXMXMXnXnXcXcXvXZXFXZX%.$.ZX>X$.>X>X>X>X@.$.CXCXjXjXjXjXsX$.4X4X+.|  .) Y !./.' T A.L.K.F.*X*X*XH.F.hXtXJ.yXyXhXhXyXhXhXhXgXl T Z x x Z Z A A A }.x.z.XXXX+X{.r.F.N.S./.`.:X`.gXhXgXrX&XfX1XA.y.f.f.f.f.f.f.K.f.~.~.f.s.s.s.u.<.,.C 9.fXQ.F j Z J.{.'.G.w.h 3 R Q.B.H.L.' + . F t.t.F 3 2 j n K W K W K n c j 3 g h z N m N ~ -X| J , @ : : : : > r 1 3 v I T I I W W z K.9X0X%X&XeX%XU.T F F F } @.;X>X@.@.@.;X@.! 8 j I U h 3 2 3 x Z A x j b 6 2 j k 3 2 3 h z B V S N 3 4 c j 2 2 : + + . . . . . . . . . . . . + @ @ : : : > 4 > > < < , < , , , , , < < < < < 7 7 7 9 9 9 9 9 9 7 7 < < < < < < < 7 7 7 9 9 9 7 7 7 7 7 7 7 7 7 7 7 7 7 < < < < 7 7 7 , 8 8 8 w q q q q q q 8 q 8 q 1 q 1 1 , & % % $ $ @ @ % 1 1 : @ @ 1 1 % % % % % % . .             + @ 6 n n 6 b J , @ @ 3 m V B z @                   . . > Z V 1.C Z +   ;     @ g z M C S x > +         .       . .     @ k S 1.1.=.h 2 , , 0 > > h V ;.2.1.l @         .             o o o o o   + 6 S 1.1.3.1.g p p p p f w ! d.3X<X<X%.nXBXBXBXBXBXVXPXLXLXLXLXLXLXLXLXLXLXLXLXLXLXLXLXLXLXLXLXLXVXVXBXBXBXBXMXnXcXO.O.O.X.X.a a a a a a X.X.~ d.d.d.~./.} `  . . ./.`._.*X*X~.W 5 +   - d ! ! d -       . =                         # , < < < : : : , : : : @ : 4 b K K J D y u e , ",
"vXvXO.O.O.cXcXcXvXvXvXvXZXZXZXmXNXnXbXNXNXNXNXNXMXMXMXnXnXMXMXMXMXnXnXMXMXMXMXMXMXMXMXBXBXBXMXMXMXMXNXNXNXNXNXNXNXMXMXnXnXnXcXcX%.ZXIXZX%.+.$.ZXZX$.$.$.$.%.$.CXAXSXjX:XjXsX#.4X4X+.|  ._ Y } /.' I Z.`.&Xe.*X=X&XE.F.hXtX[.yXyXyXyX0XtXtXhXhXN t.Z x x Z Z N A C }.x.i.XX XXX].,.e.T ' } Y Y I `.gXfX(.^.^.:X:X:X1X1X1X1X1X1X1X~.~.~.f.y.y.y.s.A M N Z Z k c v I F.{.'.'.p.x 3 K Q.B.F.L.Z.+ . v E !.W 5 2 5 c ~ W W W K n c k j k h z M m N W !.| L < @ : : : : > q 1 2 v I T I Y W W m F.OX0X[.[.OXtXyXrXU.N.c j K ~ ~ | @.-X~ K r : j W U l 3 2 2 k U t.W k c 2 2 3 j 5 3 3 h m V V S l > > c 5 2 2 > @ + + + + # # . . . .     . . + @ @ @ : 4 4 < @ @ , , , , , , , , , , , , < < < < 7 8 8 8 8 8 8 7 , , , , , , , , , , < < < < < < < 8 , , 1 , , , , , , , , , $ $ $ $ & & 1 1 1 1 q 1 q q q & 1 = 1 = q = 1 = & % % $ $ $ @ @ @ @ @ @ @ @ + + . X O X . .             + : g n n g 2 > + . @ 2 M &.V m @               O     . 2 Z &.*.<.U 7 ; ;   # > x C C =.1.x @ .         . .     . .     @ v 1.7.3.:.g @ .   @ @ : h &.2.7.-.l :         .             o o o o o . @ g S g.3.4.7.n w f d X.f p @.3X3X<X>X%.nXBXBXBXBXBXVXLXLXLXLXLXLXLXLXLXLXLXLXLXLXLXLXLXLXLXLXLXPXVXVXBXBXBXBXMXnXcXO.O.X.X.X.a a a a a a X.+.@.<X:X:XpX7X/. .dXdXdXpX`.(.E.).Q.v : $ d +.+.! & #       X . .                         $ , < > : : : , , : @ @ @ : < b K b c c 0 e 8 1 ",
"vXvXvXcXcXcXcXcXvXvXmXZXZXZXZXmXNXvXvXvXmXNXNXNXNXNXNXnXnXnXnXnXnXnXbXnXMXMXMXMXMXMXMXMXMXMXMXMXMXMXNXNXNXNXNXNXNXNXNXNXnXnXcXcX%.mXIXZX$.+.%.ZXZX$.$.$.$.%.%.>XsXlXjX`.jXsXaXaX4X+.|  .' Y ' /.' I T :XfXA #XgX&XJ.J.hXtXJ.OXOXOX0XOXOXJ.tXgXU A.I x v Z N z N C #Xa.6.oX|..X'.>.U I } } c 2 3 c Y c > > : 2 k g h l l h h h h z l l h g h l l N l l h 3 2 k v Z P.{.].'.p.Z 5 K !.B.F.L.Z.+ . j E !.R j 2 5 k K K v v v k k g k x l z M m N W !.| ! 7 @ @ : : : > q 1 2 c I _ T T W S m J.0X0X{.{.@X@X0XwXyXhXE.I g 3 2 3 2 3 k 5 : : k W A h 3 2 2 k U A.E c 3 2 2 3 j c c v h m V V S h : @ > 2 3 b r : + + + $ & & # . . O       . . + @ @ < 6 0 < @ @ @ , @ @ + + + + @ @ , , , , , , , , , , , , , $ $ $ @ @ @ , , , , : , , , , 1 , , , @ @ @ @ @ @ + + + + + + + + + + # # # $ @ % @ @ @ $ @ @ + + + + $ $ @ + + + + + + + + @ @ @ : : @ @ + . .       . .             @ > k n S l 2 : + . @ 3 M 1.V m :                     . 2 S *.-.<.9.y t t t 8 3 9.0.<.<.1.l @           . .     . o     , Z :.4.3.:.h @ .   + + : x *.3.7.:.z >         .           o o o o o o . @ k W g.3.4.7.n = f a a a p @.3X3X<X-XO.nXBXBXBXBXBXVXLXLXLXLXLXLXLXLXLXPXIXIXLXLXLXLXLXLXLXLXPXVXVXBXBXBXBXBXMXcXcXcXO.X.X.a a a a a a a X.O.@.,XjXsXpX7X/./. .;XpXpX:X`.^.`.!.j 7 ! %.%.d # .           . .                         $ 8 < < < : , , : @ @ @ : < 6 b b b k c 4 9 7 , ",
"vXvXvXcXcXcXcXcXcXvXmXmXmXZXZXmXmXvXvXvXvXvXmXmXNXNXNXNXnXnXbXnXnXcXcXnXnXMXMXMXMXMXMXMXMXMXMXMXMXNXNXNXNXNXNXNXNXNXNXnXNXNXcXcX%.$.ZXIXZX%.+.vXmXvX$.%.%.%.%.$.aXjXfX^.jXAXCX$.aX#.|  .' Y ' /.' Y Y `.fXA *XgXhX*X*XkXhXOX0X0X0X0X0XOXG.OXhXr.A.I x v S N z N B P.a.6.oXn.|.'.,.Z x E } 5 : > : : @ @ : : : : 2 g h h h g h h h h h h h h h k g g 3 h K n g 3 Z P.'.].'.p.d.n K Z.B.F.K.Z.. . 2 I !.~ c 2 2 j j g g g g 3 3 g k x z z M m m W !.@.! 7 @ @ @ : : 1 r 1 > c I _ _ T Z Z m P.0XwX.X.X@X0XwXwXwXyXrXZ g g g h h k g 3 > 2 v W A h 2 3 j k U t.W j 2 3 3 j c c K K h m V V S h @ @ @ > b b r : @ + @ , 8 8 & O o O o       . + @ @ < e J 0 , + + + + . . . . + + + @ @ @ @ @ @ @ @ + # # # + + + + + + @ , 1 , : , @ @ @ @ @ @ @ @ @ + + + + + . . . . . . . . . . . . + + + @ @ @ + + + + + + + + + + + + + + + + + + @ , < 4 6 e : : @ + . .     . .           . @ 2 l S S N h > @ + @ g B 1.&.m : .             o     . 0 t.5.5.5.e.D t i G ` E s.s.s.s.d.x @ X       X . . . O o o     : Z 3.4.3.:.h @ X o * + > Z 1.3.7.:.h :     o o .         o o o * * * o + @ g 1.7.4.4.6.W # f a f a o.@.3X3X3X@.O.nXBXBXBXBXBXVXPXLXLXLXLXLXLXLXPXVXVXVXVXIXLXLXLXLXLXIXVXBXBXBXBXBXBXBXnXcXcXO.O.X.X.a a a a a a a X.O.! ;XsXdXdX7XdXpXpXsX:X!.R D 0 9 c c | +.d ;   % .         o = = .   . . .               $ 8 < < < , : , @ @ @ @ @ @ > 5 5 3 3 3 4 9 < @ ",
"%.vXvXcXO.cXcXO.cXcXvXvXvXmXNXmXvXvXvXvXvXvXmXmXvXmXNXNXnXnXnXnXnXcXcXcXbXnXnXnXNXMXMXMXMXMXMXMXMXNXNXNXNXNXNXNXNXNXNXnXnXNXcXcXO.%.ZXZXZX$.+.$.mXmXvX$.%.%.%.$.>XsXpXQ.jXjXsX#.aX#.|  .' Y ' /.' R Y (.fXZ *XgXrXH.Y.tXtXOXtXyXyX0X0X0X[.tXhXB.t.Z l x S N N Z N ~.u.5.oXc.|.].,.z 3 K | 4 : : > @ > ` !.-X-Xk h l z z z z N M M B N S A Z N z Z S z E ,X,XW l z P.'.].'.p.!.S v E B.B.D.} . + : F } ~ k 2 3 j 3 3 3 3 3 g k k h x z z m m m W ~ @.! 7 @ @ @ 1 @ > q 1 > j I _ _ T Z Z N J.0X0X.X.X@X@X0XwXwXyXOXZ Z Z x x h l h n k g Z 9.Z h 2 k v x Z T I j 5 j n k c b K K g z M C N g @ @ : 3 n b > @ @ @ @ , 7 8 $ X o O o         . + @ , e ! u , @ + . . . . . . . + + + + + + + + + + . . . . . . . . . + @ 1 , < < 1 @ + @ @ @ @ + + + + + + . . .           o o       . . + + @ @ + + + + + + + + + + + + + + + + @ @ < 9 c J J K K 2 > : + .                     . @ 3 z N M M l 2 @ + @ g B =.=.m : .             o   X $ K !.s.a.a.H.) ( ( ( ] N.p.p.u.w.y.k +         X + + X X   o     < Z :.2.3.:.h : .     + j A :.;.;.V 3 +   o o o         o o o o * * * o + @ g 1.s.5.4.5.~     ; ; a ! -X3X3X-X@.O.nXBXBXBXBXBXVXIXLXLXLXLXLXLXLXVXVXBXBXBXVXVXPXLXPXVXVXBXBXBXBXBXBXBXBXnXcXO.O.O.X.X.a a a a a a a X.O.! @.;X| ` ( `  . .} K 5 > > 7 7 < 0 ! i ; - X   w - - - - - q = % # X X .       X     . , 8 4 > , , , , , @ @ @ : : 2 5 j 3 g j 2 4 2 : ",
"O.%.vXvXcXO.cXcXcXcXvXvXcXcXNXNXmXmXmXvXvXvXvXvXvXmXmXmXmXcXnXnXcXcXcXcXcXmXmXnXNXnXnXMXMXMXMXMXNXNXNXNXmXNXNXNXNXNXnXnXnXmXvXcXcXO.CXSXCXCX%.%.vXvXvX$.%.%.%.%.>XsX:X:X:XjXpX/.dX| `  ./.F ' /.} E I `.fXN *XgX*XA F.tXtXOXtXyXyXwX0X[.OXyXhXE.r.N z S N Z z Z A ~.p.u.$X|..X}.F.h 2 K | K : : : j U *XgXhXlXZ M B C B B V -.2.2.;.:.7.7.:.:.:.-.g.C !.KXKXZ.l m r.}.}.'.a.s.y.9.I V.S.S.` @ + @ c | ~ g 3 g 3 g g g g g g g k l g N N z z l W ~ @.~ 0 + + % % : : @ : > 5 R ) _ T I Z m P.tX0X{.{.@X0X0XwXyXyXJ.N N U U I v Z v l h x T e.x l g g v k h v 3 5 5 c J 0 6 b b c 2 k W E W 3 : : 3 l n n r @ + @ < 0 0 , @ $ % o             . + + w s s w , + + .     . .     # . + + . . + + . # O .   . . . + + + @ @ , 8 8 8 q + + @ : : @ + . + + + . . o o o o o o * * * o   . + @ @ + + + @ + . . O . + @ : + . . X . + : 2 2 F } } ' E W z l k + X   X         o o o o . @ : l S 1.C m 3 > : 3 Z y.f.y.Z 3 +         o o     + 0 E Q.P.P.E.U.I.V.[ V.V.B.F.p.p.r.Z g > 7 8 8 8 8 w w & .       . > x C :.:.,.m 3 > @ + : B *.:.:.C l > @   o * * * * O O o o o * f * o * . @ 3 Z >.:.<.0.R & i d & u -X;X<X:X>X%.O.nXBXBXBXBXBXVXIXLXLXLXLXLXLXIXVXBXBXBXBXBXVXVXVXVXBXBXBXBXBXBXBXBXBXBXnXO.O.O.O.X.a a a f f a a f a X.w b b 0 , , , : : @ : : : < 7 e 8 8 - - - - - - p p p p p w w w w w & O O % o       . + : < 5 0 < , , , : : : @ + @ | | F v h x g n n 2 ",
"%.%.%.%.O.O.cXcXcXcXcXcXcXcXcXnXNXmXmXmXmXvXvXvXvXmXmXmXmXvXcXcXcXcXcXcXcXvXvXcXnXcXcXbXnXnXMXMXNXNXmXmXmXmXNXmXNXNXnXcXvXmXvXcXcXO.>XAXjX,X%.O.%.vXvXvX%.%.%.@.,XsX:X!.Q.pXpXpX;X .| | | F ' /.!.E F Q.1Xz *XgXtXF.OXtXyXOXOXtXyX0X0XOXOXtXgX*Xr.N N S N N z Z Z d.u.u.$X.XXXoX}.z 2 b @.;XL K !.`.*XtXtXtXgXC V V V V B &.2.4.4.3.2.7.6.2.;.;.;.7.&.y.DXKXe.l z <.G.'.'.a.u.q.8.U ^.^.} L @ + @ 0 | ~ k 3 h g g g g g g h h l l l z m N m z S ~ @.| u @ + % % : : @ : : 5 R ) T T U Z z J.tX0X@X{.@X0X0XwXwXyXF.N C U U U I I W l h l T e.l g k k v v j k 2 3 5 c 0 < : < 6 6 2 j R } E c > > g m N n r @ + @ 7 0 0 < : , %             . .   . & i s u < : + .     . .   . # . + + . . + + . .     . . + + + + + @ @ < 8 8 , q @ @ : 4 6 < : $ @ + + + . o o       o * * * o % + + + @ @ @ 1 @ +     o . + @ 1 @ .       . : 3 h W !.' Y v l M M n : X   X         . O O o . % : l S V &.B l c F T K.P.P.y.t.3 +         o       + 5 Y A.R.E.W.W.W.W.W.W.E.E.P.P.P.K.T v F L P P u u u u 8 &       + 2 Z 9.w.w.r.9.Z I F D F <.5.5.<.Z g : +   o o o o o     O o o * * * o * + @ 3 W y.0.q.y.!.{  .;X;X;XsXpXjXsXZX4XO.nXBXBXBXBXBXVXVXIXLXLXLXLXIXVXVXBXBXBXBXBXBXBXBXBXBXBXBXBXBXBXBXBXBXMXcXO.O.O.X.X.a f f f f f f f a a w e b e 1 1 1 : 1 1 1 1 1 1 r w # X & & & & & & X X % # + . . .               O   . % @ > 6 6 > < , , , < : : @ + ! sXsX;XE j v v K ~ > ",
"vXvXvXvXvXcXcXcXcXcXcXcXcXcXcXcXnXmXmXmXvXvXmXZXmXmXmXmXmXmXcXcXNXNXvXcXO.vXvXvXmXcXcXnXMXMXMXMXNXNXmXvXvXmXmXmXNXmXmXcXvXvXvXcXcXO.%.sXCX>X%.O.%.vXvXvX$.%.%.@.>XsXjX:X/.`.pXpX/. .] ` ' H S.Q.!.E v !.:Xx ).gXtXJ.tXtXhXtXOXhXtX@X{.[.J.Y.OX&Xr.Z Z N N Z x Z Z y.w.u.oXXX+XoX*XA.!.-X;X>X| } /.1X=XtX@XtX=XC B V V V B &.2.4.3.2.2.7.4.2.-.;.2.2.&.9.kXKXA.m M <.a.'.x.x.i.q.9.e.`.`.} L + + @ 0 ~ ~ k g h h h h g h h l l z l Z N m N m x x ~ -X| J @ + % @ , : @ : : 4 R E T T U Z l E.tX0X@X{.{.0X0XwXwX0Xr.N A 9.U T T I Z h h x T T l g k x Z v 3 3 2 2 0 c 0 @ + @ : > > 5 K E } R c 3 l M x k > + + @ 9 y 0 < , , % .     O     . . . . . & u u 9 < , .       O . . . . + + . . + + .       + q w 8 , @ @ @ , 7 8 , @ @ @ : 6 J L ! ! 9 : @ , @ +   X     . O % = % + . @ @ @ @ : < : @ @ .   o X + @ @ @ . X     + > g h v I D 0 3 g V V S > .             . . .     + : h N V =.=.C T S.`.).K.w.>.U 3 @             o   . : v E A.D.C.C.C.C.C.R.)._.P.E.).A.I c D L J J u u u e 8 $ .   . @ 3 W s.P.P.P.r.e.Z.Q.' S.#X#X#Xf.y.h > + + . o o X   . . .     . * O O . + : k E ~.~.#X*X/.|  .dXsXsXpX:XjXsXCX4XO.nXBXBXBXBXBXBXBXBXMXMXnXnXMXMXBXBXBXBXBXBXBXBXMXMXBXBXBXBXMXMXMXMXnXnXcXO.O.O.O.O.O.X.a X.+.+.%.vXmXvXq e e r 1 1 1 1 1 1 1 1 1 1 1 % .         . . .       .         #     X ; o     d +.+.e : > 3 3 4 < < < > < : @ @ +.SXSXsX;X` ;X;X;X,X@ ",
"vXvXvXUXvXvXcXO.cXcXcXcXcXcXcXcXcXvXmXvXvXvXvXmXmXmXmXmXNXmXcXcXNXmXvXvXvXmXmXcXcXcXcXcXnXnXMXMXNXmXvXcXcXmXmXmXmXmXvXcXvXvXvXcXcXO.+.>XCXCX%.%.%.vXvXvX$.%.%.#.-XpXjXjXpXpXpXpX/. .) ) S.Y Z.Q.S.' F Q.:XZ K.&XrXOXtXhXzXhXJ.tXtX@XOXOXOXOX%XgXe.A U N N x x Z Z 9.0.u..X+X+XoX#XK.<X~ L ;X@.;X`.&X*X@X@XtX*XM V V V V B &.2.4.3.2.;.7.4.2.-.-.2.2.&.>.kXKX~.=.<.u.a.'.x.x.a.q.8.e.(.^.' L + + @ 4 ~ ~ n h l l l l l l l z m m z d.W N m l N Z ~ !.@.J @ + @ : : : @ : : 4 R E T T U Z l E.yX0X@X{.{.OX0X0X0X0Xr.A 9.9.9.e.T W x h x U e.T h g h n Z v 3 2 2 2 c D 0 : + @ : > > 2 j F R ~ K v z S x 3 > + + @ 0 D c 4 : 1 % .         . . . + . . + e u 0 4 7 .       . . . . . . . . . . + . . . . = p s e 1 : : @ , 7 7 , @ @ : > 0 L | | | c 2 : > < @     X X + # = = = @ + 7 J D J c 5 : : @ .     . + + + .       . @ 2 h h 3 3 < < 2 h =.*.M > .             . .       . @ g N ,.y.w.w.e.D.(.K.8.C Z I c @       X .   O   . @ 3 v I I I T N.D.D.D.N.e.r.r.r.U x 2 2 0 < < < < < < : @ . . + : k E ~.#XP.P.r.e.C.^.I.R.P.}.P.K.t.k > @ @ + + + + @ @ @ @ + + # % % % % : > c E ~.`.*X).`././.pXsXsXsX,X,XsXCXvXO.nXMXMXBXBXBXBXBXBXBXBXBXMXMXMXBXBXBXBXBXBXBXBXBXMXMXMXBXMXMXMXMXMXnXnXnXvX%.%.O.O.O.X.X.+.+.+.+.$.$.$.% r e r 1 1 1 1 : : : : @ @ + + .               . . . . . . . . . . .     - %.ZXZX$.! 1 > b j > 4 2 > 2 4 > : @ . d aXZXZXCXaXSXFXFXJX+ ",
"vXvXvXZXZXvXcXX.cXcXcXcXcXcXcXcXvXvXmXmXmXvXvXmXmXmXmXmXNXmXO.cXcXcXvXvXmXmXmXvXcXcXcXcXcXbXnXbXcXcXcXO.O.vXmXmXmXmXvXvXvXvXvXvXcXO.O.$.CXCX>X$.vXvXvX$.$.%.%.$.>XsXjXfXpXpXpXpXpX' H ) /.Y _ Q.S.' F Q.:XI A.&X*XY.%XOXhXhXH.*X*X*X*X*XrX%X%XhXe.U E z Z z N Z Z U 0.u.].@XoXoX}.9.x > 5 | | } Q.*X@X@X@XtX*XM V &.V V B &.2.4.4.2.;.7.4.2.-.;.3.2.*.=.kXKX*X<.s.s.a.a.x.a.a.u.0.9.D.V.) L @ + @ > K ~ n h z z n n n x m M B M y.!.W m z l N N W !.!.K : @ : : : : : > : 2 R Y Y T T Z z OXyX0X@X{.[.OX0X0X0X9XF.9.9.e.e.e.T I Z g x U N.T h g h n v v 3 2 2 2 c c 0 : @ @ : : 2 > 2 j K ~ } ~ Z S n 2 : + + , u J c 4 : 1 % . .   . w q + + @ + + + , 9 9 9 9 .         . . . . . . . + + + + + . + 1 e e w : < : : < 9 7 , @ 2 3 2 < 9 y c 5 j 3 2 3 9 , X X . . + + @ : @ @ < J ` | | ~ v 2 : : +       . + . . X X . + > 3 z l h k P J 5 l &.:.=.h 7 t           .           + 2 N f.~.~.K.~.Q.A.9.N m Z I J ,         +   o   . @ 2 k k h v v I T T I v x Z Z Z x g 2 2 > > > > > 2 2 2 > @ : : 2 x E A.K.P.E.H.C.R.(.I.D.p.s.s.s.U k > @ : : , , < < 4 9 9 0 9 0 e e w w 1 4 b ~ <X:X`.).`.:X/.;X:X;X!.!.-X>X>X$.O.cXbXnXnXMXMXMXMXMXMXMXMXMXMXMXMXMXMXMXMXMXMXMXMXMXMXnXnXnXnXnXnXcXcXcXcXO.O.O.X.X.o.p o.o.o.! ! ! d s @ 1 r 1 1 1 1 , @ @ @ @ @ + + + + . . . . . . . . . . . . . . . . + .   X +.$.ZX$.! + + > 0 5 3 5 4 2 2 2 > : @ X X / 4XaXZXZXFXJXFXLX  ",
"cXvXvXUXZXUXvXO.O.cXcXcXcXcXvXvXvXvXmXmXmXmXmXmXmXmXmXmXmXcXO.O.cXvXvXmXmXmXmXvXvXcXcXcXcXcXcXcXcXcXcXO.O.O.mXmXmXmXvXO.vXvXvXvXcXO.O.%.ZXCXCX>X%.%.%.$.#.@.$.$.>X:XpXpXpXpXpXpXpX} H ` /.Y T D.^.S.F S.`.U B.&XrX%XOXOXtXgXr.F.#X*XE.P.E.L.%XkXT U t.l Z z N Z Z A 0.p.x.oXoXoX#X8.h > > K J c U J.@X@X@XtX#XC V &.V B B &.2.4.4.2.;.7.7.3.;.;.2.;.*.C kXzX*X5.i.i.i.i.i.a.a.s.w.9.B._ Y L , + + @ K ~ S h x n n n n n N B V V <Xd.N z m m N z W !.!.K > : : : : : : 1 : 2 R E T T T U N OXyX0X0X@X[.OXwXwX0X0XOXw.w.r.e.e.T U I 3 l U e.U h g h n v v j 3 j 3 5 c 0 < @ @ : : 6 2 2 2 c K } } W W k > @ + + , D J c 4 < 1 % + + . 1 ! ! e @ @ @ @ @ : < 9 0 9 . O O     . . . . . + @ $ @ + $ + + + @ 1 1 : @ > > 4 9 9 9 < 2 h l j < , 7 > > h h h j 0 7 & & 8 , 7 7 9 4 > > 5 c L ` ~ K v h g b u &   X 8 8 y y y i y y c l B M l b ! s 6 h &.:.<.Z L { O         .           + 2 Z ~.#X~.s.Q.t.U Z m z Z K J $         + .     . @ 6 k k g k g 3 2 2 2 3 g g g h g 3 3 3 2 6 6 2 3 3 3 g 3 6 6 2 3 x U e.e.B.H.H.H.R.I.N.T 9.8.y.t.W k 3 2 0 0 0 b b D F K F K K K ! ! ! u 8 6 b R !.!.A.t.Q.Q././.!.} ~ ~ | -X>X$.O.O.cXcXcXcXbXbXcXcXcXcXcXcXcXcXcXcXcXcXbXcXcXcXcXcXcXcXcXO.O.O.O.O.X.X.X.X.X.X.d d o.s p q q w w 1 1 q 1 1 1 1 1 1 1 : @ : : , , @ @ @ @ @ @ + + + + + + + + + + + + + # + . . p +.d % % . + 1 > : 2 k 5 3 3 2 3 6 : @ &   ; / ..4XZXZXFXIXPX  ",
"O.cXvXvXZXZXvXO.O.O.cXcXO.vXvXvXvXvXcXvXmXmXmXmXmXmXmXmXvXO.O.O.O.vXmXZXZXmXvXO.vXcXcXcXcXcXcXcXcXcXcXO.O.O.vXmXNXmXcXO.vXvX%.%.O.O.O.%.$.CXSX>X%.%.+.%.@.@.$.$.| | /./.pXpXpXpXpX/.` ' /.Y T S.^.S.F S.`.T e.&XgXhXhXhXzXkXr.Z Z A N l x x B.kXU T Z.h Z l N N Z Z 8.p.i.oXoXoX=XP.Z 2 : > L } A.OX=X+X@X@X[.V V &.V B B &.2.4.4.2.;.7.7.3.;.;.2.;.-.C kXkX#X<.5.i.i.i.a.a.a.s.p.w.B.T Y R , + + @ b ~ n h l k n n n n N B &.&.1XS l z m N m z W !.!.R c 2 > : : : : 1 : > R Y T T U U N [.tX0X0X@X[.OXwXwX0X0X*Xr.8.r.e.e.e.T Z g I B.N.Z g h h n k k k j c 5 5 c b < @ : : : 6 5 5 2 2 c K R ~ W n : + + . , u D c 4 < < 1 + + : 7 J ! ! e @ @ > 4 > 9 c c 9 . = - X . . . + . . + 8 w 8 8 8 , @ @ @ : : : : > 4 0 0 c c D v m S k < , 8 5 3 z m z h 5 y i y y D y D J b k g g 3 5 c c g h z Z ~ ~ u # & i P ( ( ( ( ( R W Z =.V l 2 = % : l *.2.<.>.~ #.O       . .           . > x d.f.9.A z l l l x Z K L 8 .         . .     . % r r k g 3 3 g g j k k x x x v g 3 3 3 3 3 3 5 3 g g g g k k 3 3 k I T T I T e.e.N.T v k g h l x v j c J J J J K K K W R F K ~ L ~ ~ ! b e e 0 c c c g 3 h k v K K ! ~ ~ @.-X$.%.O.O.cXcXcXcXcXbXcXcXcXcXbXbXbXbXbXcXcXcXcXcXcXcXcXcXcXcXcXcXO.O.O.O.O.X.X.d X.d p s s w Q p r r r 1 1 1 1 r r 6 r r r : 1 1 1 : 1 1 1 1 1 % % @ @ @ @ @ % % @ # # # # $ + $ $ . . % % . . . + 1 e 6 2 2 5 3 3 3 6 6 > $ &       ; / %.ZXZXIXPX  ",
"O.cXvXvXZXZXvXX.O.O.O.O.O.vXvXvXvXcXO.O.vXvXmXmXmXNXmXmXvXO.O.O.O.O.vXmXZXZXvX%.vXvXcXcXnXnXcXcXcXcXcXO.O.O.vXNXNXmXcXO.cX%.%.%.O.O.O.O.%.ZXFX>X%.+.+.+.@.@.$.$.#.#. . ././././.;X;X| } /.Y _ S.S.] F Q.:XT T (.rXgXrXgXkXkXE.B.y.~.y.U U l e.kXU T A.h Z l N N x Z 9.p.u.oXoXoX=X#X9.Z 3 : L } L.[..X+X+X=XG.B V &.V B B &.2.4.4.;.-.7.7.3.-.;.3.2.;.=.zXzX#X:.6.i.i.x.a.a.i.s.p.r.P.N.T ` , + + + b ~ K g g k 6 6 k k m B *.*.2XN l m z m m N W !./.} v j 3 : : : : 1 : > R R _ T U U N J.0X0X0XOX[.OXwXwXwXwXtXr.8.r.r.e.e.t.h x D.&XB.x 3 h h x g k n k K 5 c K b < @ , 1 : > 5 j 2 : > 4 c ~ ~ b : + . . , D D c 2 > 7 1 + @ 2 4 4 J ! J : : 2 c 5 5 D D 7 + - w & . . + + + + $ e u 8 8 0 7 1 > : : : > > > 4 c b D D L ~ M S n < $ 8 5 3 m C N h 4 D P y G G G G K K x h h 3 2 5 5 3 l C N ~ ~ y . # y L G ( ( ( ) ' U B *.=.z > .   @ l -.3.:.C L #.O       . .           . : g Z A z l x x x v v c 4 @ +     o     .         + 1 r 6 6 g g g g v v W ~ ~ !.~ K j 2 5 5 3 6 g g h h l x g g 3 3 j I E ' ' S.S.Z.Z.' I I Z v x k 3 2 4 b b b b c v v v v v K K K K ! J r 1 6 e b K K K v n n b J ! ! +.! @.@.+.%.O.O.O.cXcXcXcXcXcXcXcXcXcXcXcXcXcXcXcXcXcXcXcXcXcXcXO.O.O.O.O.O.O.X.X.X.d d d s p s s p p p r r r r r r r r r r r r r > 1 1 1 1 : : : : : : : @ @ @ @ @ @ + + + + + + + + @ @ + + . . . . @ w 6 > > 5 c 5 5 3 3 3 6 1 @   ;         t %.4XZXIX  ",
"O.O.vXmXZXZXvXX.X.O.O.O.%.%.vXvXvXcXX.X.O.O.vXmXmXmXNXmXmXO.O.O.vXO.%.ZXZXvXmX%.O.vXvXvXmXNXNXNXNXvXcXO.X.O.vXmXNXmXcXO.O.O.%.vXvXO.vXcX%.>XFXaX$.X.+.%.@.>X$.$.$.#.#.| |  . . . .#. . ./.` Y S.^._ Y _ (.Q.Z A.L.eXU B.rXkXrXK.A.t.t.t.U x e.kXT T Q.h x x z S Z N w.s.<.}.$X$X=X#Xr.T k 2 L } ).=X.X+X@X@Xq.=.V V V B B &.2.4.2.;.-.:.7.5.;.*.3.2.-.,.KXzX}.3.6.6.i.i.i.i.i.i.p.p.F.B.T R u . + . , ~ K j > : : : : 2 l M &.f.2XN l m m M N m W !.!.E Z W v 2 > @ 1 : : 2 c ' T Z.U U A [.0X0X0X0XOXOX0XwXwXwXtXr.8.r.9.e.e.U x 2 fXrXC.x h h h v k j n n c c c c J < @ @ 1 @ 6 b c 2 > > : > c b 6 @ . . + 7 J c c 5 4 < @ @ > 2 > : 4 0 > > > 5 n c c c D y + 8 w # + 8 u e u @ + 0 y y y 9 7 < > > > > : : > 2 c c c D D W B S n < @ + > h S C m g 4 D P y D G G H F v N m z k K K c h M C S ~ ~ D $ 8 D G H H ( H H T U ,.:.*.N 2 .   : x :.3.-.B R @.        . + .           @ 3 l m x l v n c j 2 : + .   o o o o             . + @ : 2 3 2 3 n K v K ~ ~ ~ K n 5 2 2 3 3 3 g g g h h h h 3 3 3 k K ~ } } E R R R R W W v K K c 5 > > > > 4 j j j 3 g k k k k 5 5 e e 1 1 1 r e e J J Q Q Q ! ! s d d ! o.o.X.X.O.O.O.O.O.O.O.cXcXcXcXcXcXcXcXcXcXcXcXcXcXcXcXcXcXcXO.O.O.O.X.X.X.X.X.d d p s p p p p p p p p r r r r r r r r r 6 6 6 6 > > > 1 1 1 : : 1 1 1 1 : : @ @ @ @ @ @ @ @ + + @ @ + + + . . . . @ 1 e 6 6 5 5 4 4 4 2 3 6 6 1 @           X ; / 4XZX; ",
"X.O.vXZXZXZXvXX.O.O.X.O.vXvXvXvXZXvXO.O.X.O.O.cXvXmXNXmXmXO.%.O.%.O.+.ZXZXZXZX%.O.O.vXvXmXmXNXmXNXvXcXcXO.O.vXvXmXvXcXcXvXO.%.%.vXO.vXvXvX$.CXCX$.o.+.%.@.$.$.$.$.$.$.#.#.#.#.#.|  .{ { | ' Y S.^._ Y _ Q.Q.Z A.).%Xx U %XhXrXK.t.t.t.E U v e.kXT e.D.h x x z S Z N 9.p.<.}.$XoX=X}.s.e.x 5 L } ).=X.X+X+X@X0.C V V V B V &.2.4.3.;.:.:.3.5.:.-.3.2.-.=.DXkX}.2.6.6.i.i.a.u.u.u.u.p.F.B._ R u . . . + ~ K 5 : @ @ % = : l M &.f.1XN z M m M N N t.!.Q.t.W W Z g > + 1 : : 2 c ' T Z.U U 9.[.0X0XwX0XOXOX0XwXwXwXtXr.8.r.9.e.e.U x 3 gXyXL.x g g h v v j k c c c c c D 4 @ : 1 @ 4 b c 5 5 2 : : 2 5 > + . . + 7 K c c 5 4 < : @ 3 k 3 > 4 4 > > 2 j v v c c D y + 8 8 + + u ! ! e : : 0 D D D y 9 4 4 2 2 > > : 2 3 5 c c D D v B S n : . + > h S C z 3 4 y G y D D G G F Z N M m l b b 5 h B =.C d.} K 9 y G H H H ) H Y T 9.,.5.-.m 3 @ . : g *.2.*.N R |       . + + +           @ 2 h x x k 3 3 2 : @ +     o o o o o             . . + @ 2 n g h n n v c v k k k j 3 2 2 2 2 2 3 g h h l h g 3 3 3 5 c b K b b k k c n b k c b b b 6 2 4 6 2 2 5 5 3 3 3 3 2 2 3 2 2 4 1 1 q r e p s s Q Q ! o.o.d X.X.X.d d d X.X.X.O.O.O.O.O.O.O.O.cXcXcXcXcXcXcXcXO.O.O.O.cXcXO.O.O.O.O.O.O.X.X.X.X.d d d d d d s s s p p p p e e e r r r r r r 6 6 6 6 6 6 6 6 1 1 1 1 1 : : @ : , 1 1 @ @ @ @ @ + + + @ @ @ + + + . . + @ 7 0 6 5 5 5 4 4 4 4 5 6 6 7 @ .             t / 4X  ",
"X.O.$.UXZXZXvXa O.X.X.O.%.vXvXvXmXmXvXO.O.X.X.X.O.vXmXmXmXvXmXvX%.X.X.$.UXZXZXvXO.O.O.vXmXmXmXmXmXvXcXO.O.O.vXmXvXcXcXcXvX%.O.%.vXO.vXvXvX%.>XAX>X+.o.+.$.$.$.%.+.%.$.#.#.#.#.#.@.#.| | | } Y ' ^.V.T _ Q.(.Z N.&X&XZ Z E.hXgX).t.9.U U U Z t.lXN.N.A.x x x z S Z N 9.r.,.}.oXoX$X}.P.e.v c L } ).=XXXXX+X@X,.B V V V V V &.2.4.3.2.:.-.3.3.<.:.7.2.-.,.zXkX'.3.6.6.i.a.p.p.u.u.u.u.p.B.T R J +     . L R 0 @ + % O % @ h M *.f.<Xm z M M M B A t.!.~.Z.U U S x > + : : : 2 c E T Z.U U w.OX0X0XwXwX0X0XwXiXuXwXrXr.8.r.e.e.e.U x 3 rXyXD.h g g x v v j k c c c v v J 9 @ , 8 : < 0 c 5 c 0 > : : : @ . . . + 7 K c j 3 4 > 1 : g n k 2 < < > 2 3 k x x v c c 0 + 8 8 @ , e ! ! 0 > < D D G G y 0 0 5 5 5 2 > : 2 2 5 5 c D c v B 1.n : + @ 3 z S S l 2 < y G D D D G G F Z C C m g > : : g V &.C d.!.L D G H H Y Y ) Y Y T 9.=.5.:.C g @ + 2 Z :.2.=.A ` { .   . . + + + .       . @ > g h j 3 > : @ + .       o o o o o               . . @ 4 n x x S v k 3 5 3 j k n n k 3 2 g g k k l l l h 3 3 3 3 2 2 2 > > > > > > > 6 > > > 4 4 > > 4 6 r b b b j 5 5 5 j j b b b r e Q p p s s s ! ! ! o.o.X.X.X.X.X.X.a a a X.X.X.O.O.O.O.O.O.O.O.O.O.O.O.O.O.O.O.O.O.O.O.O.O.O.O.O.O.O.O.X.X.X.d o.o.d d d d d d d s p p p p p e e e r b r r r r r r r r r r r r r 1 1 : : : : 1 : , , , @ @ @ + + @ @ @ @ @ @ + + + + : 6 0 5 5 5 5 4 4 4 4 5 5 4 1 @ + .       .     t / O ",
"vX$.$.$.UXZX$.a X.X.X.X.X.O.%.vXvXvXmXvXO.O.O.O.O.O.O.%.vXmXIXZX%.X.X.+.%.vXvXvX%.O.O.O.mXmXmXmXmXvXO.O.O.O.vXmXvXvXcXO.O.O.%.$.vXvXvXvX%.+.@.CX,X@.o.+.%.$.$.%.+.+.+.+.+.#.$.$.@.#.@.|  .` Y ' ^.V.T T A.`.Z e.&XfXe.9.).hXhX%XA.e.e.U U Z T jXA.Z.Z.v x x x N Z N 9.w.,.}.oXoX$X'.P.r.Z F J R P.=XXXXX+X{.,.M V V B V C *.2.4.3.2.-.-.;.5.5.5.3.2.*.=.zXkX'.5.6.6.i.p.p.p.u.p.u.u.p.B.e.R J +     . L ` c + + O o * + k N :.M.~.z z N M M M A t.d.Q.A.U A A Z 2 + : : : 2 j E Z.Z.U A r.OX0X0X0X0X0X0XuXiXuXwX9Xr.9.r.e.e.e.U x g rX9XN.3 g h v v v k k c c F F v D 0 @ 1 e , < 0 9 5 c c 9 < @ @ . .     + 9 K v c 3 2 > 1 : 3 n k 2 : : > 5 g x N x v c 0 9 + 8 0 , , 4 4 4 5 > 4 D H G D D 0 c c c 5 2 > : 2 3 5 c c D D v M C x : + : h S S M g : 8 y D D D D G G F Z C =.M g : @ : h &.*.N d.!.L P L L H Y Y ) Y Y T U =.*.:.A h @ , F t.s.s.,.U ` { $ & & & , < < 1 & & # $ < 3 j k 5 0 e w $ +         o o * o                   . @ 9 n v x Z v k j j v k n n K b 3 2 j j k k k x h h k g g 5 3 2 > > > > > > > 6 r 6 : > > > > 2 2 6 b b b c b b j 6 b r r b e e e p s p s d d d d d d X.X.X.X.X.X.X.a a a X.X.X.X.O.X.X.X.O.O.O.O.O.O.O.O.O.O.O.O.O.O.O.O.O.O.X.X.X.X.X.X.d X.d d d d d d d d p p s p p p p w e e e r r r r r r r r r r r r r r r r 1 1 1 1 1 1 : @ , , @ @ , @ , , @ @ @ @ @ @ @ @ @ : 4 0 5 5 5 5 9 9 4 5 5 5 6 4 @ + . .   . .     ; t   ",
"CXCX>X-X$.vX%.O.X.O.O.O.X.X.+.%.vXmXmXvXO.O.O.O.O.O.O.O.%.ZXZXvX+.X.o.+.%.$.vXvX%.O.O.O.vXmXmXmXmXvX%.%.%.O.O.vXvXvXcXO.O.O.%.%.vXmXvXO.O.X.+.,X,X;Xo.+.%.$.$.%.%.%.+.+.+.$.aXaX#.+.! {  .` I N.^.S.T T Z.:Xv e.`.&XB.U E.gXhX).L.B.e.9.U I E 1XQ.Z.e.I x v x x Z Z 9.w.,.}.#X}.oXx.}.w.Z F J K K.=X.XXX+X{.=.M V V B B C &.2.4.3.2.;.*.-.5.5.5.2.;.*.,.DXkXG.5.6.i.u.p.p.r.u.p.u.u.p.r.e.R J .   . . L ` D + . O o o + k C :.#X~.m m B M M M A y.t.~.A.9.C A S 5 @ : : : > 5 Y Z.Z.U A F.OX0X0X9X9X9X0XwXuXuXwXOXe.9.r.e.N.e.U x g 6X6XN.3 g x v v v v c c D F F v K 0 @ , e , 7 0 4 4 c J c 0 @ @ .       + 9 L F c j 3 2 1 : 3 k k > @ @ : j h x N Z x c c 9 + 8 0 < < > : > 2 2 5 c F D D D 0 c D c 5 2 > > 3 c b c c c D v m C v : @ : h M B z 2 @ 8 y H F D D y D D Z =.1.S h : + : l 1.-.N } | P G ( H Y Y Y ) H Y Y U C &.=.=.Z H ) Z.A.#X~.9.I L { 9 y i u J L ! ! ! d d P J K K K J u u e & X         o o o o                   . , c K v Z Z v v c v v v v n v j 2 2 3 3 3 3 g k g g k g g 3 3 3 3 6 6 6 6 6 6 6 6 6 3 6 6 6 3 5 g j 3 3 2 6 6 6 4 > 1 : @ , 1 q 1 % q w w w w w w f f f f f f f f f a a a a a a X.X.X.X.X.X.X.X.X.X.X.X.X.X.X.X.X.X.X.X.X.X.X.X.a a a a a a a f p p f f f f f f f f = = = = = % 1 1 1 1 1 1 : : 1 1 1 1 1 1 1 @ @ @ @ @ @ @ @ @ @ @ , @ @ , 1 e w 1 @ @ : : : @ @ @ @ : 9 0 5 5 5 5 9 9 4 5 5 5 4 4 , $ # X X X .       ;   ",
">X,X,X,X>X$.%.O.X.O.vXvX$.%.+.+.$.vXmXvXO.O.O.O.O.X.O.O.%.ZXZX%.o.+.$.$.%.$.%.vXO.X.X.O.vXmXmXmX$.%.%.%.%.%.O.vXvXvXvXO.O.%.+.%.vXmXvX%.O.O.o.>X,X,X@.+.%.%.%.%.%.%.+.+.%.>XaX$.aX#.P L | ' I T ^.D.T T T 1XZ e.1X&Xr.A H.gXkXE.H.F.B.9.9.U E 1X`.Q.T U x x x x A N 9.w.=.}.#X}.oXx.G.w.Z F J F r.=X.XXX@X[.C M V B B B C =.2.3.3.3.:.*.-.5.5.<.-.-.*.,.DXkXG.5.6.i.u.p.r.r.r.u.u.u.p.p.e.R J .   . + J R K , . o o o + k C :.#X~.m m M B M M >.s.y.~.~.y.A A t.c @ : : : > 5 Y e.Z.9.A J.OX0X0X0X0X0XwXwXuXiXiXY.e.9.r.e.B.T T v k 6X6XV.g h h Z v v n b c F F F c K c @ , u $ 9 0 4 4 c J J J , $ .       . 9 L F c j 3 2 1 1 g n k : @ + : 5 h N S Z v v c 9 + 9 4 : 6 2 2 j > 2 5 c F F D D c D F D c 5 3 3 b K K c 0 c D c A >.F 0 9 j m V B l : # & y K K D D y y c v C =.B h @ + @ l *.&.Z } | y y G H Y Y Y ( H H Y U A :.<.w.e.N.D.^.L.P.s.Z F P ( y y i u L L R L P P P P K K K J y i 8 & #         X o . .       X & O o       . 7 D W I Z Z v v v v v v v v c 3 3 j K b k j j j 3 2 3 3 3 3 3 3 g g 3 3 g 5 3 3 3 3 3 3 3 3 3 3 3 3 g 3 3 6 b 0 4 : + + . . . + + . . . . . . . o o o o o * * f * * f f f f f a a a a a a a a a a a a a a a a a a a a a a a a f f f f f f f f f f f * * * * * * * * * * O . . . . + + + + + + + + + + + . . . . . . + @ + + + + 1 w @ @ @ : e J e r @ @ : : : : @ : @ < 4 0 5 5 5 5 4 4 4 5 5 5 4 < e u t - ; - X         X ",
"#.;X;X>X>X+.X.X.X.%.vXUXUX>X$.%.+.%.vXvX%.vXO.O.O.O.O.O.%.vXZX$.%.%.UXvXvXvX$.vX%.O.O.O.%.vXmXZX%.%.+.+.%.%.%.vXvXvXvXO.%.+.+.+.%.vX%.%.O.O.o.@.:X,X@.%.vXO.%.%.+.%.+.+.%.$.$.{ aXaX| ` } ' Y Y (.D.T U U fXZ t.1X&XB.A F.rXkX%XJ.H.F.e.U U W :X:XQ.U T x x l l A N A 8.C }.}.}.].'.a.w.I F L F r.}..XXX@X[.C M B B M M C &.2.3.2.2.:.*.:.5.5.:.-.*.*.,.KXhXa.5.6.u.u.p.r.r.w.u.u.u.p.p.e.R J #   . + J K R y .   o * % k C 2.#Xf.m z M B B B 9.y.r.~.~.y.B C y.K , @ : : > 3 Y E Z.e.A J.OX0X0X0XwXwXwXwXuXuXwXH.e.e.e.r.B.e.E Z v T.T.N.g l x I v v K v c F F F c D D @ , u $ 9 0 9 4 c J D J 8 $         + 0 L F v j 3 2 1 1 k n g : + + : j k N S S Z v c 9 + e e 1 r 6 2 k 2 3 j j F F D D c D F F c c c b K K c 4 0 D D j 9.e.Y H H W 1.g.C l @ X t y F I K D y y c x V *.M h : + : x *.V Z | ( & 8 G H ) Y ) ( ( H Y W A w.s.P.F.N.V.C.A.>.>.x F P i 9 9 8 8 0 c c c 9 7 9 0 5 5 4 , # X X .           X . + + . . # t d . o o     X 9 K I I Z Z Z v v c Z v v I v j j v ~ K b 5 3 3 2 2 3 3 3 3 3 3 g g 3 g g g 3 3 3 3 g g g g g g g g x k k b b b 4 @ . + + . . . . . . . . . . O O O   X O * f f f f f f f f a a a a a X.X.X.a a a X.a a X.X.X.X.X.X.a a a a a a f f f f f f f f f f f f * * * * * * * = % % % + + + + + + + . . . . . . . . .     . $ 8 e 8 $ @ , e @ + + : J ! e < : : : : : : @ : : < 9 0 5 5 5 5 4 4 5 5 5 5 4 < u u i t t t t ;       ; ",
">X .~ ~ +.+.X.X.X.%.vX>X@.@.@.+.+.O.X.O.O.vXmXmXvXO.%.O.+.$.ZX$.vXvXZXvXvXvXvXZX%.+.O.%.%.$.mXZXZX4X%.+.%.$.$.mX$.vX%.+.+.+.+.+.O.%.O.%.O.O.d @.:X,X>X$.vXO.%.+.%.%.+.+.%.$.@.s { >X;X` ' ' T T (.D.T I I fXZ t.L.%XL.U r.*XkX%XY.Y.H.e.U Z Z ~.:XQ.I T x x l l A N A 8.V f.#X}.'.}.p.r.U F ` F 9.}.{..X@X}.=.B B M M M B *.;.2.2.2.-.*.3.6.5.*.*.*.&.8.DXhXp.:.7.i.u.p.p.w.u.u.u.u.p.r.e.E J $   . + D F ~ K .   o o % n C 2.M.f.m z M C C C y.y.y.K.~.9.M B 1.W > : @ @ : 2 Y T A.r.A J.OX0X0XwXuXiXiXuXuXuXwXH.9.e.e.e.B.e.E W k C.C.T 3 x x I v F K K c F F F c D y + , u , 9 c c 9 c D c D 8 #         + 0 L F c j 3 2 1 > g x 3 : @ : 2 n x N S S Z F c 0 @ e e e b 2 : > 2 j j j K F D F D F H K c c b K J j > : 0 L D 5 U e.R R } !.d.d.S h @ # 8 y F F F G y y 0 x B C C z c 0 c I <.V W | P # 8 P L ` ) ) ) ( ( ` R W d.f.~.~.Q.D.T l l z g L P P 9 7 8 8 < > > < : , , , < : @ +     . .         X X % + + + + 8 i { . .     . # 0 L v Z Z Z Z v v k v v v I v 3 3 v c j 2 > 2 3 3 3 g g g g g g g g g g h k j j j k x x x x x x Z Z x h j k b e @ + 8 ! ! 8 @ , 1 1 1 1 , 1 q w w w 8 8 w p p p p p p p d d X.X.X.X.X.X.X.X.X.X.X.X.X.X.X.X.X.X.X.X.X.X.X.X.X.X.d a d a a a a a p p p p p p f f f q q q q q q 1 1 1 1 1 1 1 % % % % % @ % @ @ # + + 8 J ! ! J 7 8 w @ . + , J ! e : : : : : : @ @ @ : < 9 0 5 5 5 5 2 2 2 2 5 4 4 7 i i i i d / d t - ;   ; ",
"sX,X@.! u p d +.%.$.$.$.o.+.+.+.a a X.X.X.O.vXmXmXX.X.+.O.vXZXZXvX$.$.$.$.$.vXvX+.+.+.+.%.%.$.UXZX4X$.$.$.$.$.aX$.%.$.%.%.d +.+.%.%.O.O.O.+.o.~ -XjXsX;X+.+.+.+.+.+.+.{ @.sX>X8 { >X>X| R S.I T Q.D.V.I I :XE E L.E.E.e.U %XkXOXJ.J.F.e.e.I v Z.1XQ.Z !.x x N h I N A y.A f.s.#XG.*XE.H.T I ' I U [.[.{.oX}.:.V B M M M B *.;.2.3.;.;.;.3.3.:.*.*.&.M p.zX&Xs.:.5.i.i.u.u.p.u.u.u.u.w.r.Z.E D 8     + > F !.K +   o o + k C 2.M.#Xz M M V V 1.8.~.Z ~.).r.C B 1.W v : @ q + @ Y _ A.8.0.[.OX@X0X0X0XuXiXiXuXwX9X9.w.e.e.r.B.e.T v v N.V.T g l x v v c K L K D F Z v D 8   & J > 5 c c c v F F c 7 # % o o   . y H F c j 3 6 1 > j v v 3 > 2 g x l N Z Z v k j 5 @ e e 9 0 5 > : > j j 5 K G 0 D y D D c J J ! J 0 > : 9 b K ! 5 3 k K R ~ ~ ~ ~ v 3 : , y y D G G ( D D c v E t.9.U e.Z.e.A.s.N } | P @ + e L ` H ) ) ( ( ` H v x N N x x k g g g g 5 c L J 9 @ @ @ , , @ + + + + + + + .       . . . .         % . + . + y ( L $ . + @ 0 L K F v v Z Z Z Z Z x x x Z I v 3 k K j c Y _ _ _ Z.N.D.A.A.A.A.A.A.B.B.C.C.C.C.C.C.C.(.L.A.D.L.C.H.L.e.x x v b 4 @ + R :X-Xc 2 5 6 b b 0 0 b b b b b J b b Q Q Q Q Q ! ! ! ! ! ! ! ! o.o.o.o.o.o.d o.d d o.d o.o.o.d d d d d s s s s p p p p p p p p p p p p e e e e r r r r 6 6 6 6 6 6 6 2 2 4 4 4 2 4 4 > 6 e < @ , L R R c 9 e &     . , J L 0 @ : : : : : : @ @ , < 9 6 6 4 6 2 2 2 2 2 > < 7 8 i i d d / / d d a - - ; ",
",XsX>X@.{ s s +.$.$.$.%.+.+.+.+.X.a X.a a X.O.mXmXX.a a X.%.vXmXZXvX$.$.$.$.$.vX%.%.%.$.$.$.$.UXZXZXaX$.$.$.$.>XaX#.>X$.$.d +.%.%.vXO.O.O.+.+.+.-X,XjX;X@.{ +.+.+.+.+.{ | aX>XP ! >X>X@.R Z.I T Q.D.V.I I :XE E D.R._.e.U ).zXOXJ.G.F.e.e.I v E 1XQ.Z !.z l z h U N A 9.>.f.s.P.K.*XrXeXD.T E I Z r.J.}.$X}.<.V B M m M V -.2.2.3.2.2.2.2.2.:.*.&.V m p.zX*Xs.:.5.i.i.u.i.i.u.u.p.p.r.r.e.T F 0     + 2 I ' F @     o + k C ;.M.#Xz m M V B ,.w.~.Z ~.).r.C B S U v : + q + @ H _ A.0.0.[.OXOX0X0X0XwXuXuXwX0X[.8.w.r.r.r.B.e.T Z v Z.Z.U h x Z v v F K K D D I Z Z D &   & e 2 j c v v I I F c 9 # X o o   . y H F v g 3 6 < : c F I x g h l l x x Z v v k j 4 @ e J 9 9 5 > : > j j c K F y D y 0 0 0 e e e e < : : 9 0 b J : 2 3 j k b b c c 5 > : < 9 y y y y G y D c K } !.t.e.B.A.B.~.K.U c y 7 + + : 0 G H ) ) ( ) ) H c k l h h g g 3 3 3 2 5 c D D 9 : @ @ , , $ $ $ , , $ & $ # X . . . . . .         o . . + , H ] ) y . @ 0 J L K F v v Z Z Z Z Z Z x x Z Z v j k K v I N.I.C.C.L.D.C.C.H.H.U.U.U.U.U.U.U.U.U.U.U.U.E.L.C.H.U.U.U.E.e.Z x v b , + + /.pX/.c j c n n n c k b K b n n n b b b b Q Q Q Q Q ! Q ! ! ! ! ! ! ! ! ! ! ! ! ! ! o.o.o.! o.! s s s s Q Q Q s p p p p p p p p e e e e e r r r r r 6 6 6 g g g g g g 3 3 2 2 3 2 3 3 2 3 6 < : < L E I v 5 8 ; o   . 7 J L 0 : : : : : : : @ @ , < 4 6 6 4 2 2 2 6 6 4 < < 7 8 i t i d d / / d t - - ; ",
",XsXsXaX>X! p +.>X>X>X$.+.@.>XZX%.O.O.O.X.O.O.vXmX+.d a a O.%.vXmXvX$.$.$.$.$.vX%.%.$.vXvX$.$.$.ZXaX$.$.$.$.>XaXCX>XaXaX$.d X.O.%.%.O.O.O.+.+.+.@.,XsX,X@.{ +./ +.+.+.{ { ;X>X| P ;X>X| R Z.I T Q.D.V.I I :XE T C.U._.N.I R.zX%XOX[.P.B.B.T x I fXQ.Z Q.Z h l l I Z Z 8.,.s.s.K.F.).fXfX`._ ' I I U *X}.=X#Xi.V M M M M V :.2.2.3.3.3.2.;.;.:.*.&.V m F.zX*Xs.,.5.i.u.u.u.s.p.p.u.r.r.e.e.t.I c     + 5 I E F 4 .   o + k C -.v.1Xm m B V B >.y.!.Z ~.).A.C B C U Z > @ = + @ H _ A.8.0.G.OXOX0X0X9X0XwXwXwX9XF.8.w.r.e.r.B.e.T I v A.B.U h Z W v v v K K c c I A I y ;   $ 6 3 j c F F I I I D 7 + . o o   . y H F c 3 2 6 < : c K R W v v x h x x v v c j 5 2 : e J 9 5 5 > : > j j 5 K F D G D y D D 9 : @ < : < > 0 c 0 0 : > > > > 2 2 2 3 4 > > 9 0 0 y y G H G D c c W E Z.t.A.t.U 9.W x 5 9 4 < < < 0 D H Y Y H ) ) F 5 g g 3 3 3 3 3 5 c c 0 D D D D 0 0 0 0 0 y y y y 9 y y 9 8 8 & % . . . .         o . . + y ` ] ) ( $ , L ` R F I v Z Z Z Z Z Z Z Z x Z Z v j k K v I V.I.C.C.D.D.C.H.U.U.R.R.R.U.U.U.U.W.U.U.U.U.L.H.C.H.H.U.Y.E.e.Z x v c , + + ;XpX!.3 3 k k n K v n v n v n n n b b b b b Q Q Q Q Q Q Q Q Q Q ! ! ! ! ! ! ! ! Q Q ! ! ! ! s s s Q s s Q s p p p p p p p p p p p e e r r r r r r 6 6 6 6 6 g g g g 3 2 2 2 2 2 2 3 3 3 5 6 4 : 4 R E I c 4 8 X o   + 9 K K 0 : : : : : : : @ @ < < 4 6 6 4 2 2 2 6 4 4 < , 7 8 & t t i d d d d - - - ; ",
",XsXaXaXaX{ s @.+.@.$.$.@.>XFXPXPXIXIXZXmXmXmXmXmX$.%.X.X.%.%.%.$.%.%.$.%.%.%.vX%.%.$.$.$.$.$.$.$.#.%.$.$.$.aXaXaX>XaXCX$.d d X.+.%.O.X.X.X.o.+.@.-X,X,X@.{ +.d +.+.+.{ { ;X>X@.{ @.@.| R !.Y T Q.D.V.I I <XE T V.C.%XB.Z C.kX%XOX[.P.F.A.e.v Z fXQ.Z ~.Z h l l W Z N >.q.u.u.s.9.t.Q./.!.!.!.Y F I 1XP.#X}.f.B M M M M &.:.3.2.3.5.3.:.-.-.*.=.V B M F.zXOXw.,.5.u.u.u.q.r.y.w.r.r.K.A.r.A.t.v . . @ j I E R J .   . + g C *.7.2Xm m B V M >.y.d.Z ~.`.A.A B C A Z 3 @ = + , F E A.0.0.G.OXOX0X0X9X9X9X0XwXOXw.9.w.e.e.r.B.e.T I v D.B.Z l S W I x x K K v x Z 9.E y     $ 6 k c v F I I T Y H 9 + . o o   . y L F c 3 2 6 < : 9 D K R W W K v k k k k j 5 2 > @ e b 4 5 5 2 > 2 j j 5 F H D F H G D D 9 @ @ : 9 D c D D c c < > > > > > > > 2 5 0 D D D D D G H ( L L c 2 c v I I I Z h h l 3 c D D J J D F H Y Y Y ) ) ) F 5 3 3 3 5 j c c F F D D D H H H G L L P P L L P G D D D y y 8 , 1 . O % % X . O X O + . @ L ] ) ) ` y D ` } Y F I v Z Z Z Z Z Z Z Z x Z I v j j n j F N.C.V.N.B.B.B.C.C.C.C.C.C.C.C.C.C.C.C.C.C.C.C.B.B.C.C.H.Y.E.e.Z x v b @ . . /.pX} 2 2 j g k K n v v n v n n n K b b b b b Q Q Q Q Q Q Q Q Q Q ! Q Q Q Q s s s ! Q Q ! s s s Q Q Q s s s s p s s e e e p p r e r r r r r r r r r r 6 6 6 6 g 3 3 3 2 2 2 2 2 2 3 3 3 g 5 2 > 5 R Y I c 4 8 X o   + 0 K K 6 @ : : : : : : @ @ < 4 6 6 4 4 4 4 4 4 4 4 < , $ $ & t t t t t t t t - - ; ",
",X,X;XaXaX@.! +.$.@.@.o.o.$.CXZXZXmXmXmX$.mXZXZXmXmX4X+.+.%.%.%.%.%.$.vX$.%.%.vX+.%.%.$.$.%.%.$.#.@.@.@.#.$.>X;X;X@.>XaXaXd d +.+.+.O.X.X.X.o.+.@.@.>X>X@.| { ! +.+.@.{ { >X>X| #.@.| ~ R !.T T Q.^.V.I I /.E I N.C.eXC.Z r.hX*XG.p.F.r.B.e.x x fXQ.Z ~.Z h l l W Z Z ,.u.5.u.p.U x v D R ;X:X' c c :Xr.r.p.P.m m m M B &.:.3.2.2.<.:.:.*.*.*.=.V B M P.zX[.<.:.<.u.u.0.0.y.9.A d.t.A.A.A.A.r.I < + > v U U I R +   . + 3 N &.<.2XN m B V M >.y.d.x ~.`.A.A C C A Z g : % @ , D T A.r.0.G.OXOX0X0X0X0XwXwXwX9Xe.9.w.e.e.e.r.e.U v v L.B.Z z A S U Z x x x N U t.~.Z.y     8 b k v F F F I T E R 0 + . o o   . y L F v 3 2 6 < , : 4 0 J L ~ ~ K 3 3 5 5 4 4 > : @ 0 D 9 5 c j j k v c c F H F F H G D H c < : 9 D L H H H F H D 0 0 0 4 2 > : : c D L L H G G G G ( L ` K 2 3 2 3 3 k j 2 3 g 3 c F L K K R R H Y Y Y ) _ _ I c c c F F H Y H H H H H H H H ( ( H H G G L L L L G G G G y 9 < 1 . O % % X X X X . + . 7 ` ' ) ) ) H ` ' Y I Y I Z Z Z Z Z Z Z Z Z v Z I v j j n c Y V.I.C.N.N.B.B.B.B.B.B.B.N.B.B.B.N.N.N.N.N.N.B.B.B.B.C.H.U.E.e.x h v b , . . ;XpX/.5 3 j k n K n v v v v n n K n n K K b b b J b Q Q Q Q Q Q Q Q Q Q s s s s s s s s Q Q s s Q Q Q s s s p s p p e e e e r r r r r r r r r r r 6 6 6 6 6 6 6 3 3 4 2 4 > 2 2 2 3 3 g g 3 2 2 c R R I c 9 8 X     @ c K b < @ : : : : : : : : 9 9 6 6 4 > 2 2 > < < < , $ $ $ & & t t t t t & - - - ; ",
";X;X;XaXaX>X{ s ! ! o.! ! @.UXZXmX$.%.%.%.%.ZXZXmXmX4X+.+.%.%.%.%.%.vXvX$.%.%.$.%.%.%.$.$.@.$.$.@.@.@.@.$.>X>X#.@.@.>X>XaX+.d X.+.+.O.X.X.X.o.+.@.@.-X-X-X@.| ! +.+.@.{ | >X>X! >X@.! L R /._ T S.^.V.Y Y /.E I T C.eXC.A e.gX*X[.G.J.F.B.e.x h fXQ.Z ~.Z h l h K Z C ,.i.<.u.s.U 2 : < P ;X:X} < 4 !.t.9.w.P.m m m M B &.:.3.2.;.:.:.*.*.&.&.=.B M M P.kXG.,.:.5.u.q.0.y.t.W x v k Z E t.t.K.t.D 0 c I 9.U I R @ . + @ 3 N &.:.2XN M B V M >.9.E x Q.`.A.U C B C Z k : @ @ , 0 T A.r.8.G.[.OX0XwXwXwXuXiXiX9Xe.9.9.e.e.e.e.e.U v v R.N.Z z A W Z x g 3 h N A.*X*Xt.7   # J K k I F F F I T ' ` 0 # . o o   . y L F c 3 2 6 < , + @ : 9 b J K K 2 > > < < , , , @ J J 0 c K K K R ~ K v F F F D D D D H D c D H H ] H H H H Y L G G G G D c c 0 D H L L H H H H H ( ( | L 5 2 > > > 2 2 > > 2 5 c F H F H ` ' Y Y Y Y ) _ _ Y H H ) ) ) ) ) ) ) H H H H H ( ( ( G D D D G G H H G H H G D 9 < @ .   O O X     . . . @ D | ] ) ) Y ] ] _ H F T I Z Z Z Z Z Z Z Z Z Z Z I v j 3 k c E V.C.V.N.N.B.B.B.B.B.N.N.N.N.B.B.C.C.C.C.C.B.B.C.C.C.C.U.E.E.e.x h v b , . + :XjX/.c 3 j j k K v v v v v v n n n n K K K K K K K b Q Q Q Q Q Q Q Q Q Q s s Q s s s s s Q s s Q Q Q Q s p e e b b b b e e r r r r r r r r r r 6 6 6 6 6 6 6 6 3 3 2 2 4 > 2 2 3 3 3 g g 3 2 2 D ` Y F c 9 w       @ D K c < @ : : : : : : : : 0 0 6 4 > > > 2 > < < , $ $ $ & # & & & ; & & - ; - ; ; ",
";X;X>XaXaXaX@.e s ! @.@.! @.>XUXmX$.%.%.%.%.ZXZXmX4X$.+.X.%.%.%.+.%.%.$.$.$.$.$.%.%.%.$.$.@.$.$.@.@.@.@.>X>X>X;X-X-X>X>XaX+.d d +.+.O.X.X.X.o.+.@.@.@.-X;X-X| ~ o.+.@.@.| ;X;X{ #.{ J L R /._ _ Z.^.V.Y Y !.W F Y R.eXH.9.r.gX*XOX[.OXP.A.e.x h fXQ.Z ~.Z l x h n S A ,.a.:.u.s.t.> + + 7 | | ` 9 < F !.~.K.~.M z m M B &.:.2.;.*.*.*.&.&.&.V V B M N P.kXG.=.:.5.5.q.w.y.d.K 2 : @ 5 ~ E t.A.e.R K I U 9.U U W : + @ @ 2 N V =.2XC M M B M >.U W g !./.A.U N M M S k > @ @ : 4 Y t.e.8.F.[.OX0XwXwXwXuXiXyXOX9.9.9.e.e.e.e.e.U v I ).e.Z N A t.U v g g Z K.*X*X*XE , . 8 | ~ h I F F F I T T E D $ . o o   . y L F c 2 > > < @ + + + @ , < 8 4 : @ @ @ @ , $ @ @ u P 0 D K K L ~ K K c c F H D D D D D G H L L ) ] H D H H ) ` L L L L L L L L F L L H D H H H ) ) ( | ` 0 4 : 4 4 4 4 < < < 4 D F H L R ` ` ) Y Y ) ) ) ) ) ] ] ] ] ] ] ( ) ( ( H H ( ( ( ( G D G G y y D G G G ( ( L D 4 : @     o X         . . 7 ` } ] ) ) ) ] ' _ I I T I Z Z Z Z Z Z Z Z Z Z Z I v j g j v E V.C.C.N.N.D.C.C.C.N.B.N.C.C.C.C.H.H.H.U.C.C.C.H.H.C.C.U.E.E.e.x x K 0 + + 7 pXjX!.2 2 j j k K v v v v v n n v n n n n n K K K K K K Q Q Q Q Q Q Q Q Q Q Q Q Q Q Q Q b b s b s b Q b b b b b b b b b b r b b b b r r 6 6 6 6 6 6 6 6 g 6 6 3 g 3 3 2 2 2 2 3 3 3 3 k k 3 2 2 F R Y F c 7 -       , K K c > @ : : : : : : : : 0 0 0 4 > > > > > : , , $ $ 8 8 & & # # X X ; ; X X X ; ",
";X;XaX>X>XaX#.e 6 b ! @.@.-X>X$.ZX$.%.%./ +.aXZXZX$.$.+.X.%.O.O.X.X.+.%.$.$.$.$.+.+.@.$.$.@.@.$.#.;X;X;X>X>X>X-X@.-X;X>XaX+.d d +.+.+.X.X.X.o.+.+.@.| -X,X;X~ ~ o.o.@.@.| @.#.| @.! u ! R /._ _ ' ^.V.Y Y !.W v I R.eXL.e.r.fXtX[.G.[.P.A.t.Z x 1XQ.Z ~.Z l x g n K A ,.a.*.u.s.!.: + . . , D L u $ : ;X`.A.K.m z z m M &.:.2.;.&.V V V &.V V B S M N P.kXp.=.:.u.5.<.w.d.d.K : w % ! ;X!.' T I R R W e.9.9.U E 2 @ @ @ > N V =.2XC M M B B U U v 2 !./.A.U N M M S n 2 @ @ : > Y t.e.9.F.[.OXwX0XwXwXuXwX0XJ.Z 9.9.e.e.e.e.e.U Z U _.e.Z Z Z !.Q.T x Z ~.gXgXtX*XZ @ . 0 | d.g v F F I U e.e.Y D $ . o o   . 0 L F j 2 > > , $ + . + + + + + + + + . + + $ # + + u u 8 e J P L J b 9 4 0 D H G D D D D D L L H ) ] H D H H ) ` ( ( L L G H H H H R L H D H H H ) ( H | | D D 9 0 0 e u u u s P L D F R ` H H H H H H ) ) ) ] ] ] ] ) ( ( ( ( ( ( ( ( ( ( ( ( G ( ( ( ( y y y G G ( ( L D < : @     O O O . . . $ @ D | ] ) ) Y _ S._ _ Y I T I Z Z Z Z Z Z Z Z Z Z Z I v j 3 j v ' D.I.U.C.C.R.U.C.C.B.B.C.C.H.C.C.H.U.U.U.U.H.C.H.H.C.C.U.E.E.e.Z v K 5 + $ J pXjXZ.> 2 v v v K v c v v v n n n n n n n n n n K n K K Q Q Q Q Q Q Q Q Q Q Q Q Q Q Q Q b b b b b Q Q b b b b b b b b b b b b b b b b r 6 6 6 6 6 6 6 6 g g 3 g g g g 3 3 3 3 3 3 3 3 k g 2 > 2 D R I c 9 , -     . < F R c : @ : : : : : : : : 0 0 0 4 > > > > > < 1 , $ 8 w i w & # X X X X X X X X X ",
";X;X;X>XaXaX#.@.6 e ! @.@.-X;X@.>XaX$.$.$.%.+.4X4X4X$.+.X.O.%.%.+.d d d +.+.%.UX$.+.+.$.@.$.$.>X>X>X>X;X>X>X>X;X-X-X@.>X$.$.d d +.+.+.X.X.d o.%.@.! ~ -X<X-X!.-X-Xo.| sX-X@.@.@.+.! ! ! ` !.S.Y Y ^.S._ E E ~ v I R.&XL.9.9.&XgXOXG.J.).L.A.U l 1X~.A !.Z x k k k ^ N >.u.:.<.f.d.K + . + + : : + $ : v I e.K.m m z m B =.-.;.-.V B V V B B B M S l N *XkXw.&.:.5.u.u.q.y.d.! q = - - w P ` ' S.} R E t.A A 9.W j 2 : 2 k l B C ~.y.M m B B A Z v > ~ !.E t.N M M N S 3 @ @ @ 4 I T e.p.J.[.OX0XwXwXwXwXwX0XF.A A 9.e.e.e.e.e.U Z Z.B.I Z Z x E T V.R.gXkXgXtXtX&Xh + . D } E l Z F F F U e.e.T D , .   o   + 7 L F j 2 > : @ + .   . . . . . . . . . . .       .   . # + + @ , , : : < 0 D G D D D 0 < 0 D D H ) H H H H H H ` ( ( y y G G 0 7 0 L H 0 9 0 D D G H H H ( ( G 9 , 7 e u u i i i 7 7 D ( ( G y y y G G G G G H ( ] ( ( ( ( ( ( ( ( ( ( ( | ( (  .xXKXKXZXdX..( ( ( ( { | 8 , @ + .   O % % . . + $ 9 G ` ' ] ) ) _ _ N.S.I v e.Z Z Z Z Z Z Z Z Z Z Z Z I I k 3 3 v Z.I.C.U.W.R.R.R.R.R.R.U.U.U.U.H.H.H.U.H.C.C.C.C.H.H.C.C.Y.E.H.U Z x v b + + P pXpX' 3 3 k k n K n v v v n n n n n n K K K n n n Q Q Q Q Q Q Q Q Q Q Q Q Q Q b Q Q Q b b b b b b b b b b b b b b b b b b b b b 6 k 6 6 j 6 k k g g g 5 3 3 3 3 h h h g 3 3 3 2 2 3 3 g k 2 : 5 K R Y c < 8 X     + 0 K F 5 : @ : : : : : : : < b 0 0 4 2 > > > : : , @ $ & w i d d d d d i t - - - &   ",
";X>X>X>XaXaX>X#.b b ~ -X-X@.@.@.>X$.%.%.$.%.#.4X4X4X4X$.+.+.%.$.%.%.%.$.$.$.$.$.$.@.+.$.@.@.@.>X>X>X;X;X>X>X>X;X-X-X-X>X>X$.d d +.+.+.o.d d o.>X;X~ K !.<X<Xd.~ @.! @.>X@.| { @.! ! ! ! ` } S.) Y ^.S._ E R ~ v I (._.L.9.A ).gX*XG.J.&X_.L.U g :XQ.U !.Z x k n k ^ Z 9.p.,.8.y.d.~ 1 + + : D y # + @ > x 9.K.N z z m M V *.;.-.V B B B B M M m z h m *XkXw.&.:.5.5.u.q.y.d.K r . * f d { @.| Y F j x U 9.9.U U v 3 > 2 h x M C y.f.C M B N U I k : ~ !.E t.A M M M n 3 @ @ @ > I T r.F.[.[.OXtXwXwX0XwX0XOXB.A A 9.e.e.e.e.e.U I ~.e.U I x W } `.fXkXkXhXhXyXyX).h @ + G } t.l v F F F I e.e.T D 8 .   o   + 7 L K c 2 > : @ .             . .                       . .   . @ @ + + @ 9 D G G D D 0 7 0 D D D H H H ) ) ) L ` ` ( G y G G 0 0 y ( ( D 0 D D D G G G ( ( ( G y $ $ & 8 w i i i 9 7 y ( ( G y y y G G G G G y G ( ( ] ` ( { { ( ( ( ( { { ( (  .xXKXKXKXFXdX#.{ / ( { | 8 + + + .   . X . . . + , 0 H ] ] _ ) ) _ _ _ S.I v U I Z Z Z Z Z Z Z Z Z Z Z I I k g 3 F Z.I.C.C.U.H.C.C.C.C.C.C.C.C.C.C.B.C.C.B.N.N.B.N.B.B.B.B.Y.E.H.9.Z x v c + # P pXpXE 2 3 c k n K n K v b b b b n n n n n n n n Q Q Q Q Q Q Q Q Q Q Q Q Q Q Q Q Q Q Q Q b b p p p b b b b b b b b b b b b b r r 6 6 6 6 6 6 6 6 3 3 3 3 5 6 5 g 3 g 3 3 3 6 3 3 3 g 3 k c 2 > 9 L I R c < 8 O     + c R I 5 : @ : : : : : : : 2 b 0 0 4 2 > > > < < 1 , @ $ & - w - p d d d d d d d - & ",
";X>X,X>XaXaX>X>X| ~ @.>X;X@.@.;X>X>X@.+.$.$.$.4XaXaXZXZX%.+.%.%.%.%.$.ZXZXaX>X>X>X@.+.>X@.@.@.>X>X>X>X>X>X>X>X;X-X-X-X>X>X$.d d +.+.+.o.o.! @.>X>X} W E <X<X!.~ @.! ~ @.;X| { +.! ! ! ! L | S.' Y `.S._ Y W ~ F I (.(.D.e.N r.gX*XG.J.%XL.D.e.h :X~.t.!.W j j n k K Z U y.9.9.y.d.d.Q 4 @ 0 | L P 7 @ 2 N w.K.M z z z M C =.-.*.B M M M M m m z l h m ).hX0.&.:.5.5.u.u.y.y.W r + = * - { >X;X .} v g z 9.9.A t.Z j 2 3 h x M B C ~.1.M B m U I 2 @ ~ | E t.A M B M Z 3 @ @ @ > F U r.J.OX[.OXtXwX0X0X0X0XJ.r.9.A 9.e.e.e.e.9.Z Z ~.I e.Z.W ,XsXDXKXKXKXzXhXhXyX~.g @ + F } t.z x v F F I e.e._ D 8 .   o   + 7 L F b 3 > : @ .                                 o             . + . . @ 7 y P G G P 0 7 0 D D D G H ( ] ] ` H L ` ( ( ( ( G 9 y 0 ( ` G y D D G G G ( ( ( ( ( P 8 $ # # & t i i i y y ( ( G y y y y ( ( ( G y y y (  ...{ { { ..{ { { { { ( { ..4XdXFXPXPXKXZX4X../ ( { 8 @ + + . . . + + . + @ 7 D H ] ] _ Y Y Y _ _ _ Y v I U Z Z Z Z Z Z Z Z Z Z Z I I v g 3 v S.R.C.C.C.C.C.U.U.U.U.H.H.H.C.C.C.C.C.C.B.B.C.C.B.C.C.C.U.E.H.e.Z x v 0 + + { jX`.Y 3 j c k b b b b b b b b b n n n n b b b b Q Q Q Q Q Q Q Q s s Q Q Q s s p Q s s p p p p p p p p p p p r p r r r r r r r r r 6 6 6 6 6 r 6 4 4 4 4 2 2 2 2 6 g 6 6 6 6 6 6 5 3 3 g b 2 > c R I Y c 7 8 o     $ c I I j @ @ 1 : : : : : > 4 c 5 5 4 2 2 > > > < 1 1 @ + . X X ; - - w p d d d d i - ",
"-X;X>X>X;X>X>X>X;X;X,XsX,X;X;X>XaXCX>X#.>XaXaXaXaXaXZXZX$.%.%.$.$.$.$.ZXZXZXaXCXCX@.o.$.@.@.@.>X>X>X>X>X>X>X>X;X-X-X-X>X>X>Xd d o.+.+.o.! ! -X,X:X!.W U !.<X~.d.~ ! ! ! >X#.#.+.d d d ! L | S._ Y `.S._ Y v ~ F I (.D.D.t.z U gXOXr.B.E.L.(.A.h ~.~.!.d.E j 2 j g n v Z U Z A t.d.d.~ K 5 J @.| { J 5 v U y.f.M z z z m B V *.&.B M M m m m z z l h N ).hX<.&.:.5.u.u.u.u.y.U v 6 %   X ! >XsXsXsX/.v x 9.9.A d.W x 3 3 l m N M M <Xg.M M N E F : : ! | R E U M B M v 3 @ @ @ > v U B.[.OXJ.[.tXyX0X0X0XOXH.r.w.A U e.e.e.e.U Z Z Q.I e.`.,XPXPXPXPXPXKXKXzXzXrXt.g @ + H !.t.z x v F F I T e._ H 8 .   o   + 7 G K K 6 > , @ .                                 o o           . . + $ , 8 y D G P P 9 , 7 y 0 y G G ( ` ` H D y G G ( | ` G 7 7 9 H ( D y y G L G ( ( ( ( ( ( { i 8 # X & t i i i y P ( ( G y y y y ( ( ( ( ( ( y (  ...{ { ....#... . .{ { { ..{ ..4XxXIXPXPXFXaX../ P $ , @ + @ + + % % + @ : 9 D ) ] ] _ Y Y Y _ Y T N.I Z I Z Z Z Z Z Z Z Z Z Z Z I I v j 3 v S.R.U.C.U.H.R.U.U.U.U.U.U.C.C.C.C.C.U.H.C.C.U.H.C.C.H.H.U.E.H.e.U v v 4 + + @.jX`.I 3 k v k b j 5 0 0 e e s p b b b b b b b b b b e e p p p p w w p p p p p p p p p p p w p w w w w w p q q q q w q q q q q q r r q 1 1 1 q q 1 1 1 : : @ @ : r r r q 1 @ : : 2 2 2 2 5 2 2 c R I I 0 7 - o     , F W I 5 @ @ 1 : : > : : > 4 0 5 5 4 4 2 > > < > 1 1 @ + .       O X X X # # - - - & ",
"| ;X,X>X;X;X>XaX,XsXCX,X,X>X>X>X>XaXaX>X>XaXaXaXaXaXZXZXZXaXZXZXZXZXZXZXZXZXCXCXCX#.! @.@.@.$.>X>XaXaX>X>X>X>X;X!.-X-X>X>X>Xd - d +.+.! ! @.;X:X:XQ.Z.t.d.~.~.d.~ ! | ! ;X;X#.{ d d s u L | S.Y F `.S._ I j ~ v I (.N.Q.A.l Z gX*XA l l x e.e.h t.!.!.I ~ 5 > 2 3 g j j v x x A d.d.d.d.v c | | L D v Z 9.y.f.C z l l z m B &.&.M m m m z z z l l l Z ).hX<.&.:.<.q.u.u.u.p.w.9.K 6 . . . + , 4 !.-XW x t.y.A A W x g g l m m M M #Xg.M m N E v : @ ! ~ R E U m B m x 2 @ @ + : k U F.OXOXJ.J.0XwX0X0X0XOXF.e.t.A U e.e.N.e.U A U A.U T :XJXLXLXPXPXPXPXPXKXzX7XW 3 @ + R !.U z k c F F I e.N._ H 9 +   o   . $ D K K r > 1 $                                   o       X X X . # 8 u u 9 9 y G P P 7 @ 7 9 y y y y G H G y 7 7 G y (  .` D 9 9 y L ( y y y y P G ( ( ( ( ( { { { d - - - t t i y J ( ` ( G y y ( ( P u i ( ( ( ( ( {  .#.#.@...{ { { #.#........./ / ..xXIXPXPXFXxX#.{ # @ @ + @ @ @ 1 1 @ : 4 9 D ) ] ] _ Y _ ) ) Y Y D.Z.I Z I Z Z Z Z Z Z Z Z Z Z I I v k 3 F S.R.C.C.C.H.H.H.C.C.C.C.C.C.C.C.C.C.C.C.C.C.H.B.B.B.C.C.Y.E.B.9.U v v > + . ;XlXQ.v g x v k b 5 6 < < 8 w w q 1 1 1 1 1 q w w w w q q q q w w = = = = = = = = = - - - - - q q - = = = = = = = = = q = q = q = = = = = = - - - - = = = = = = = o * O % O O % 1 e 6 2 2 3 2 2 c R F F 0 7 - o o   7 I T F 3 @ % 1 : : > : : > 5 j 5 5 4 4 4 4 < > > < 1 @ +                         O X ",
"| ;X,XaX>X>XaXaXaXsXsX;X;X>X>X;X#.>XaX>X>XaXsXsXaXaXaXZXZXZXZXFXZXZXCXCXZXCXsXaXCX#.{ @.@.@.$.>XaXsXaX>X;X>X>X-X-X-X-X;X>X>Xd - a +.+.! ! -X:X^.(.(.D.A.y.d.~.<X! +.@.{ { { +.! { d s u L | S.Y F `.S.S.I 3 ~ v I Q.T (.!.x l gXhXtXrX%XD.e.v 2 T Z.!.j } c : > 3 3 3 > 2 j h Z d.f.y.y.Z j L | R F Z U >.w.s.V z l l z m M B V M m z z z z l l n l Z ~.hX<.&.:.1.0.u.u.i.i.a.r.E v 0 , @ @ @ : > D v h A y.A A W v g g l z m M C f.g.B m Z I v : = p ! R E U m B m x 2 @ @ + : j t.P.OXOXJ.J.0X0X0X0XOXJ.r.9.9.U U e.e.N.e.U U U U e.e.pXPXLXLXPXLXLXLXPXPXKX`.v 2 @ @ ` E Z N x c D F I e.N._ H 9 .   o   . $ y K K r > 1 $                                           X & 8 & 8 u P J y y D G G P y 8 y y y G G G G G H G G G ( ( ( { ( G G H G ` ` G G G G ( ( ( ( ( ( ( { { +.{ d d d d i i y P ` ` ( ( ( ( { { ( ( P ( ( ( { { {  .#.#.#.{ X # i +.#.#.{ ..../ / / ..4XxXIXPXKXSX#.+ + : : @ @ @ : 1 : > 4 9 F ) S._ _ _ _ ) _ ) Y D.^.T I I I Z Z Z Z Z Z Z Z I I Z v h 2 I Q.R.C.V.C.C.C.C.C.C.C.C.C.U.H.C.C.C.C.C.C.C.H.C.H.C.C.C.W.E.B.U U Z W > @ . >XlXD.x g x v c K b 8 1 @ # % O . + + + + + + % % = % * O * * = = = = % * * * * * * * * * * f f f * * * * * * * * * * * = = = f = = = = = - * * * - - - - - - p a X.X.O.%.%.$.$.>X! J 6 3 j 2 3 v R F F 0 7 - o o   0 R T v 2 @ % 1 : : > > > 2 5 c c 5 5 4 4 4 4 > > 1 1 @ + .                       O % ",
"L | ;XaX>X>XaXaXaXaX;X| @.@.@.;X@.;X;X;X;X;XdXsXdXaXaXsXaXsXZXZXCXsXCXCXCXCXsXaXCX>X#.>X@.@.$.>X>XsXaX>X;X>X>X-X-X-X-X;X>X>Xd - a d +.! | -X:X~.~.L.L.L.y.y.f.<X~ ! { @.P u s ! +.d d s P | S._ v `.S.S.Y 3 ~ v I D.I (.!.x h fXgXhXkXhXfX`.(.Q.Q.Q.Q.2 !.b : > 3 2 2 > : 6 3 x 9.f.y.y.U g 5 L ` I U 9.,.q.<.B z l l l z m B B m z z z z z l l x l Z L.hX0.*.:.8.8.q.u.i.i.i.a.r.E K c 5 > 2 2 : 5 j g Z W y.y.W Z h h h l m M C <.f.1.z Z Z K 1 % 1 ! } E U m S N x 2 @ @ + : g A.*XOXOX[.[.0X0X0X0XOXF.r.9.9.U U U e.e.e.U U U U B.`.DXLXLXLXLXLXLXLXLXLXKX/.k > @ $ } E N Z v c c D I e.N.T H y +   o   . + 0 K K b 1 1 $ .                                         & d d d P u u D P H H G G ( ( P ( ( ( ` ( ( G ( ( (  . .| { | | ` `  .| L | | ` | | { | ..{ ..........@.@.+.+.+.+.{ { { { { ` ] [ [  . . . . ...| .. . . .#.| { | #.+.i     & ..aX#...#.#.4X4X%.....4XxXFXPXPXaX$ + : : : @ @ : : 1 6 c c F _ S._ Y _ _ ) _ _ Y _ (.Z.T I I Z Z Z Z Z Z Z Z I Z Z v g 2 E Q.I.V.V.C.C.C.H.U.U.U.U.U.U.U.U.U.U.U.U.C.C.U.U.E.Y.C.C.E.E.e.U Z v K > @ . aXlXA.x h x v b ! b w @ . . o o o     X O X O O O O O o o * * * * * ; O * O * * * * * * * * * f f * * * * * * * * * * * * * * * * * * * * * * * * * f f f f a a a X.O.O.%.%.mXmXZX! ! r 3 g 3 g v I v c 9 , - o o . 0 Y T v 2 @ % 1 : : > > > 2 c k c 5 5 4 4 > > > 4 6 1 @ + .                         = ",
"J | ;X>X>X>X>X>XaX>X@.~ @.@.@.;X;X;X;X;X;X;XdXdX;XaXaXaXaXaXsXaXsXsXsXaXsXsXaXaXsXCXCXCX#.$.$.>X>XaXaX;X;X>X>X;X-X;X-X;X;XaX! - d d ! @.-X<X`.`.L.L.).~.K.y.d.-X| s ! #.P i i d +.+.{ ! P | S.' v :XD.^.E 3 ~ v I S.I (.Z.x 3 `.gXhXgXgXkXkXkXlX1X1X:X3 /.K > > 3 2 6 > > r 3 h N f.y.y.t.k 2 c F x A >.,.w.,.z l l x l z z m M m x l l l l z z l h N K.hX0.:.:.0.8.q.u.i.i.i.a.w.y.t.W W I v g c F v Z W U U U W Z l h h l m N M C f.y.m N v K 1 + @ ! | E U N B N x 2 @ @ + @ j Q.*XOXOX[.[.0XwXwX0XJ.r.r.y.y.t.U U e.e.e.9.U e.e.).lXJXLXLXLXLXLXLXLXLXPXGX/.x > @ < | R x Z v c c c I Z.N.T Y 9 .   o o   + 9 K L c < 1 $ .               o                       X i { { { { u 0 0 L ` ` H G { { { .. . . .] ( G G H `  .;X ... . . . .;X .G `  . .;X;X#.#.#.#.#.#.#. .#.#.@.#.#.%.+..... .;X .] ]  .8XdXdX .#.#.;XdX4X#.#.dXaX .i i @.{ # X X & { aX4X#.aXxXZX4X4XZX4X4X4XxXKXPXsX7 : > @ < : : > 6 6 r b c F _ S._ Y Y _ ) _ V.I Y ^.D.e.I I Z Z Z Z Z Z Z Z I Z Z v g > E ^.U.C.C.U.U.U.U.U.U.U.U.U.U.U.U.U.U.U.U.C.C.U.C.U.U.B.C._.E.e.Z Z v W : @ . sXlXZ.l l x v n ! e 1 .     O O O O O ; ; - ; * * * o o o o * * f * * * * * * * * * * * * * f f f * * * * * * * * * * * * * * * * * * * * * * * * * * f f f a a a a X.O.O.O.%.%.$.s b 6 3 g 3 h W I c c 9 , =     . 0 R I k > @ 1 1 : : > > > 2 c c k 5 5 4 4 > 2 4 6 6 1 @ .                           ; ",
"i u ! { +.#.#.$.aX$.@.+.+.@.#.#.>X;X;X;X;X;X>XaX;X;XaXaXaX>XaXaXaXaXaXaXsXsXsXaXaXaXCXCXCXaX>X>XaXaXaX;X#.-X;X-X;X;X;X;X;X#.| ! +.! ! | <X:X~.P.P.K.~.).Q.d.!.~ ! ! { +.+.t X d d +.+.P P | /.) I ^.^.^.Y j W v I E v `.Z.3 > -XfXgXeXgXgXgXgXgXhXgXeX(.Q.I 3 > > > 2 6 3 3 g h l t.d.t.t.Z 2 > 3 Z 9.>.>.U x g 2 3 n z z l l l x h h h l l l x x z Z K.kXp.=.:.0.0.0.q.u.u.u.p.q.w.9.9.U U U U U U U U U U I Z I U v g h z z m M B f.~.m N Z n 6 + . J | ~ W m M M l 2 @ + + + K A.rX0XOX[.J.0XwXwX0XF.r.r.y.W W W U U e.e.9.C 8.~.:XKXLXLXLXLXLXLXLXLXLXJXfX`.x 3 > R } F > c F F v v I t.e.N.Y 0 .   o * o . 7 F R c 4 : @ .                                   .   X { #.4X#.@.! e J L | | ( y { #.4X4X4XdX .] ( ) _ Y F ) ;X4X .#.dXdXdXdXdX( ( ( #.dXdXdX;XdXdXdXdXdXdXdXaX#.#.#.#./.8X8X7XfXpXS.)  .dXdXdXdXdXxXxXxXxXxXZXSXdX..i t d d # # . ..#.#.aXaXxXxXxXIXxXxXIXxXxX4XdXFXaX0 : 2 2 0 : : 4 r 2 5 F c H ] V._ _ ] ) ) _ ) Y Y D.T Z.Z.E Z N Z A A Z Z A U Z S v 3 > ' I.U.C.U.Y.Y.U.U.T.T.W.T.C.U.T.C.U.U.U.C.C.U.U.R.I.D.C.U.W.E.e.I I I K @ + 7 sXHXE g x x x K K e . o o o = % = % X - = - f * * * * o o o * * * * * * * * * * * * * * * f f f f f f f * * * * * * * * * * * * * f * * * * * * * * * * f f a a a a X.O.O.O.O.%.%.J 3 k 3 g 3 v F I F 0 7 & .   . $ 0 R R 5 : > : @ r 1 : : 2 5 5 c 5 j 5 2 4 5 2 3 5 0 < +                             O ",
"X & & - i i d d +.+.+.! ! +.@.#.>X>X>X>X>XaXaXsXaXaXaXaX>X;X>XsXaXaX;XaXaXaXaX>X;X>XaXsXsXaXaXaXsXsXsXaXaXaXdXdX;X;X>X>X>X>X;X| @.@.@.-X<X`.~.P.P.P.~.~.~.d.W ~ ! d P +.%.d t t d { +.! J `  .' I ^.^.^.Y j K v I E F `.Z.5 : -XfXfX_.%X_.rXtXhXtXtXrX_.D.I j 3 > > > 2 3 3 g g l Z t.d.E I Z x N 9.,.,.9.S j : : 6 k l l l h k k j g g h h l l Z x Z K.kXu.&.<.0.0.0.q.q.u.u.p.u.q.w.8.9.9.U U 9.9.9.U U I I I I E v g h l z m N B s.~.M B N K 0 + . P | ~ W N M M l 2 @ + + + c Z.rX0XOXOXJ.0XwXwXOXr.8.w.y.W W U I U e.y.9.C C ~.DXPXLXLXLXLXLXLXLXLXPXKX1X~.N 3 3 E ~ c > c I Y I Z U t.e._ Y 0 .   * * o   < D F c 4 < @ .         X X                       .   X / #.#.#.+.u , 8 D L ( G G |  .#.4X4X4X .( ) _ S._ I )  .dX4XdXdXdXdXdXdXG (  .dXdXdX] ( |  .dXdXdXdXdXdX#.#.dXdX8X7X7XyXrX7X_ H  .dXdXdXdXxXxXxXSXSXSXSXxX4X#.aX#.8   . + P #.#. ...4XZXxXxXIXxXxXIXxXxXdX4XaX| < > 5 c 0 , : 4 0 4 5 F c Y V.V._ _ ] ) _ _ _ Y Y S.I T t.t.U Z N Z Z A A A W W ^ n g > ^._.T.U.U.T.Y.U.U.U.T.W.U.U.U.U.U.U.U.U.H.C.H.U.I.C.C.C.H.Y.P.e.U I F K @ + 0 sXAXE g x x v F K e . = = * = @ 1 # X - - f p * * * * o o * * * * * * * * * * * * * * * * * f f f f f f * * * * * * * * * * * * * * * * * * * * * o * * * f f a a a X.O.O.O.O.%.+.b g k 3 6 3 F F R v 0 8 $ . . . , D R L 4 : > : 1 1 1 > : > 5 c j 5 5 5 2 4 5 4 j j 5 < +                             O ",
"d i i i i i i d d d d d s d +.@.aXaXaXaX>X>XaXaXsXaXaXaXaXaXaXaXaXaX>XaXaXaXaXaX;X;X>XaXaXaXaXaX>X>X>X;X;X;X;X;X;X;X,X,XaXsXaX>X>X>X;X;X`.(.K.H.F.P.L.~.<XZ.F ~ ! s d { #.+.d t d d +.{ P ( |  .Y Q.^.^.Y c F v v E I `.!.c : } `.eXR._.E.%X%XrXrXrXrX7XD.I k c > > > 2 2 3 3 g l l W d.U U U A >.,.,.,.1.Z 2 @ : 1 6 k h g g j 5 j 3 g g g h h Z x x t.lXw.&.<.0.0.0.q.q.u.u.u.u.q.w.8.8.9.9.9.9.9.9.U U I U T T T Z h h l z m B C s.f.V M N K c @ . J | ~ ~ N M M l 2 @ + + + 5 N.rX0X@XOXOX9XwXwX[.8.A 9.9.U U U U T e.y.9.B C <XPXPXPXLXLXLXLXLXLXPXPXKXR.P.N g h !.R c 2 c Y T I I U t.T _ Y 0 +   o * o   , D F D 9 , +             X                       .     i { { { { 8 @ , 7 y G G G | | ...... .( ( ) V.D.V.Y ) `  ...#.#. . .;X;X( ( |  . .( ( G G ( | /.;X . .#... .7X8X8X8XqXiXyX9XV.) ]  .#.dX . . .#.dXdXaXaXaX#.#.aX#.{ 8 8 i aX4X#.{ t { 4X4XxX4X4X4X4X4X4X4X{ { L 9 > 2 c 0 < < 0 r 6 c F c Y V.V._ _ ] _ ] ] _ Y Y Z.I Z T t.t.U Z N Z A A A S ^ ^ n g 2 `.`.U.C.C.H.H.H.H.H.H.J.H.H.F.H.H.H.H.H.F.B.F.H.C.C.B.H.J.Y.J.e.U I I F @ @ G jXjXE h x v v F K 1 . - - o % + $ & # w w p p = = * o o o * O ; ; ; ; * O o * * * * * * * * * * * f * * * * * * * * * * * * * * * * * * * * * * * o * * * * f f a a X.O.O.O.O.+.{ b g h 3 6 3 F I R c 0 8 $ . . . 7 J R F 2 : > : 1 @ : 6 : : 5 c c 2 5 5 3 5 5 4 j j 0 < +                             ; ",
"{ / d d d d d i i i d d d d d { { { @.@.@.#.#.aX>XaXaXaXsXsXsXsXaXaXaXaXsXsXaXaX>XaXaXaXaXaX>X>X;X;X;X;X-X;X-X/./.;X;X;X>X,XaXaXsX,X:X:X(.D.H.H.H.L.L.(.`.} R | { ! u d +.#./ t d d { { { `  ./.Y !.^.Q.Y c v K v W T ^.!.F : K pXfX).E.R.E.E.%XW.rXrX7XD.Y v v 4 < > > 2 2 3 g h h N y.9.A >.C ,.,.:.,.1.x > @ @ 1 6 6 g 3 2 4 4 3 3 3 3 3 3 g v g k t.lXr.C ,.0.0.0.0.q.q.u.u.q.q.w.0.9.9.9.9.9.U U U U I T t.T T Z l h l m N C V y.f.,.M N W c : + J | ~ E Z M N h 2 @ + + + > T %X0X@X0XOXOXyX0XJ.>.>.y.y.U U T T T e.e.A M 1.jXPXPXPXLXLXLXLXLXLXPXPXkXH.K.C h x :XF 3 5 j ' _ T I U t.e._ Y y +   o * o   + 0 D D 9 , .             X X                   o .     t / { { P 8 , , 7 0 G G G | ` ( ( ( ( H ) _ V.S._ ) ) ( { ..#. .{ ( ` | ( ( ( ` ( G ( ( ( G G `  .| { | |  ./.I.8X6XqXiXyX9XU.V.[ ]  . .| ( ( {  .#.#.#.#.#.....#.#.#...#.ZXaX..{ i ....4XxX4X..5X......../ ..{ 0 > 2 b c 7 < 0 b 5 c K c Y V.V._ V.] ) _ _ Y T T N.Z x U t.A.t.A Z Z Z A A S S S n g 3 :XeXE.H.U.Y.J.J.J.J.J.Y.Y.J.J.J.J.J.J.J.J.J.J.J.Y.H.J.Y.[.OXJ.B.U I I D @ @ ` lXjXT h Z Z v F D < % p - O & , 8 8 # w w w w O = O o o o O ; ; ; ; ; ; O O O * * * * * * * * * * f * * * * * * * * * * * * * * * * * * * * * * * o * * * * ; f a a a O.O.O.O./ { K g h 3 3 3 F R I c 0 8 # . . . 0 K R c > : > > q @ : < @ : c c c 2 3 j 5 5 c 5 5 5 9 , +                             ; ",
"{ { +.+.+.{ { { { / d d d d d d i i / / d / { { #.#.#.aXaXaXaXaXsXsXsXsXsXaXaXdXdXdXdXsXsXsXdXdX>X>X>X;X;X;X-X!.!./.-X-X-X;X;X;X;X;X:X`.(.D.D.L.E.C.L.`.!.} } | @.{ d d +.#.+.t i t d { { ` |  .Y Z.^.Q.) F c v v I Z.Q.S.R : c `.lXeXeX_.E.U.E.Y.W._._.D.T I v 5 < > > > 2 2 3 3 h z A y.,.V =.:.:.:.,.A h @ + . % 1 6 2 2 > < < 2 2 2 2 3 3 3 5 3 g T lXs.A >.8.0.0.0.q.q.q.q.q.q.w.0.8.9.9.9.9.U U U U U T Z.E E I x l l m M C &.<.f.s.M m W K < + J ~ ~ E S M N h > @ + + + > T %X0XOX@XOXOXtXOXF.>.9.y.9.U U T T T e.e.A M 1.DXPXPXLXLXLXLXLXLXLXPXKXlXH.p.C l Z 1Xv 3 j j E N.T I E Z.N.N.Y y +   o * o   + < 0 0 7 $ .             X                     o o     t d d { ! u u J 0 y G G (  .` H ( H ) H Y ) _ _ ] ) ) (  .#.aXaX#.| ` ` G ( ` ] ) ( ( ] ] G G (  . . . . .[ I.8X6XqXiXiXqXW.U.I.V.[  . . . . . . .#.#.#.4X#.#.#.#.4X4X4X4XaXaX../ / ....4XxX4X..........{ { #.{ < > c R D 9 4 b b 5 c R c _ S._ _ V.' Y Y _ Y T T N.Z x Z U t.t.t.U Z N A A A A S x h g pXeXW.U.Y.Y.Y.Y.[.[.[.[.[.[.Y.J.J.J.Y.Y.Y.Y.Y.Y.Y.J.J.[.[.Y.H.e.U I Y D @ + | jX:XI x Z I F F D < + = O   = 8 8 u $ 8 $ # % . - X       o ; ; ; & - & X   ; * o * * * * * * * * * * * * * * * * * * * * * * * * * * * * * * * * * * * * * ; f a a d O.O.O.O./ P K g k 3 3 3 I Y F c 0 8 #   . + y L L c > : > 1 1 : : : @ 9 L L b 3 2 5 5 5 c 5 5 5 4 , .                             ; ",
"d { { +.+.+.+.+.+.+.{ { +.+./ d / { / / / d d d i i d { #.aXaXsXaXaXaXsXsXsXsXsXsXsXsXsXsXsXdX;XdXaX>X;X;X;X/.!././.!.!.| /.-X!./././.^.^.D.D.L.).D.Q.Q.' } | | +.{ ! d { #.+.t t & u { { ` | } E ' ^.^._ F 5 v v F !.S.S.} : 2 ^.kXgXhXgXeXU.U.W.W._._.R.N.I v c 5 > > > > 2 2 2 h l N y.1.=.:.=.1.:.1.S g @ .   . = 1 > > : : > > 2 2 2 2 2 2 2 2 3 I lXK.8.A 8.8.0.0.w.q.q.q.q.q.w.0.8.9.9.9.9.U U T U U T D.E U U Z l z N M &.&.:.f.f.B m W K > @ J ~ R E W m m h > + + % @ > I %XOXOXOX[.J.OXJ.w.A 9.y.U U U T T T e.e.>.C C HXPXLXLXLXLXLXLXLXLXLXKXfXJ.q.C m N fXZ 3 j j E N.T I U Z.B.N.` y +   o o o   . $ 7 7 $ . o o           X                     o o     t i d { { ! ! L D y G G ) /.` H ` ` _ _ Y Y _ _ ] ) ( ( ..#.;X;X-X| ` ` G ( ` ] ) ( ) ] ] ( H ] /./. . .[ [ [ T.6XiXiXiXwX9XT.U.I.[ /.;X . . . .#.#.#.#.$.4X$.#.#.#.#.4X4X4XdX..i ........4X..............#.#.L 4 9 c R D 0 9 b b 5 c R F _ S._ ] V.) Y F _ I N.e.e.U Z N U e.r.t.e.U Z 9.U U U I v k k pX7XW.T.W.W.Y.Y.OXOXOXY.Y.Y.Y.Y.Y.Y.Y.Y.Y.W.W.Y.W.Y.E.OXOXY.H.e.W R R D @ +  .jX`.I x I I I F D 0 8 w . . w u w u , 8 # + . . = % .     o ; ; - - - = X X ; ; o * * * * * * * * * * * * * * * * * * * * * * * * * * * * * * * * * * * * * * f a a d O.O.O.O./ P K h k 3 g 3 R R F c 0 , +   . + y L K 5 > > > 1 @ 1 : @ < K ` } K 5 2 5 5 5 c 5 5 5 4 , .                             ; ",
"d d { { +.+.+.+.+.+.+.+.+.+.+.+.+.+.+.+.+.+.+.+.{ { { / { ....{ +.#.#.>X>XaXsXsXsXsXsXdXdXsXdXdXsXsXsX;X;X:X:X/./././.!././././././.^.^.^.D.D.D.(.Q.Q.' R ~ | { { { d d d +.+./ & & d { { ` | } E E `.^.' Y 2 c v v Q.' ' } : > `.kXfXfXfXeX%XrXrXrXrXeXR.N.T F v j 2 > > > < > 2 3 g l S 1.1.=.=.1.1.1.S j +     o % 1 1 > : : > > 2 2 2 2 2 2 2 5 3 v 1X~.w.>.8.8.8.0.w.w.q.q.q.q.q.0.8.9.9.9.U U U e.T U T Q.T U U Z z z N B *.*.:.f.#XB m W K 2 : J L R E W m z h > + + % @ > v E.OXOXOXJ.G.H.B.9.>.9.9.U U U T T T e.9.9.A C 1XPXLXLXLXLXLXLXLXLXLXKXfXOX,.V B N fXZ g g k T N.T Z U A.B.N.` D @ .   o o     + $ $ .   o o           X                     o o     t i d { { L { L D 0 G G ) /.] Y ' ' S.S._ Y Y _ ] ) ( ( { | { { | | ` ` ( ( ) ) ) ) _ ] ] ) ) ]  . . .` ] ] [ I.6XuXiXiXuX0XW.I.] ]  .|  . . . . . .@.#.+.#.#.{ { { ..#.4X5X4X4X5X4XdX4X..............#... .#.P 0 c c R D 0 5 b c 5 j I F V.I._ _ V.) F c T Y Z.t.e.U Z Z U e.e.e.e.9.U U U I I I v j j pX7X_.W.W.W.W.W.W.W.W.U.U.U.T.U.U.U.T.T.W.R.R.R._.R._._.W.W.D.E K K L 0 @ + ;XlX(.I x I I I F D L ! { u = d ! ! u 8 8 $ $ + . w % X     o % - - - w - O   % * o * * * * * f f * * * * * * * * * * * * * * * * * * * * * * * * * * * * * ; * f a - d X.O.O.O.d J K h k 3 g 3 I E F c 9 , +   . @ D R K 3 > > > : @ 1 @ @ D K K ~ ~ c 2 5 5 5 c j 5 6 < @ .                             O ",
"# $ & w i d d d d +.+.%.%.%.%.$.%.%.+.%.%.%.%.+.+.+.{ { { { / i d { { +.+.@.#.#.>X>X>X;XaXsXsXsXsXsXpX;X;X:X/./.:X/./././.:X:X/././.^./.^.D.S.D.D.^.!.L L L ! ! { ! u i i { #...& i { { { `  .!.E T `.^.' Y > j v v Q._ ' !.> : Q.lXfXgXgXfXeXrXtXrXrXrXR.N.T I v c 3 > > > : : 1 > 2 g h N 1.M S S S S W b #     o % 1 > > : : > > 2 2 2 3 2 2 2 c 3 k 1X~.r.>.9.9.8.0.w.w.q.q.q.q.q.0.8.8.9.9.U U U e.T T N.Q.T I U U m z N B *.*.:.M.2XB m S W 3 : J R R E I m z g > + + % @ : x L.OXOX[.J.F.H.B.9.9.r.e.U U U T T U U e.9.>.=.y.JXLXPXLXLXLXLXLXLXLXDX&X*XV V V M fXZ h g v T N.T Z U A.B.N.) D @ .   o o       . .     o o           X                       o     - i d P P P L L 0 0 G ( ( S.) Y ' ' S.D.D._ Y ) ) ( ( | #.#.{ L R ` R ` H ( ) ) ) ) _ _ ) ) ) ) ` ]  .] ] [ I.T.qXuXiXiXwX9XT.V.Y ( ( J { | | | { { { { ..+.{ { +.+...#.#...5X5X5X4X4X4X....5X..........#. .| G 9 9 c ~ D 0 5 b c 2 j F F V.I._ _ ] Y F c ' T A.t.T A Z Z 9.e.e.U 9.e.e.I F v F c 5 2 4 /./.] _ V.V._ N._ _ _ Y Y Y _ ) _ _ _ ) ] ] ) ) ) Y ` ' _ Y F 9 0 u P 7 @ @ pXlXQ.I x U I I K D J ! { e + w s s u 8 w w q & # p = %       % - p w w w X   * * o * * * * * f f * * * * * * * * * * * * * * * * * * ; * o * O * * o o o o o ; f a - d X.X.O.X.d J K h h 3 3 j Y E c 0 7 , .   . $ D R K 3 > > > 1 @ 1 + @ J D 4 D } c 2 5 5 5 c c 6 6 7 @                               O ",
". . . . . . . . . - d d +.+.+.+.+.+.%.%.%.%.%.%.+.%.%.%.+.+.{ / d d d d d ! ! ! { | @.#.#.;X>XdXdXdXpX:X;X/./././././././././.:X/./././.^.^.Q.Q.!./.} K P ! ! +.{ { d i d { ..#.i { { { { ` ` /.!.T ^.^.' Y 2 K W E Z.I _ !.2 2 Q.eXlX_.fXfXeXrXrXrXrXeXR.N.T I x x g 3 > > 1 q 1 : > 3 3 3 h l x x x S ~ !         + 1 1 > > > > > 2 3 5 6 5 5 0 5 2 j ~.`.r.9.9.9.9.0.0.w.q.w.q.w.0.0.8.9.9.e.9.T U U T N.A.A.U U U t.l m m B *.*.:.f.#XB M N W W 3 c L R R I N N h > + + % @ > h B.OXJ.[.OXH.B.r.e.e.r.e.9.U W ~ W W U e.F.8.=.,.DXKXPXPXPXPXPXPXPXKXfX*X=X:.V V C lXZ h x v I Z.e.I U A.B.N.Y D , + . .                 o o         X O O                   o o   o - i d u P G G H H G G H ) ] ) ) _ _ S.N.^._ ) H ) ) (  .#.#.~ 0 c K R ' L ] ] ) ] [ ] ] H ) ) ` ` ` ` ] ] [ I.6XqXiXiXuXqXW.N.H D D y 8 { | | { { { { { { { +.+.#.#.%...%.#...5X4X4X5X4X4X.... .......#... .| D 4 c F R c 5 c b j j F I Y V.V._ V._ F c 5 S.Y t.t.U A Z N 9.e.9.e.U Z Z.R D : < < : @ @ e 0 < : < : : : 4 2 2 j c c c c 0 @ > @ @ @ @ + + $ + + @ @ + + . + i + @ D pXlXD.Z I U I I F c c ! J @ + = - # q w s u @ + w p w     . % - p - s e w = * * * * * f f f * * * f * * * * * * * * * * * * * * f f * O * O * O * O * * * * * ; f a d a a X.X.d s b x x g k 2 F I I D 9 9 $ .   . 8 J R F 2 > 2 1 1 @ 1 + @ | R F | L 5 > 2 c 5 4 5 6 6 , + .                       X     O ",
"+ + + + + + . + . + . .     . . d d +.+.%.%.$.$.$.$.$.$.$.%.+.+.! +.+.+.+.{ { { { { { { { { { {  ./././././././././.^.^.^./.`.pX:X:X:X:XpX:X/.!.} | L J ! { ! ! ! { d i d { ..#.{ d i i { ` | !.!.Y ^.^.S.Y 5 R !.Z.N.I S.Q.3 > Z._.fXC.)._.&XrXrXrXrXeXR.V.T T Z Z k 3 > : @ % = @ : : > > 2 3 2 2 3 j ~ !         + 1 > > > > > 2 2 3 5 5 6 6 6 2 2 3 !.`.r.>.9.9.9.0.0.0.q.w.q.w.0.0.8.w.e.e.e.e.T U T N.Z.A.T T t.d.z z m B *.*.:.f.~.M M Z E W k v R R E I z z h > @ % = @ 2 h e.P.F.F.P.F.A.r.e.9.U U U W ~ ~ W W U r.J.F.=.,.gXKXKXKXKXKXKXKXKXlX).P.*X-.*.&.=.2XZ g k v I N.e.I U A.B.N.Y D , + + . .               o o         X O O                     o   o ; i i i P G H H H G G H ) [ ) ) _ T Z.N.S.V.V.Y F H Y /.-X@.K 2 5 c F R Y ] ] ) ] ] _ ) H ( ( ( ( ( ` ` ) ] I.T.6XuXiXuX9XU.I 4 0 { { u { |  .{ { ......+.+.%.#.#.#.%.....5X....5X5X5X4X4X#. ...#.#.....#.@.| y < c F ~ c 5 k b j j F I Y V.V._ ] ) F c 5 Z.I E t.U A Z A 9.e.9.T U Z Z.| 8 + . % . . . . + + + + @ @ : > 2 c R } } ~ L c : 5 @ @ @ : @   X .           o   8 . + D pXkXZ.Z U W I W K v : 4 9 , $ % O & u w q + . . & p -         O d d q = % + O o * * * * * * * * * * o o * * * * * o * * * * * * f * O O O O * O O O O * * * ; ; f f a a a X.X.d J K x x g k 2 I I I c 9 8 $ .   . 0 K R F 2 2 2 1 1 : @ + @ -X-X/.,XD 4 : 2 5 5 4 5 6 1 , +                         X     O ",
"e 0 6 < < : : : @ + + . . . . . .     . . + # # d ! { @.$.$.>XaX>X>X>X$.$.$.%.%.d d d d d d P { P ( ` |  ./././.S.^././././././././././.:X:X:X;X| L 0 u ! d s i d d d i d { {  .#.u # 8 L ` | !.!.I ^.^.S.` 5 R !.Q.D.N.D.Q.g 2 T _.gX)._._.R.H._._._.eX(.V.T T U Z x g > : @ % = % @ @ < 4 4 > @ @ : : ! {         % : > > > > > 6 2 3 3 2 2 4 1 6 > 2 E :Xr.A 9.8.8.w.w.0.q.q.w.w.w.0.w.r.r.r.e.e.e.U T N.N.N.T T Z.Z.N z m M &.&.1.f.s.m N A d.W v I E E ' I z z h 2 : % = = 2 h 9.r.r.r.A.r.e.e.e.e.e.e.t.t.W W Z U e.H.OX[.:.*.*XhXhXiXiXiXzXzXzX9XL.#X=X:.-.&.C 2XN g v v I _ T U e.A.B.N.` D , @ @ + .               o             O O                           ; i i y G H ) ) ) H G G ] [ ) Y Y Y _ _ _ S.I._ I T t.:X;X| c > 3 j v R R ' ` ) ) ) ) ) ( ( ( ( ( ( ( ( ( ) ] [ I.qXqXqX9XI.D @ @ y y & (  . ...........#.#.#.#.$.$.%...........5X5X5X5X .4X#...#.#.#...@.| | D 4 D F } c 5 c c 5 j F Y Y V.V._ ] ) D 5 5 Z.I E e.U A A 9.9.e.e.U I U Q.{ 8 i   . . . % . . . + u { | } ^.D.^.R.^.C.V.D.V._ ^.S.S._ c @       ; &     f * o & . + L fXkXe.Z W E W W K j > 5 c J u +   X - w = .   . & w     O .   . - - # + + .   o o o o o o o o o o o o o o * * * o o o o * * * * * * * O O O O O O O o O ; * ; * ; - - a a X.X.d ! K k x g j 2 W T I c < 8 $ .   . 0 K R v 3 2 2 1 1 r 1 @ < ;X;X;X,X9 > : 2 4 4 4 0 < < @ +                         X     ; ",
"b b c c 5 4 4 4 4 9 9 < , @ @ + @ + + + + + + + + + + $ 8 u s ! ! +.+.%.$.$.>X>XZXZXZXZXZXaX#.+.{ { ( G G H ` ' S.!././././.:XpX:X;X/.!.;X:X:X;X| P 0 u s i w w w p i i P { { ..;X{ 8 y { ` ` !.!.F S.^.S.Y 4 R !.Q.(.D.L.D.x g e.).gX(.(.).R.U.U.U.E._.R.V.T U E U x h 3 > 1 1 @ @ @ : 0 J D 0 , + : @ ! @.        % : 1 > : : > 6 2 2 2 > > : : 1 : > I :XB.A 9.8.0.w.0.0.q.q.w.w.0.w.r.r.r.B.e.e.e.T T N.N.N.T T Z.A.Z l z M V &.f.f.,.z m A t.E Z W E ' ' I N N x 2 @ @ = 1 6 h A r.9.9.e.e.e.e.9.9.9.U U Z Z x h T E.rX0X[.<.*.'.tXwXwXwXwXwXwX9XY.J.*X2Xf.7.:.,.fXZ g k v v T T U e.A.B.N.' y , , @ + + .                           O O                           - d d u ( ) ) ) ) ) H H ]  .) H I I _ _ _ V.^.S.B.A.K.1X,X~ 5 2 3 g c R R } ` ) ) ) ) H ( ( ( ( G G ( ( ( ) ) ] I.6X6X6XW._ H ) ( y 8 8 (  . ...........+.+.#.#.$.4X4X............5X.... .#.#.....#.#.#.@.| | D 0 D F R c 5 c c 5 c Y ) ) V.V.] ] ) D 5 c Z.F T t.U Z A U U r.e.U T N.^.| +.aX      - i p & + y | ;X;X/.R.R._._.W.C.V.C._.U.I.N.I.(.N.D 8 w d d i ;   o * o X . + ` lXkX9.A t.E v W v 3 3 c c c y #     . . & X     & w X     . . & - . 8 , & % X o   o o o o o         O o o o * * * * o o * * * * * * O O O O O O O O O O ; ; ; ; ; - t a X.X.X.d ! W h l 3 j 3 W T I c < 8 #     . 0 K R v 3 2 2 1 1 @ @ @ < -X-X-X;X> : > > 4 < < 4 < , @ .                               ; ",
"v v v F F F F F c c c c c 0 0 9 9 4 4 < > : : : : : @ + + + + + + . + 8 s ! +.+.#.#.$.$.>XaXaXaXaXaXaX>X;X;X/./.;X/. .} ` }  ./.} } } !./.-X-X| { J u ! { d d d i d d d { { { { ;X#.{ { | ( (  .!.F S.^.S.Y 2 I !.Q.C.C.E.).t.Z I C.fX)._._._.E.C.U.R._.(.V.T U T U Z k j 2 2 > : : : < D R R G 8 + : @ L @.      . % 1 : : @ @ 1 1 > > > : : @ @ 1 @ : k :XL.U 9.8.0.0.0.0.q.q.w.w.0.w.r.B.B.B.r.r.e.e.T N.N.N.T T t.t.A l z M B &.f.~.C z m Z t.W S I E !.' T A A x 2 @ + = q 6 h Z 9.9.9.9.9.e.9.U A U U A Z h v F C.9XyXyXOX:.-.i.@X0X0X0X0XwX0XB.F.F.*XgX2Xf.7.w.lXZ 3 3 3 v T T U e.A.F.N.' y , < , @ @ .                           O O                           - d { ( ` ] ] _ ) ) ) ( ]  .) H I I T N._ N.D.L.K.s.#X2X<X! 3 3 g g v R ` | | ( ( ) ) ( ( ( ( ( ( ( ( ( ( ] ] [ I.T.6X6XW._ ) ] ` G y y ( | ..( ( ( { { #...+.#.$.4X4X%.#.4X4X...... . . .#.#.#.....#.#.#.@.| D 9 D F R j 5 c j 3 c Y _ _ V.V._ ] ' F c c Z.F T e.U Z A A e.A.e.U N.V.' ( { #.  X 8 { { y $ 7 ` /./.] ] T T T N.T Y Y T N.N.V.S.(.:XZ.F 0 ! ! ! i u - o * o X . + | lXkXU A t.E v K v 3 c R F D ( ..{ / +./ +.{ i d +.#.{ d i i d { +.{ { { { { ! d d d d d d d - & i d d - o o O O O ; O O O * O O ; * O O O O O O O O O O ; O O * ; - t d X.X.X.d K W h h 3 j 3 E e.I c < 8 #     + y L K c 3 2 2 1 r @ @ : 9 ;X-X| ~ : > > < < : , 1 : @ + .                               ; ",
"I I I I F F F F F F c c D F F F F F v v c c c c 5 4 > > : : : @ @ @ + + + + + + + . . $ p +.$.aXZXZXZXSXCXsXaX;X-X-X-X .| | | | } ` ` ` ` ` L L y 8 u { { { / { { +.{ { { { ( (  .#.#.#. .L H  .!.F S.S.S.Y 2 F Q.Q.H.H.H.).~.K.U B.fXeXfXeX_.E.E.E.E._._.D.N.T T I I v j 3 2 > 2 2 2 j F Y Y F y + @ @ J | #     . @ 1 : @ + + 1 1 : : : @ @ + % = @ : 2 `.L.e.9.8.0.0.0.0.w.w.w.w.8.r.r.B.B.B.r.r.r.e.e.e.N.T T I t.t.W l l m B V 3X<Xm z m Z U A A Z W !.' T U A Z 5 @ + = q 6 g Z 9.9.U U U U U A A W S N x k _ T.qXwXwX0XG.:.;.5.]..X@X@X0X0X[.>.p.F.P.2X~.<.<.8.lXI g k j F T T U e.B.F.N.' 9 , < : @ @ . .                         O O                           - d { ( ` ] ] _ ) ) ) ( )  .) I I I E N.N.N.A.K.p.5.M.lX!.b 2 g g g k W ` | | ( ( ( ( ( G G G ( ( ( ( ( ( ) ) ] V.V.C.I.I.V.) H ( ( ( G (  . .| { { { #.$.+.+.#.#.#.4X#.%.4XZXaX ... .#.#.#.#.#...{ { #.#.#.{ y < c F E j j k j 3 v Y _ _ V.V._ ] ' H c F S.F T T U Z U U A.L.e.e.S.T H y X &   y { { { $ , J |  .' ) _ c j 3 2 > > 3 k 3 v T ' E Z.I F R c b ! { y & o * o   . + -XlXlXU A t.E F R F c Y ^.S.) ;XsXaXaXZXZXZXZXaXaXZXZXZXaXaXaXaXaXaXaXaXaXaXaXaXaXaXaXZXZXaX$.{ { { { +.d ; * O o o O O O O * O O O ; O O O o O O O O ; ; ; O O ; - - a d X.X.X.! L W g h 3 3 j E t.I c , 8 +   . + u K K c 2 2 2 : r r > : 5 ;X-XL 4 : : > > : : @ , , @ # .             .                 ; ",
"`.`.^.^.Q.!.!.!.E E Y I F F v c v v v I I I F F R L K K D c c c 4 < < : @ @ + + + + + + + + . .       . $ u ! | @.;X>XsXsXsXsXsX;X/.!.| ` ` ` { P u { { { { { { { +.{ { { { ( P {  .#.#.| ( L | !.I S.S.S.' 5 F Z.L.E.H.F.H.).).R.R.fX&XeXeXeXrXeX_._._._.D.N.T T Y I F v k j 3 g 3 g v I I I I y @ @ : c ~ e . . . @ @ @ + X X % = : @ @ + + . . % + : : Q.D.e.9.8.0.0.0.q.w.w.w.0.8.w.r.B.B.e.r.r.r.e.e.e.e.T T I T T t.z z m M C <X<Xl z N Z 9.A U Z U !.' E U 9.I c < @ = q 6 g z A A Z Z U Z A S S z l z v C.9XuXiXiXiX0X8.*.;.;.i.z.#X}.#X#Xp.V K.F.P.*XA V V C fXI v n F I N.e.U 9.A.F.N.` 7 @ < : : 1 . . X o       .             O O                           - d { ( ( ) _ _ ) ) ) H ) } ` Y I I E Z.Z.N.A.p.u.6.j.2X^ 6 3 k h g v F ~ | | ( ( ( H ( G y y G ( ( ( ( G ( ( ) ] _ _ I._ ] V.I././.] ( ]  . . .| { #.ZXZX..{ +.....4X4X4XxXxXxX#. . . .#...#.#.#.{ { +.#.@.{ y 9 F F R 5 5 k j 3 v Y Y V.I.V._ _ ) F c F S.F T T U A U e.A.A.N.A.V.F F y # X 8 P ( y 7 < b L ~ v c F I F F I Y ) ) Y Y Y ) F c 2 I } jX`.v k ~ } G 8 = *     + @ ;XkXgXe.9.A.t.F I Y I Y (.D.) ;XsXaXaXZXZXZXaXZXZXZXSXSXaXaXZXsXaXaXsXsXsXCXZXZXZXZXZXZXZXZXaX#...{ { %.d - * * o o ; O O O O O O ; ; O O O O X O O ; - ; O O   ; - t a a a X.+.{ ! R g h 3 3 j d.t.Z c , , .   . + J K F j 2 2 > : q 1 : : 2 | | K 4 : > > : , , @ @ @ @ # .                               ; ",
"E E Z.Z.Z.!.!.!.!.!.Q.Q.Q.!.!.' Z.Z.t.E T I F v F F F F F F F F F F F K K D D D c 0 < : + + + + . . . . . . + + + + + + + $ 7 y L ` | @.@.#.;X;X>X#.@.@.{ { { { { { { { { ( i i i { { { | { ( | !.I S.S.S.' j F t.A.H.H.H.J.P.K.L.C.&X&XrXeXeXrXeX%X_._.(.D.e.T T Y Y Y I I v v k g h v U U T T K < : : 0 ~ J + . . + @ @ + X   % % + + + . . .   . . , @ Z.S.e.9.8.0.0.w.w.w.w.w.0.9.9.r.B.r.e.r.r.r.e.e.e.e.T T I T T d.z z m B C <X<Xh N Z A t.U 9.Z U !.' t.A 9.I v 4 : 1 1 6 g l Z Z z x Z A A Z z x T E.yXiXiXuXuXiXiXwX9.*.2.*.;.;.s.s.f.f.y.M s.r.).&XN C m N 1XZ k v v I N.e.U 9.B.B.N.` , @ < : : 1 . . X X                     O O                           ; i u P G ) ] ) ) ) H D ) ' ` Y Y I E Z.D.A.K.p.s.i.6.M.S 3 3 v k k v K ` | | ( H ( G G G y y G ( ( ( y ( ( ( ) ] ] [ 7XI.I.^./.] ( ( ( ` ` |  .{ P #.ZXZX+.{ ......4XaXZXZXZX4X.. .#.#.#...#.#.#.+.{ { { | | P D H F I 5 5 c j 3 v Y Y V.I.V.) ) Y F c H S.F T e.U Z U N.N.e.N.L.N.v Y 9 P J { P J 0 : e ! ~ c 2 F ' ' ' ` ` ` } ' ' } ` ` H D > c c | Z.F k F ' ;X;X! .     # @ ;XkXfXB.e.A.Z.I I I Y I (.^.] dXdXdXaXaXZX#...dXsXdXFXdX .{  .;XdXdXdX;X;X;X;X#.#.#.#.#.#.#.#. .| { { +.d ; ; ; ; * - * * * O O O ; ; O O O X X O O % = = O X   ; - a a a a X.+.{ ~ W g h 3 j k Z.t.Z c , $ + . . @ D K F j 2 2 > : 1 : > 2 : K 0 4 > : : : : , 1 1 @ @ @ + . . .     . . . .               X ",
"E } !.!.!.!.!.!.!.!././.!.!.!.!.Z.!.!.!.!.Z.' E ' ' Z.' ' _ T T I F I F I I I I F F v v c j j 5 < , , @ @ + . . + . . . . . . . + @ 7 e u P ! ! ! ! ! { { { +.+.{ ..@. . .{ { { P ( { P P P { ` S.I Z.S.S.' c v T D.D.L.H.H.J.J.H.Y.E.E.%XeXeX&X%X_._.`.(.T I Z.T T T T I W W E I I I I T T T T Y j + + 1 ! @.+     . + @ +       .             O . + + : F S.Q.U >.8.w.0.w.s.0.w.9.9.9.r.r.r.r.r.e.e.e.e.e.T T T T T E Z.z m m B ,.~.d.z z U E t.U Z z U A.Z.Z.y.U U I c : @ r > n g x l l l z m M x F T.qXuXiXiXiXuXuXuXuXuXN.V 3.:.&.:.=.f.K.s.r.A e.L.(.1Xl h g v :XI x I Z U Z.T U e.B.B.N.' c < < < , 1 @ . . .                     X X                     o     & d P u G ( ] ] ] H F F ) ^.Y H Y ' T Z.Q.A.B.B.p.s.q.C v c c v F F D c 0 | | { ` ( H ( ( y ( ( y G ( ( ( ( ( ( ) [ I.I.S.) ) ` H y y G G P { { P P ..aXaX%.+.+./ %.4X4X4X4X4X#...#.#...#.%.#.#.#.#.{ { { { { L F F F R 2 4 b 3 3 I T _ I.V._ ] ` Y 5 F ) ) T U U U T T N.e.C.H.A.U x ' G D { P y 0 @ 1 : e e @ @ 0 D D D H D D L L J K < c 9 : : : > 4 0 > 3 !.:X!.-X!         y pXlX&XA.A.A.Z.v I I Y I S./.] dXdXdXaXaXCXy  .jXzXpXKXjXF c  ././.^.] ' ' Y } ' ` H ` ` G { #.#.| { { { d -   o ; * * * * ; ; ; ; ; ; ; O O O X O ; - X ; X O X ; - d d a a / +.| ~ W n 2 3 3 Z A.E c 7 u @ + + + < H R c 2 > 6 > > : : : < < > 4 > > > < < : , , @ @ + $ w u u u w w w w w 8 8 8 & & X & - X ",
"} } !.!.!.} } } } !.!.!.!.!.!.!.!.!./././.!.!.!.Q.Q.^.^.Q.Q.D.D.S.Z._ T T Y I I T T T I I I v v c c c c c 0 0 0 , , @ + . . . . + + + + + + + . . . . + & w s s { { { { { { { { { { { { ! ! ! { S.Y S.^./.!.c v I Z.N.C.H.H.J.J.H.Y.E.E.E.%X%X%X&X&X`.`.(.T I Z.e.T T T T T T T T I I T e.N.N.N.T v + + % ! @.@     . + @ @                     . . + + @ c Z.Q.9.>.8.w.0.w.w.0.9.9.9.9.w.r.r.r.r.e.e.e.e.e.e.T T T T T Z.z m M V f.<Xd.z z Z U T U U Z U A.Z.Z.d.y.U I c > : r > 6 3 S N z z z m m U T.qXiXiXiXiXuXuXuXuXuXiX6X,.3.:.&.=.C f.y.e.U Z U t.~.1Xh 2 > c :XI x Z x U Z.E U e.A.C.B.' D 4 4 < , % # + . . .                 . % % .                   o     & d P y P L ` ] ` H D D ) /.) Y Y ' E Z.Q.A.Z.B.A.A.9.Z v D F H R H 0 : 9 { | { { ` ( ( G y  . .( G y y ( ( ( ( ( ] [ ) D 9 D H y , 9 y i i d { u P {  ...{ +.%...%.4X4X4X%.4X..{ ......#.#.#.#.#...{ P { { ! J F H Y Y 4 4 b 3 3 I T _ I.I.] ' Y E c F ) ) T 9.9.9.e.N.C.N.H.J.F.U Z <X| ` L 0 , 7 : : @ , : @ + @ , , , < < < < : : < < : : @ : @ @ : + @ c } !.W | 0 . O     J pXgX*XK.~.D.S.v I I E F Y R ` dXdXdXxXsXaXy /.zXKXfXKXlXc j ^.`.S.V.V.Y Y F _ I F c F H D L  . .| { { { d - X O * * * * * O ; O ; ; ; O O O O O X ; - ; ; X X X & - d a a a / { | ~ ^ b 6 3 g U A.W c 7 w + + @ @ 9 H H c > > 1 1 > > : : : < 6 4 > : > < < : , , @ @ , 8 u ! ! ! s s u u u u u u u u s d i & ",
"~ ~ ~ } } !.!.-X-X-X-X-X-X-X;X;X!.!.!.!.!.!.!.!.!.!.Q./././././.:X:X:X:X`.`.^.(.Z.Z.' E T I I v I I I I I F v v v F K K D D c 0 6 1 1 : : @ + + + + + + + + @ @ . . . $ 8 s ! { +.+.+.+.{ ! +.| ` H } /.-X| c c I Z.N.B.H.H.J.F.J.J.J.J.J.E.E.E.%X%X).`.).U Z A.e.e.T T T T T T _ T T N.N.N.N.B.e.F @ + + Q ;X7       + @ @                       % . + @ 4 } Q.9.>.8.w.0.w.w.8.9.9.9.9.e.r.r.r.r.e.r.e.e.e.T T T T T T t.z m M V #X<Xy.z x Z E U e.U Z U A.t.!.d.y.U I v 2 : 1 6 2 3 Z.e.U Z Z 9.9.Y.yXiXiXiXqXwXwXwXwX9XuXiXyXp.3.:.&.V C s.y.9.Z Z I I t.1Xg : : 5 ,XW x v x T Z.E I T A.C.B.' D 4 4 < , % + + . . .                 O % % . .     X       o o o     - d { u P G G ` ) H D D ] pX] ] ` ` ' S.Z.D.Z.Z.Q.Z.Z v F F H H L G 9 @ J ! | { { ` ( ( { (  . .( P G G ( ( ( ( ] [ ( G 7 < G H 9 8 y y & & i { { { .. .{ / { { { ..4XxXxX4XdXdX.... ........... ...{ P { { L 0 c Y Y Y 4 5 b 5 g I _ _ I.I.S.' H R c F ] _ T U 9.9.B.C.C.C.U.J.r.Z U pX:X/.R < < D J D 9 9 0 D G D H L ` L H K c 0 K L L : < < 9 0 : 4 4 < 5 j g v -XJ       . ` jXkX&XL.~.Q.Z.F I Y ' v 4 4 P dXaXaXZXCX;XG pXKXKXfXKXlXc 5 Q.`.V.V.V._ _ ) Q.' R F Y H D L  . .| | { { d = o O * * * * * O ; O ; ; X O O O o O O ; - ; % & X X & - d a a a / { } ~ ^ b 6 3 h U A.W c 7 w + + + @ c L F c > > 1 1 > > : : : > r 6 2 > < < : : : : @ @ $ 8 w i u u u u u u u u s d s s ! d s & ",
"> > 2 3 j k b n Q K n K K ~ ~ ~ @.} } } } !.!.!.!.!.!.!.!.!.!.!.' ' Z.!.!.!.!.Q.:X:X:X:X`.^.!.!.t.t.E T U U I I v v F I F F F F b b b b r 6 6 6 0 6 < : @ @ @ @ @ + + + + + + + + @ @ @ @ @ 1 : D 9 J L ~ J > > I !.N.N.H.F.F.F.F.H.H.H.H.H.H.H.E.).).).).U N B.N.e.T T T T T T T T T T N.N.N.N.e.I : @ + e ;Xu X     % % +                       % . @ @ : ` !.t.9.8.w.0.w.w.0.9.9.9.9.r.r.r.r.r.r.r.e.e.e.e.T T T T T t.l m M B 1X<XA z N U t.U e.e.U e.A.t.Z.d.d.U Y v 6 > : 2 > v fXhXhXzXhXyXuXiXuXuXuXwXqX0X0X0XY.T wXiXyX#X:.:.&.V C y.9.U Z Z Z x U :X3 @ @ 2 ,XE v v v T Z.T I T B.B.B.' F 0 9 < , 1 + + + . .                                                 i { { P P D D H ) H D H S.pX) ) ' ) ' ' ' ^.S.S.Q.E v v L L L G D 9 @ + ! ! | { ( ( | |  .{ #.#.{ ( ( { ( ( ( ( ]  .( y 9 G ` ` y y y i u d { +.{ / { .. .( ( { ( ..dXdXdX..4X .( ( ( ( { {  . . . .` ` | | L 9 4 F ' R 9 5 K j g Y _ N.I.R.S.) F R v F ] ] T U A 9.B.C.C.H.E.F.U N Z.jXpX!.F 4 D ` } } } } } !.!.' ' } S.} ` H c 5 D } ;Xc c c K L c J J 0 c j k R >X8       .  .kXkX*XK.~.~.A.I Y E ' c > @ y aXaXaXZXCXdX) jXKXKX7XKXlXF 5 Z.^.^.R.V._ ) _ ^.' ' F Y R H | ;X .| | { ! p % . O O * * * * O ; O ; O X X O o o O O - - % - - - ; & - w a a a /  .| W n b 6 3 x e.A.W c 7 8 + + + @ D R F 5 > > 6 1 > > 1 : : < 0 0 4 > > < < : : : @ @ + + # # . . . . $ & & - w w w w s w - # ",
"b b b b b b b b Q Q Q Q Q ! ~ ~ ~ ~ ~ ~ ~ ~ ~ ~ ~ ~ ~ } } } | !.} } !.!.!./././.:X:X:X:X:X:X:X:X`.~.~.~.~.Q.Q.Q.A.A.Z.t.E T E E F F F v c c c c c c c c c c c c 4 < < < < < < > @ @ @ @ @ @ @ @ $ . @ 1 q 1 @ @ F !.T T B.F.F.G.F.F.J.J.J.H.F.F.H.P.E.).~.9.Z B.N.N.e.T T T T T T T T T e.e.e.N.N.Y < @ + 1 @.! &     % % + X   . . . .     . . . = + @ @ @ L !.A.9.8.w.0.0.w.0.9.9.9.9.e.r.r.r.r.r.r.r.e.e.e.T T T T T t.z m M B 2X~.M z N A E U e.e.U e.A.t.Z.d.d.U I K b 2 : 6 > j fXyXiXiXiX9XiXiXiXiXuXuXwXwX9XW.C.Y yXiXyX*X:.*.=.V B y.9.e.I I Z x I ~.3 @ + > ,X} I I I T Z.E I T B.B.B.Z.H c 9 < 1 , + + + . . .       o                                     X i { { P G D D G ( ) ) ) ^.pX) ) ) ] ] ) ] ^.S.S.!.Y j c J P P D 7 $ @ + 7 u ! { P (  .;X#...#.#.{ { ( ( ( ( ( ( `  .( G y ` ` G G 9 8 u d { 4XaX{ i { #.dX . . . .dXdXdXdX .7X7X[ [ I.I.[  . . . . . . ././.R 5 2 F R R c c K j j W N.N.I.(.S.Y c K c F ] _ T U A 9.B.C.C.E.E.r.N Z Q.jX:X' c c Y ] S.S.S.D.^.S.S.S.S.V.S./.S.Y Y c c } :XH c c F K c b b c F v I !.>X+       . ;XkXkXH.A.~.~.A.E E E R 3 > : y aXaXZXZXjXpX) fXKXzXI.zXfXc j D.`.(.^.V.Y H Y /.' ` H H ` L | ;X| { { { ! w O   O O O * O * O O O O X X O O O O O ; - - & = - & & - - i d a t / #.-XW h r 6 2 v e.e.I c 7 8 . + + : K R D 5 > > 6 1 > > < : > b J b 4 > > < < : : : : @ + . . .         . . . . . . . . X X X X ",
"Q Q Q b Q Q Q Q Q Q Q Q Q Q Q Q Q Q Q Q Q Q Q Q Q Q ! ! ~ ~ ~ ~ } } } } } } ~ ~ !.!.!./.<X<X:X:X:X:X:X:X:X:X:X:X`.~.Q.Q.!.!.!.!.!.!.!.Z.' ' E E E Y Y I I F F F D D J J J b 0 5 4 2 > > > : : @ + . . . . . + @ 0 } T T B.B.F.F.F.F.H.P.P.J.F.F.F.H.H.L.L.r.e.L.B.N.e.T T T T T T T T e.e.e.N.B.A.T c : + @ ! { 8     % . . X   . . . . . . . . % % % @ @ @ 0 } Q.9.9.w.0.0.w.0.w.9.9.9.e.r.r.r.r.r.r.r.r.e.e.e.T T T T t.z m M V 2X~.m z z Z A 9.9.e.U e.A.t.t.d.E I I K n 3 : 2 > 5 7XiXuXuXiX6XiXiXuXuXuXuXwXqX6X7XlXfXzXzXiX*X&.V C C B 9.e.Z.U T I v I !.j @ + : >X} I I I E Z.E I e.A.C.B.Z.H D 0 < < , @ + + . . . . . . X     O X X X X # # & & & & X X X X # 8 i P P G H H H H ) ] ] ] I.7X) H ) ] ) ) ] S.S. .} F 0 J L P y , + $ 0 P + @ y P ( {  .dXdX#.#.#.{ ( ( ( { ( ( ( ( ] ( ( y ( ( G y y 8 u i { aXaX{ i ..dXjXpX/./.7X7X7X/.7XI.8XI.I.I.I.I.I./.I.I.I.I.I.[ :X!.F 2 5 I R F c c K g g T Z.V.R.^.' F 5 F c F ' _ T U U e.B.C.H.%XP.8.M U :X:X:X} F Y ' _ ] V.V.I.V.V.V.I.I.V.D.^.' F c c F !.;X!.c 3 c v c c c D v c v ` ;X+       . :XDXhXB.r.~.~.t.Z.E E K > : : u aXZXZXZXjXpX) pXKXzXI.hX`.2 c pXfXD.V.V.) H ) /.' ' ` R H D |  .` ( | { s - .   O o o * * O O O O O X X O O X O O ; - - & - = & X & - d d t t / ;X;XI g 6 6 2 v A.e.v c 8 & . + + < L R c 5 > > r 1 > > @ : b ~ ~ J > : 2 > > < : , : @ .           . .                     O & ",
"b b b Q Q Q Q Q Q Q Q Q Q Q Q Q Q Q Q Q Q Q Q Q ! ! Q Q Q Q Q Q Q K K K K K b c K K K K W ~ ~ ~ !.!.} !.!.!.!.!.!.!.!.-X<X:X:X:X`.`.`.`.`.^.^.^.Q.S.Z._ T Y Y I E R R R R R F F K K c c c 5 4 < @ + . + % . + + 0 -X!.Z.D.N.e.B.r.r.F.H.J.H.F.F.H.B.F.B.B.B.).).B.N.e.e.T T T E E T t.t.e.e.t.A.D.T F < @ @ 8 @.u   . % . . X   . . . . . . . + = . = + + @ @ R ^.e.9.w.0.0.w.w.w.9.9.9.e.r.r.r.e.e.r.r.r.e.e.e.T T T T t.z m M C 2Xf.m m N A Z 9.9.U Z T A.t.E t.W Z Z W n j > > > 2 6XiXuXwXiXT.qXiXiXiXiXuXqXqXqXzXKXKXKXzXiX&XB B C A N U t.Z.T T I Y I E c @ + @ >X} F v F Y ' E I e.A.C.B.Z.H D 0 < < 8 @ + . . . . . . .     # i s s p p d d d d d d d d u u P P P L G G ) ] ] ] ) [ [ ) ] 8XV.) ) ^.Y ) ] ] ] | ` D y P ! J 7 , 7 D {  .< 7 7 y P (  .dXjX . ...G G ( ( ( ( ( ( ` ( ( ( H D H L y y i i { ..aXaX{ y { dXjX7X/./././././.I.I.I.I.I.8XI.W.I.I.I.I.I.I.I.I.`.' F 2 j F Y F c c K j j T V.I.^.^.Y c 3 K c F ' Y I U 9.B.H.L.E.OXp.,.M 9.`.Q.pX/.H ) ] _ V._ W.T.I.V.V.V.V.V.I.D.S.I j F Z.!.Z.`.I 3 v v v c 5 c v c F R | . .     . pXKXhXB.F.L.~.U Z.E R v > : , u ZXZXZXZXsXpX) pXzXzXI.7XS.3 T kXlXS._ V.Y F Y /.' ' Y Y H D |  .( ( | { s - . . = O O ; O O O O O O X X O . . O O % = - & & & # X & w d t t t / ;X/.Z h 6 k 2 I A.T v 5 8 & . . + 4 R H c 3 > 6 r 1 : > @ > J | | J 2 > 2 2 > > < : , @ .                               O   X = ",
"Q Q Q Q Q Q Q Q Q Q Q Q Q Q Q Q Q Q Q Q Q Q Q Q Q Q Q Q Q Q o.o.! ! ! ! ! ! Q Q Q Q Q n n K ^ K Q Q b b b c c v j c v K ~ ~ ~ ~ } Z.!.!.Q.Q././././.<X:X:X:X:X:X`.`./.Q.!.!.!.} R F F c c c 5 2 : 1 % q = % + + ! ,X:X/.^.Z.U T e.9.e.B.B.B.B.F.L.B.B.B.e.L.fX&XB.B.e.e.e.T T t.T T T e.e.e.e.B.L.N.I 2 : @ @ #.P . . % o   X   . . . + + + + + = . = . + + . L ^.e.9.e.w.0.w.w.w.w.9.9.e.r.r.r.e.e.e.r.r.r.e.e.T T U T t.z m M C 1Xy.m N N y.A 9.U U Z U A.E E E U Z Z Z K k 2 : 2 4 T.iXuXwXuX6X8X6XqXqX9XqXqXiXzXKXKXKXKXzXiX%XM m N A N A A.Z.T T Y E I R c + + + ;X} D c c F Y Y I T B.B.B.S.H D 0 < < 8 @ + + . . . + + .     8 ! { { ! ! { { { { { { { { | | | | } ` H H ) ^.^.V.] I.V.) ) I.I._ ) ^.H _ _ ) ]  .( y J ! e 0 0 G ` | | | ` L 7 7 G ( ` dXdX .|  .( ( ( ( ( ( ( ` ] ( ) ] ( 0 G ` y y P 8 ( { #.#.( y  .dXfX7X7X7X/./.7X^.^.7XT.I.T.6XI.I.T.I.U.I.I.I.I.I.^.] F 5 5 c F F c c K j j T V.I.^.S.H c 3 K c I ) Y I U e.H.E.E.E.J.0.=.B 9.Q.} ;X/.H H ) ) V._ T.V._ V.V._ V.R.Y Y V.Z.v Y Q.I Y :XI j v c I c c F c c R ` | $ X . # + pXKXhX9.F.P.K.I Z.E R c 4 @ @ ! ZXZXZXaXdXpX_ fXeXeXV.I.N.v ^.DXjXS.S.S._ H ) /.' ' ' ` H D | /.( ( | { d - . X = O O - O O o O O O X X O O . . O % - - & & # X X & w d t t t i  .!.Z x 3 k 2 I D.T v 9 8 & . + + 6 R H c 2 2 6 r 1 : : > r K | ~ b 4 4 2 2 2 > < < : @ & X                             o     = ",
"Q Q Q Q Q Q Q Q ! Q Q Q Q Q Q ! Q Q ! ! ! ! ! ! o.o.o.o.o.! Q Q Q Q Q Q Q ^ Q Q ^ ^ ^ Q Q Q Q Q Q Q Q ~ @.-X-X!.K R K K b b Q Q n n ^ ^ ~ ~ ~ ~ ~ ~ -X-X-X-X-X-X!.!.!.!.!.Q./.-X!.!.!.} R K K K b Q e q q q % + e @.sXsXjXAXjXlXlXfX&X`.`.).L.B.C.B.N.e.e.e.A.L.L.K.A.e.e.e.N.N.N.e.e.e.e.e.e.e.H.D.I 2 : + , ! u e . O o   &   + # $ $ $ $ $ + % % % + . . + , } Q.e.9.w.0.r.8.0.8.9.9.w.r.r.r.r.r.r.r.r.r.r.e.e.e.e.U t.N m B y.~.y.M M Z A U y.9.U A U e.Z.E t.e.U Z Z n h 2 > > 5 ] iXuXwXwXiX6X] U.C.B.e.W.iXiXzXzXKXzXzXiX&Xz z A y.U t.e.Z.T T T Y I K L @ + , | ;X} F c Y I v j T N.B.B.' Y D 0 9 < , 8 + + + + . . . + $ 8 u P ! P P P P P P P { ( { ;XsXsXsXsX/.S.) Y V.fX7XR._ I.V.I.V._ I._ Y _ H ) Y ) ) ` L G u P 7 @ , D ` ' } | ` } ` H L ( ( ` ] ] ] ) ( ( ( ) ( ) ( ) ] H G ) ` H ` ` y y ( P P { { G ` ( ] 7X7X7X7X7X`.(.(.(.^.T.T.8X8X8XW.W.W.T.T.6X6X6XT.U.R.V.F c c F Y c c c v v k T I.I.D.S.H 5 c K v Y S.I T U B.%XH.E.P.8.:.:.=.9.E Y ` L c D ) ] I.] I.V._ _ C.I.I.V.F _ D.D.D.Z.I j j :XZ.k v v v k v c R c D L { $ .   . + jXkXrXr.H.P.B.Z N.' R c : @ # { ZXZXZXaXdX`.] S.V.Y I T Y I :XDX:XZ.Z.T Y Y ' !./.' ) ) H H |  .( ( | { ! - X % O O % O O O O ; O X X X X . . O % & & & & - & # & & w d t t t i ` !.I l g 2 3 I A.T c 0 8 # . . @ b R H 5 2 2 6 r 1 : > > > 6 J K j 2 2 5 4 4 4 > < < 1                                       * ",
"Q Q Q Q Q Q Q Q Q Q Q Q Q Q Q Q Q Q Q ! ! ! ! ! Q Q Q ! ! ! o.o.o.o.o.Q o.o.o.Q o.^ ^ ^ ^ ^ ! ! o.o.! ~ -X>X-X!.E } } ~ ~ ^ Q Q Q Q Q Q Q Q Q Q ^ ^ ^ ^ ^ ^ ~ ~ W W W W W E ~ ~ !.!.!.~ ~ ~ K K ~ ~ ! Q Q Q p q + e ! ~ | -X-X<X<X`.:X1X1X1X`.`.fXfXfXfX1X`.(.L.).L.H.B.B.B.C.C.N.e.e.e.N.r.B.H.C.L.T k 2 @ @ u L u . . O   . . # % $ $ $ $ $ @ @ % % + . . . @ R Q.t.U r.0.w.0.0.8.9.9.w.r.r.r.r.r.r.r.r.r.r.r.e.e.e.U e.N m B y.~.8.m m m C C 9.9.A A U T N.N.T e.T U S S x 3 1 > 4 ] iXiXwXwXiXqXI.N.N m A E.zX6XyXzXKXKXzXzX(.Z N z A U e.t.N.T T Y Y I F K , . , L !.!.Y F Y Y v j T N.B.B.S.) D 0 9 < 7 7 @ + + + @ @ 8 e u u P P P J P P P P G G H G ` ;XjXkXKXKXfXD.Y F _ 7X_.C._ I.I.I.V._ I._ _ V.Y _ _ ] ' ' H y y J , , 0 H ) ] ] ] ] /.} ` ( ` ` ]  .[ [ ] ] ] ] [ [ [ ] ] [ ) G ) } } !.` D G | | |  .` G ] ) [ 7X7X7X7X7X_.(.(.(.W.T.T.T.T.T.T.T.T.T.T.6X6X6X6XW.R.S.I F F F Y c c c v v v T I.I.I.' F 4 n W v Y S.Y I e.H.J.U.E.F.,.:.<.,.9.E F F D 0 H ] ] V.] I.I.] _ V.I.I.I.I I _ ^.^.Y k 3 T pX`.Z.v g v v v j F c D G P # . . + , lXkXrXB.J.P.B.Z T E R K < @ $ { ZXZXZXdX/.`.V._ S.D.D._ T T Q.:XQ.' Z.T Y Y _ ' ' ) ) ) H H ]  .( ( | { d = X % X O O O O O O O X X X X X O . X # % & % % - & # & & w d d t t i | !.I l g 2 j I Z.T j 9 8 # . . @ J R F j 3 2 6 r 1 : > : > > 6 6 2 2 5 5 5 4 4 > > < 1                                 o     * ",
"Q Q Q Q Q Q Q Q Q Q Q ! ! ! Q Q Q Q Q Q Q Q Q Q Q Q Q Q Q ! ! o.o.o.o.o.o.o.o.o.o.o.o.o.o.o.o.o.o.^ Q ~ <X,X:XQ.!.`.:X<X<X~ n n Q Q Q Q Q Q Q Q Q Q Q Q Q Q Q Q n n n n ^ ^ ^ ^ ~ ~ ~ ~ ~ ^ ^ ^ ^ ^ ^ Q Q Q Q e > : @ @ : : > 3 W t.~.:X1XfXlXlXlXlXlXlXlXfXfXfX%XE.E.H.H.H.H.U.H.C.B.B.B.B.H.U.H.R.A.Z 3 @ + 7 { ! @ . O     # = = $ $ $ $ $ 1 @ % % % . . . + c /.Z.U r.w.8.w.0.0.8.9.w.r.r.r.r.r.r.r.r.r.r.r.r.e.e.U e.N m B s.~.8.m m N A C >.9.9.A U T Z.Z.T T T U U W x g r : 2 _ iXiXyX9XuXiX0XH.N m e.rXzXN.T.qXhXzXzXhXI x Z l U T e.N.N.T T Y Y I F K , + @ D ' !.` H Y Y F j T N.B.B.S.) D 0 9 < , , + + @ , 8 e s ! ! P J P y y y P y D D G G G ` :XDXKXKXKXfX_.C._ N.U.C.V._ I.I.V.] _ I._ _ V.Y V._ ^.pXpXL 9 0 0 @ 9 G H ) ] S.S.S././.` ` ` ( ` ] ] ] ] ] ] [ [ [ I.] ] [ ) ) ] } } /.` 0 G  .|  . .` G ] ) [ 7X7X7X7X7X8XW.W.W.W.W.W.T.T.T.T.T.T.T.T.T.W.6X6X6XR.V.Y I Y Y R 5 c v v v v _ I.I.I.] F 2 v R I Y D.Y v L.U.B.E.Y.p.<.:.5.:.9.T c 0 9 0 H ] ) ] ) I.I.] ] V.I.I.^.V.Y _ ^.`.T F I Q.Q.Q.Q.I j v k c j F D D D u . . . + D lXhXrXF.J.H.e.v Y R ` ~ < @ & ..ZXZXZXdX/.7XS._ D.(.^.T T T N.T T _ Z.T Y Y _ _ _ _ ) ) H H ` | ( ( { { u % . % O O O o O O O ; X X X X + X . X # % % & & & & # & & w d / i t u /.Z.Z l g 3 j W Z.U c 9 8 X . . 1 J R F j 2 2 6 r 1 : > @ > 2 > > 2 5 5 5 5 4 4 4 < > ,                                       ; ",
"Q Q Q Q Q Q Q Q Q Q Q Q ! Q Q Q Q Q Q Q Q Q Q Q Q Q Q Q Q Q Q Q Q o.o.o.o.o.o.o.o.o.o.o.o.o.o.o.^ Q n ~ <X1X1X:X~.:X1X1X,Xd.n Q Q Q Q Q Q Q Q Q Q Q Q Q Q Q Q Q Q Q Q Q ^ ^ ^ ^ ^ ^ ^ ^ ^ ^ ^ ^ n n n Q Q b e r b > 4 0 6 b ~ ~ !.!.<X<X!.!.!.Q.Q.!.A.A.!.~.<X:X%X%XE.E.H.H.H.C.U.H.H.H.H.B.H.Y.Y.%XK.A g @ + + L ~ r . o   . & w = & $ @ $ , 1 @ @ % % + . . . : } !.T 9.r.0.0.w.0.0.8.w.r.r.r.r.r.r.r.p.r.r.r.r.e.e.U e.N M C s.~.8.m N A y.>.A 9.9.U U T Z.Z.T T U A >.A N h r 1 2 Y iXiXyX[.0XyXtXOXF.r.Y.yXyXI Y Y _ fXKXkXv g v x I e.A.e.N.e.T T T Y I K : + @ < F ' ) H Y Y F j T N.B.N.S.) F D 0 9 < < , 7 y P ! ! ! ! P y y { { ( y y y G L H G H  .pXKXKXKXKXzXzXhXrXU.C.N.V.] I.] V.) ] I._ _ _ Y V._ 7XKXlX` @ , , , G H H Y ] V.S.S././.` ( ( G ( ( ( ( ( ) ) ] ] ) ] ) ) ] ) H ) L H Y F < y ( H G ( ( G ] ) [ 7X8X8XW.W.8XT.R.R.W.W.W.T.W.T.T.W.W.T.T.T.T.T.W.W.R.N.F F Y R H 2 v v v v F _ I.I.I.' F 2 K E I T S.Y I E.H.B.%XJ.p.5.5.3.:.9.I c 0 0 c ` ] ) ] _ [ ] ] ] ] ] S.D.`.^.D.Q.^.:X:XpX' c F R v c c 3 v j F F G y y . . . + | lXgXOXJ.J.F.e.x Y Y R L : + # +.ZXZXxXdX/.I.Y Y N.T T v I T T I I T T I Y Y T T Y Y Y Y ) ) ] | ( { { { i + . & % O O o O O ; X % X X X % X X # # % & & & & # # & & & d +.d t d ;XE Z l g 3 v E Z.I 5 < & X . + 1 ! R F 5 2 2 6 r 1 : : : 6 b 5 2 j c 5 5 5 5 4 4 4 > ,                                       ; ",
"Q Q Q Q Q Q Q Q Q Q Q Q Q Q Q Q Q Q Q Q Q Q ! ! ! ! ! ! Q Q Q Q Q Q ! ! ! o.o.o.! o.o.o.o.^ Q Q ^ ^ ^ ~ !.<X:X:X~.~.`.<X<X~ n Q b b b b b Q Q Q Q Q Q Q Q Q Q Q Q Q Q Q Q ^ ^ ^ ^ ^ ^ ^ ^ ^ Q n n n Q Q Q b b b K c K K k g n n S W W W E t.t.t.!.!.!.!.!.~.<X~.~.L.L.L.L.B.B.N.B.B.H.H.H.H.Y.OXOX%X~.y.v > + + c ~ Q .   X . 8 w - = $ @ @ , 1 @ @ % % % .   . @ H !.t.U e.w.,.0.0.0.0.0.w.r.r.B.r.r.r.p.p.p.r.r.e.e.9.y.N M C s.#X8.m C 1.y.9.>.9.9.U U T Z.S.e.U A A >.A Z x n 1 2 F iXiXyXF.OX=XtXyXyXqXwXzXzXW.W.C._ rXKXKX`.j k k x I A.e.N.N.e.T T T Y F 9 : @ : D Y Y H Y Y F j T e.N.N.S.] Y L L J y 0 u u P ! ! ! ! ! u 8 y ;XaX;XP y (  . .| ` | ;XjXKXKXKXKXzXzXzXyXU.N._ _ _ I.) ] ) [ I.] ] _ _ S.S.pXKXlX( @ @ + y ( ) H H ) ] I.[ /./.` L G G P G G G G ( ( ( ` ` ) ( ( ( G G H D 4 9 y 9 9 y y 9 G ( G ` ) [ 7XT.T.T.T.T.T.T.T.T.T.T.T.T.T.T.T.T.T.T.T.U.T.W.W.U._ c F F F H 5 v v v v I _ V.I.I.] F 3 I Z.T _ S.F N.U.H.Y.OXJ.q.5.6.2.:.8.E Y H F F ' ] ) ] _ _ _ ] ] _ _ _ _ _ _ F 2 2 j c j v 5 v F j c v k k 3 F D D y i . . . + ;XlXfXY.H.J.B.U v E R L J : + 8 #.ZXZXaX4X7XI._ D.(.V.N.V.N.C.C.C.D.D.S.D.D.D.R.R.^.D.D.S.] ] ] ` ` { { { 8 + . & % O O X O O O ; X X X X % % # % & % & # # & # & - & - i +.d t { ;XI z l g 6 v ' N.F 5 < & X . + r ! ~ v 3 2 2 6 r 1 : : 6 b K b 3 k c j j 5 5 5 5 6 > , .                                     X ",
"Q Q Q Q Q Q Q Q Q Q Q Q Q Q Q Q Q Q Q Q Q Q ! ! ! ! ! ! Q ! ! ! Q ! ! ! ^ ^ ^ ^ ! ! ! ! ^ Q Q Q Q ^ ^ W W E t.A.Z.t.t.!.~ n k Q ! ! Q Q Q Q Q Q Q Q Q Q Q Q Q Q Q Q Q Q Q Q ^ ^ ^ ^ ^ ^ ^ ^ Q n n Q Q Q Q Q Q ~ ~ ~ } !.~ S n x S N x N S S S N W W W W W W W S 9.9.y.y.y.e.e.9.e.e.e.A.A.B.B.F.J.P.P.f.~ K 7 + > ~ ! %   X + 8 w - = $ @ @ , , @ @ % % % X     + 9 } Z.U e.w.,.0.0.0.0.0.w.r.r.r.r.r.p.p.p.p.r.r.e.e.9.y.N m C s.#X8.m N A >.A >.8.9.9.U T Z.S.Z.e.A A ,.>.A Z n 1 2 c iXiXtX0.:.<.F.Y.qXuXiXiXqX6X9X9XT.6XKXKXjX5 3 v I U A.N.B.N.N.T T T T R J 0 5 5 F Y Y Y Y Y F j T e.B.N.S.) ` ` L L J y 0 7 7 9 7 , < 8 $ . & aXCXaX{ i  .#.;X .| |  .pXlXhXzXzXrXrXrXW.V._ _ ) ) I.] ) ] I.I.] S.S.] S.7XlXzXpXH , , + H ] ] H ) ) ] I.] /./.` ( ( ( { { { { ( ( ( ` ` ` ` ( ( ( ( ( H D : < D D y 0 9 y P ` G ( ( [ 7XT.T.T.T.T.T.T.T.C.C.U.U.T.T.T.T.U.U.U.T.T.T.W.7XU._ c c F H R c F F v v Y N.V.I.I.] F 5 W Z.T N.V.F R.H.C.rXOXH.<.5.6.3.:.w.!./.!.Y Y ' ' ' S._ _ V.S.V._ ) Y Y F F F F F F F I F F F c c K R v g 3 v c y y i . . + @ ,XlXfXH.H.J.r.e.I E K K b : + u $.ZXZXaX4XI.I.V.V.D.N.B.V.B.C.C.C.C.N.N.D.V.D.R.R.R.C.V.V.S.S.] ` ( { { P 8 + . & %   O o O O O X X X # # # % # % % % # # # & & & & & & w +.{ d { :Xv z l g 6 K Z.T v 5 < &   . + e ! R c 3 2 2 6 r 1 : : b K b 2 2 5 c c c 5 5 5 6 5 > :                                       X ",
"Q Q Q Q Q Q Q Q Q Q Q Q Q Q Q Q Q Q Q Q Q Q Q ! Q Q Q Q ^ ! ! ! ~ ~ ~ ~ ! Q Q ^ ~ ! ^ ! ^ ^ ^ ^ o.o.Q Q n v I I E v W | ! r r r Q Q Q Q Q Q Q Q Q Q Q Q Q Q Q Q Q Q Q Q Q Q Q ^ ^ ^ ^ ^ ^ ^ n n n n Q Q Q b Q ~ -X-X<X:X<Xd.S m S S S N N N m z m z z z z m m m S S S S S S S Z A A A A A A A A e.r.p.y.d.~ J < > n ! w     . , - - - $ @ @ @ @ : @ @ + % + . . . @ L Z.t.e.>.w.0.0.0.0.0.w.r.p.r.r.r.r.p.p.p.r.r.r.r.U y.M M C p.P.8.m N C A A >.9.8.U U T Z.Z.Z.T A ,.1.,.A N k > 2 0 iXiX0X>.&.<.F.U.yXiXzXzXqXyXiXiXuXqXzXKXlXc j I E T A.B.B.B.e.T T T T R L K F F I Y Y Y Y Y F j T N.B.N.S.) H H K J 0 0 @ @ + + + + + @ .   X aXaXaXu i #.#.#. .| ` ` | 7XrXrXrXI.C.I.T._ _ I.V.) 7X] ( [ /.[ [ /.S.[ I.pXkXKXpX) 9 y y `  .) ( ) ] ] [ [ /./.| { { { { { { { { { { { | { { { { | | { { y 9 0 P P D y 9 u P { G ( (  .7XT.T.T.T.T.T.T.U.U.U.U.U.T.T.T.T.C.U.U.T.T.T.W.6XR._ c v F F R D F F v v T V.C.T.V.] F 5 R S.N.C.V.Y R.C.U.rXY.F.<.5.6.6.5.y.Q.:X/.Z.Y ' ' S.^.Y _ _ _ _ _ _ ) ) F F F Y R F F F R Y c F c K !.K x x R c y y u . . + @ sXlXfXH.B.F.e.e.I R c b e : + ! aXZXZX4X#.I.W.I.C.C.V.C.N.C.C.C.C.V.V.C.C.C.L.R.R.U.R.I.V.V.S.] ( ( { { P w + + = %   O O O O O X X # & # & % # & & & # X & & & & & & # - +.+.{ { ,Xx z l k g W !.T c 4 7 &   . + e ~ R c 3 2 2 6 r 1 : : r b 5 2 2 5 k c c j 5 5 0 6 > : .                                     O ",
"Q Q Q Q Q Q Q Q Q Q Q Q Q Q Q Q Q Q Q Q Q Q Q ! ! Q Q Q Q Q Q Q ~ ~ ~ ~ ! Q Q ^ ~ ^ ^ ^ ^ ^ ^ o.o.o.! Q Q ~ ~ ~ W j K @.! r r r r r r r r r r r Q Q Q n Q Q Q n n k k n n n n n n n n n n n n n n b Q Q Q n ^ ~ ,X,X,X1X1X<X1.N S S S S S S N N N N S S S S S N S S N N m m m x m z l z m m m N C A ,.>.W ~ ~ b 3 3 Q s %   . + - - & # @ @ @ @ : @ + + + + . . . + D E !.t.C r.0.0.0.0.0.w.p.r.r.r.r.r.r.r.p.r.r.r.r.9.y.M M C w.P.9.m N A >.>.>.8.9.A U e.Z.Z.Z.U A >.,.A N z h 2 2 9 iXiX9XA w.[.rXrXzXzXzXiXqXiXiXiXiXuXzXKXKXY c I E T e.B.B.B.e.U T T _ E R K F Y Y Y Y Y Y Y F c e.N.B.B.D.] Y H G J y u + + @ , , @ @ @ +   # aXaX4Xi { #.#.#.#.#.| { | I.V.I.I.] _ V.V.] _ ^.7XI.7X) ( [ /.[ ] /./.] [ pXKXKXjX] y G | `  .) ( ] ] ) [ ] /. .| { { { ..+.+.| { { { { { ..| { { { { ( G 0 y P P G G y 9 y i { P { ( /.7XT.T.T.T.T.U.U.U.T.T.T.T.T.T.T.T.U.U.T.T.T.T.T.W.I.Y c c F F L D I I v v _ V.C.T.V.' F j Y S.N.C.I._ C.U.Y.rXY.p.<.6.v.v.u.9.Q.pX`.S.Y _ _ S.D.I F I Y ) _ _ _ ] ' ' R F c 5 c c c F F F 2 5 ;X} W W } G D y d     + @ jXkXfXC.B.r.9.e.I v > 6 e @ + ! aXZXaX#...S.I.N.N.C.N.C.N.C.N.C.C.N.C.C.N.C.L.R.C.C.C.C.V.V.S.] H ( { { P w + + = X   O X O O X % # # & & % # # & % = # . & - & & - & X & { %.+.@.,Xk l h g k W !.T c 4 7 &   . @ e ~ R c 3 2 > 6 r 1 : : 4 5 5 5 j c k k c c 5 5 0 0 > @ .                                     O ",
"b Q Q Q Q Q Q Q Q Q Q Q Q Q Q Q Q Q Q Q Q Q Q ! Q Q Q Q ! ! ! ! Q Q ^ o.o.~ ^ ^ ^ ^ ^ ^ ^ ^ o.o.o.o.o.o.~ ~ ~ ~ c ~ } -X!.K 3 2 2 > > 6 6 > > 6 6 6 6 6 g k k 6 g k k g k n n k k k h k k k k 6 6 b g 6 n 6 3 n -X;X-X:X:X1XA C S S S S S S S S S S S S S S S S N N S S S N N m z m N l l y.d.C N m m M M N z h g 2 r ! s   . . X X & & & $ + + @ @ @ , @ @ + . X   + J } !.e.8.r.q.q.0.0.w.r.p.r.B.B.r.r.r.r.B.r.r.r.r.A m m M 8.~.y.B >.y.y.0.,.8.A A Z U A.r.r.e.U A N N M m l > : < fXhXOXA wXyXhXeX_ ] 6XiXiXiXiXiXiXiXKXKXzXI.2 F I Z.A.B.r.F.U U Z I Y F F Y F H H ' ) ) Y Y F g N.B.r.B.S.) ) H G P J e @ + + @ @ : : @ + + & #.CXaX( { #.#.#.#.{ { { .. .` | ` H ) ] ) [ ] ] [ I.7X( ) ] 8X[ )  ./.G | dXjXKXjX( y ` `  .] ] ] ] [ [ [ ] dX . .{ .. .#.#.#.|  .{ {  .{  .|  . .{ ( y # G | P { y y ( ;Xy 8 i { { ` ^.7XT.T.T.T.T.T.T.T.T.T.T.T.T.T.T.T.U.U.U.T.T.T.W.6XR.Y c c F I F j F I I I _ I.T.T.V._ F v _ V.C.C.V.T.U.U.rX%XG.a.z.j.z.6.q.9.Y /./._ Y Y _ I.I.I.R.I.I.V.) Y H D c c c c c F F c j F c 5 c F S.N.Z.t.c y y P u % * . @ kXkX*X9.B.r.9.9.E v 3 6 e @ + { aXaXdX4X .^.C.N.N.C.B.N.N.B.C.C.C.I.C.C.C.C.C.C.C.C.N.N._ V.] ] ( ( { { d & & # X . X X X O X = = % % # # % # # & & & $ + & % & w - # # # P { @.@.-Xk g g g g d.Q.I c < &   . . < b R R j 2 2 6 6 : : < @ : 2 c K j j c k j 5 5 5 0 4 > @ .                                     O ",
"b b Q Q Q Q Q Q Q Q Q Q Q Q Q Q Q Q Q Q Q Q Q Q Q Q Q Q Q ! ! ! Q Q ^ o.o.~ ! ^ Q ^ o.o.o.o.^ Q ! ! ! ! ^ ^ ~ ~ ;X;X,XjXsX:X:X,X,X>X>X>X>X-X-X-X-X-X-X@.@.~ ~ ^ ^ ^ n n k g g g k k k k k k 6 3 2 2 2 2 g 3 3 k R !.E !.<X~.A M S S S S S S S S S S S S S S S S N N N N S S N N m z z z A <X<X9.A C M m M M m z h 2 2 e e %         X # # $ $ 1 @ @ @ @ @ + + +       7 R !.t.9.0.0.0.0.0.w.r.r.r.r.r.r.r.r.r.r.r.r.r.y.A m m M >.~.y.M A ,.0.,.>.>.A A A U B.e.r.9.U U U A N z l 3 > @ pXhXyXB.0X0XW.C.) ] 6XqXuXuXuXuXiXzXKXKXzXyXY F T t.r.r.F.r.A A v I H F F Y F H H ) H Y Y Y F k Z.B.r.B.D.) Y H D G P u @ + + @ @ @ 1 @ + + $ #.sXaX( { #.#.#.#.{ { { { { { | | ( ` } ) ) [ ) ) I.7X] ) ] I.] ) } ` 7 y `  .;X] y y ] ] [ ] ] ] [ I.[ [ ] /. . .{ { {  .#.#.|  .{ { | | |  . . ...( ( 8 G  .( ..{ ( ` /.y y d { { ( I.7XT.T.T.T.T.T.T.T.T.T.T.T.T.T.T.T.T.T.T.T.T.T.T.W.R.Y c c F I v j F F I R _ I.I.I.V.' F v _ C.C.C.C.T.T.W.rXOXp.i.6.j.z.5.0.e.) /./.' S._ ) _ I.W.I._ _ _ S.S.S.Y R R R R Y R } E } } F c D F _ T Z Z > y G ( e . o . : kXhX*X9.r.r.9.9.E v 5 e e . . ..aX#.4X4X .I.C.C.C.C.C.B.N.C.D.R.R.R.U.C.C.C.C.C.C.C.C.V.V.V.] ] ( ( { { s % % % X X X X % X % % - % % % # % & # & & = $ + = % & - - # X # i | -X@.-Xk 3 3 g h t.!.I c 7 &   . . < c R E j 2 2 2 6 : : < : > F } ~ c 3 k j 5 5 5 5 0 4 : +                                       ; ",
"r b Q Q Q Q Q Q Q Q Q Q Q Q Q Q Q Q Q Q Q Q Q Q Q Q Q Q Q Q Q Q Q Q ! ! ! ! Q Q Q Q ^ ~ ~ ~ ^ ^ ! ! ! ! ^ ^ ^ ~ -X!.,XAXjXsXjXsXsXsXsXsXsXsXsXsXsXsXsXsX,X,X,X,X,X,X,X,X<X-X-X<X-X-X-X-X-X-X-X@.~ ~ ^ ^ ~ ^ K K R -X} !.!.d.S m S S S S S S S S S S S S S S S S N N N N S S S N N z z m y.1X1X~.y.A N m M m m l h 2 : 1 w w X         . + $ 1 w @ @ + + + + @ #       + 0 ~ Z.t.9.8.0.w.w.r.r.r.p.p.p.p.r.r.r.r.w.r.K.y.A m z m A ~.y.M C ,.,.,.>.8.A 9.U e.A.t.y.9.U U U 9.A M z g 2 : S.gXhXOXOXOXC.V.T.6XqXuXuXqXqXiXzXzXzXiXyXzXV.F U e.r.r.F.r.A y.E E R ` Y Y F Y F ` Y ` Y R F v N.r.r.N.D.) Y H G J P u $ + + @ + @ : @ @ + $ #.aXaX( {  .#.#.#.{ { { { { | | | ` ` ] ( ) 7X] ( [ 7XI.) [ [ ) ] ` ( @ , y y G 8 + y ` ]  .] ] [ I.I.[ ] ]  . . .{ {  . .#.#.{  .#.{ | #.#.aX#. . . . .y H  .|  .{ { ` | y u { { i ( I.7XT.T.T.T.T.T.T.T.U.U.U.T.T.T.T.T.I.I.T.T.T.T.T.7XI.Y c c v K v j v v F R _ I.I.I.S.' F F _ V.C.U.T.6XW.W.rXJ.<.5.6.6.z.i.w.T ) /.!.' !.' _ ] ] I.] Y H ) ) ] ' ) H F F F c F Y F R R K K R v v v l x : 0 ` | 8 . o . 9 kXgXP.A e.r.A U E k 2 1 @ .   +.aX#.aXaX;XI.C.C.U.R.U.C.N.C.I.R.E.W.U.U.C.U.R.R.R.D.D.D.D.] ] ) H ( { P i . X X X % % X X X % % = % % % # & # # & & & $ + & $ $ & & X . X & #.>X@.~ 3 3 3 3 x t.d.Z j 7 &   . . 9 K R W g 3 2 2 > : > < : 4 ' ;X| c 2 5 3 2 4 4 9 9 < , + .                                     O ",
"b b Q Q Q Q Q Q Q Q Q Q Q Q Q Q Q Q Q Q Q Q Q Q Q Q Q Q Q Q Q Q ! ! ! ! Q Q Q Q Q Q Q Q ! ~ o.o.! ! ! ! ^ ^ ~ ~ ~ K :XjXsXsXsX,XsXsXsXsXsXsXsXsXsXsXjXAXAXjXjXAXAXAXAXAXAXjXAXSXAXAXSXSXSXSXAXAXAXsX,X,X,X,X>X;X,XjXpX:X!.d.S S S S S S S S S S S S S S S S S S N N N S S S S S S N m m N d.1X~.U Z m m m m m l g 2 : : 8 w %   . . . # # & 1 q 1 $ $ $ % % % = & & . . @ c ~ !.E e.9.9.9.9.e.r.p.p.p.p.p.r.p.r.r.K.s.U N z z z N <Xf.M C =.>.,.8.9.9.t.t.Z.Q.Z.y.9.U A U 9.1.1.N h 3 : F _.hXOXF.L.U.6XuXiXiXiXqX9X6XqXyXiXiXuXqXzXT.I I e.B.B.p.r.8.`.:X:X/./.S.E F Y D F F H H I F v Z.N.B.B.D.) ) ` H P P u $ + + @ @ @ : @ @ + , #.aX;X( {  . .#.#.{ ..{ ..|  . .| ` ] ) D ) 7XV.H ] 8XI.] [ [ ] ] ` ` 7 8 8 9 y 7 $ y G ` ] ] ] [ I.I.[ [ [  . ./.( ( ( | |  ...|  .{ | #.;XdX;X#. . .;XG ( ]  . . . . . .G ( { / i ( I.6XW.T.T.T.T.T.T.T.T.T.T.T.T.T.T.T.C.U.T.T.T.T.W.7XD.I c c F K v j v v F E _ I.I.I.V.' F F _ N.V.U.W.9X9X9X%Xp.:.5.z.z.v.i.w.U Y /.} Y ' } ' ' ) H H G H H D y H ] H H D 0 c D c 5 c c j K K j j v T T @ 7 ` | 8 . o + D kXgXP.A 9.e.Z U E c 4 e + .   +.ZXaXZXZX;XV.V.C.U.U.C.N.N.V.C.C.C.C.C.U.U.R.R.D.D.D.S.S.S.S.] ` ( { { s 8 . . . . X X . . X % % = % % % % & # & & & & $ + & $ $ & # .   . X #.sX-Xn g j 3 3 v t.t.Z c 7 &   . . 0 K R W g 3 2 2 > > > : @ 0 !.:X} 3 > 2 2 2 > < < < , @ + X O O O O O O O                 % o O % ",
"b b Q Q Q Q Q Q Q Q Q Q Q Q Q Q Q Q Q Q Q Q Q Q Q Q Q Q Q Q Q Q ! ! ! ! ! Q Q Q Q Q Q ! ! ~ ~ ~ ! ! ^ ! ^ ^ ~ ~ ~ v !.,X:X:XsXsXsXsXsXpX,XsXsXsXsXsXjXjXjXsXsXjXsXjXjXjXjXjXjXjXjXAXSXSXSXSXSXSXSXAXAXAXSXSXAXAXSXSXDX:X!.d.N S S S S S S S S S S S S S S S S S N N N S S S S S N S N m l Z ~.d.N z z z M M m l g 3 > @ @ 1 = + . . # & = q q q q q w w w w w = w - & $ + : J } ~ E E U U U 9.9.p.p.p.p.p.r.r.r.r.A.t.Z l h l z m #Xf.M C =.,.0.w.y.9.t.E t.Q.Z.y.y.e.U A A ,.1.S l 3 3 c B.tXG.U B.C.6XiXiXiXiXqX9XW.U.T.6XqXuXuXzX6XN.I e.F.r.p.r.0.1XjXpX:X:X`.Z.F F 2 9 0 D F F F c e.N.A.A.S.) ) ' ` L P u $ + + @ @ @ > @ @ @ 8 @.;X#.( { { { ..#.{ { { { `  . .` ] ] ) D F 7XI.) ) 8X7XI.] ] ] ] ( | y y , , y G G G G ` ` ] ] [ I.I.V.[ I. .dXdX .G ( G ( { | { { | |  .#.aX#.;X#.;XdX] ( `  . .#.dXdX;X` { { { ( ] T.T.W.W.Y.T.T.T.T.T.T.W.6X6X6XW.T.W.T.W.6XT.T.T.6X7XD.I c c K K v 3 v c F E _ V.I.I.V._ I F T _ N.U.Y.9X9XOXY.w.<.z.v.v.v.u.w.T ) /.` D H ` ` ` G 9 y y G G y G  .pX) ] H c ) ` c 5 v k 3 6 3 2 k !.`.!.: 7 ` ( $ + . + Y kXgXF.A U U Z I W c 6 e + # X $.ZXZXFXZX;XD.C.C.I.R.C.V.V.C.D.D.C.C.C.R.E.R.(.(.^.^.Q.Q.!.!. .| ` { { d 8 . . . . . . . . X % % = % % % % # # & & & $ @ @ , $ # # # .   X . ;XsX-Xk g k 3 3 I d.t.v 5 8 & . . + 0 K R W g 3 2 2 > > : @ @ R /.;XK > > 2 > > > < : , @ + + . . . .                         o   o O ",
"b b b b Q Q Q Q Q Q Q Q Q Q Q Q Q Q Q Q Q Q Q Q Q Q Q Q Q Q Q Q ! ! ! ! ! ! Q ! Q ! ! ~ ~ ! Q Q ! ^ Q Q ^ ^ ^ ~ W 3 } :X/.:X:XsXpXpX:X;X;X:XpX:XsXpXpXjXjXsXsXjXjXjXjXjXjXjXsXsXsXjXAXSXSXSXAXAXAXsXAXSXAXAXSXAXSXjXDX-X~ d.m S S S S S S S S S S S S S S S S S N S S S S S S S N S m N z N d.U z z z m M M m z g 3 4 : @ @ % % . . # % q q w w q w u s s w q = & & w w $ + : J | ~ ~ E E t.t.r.p.p.F.F.p.p.r.r.y.t.U z h h h l m 1Xf.M C ,.,.0.8.y.U E I Y !.E t.t.Z.e.U A V C S l 3 g k e.OX,.Z e.V.T.iXiXiXuXqX9XW.U.U.T.6X9XqXiX9XC.I e.B.r.p.p.8.`.:X:X:X:X:X!.I F 4 F R ` F F F c T N.A.D.S.) ] | | L P u $ + + @ @ : > : @ @ e @.@.| ( | ( { {  .( { ( ( ( [ ] ) ] ] _ ) Y 7X8XV._ T.T.I.] ) ) ( P { u u $ . 8 P  .| y | | ] ] [ S.S.S.[ [ [ dXKXlXdX7X .| ( { { {  . ...{ #.#.#.dXdXdX;X( ` #. . .#./. .| { { { ( [ T.T.6XW.Y.Y.W.T.T.T.T.6X6X6X6X6X6X7X7XrX9X6X6X6X7X7XD.I k c K K v 3 F c F E _ V.T.I.V._ I I Y T _ C.W.9X9XOXG.u.5.v.v.z.z.u.e.T ) /.G y D G D D y y y 0 y D G ` /.pX} /.) H S.!.L D b n k 2 2 > 3 !.:X!.> 0 ( G @ . . + ` kXfXp.A U U Z Z v 5 < @ . . # #.ZXaXaX>X ._ N.N.N.N.T T T N.V.V.V.V.V.N.V.V.V.V.Z.Z.} } } ` R L P P u i & % % X X . . . . X % % % % % % % # # & & % $ @ @ & # # $ # X X # + #.>X-Xk g k 3 g U d.t.x 2 8 & . . + e K R I 3 2 3 2 6 > : @ > /.:X/.c : > > : > < < , @ + + . .                       . .           O ",
"b b b b Q Q Q Q Q Q Q Q Q Q Q Q Q Q Q Q Q Q Q Q Q Q Q Q Q Q Q Q Q Q ^ ! ! ! ! Q Q ! ~ ~ ^ Q Q Q ^ ^ ^ ^ ^ ^ ^ ^ ~ k !.pXpXsX:XpXpXpX:X!.!.:X:X:X:X/./.:XsXsXsXjXsX:X:XjXjXpX:XpXsXjXAXSXSXSXSXAXCXsXsXAXsXsXAXjXjXjXDX!.~ W S S S S S S S S S S S S S S S S S S S S S S S S S S S S z S m m d.U A Z m m M M m z h g 2 2 : : : 1 + + + + @ % q q q w w w w = % + + $ = = # . + @ J ! ! ~ E } Z.Z.B.A.K.A.B.r.r.y.t.Z x l l h h l m 1Xf.M =.,.,.,.9.9.U I v F } } E t.T T U A C B S S 2 g h e.OXC U Z.V.I.iXiXiXuXqX9X9XOXOX9X9XT.qXuXyXT.U r.w.p.p.p.>.~.~.^.`.:X:X!.I F 5 ` ;X;XR Y F c T e.A.A.S.) ) } | L P J $ + + @ @ : > : @ % e | { { (  .( { {  .( ( ( ( ( [ [ ] ] S.V.] I.7X7XT.I.W.C.] ] ) ( ` | { y { 8 . 8 { #.{ 8  . . . .[ S.S.S.[ [ ] pXKXKXlXKXSXdXu ( ..{  . ...{  .#.#.#.dXdX .( ( dX.... .` G ` { ....( [ T.6XW.Y.T.T.T.T.T.T.T.6X6X6XT.T.8X7XeXrX6X6X6X6X7X7XD.I k v K K v 3 F j I ' V.I.T.I.V._ I I I I T C.OX9XOXJ.p.u.i.z.z.6.6.q.e.T H | y 7 D y 7 9 0 D D 0 y y G ` ] ` | | | ` } !.| K 5 5 j 2 3 > 2 Z.:XZ.: y G y @ . . + ' lX&Xr.C A U U Z x v c < , @ , { | ` ( H H F F F I I v v I I I T Y I I I I I F F F c c c c c c 0 y y y 8 8 w - & % X . . X X % % # % # % # + $ & & $ @ @ @ $ + # $ # # # & # | -X~ g g j 3 g t.A.t.x 2 8 # . . + b L K F 2 2 5 2 > > : : c :X:X} 5 : > > > 9 9 9 7 $ + + . . . . . .   . . . . . . . . .   O O - p ",
"Q Q b Q Q Q Q Q Q Q Q Q Q Q Q Q Q Q Q Q Q Q Q Q Q Q Q Q Q Q Q Q Q Q ^ ^ ~ ~ ^ ^ ^ ^ ^ ^ ^ ^ ^ ^ ^ ^ ^ ^ ^ ^ ^ ^ ~ v :XjXjXjX:XpXpXpX:X!.' /.;X/.;X!.} /.:X:X:XpXsX/./.jXjX/.} /.:XsXsXsXCXsXsXsXsXdXsXsXsXsXAXAXSXSXDX-X~ S S S S S S S S S S S S S S S S S S S S S S S S S S S S S z N z z d.d.d.W C M M M m z z g 2 2 6 > : > 1 @ + + + + @ % q q & = % + . . + + . . . % X . . @ 4 J K R W I U T t.E T E E E W x h l x l h l m 1Xf.m C ,.=.>.>.y.U I v F !.!.E I I I U U >.C S S 2 3 k A.*XC e.C.V.I.iXiXiXiXqXwX0X9X9X0XyXqXqXiXzX9XB.F.9.p.p.p.8.K.Q./.`.pX:X!.I c > R ;X;X} ` Y v T T A.V.D.) ) | ` L P P , + + @ + : > : @ 1 e | ( L (  .| | |  .( ( ( ( ] /.I.] ] S.V.V.T.T.7X6XT.7XC.] ] ( H  .#.| u #.! 8 P | #.u + #.#. ././.S.S.[ [ [ ) 7XKXKXkXKXKXSXi i .. . . . .#.#.aXdX#.#. .( D ( dX#.#. .| y ( ( ....( ] T.6XW.Y.U.U.T.T.T.T.T.6X7X6XI.I.T.7X6XW.T.6X6X9X7X7XS.I j v K K v 3 v j I S.V.I.T.I.V.N.Y I I I T C.9X9X[.p.u.i.z.j.j.6.5.0.e.I y G 9 , y 0 7 9 9 y 0 D D D D ) ) D L J L K 0 L | c c 5 5 > 5 c c ^.:XE : i y 8 $ + . + ` fX*Xw.B A C U Z I Z.S.' } ] ` ' ] ] ] ) _ T T _ N.N._ T N.N.N.N.T T _ N.N._ _ Y F F c c 5 9 9 0 y y y u u s p w % # X + % X % % # % # % & + $ & & $ @ @ $ $ @ + & & # # & $ ` ~ ~ g g g 3 h Z.A.U x > 8 # . . + D L I F 2 3 6 2 > > > 4 K :X:XR > : > > 4 e 0 e 8 $ + + + + + + + + + + + . . . . . . .       X w ",
"r b b Q Q Q Q Q Q Q Q Q Q Q Q Q Q Q Q Q Q ^ Q Q Q ^ ^ Q Q ^ Q ^ Q Q Q Q Q ^ ^ ^ Q Q Q Q ^ ^ ^ ^ ^ ^ ^ ^ Q Q ^ ~ <X-X:XjXlXjXpX:XpXjXpX' ` /.} } } R !./.} !.;X/.sX/.;XsXjX/.} | -X;X;X;X;X>X;X@.;X;X:X,X;X;XsXjXjXSXDX,X!.S S S S S S S S S S S S S S S S S S S S S S S S S S S S S S N m M S d.d.d.S M m M M m l h 3 3 3 6 6 6 : : @ @ @ @ + + . @ % + . . + + + + + . . . O O . . + @ @ > 2 2 3 5 j j c k k k g g h h l l l z z 1Xy.C C ,.,.y.y.y.U Z v K K K c v F I I U A C S l 3 2 3 ~.2XM e.B.N.V.iXiXiXuXqXqX9X9X0XwXzXyXuXiXiXhXrX%XA r.p.p.p.y.`.:X/./.:X!.F v 5 ` /.;X} ' Y F I N.A.V.^.) ] ` ( P ! u , + @ @ @ : > : 1 @ e | y G (  .| ( ( ( ( ( ( ( ] I.I.) [ ] I.V.T.6X7X6XrXrXT.I./.( G |  .P P #.| { { { #.{ $  . ././././.] ] I.[ [ 7XlXKXDXKXPXKX{ ( {  .#...#.#. .aXaXdX .( { G ` { #.#.#.| G | { / { y [ 6XT.W.W.Y.T.T.T.T.T.6X6X7X7X6XT.I.I.T.T.U.I.T.9X7X_.D.F k v K K j v v v Y S.D.I.T.I.V.V.E F I k T C.W.0XF.p.x.i.v.j.j.6.5.0.U F G G 7 7 D D 0 9 0 0 D 0 D D 7 0 c : < @ @ : 4 : 4 > 2 5 2 > 2 c ` Q.^.I 7 i y y , . . @ pXkX&Xw.m 9.A A N A D.eXeXpXpX7X7XfXeX7X6XrXrXeXeXeXeX`.`._.`._.7XeXfXfXeXeXeXfX7X^.S.} } !.| | ` ` ( P y 8 # # % % # # # . # & % % # & & . # $ & $ $ @ @ $ $ $ # # # # # # 8 L } ~ x h g 3 g !.t.U g 4 8 X . . , b R R 3 3 3 2 2 > 4 @ : ;X:X/.F > > > > 6 ! ! P 8 . # s d d s s s s u u u i i w i w 8 & & X & - w ",
"b b Q Q Q Q Q Q Q Q Q Q Q Q Q Q Q Q Q Q Q Q Q Q Q Q Q Q Q Q Q Q ^ Q Q Q Q ^ ^ ^ ^ ^ ^ ^ ^ Q Q Q Q n Q Q Q Q ^ ~ ~ W } pXjXjXjXpX:X:XpX/./.pX;X/.;X!.!./.} } ;X;XjX:X;X:XpX;X| } ;X;X-X-X@.;X;X;X;X/. .| | ;XsXjXSXSXjX-X!.x l z S S S S S S S S S S S S S S S S S S S S S S S S S S S S N m S d.y.S A B B C S S z l h g g g 6 6 > : : @ @ @ + + + @ @ + . + + . + + + + . O O * O   + @ @ : 2 > @ @ : : > > 2 2 3 g h h l l z z m <Xf.,.C ,.,.<.8.9.9.Z v F K K F F I Y T U A B S l 3 > 3 `.fXC e.C.N.] iXiXiXiXuXuX9XOXOX9X9XY.9XqXyXhXhXgXr.F.p.w.r.y.:XpX/./.pX/.R F 5 R !.;X} ' Y F I N.B.V.^.) ] ` ( P ! u , @ @ @ @ : > : @ + w { y G (  . .` ` ( G G ( G ( ) [ ) I.I.V._ ] I.I.V.I.I.I.I.[ ( 9 8 i i u @.#.#.#. .#.{ 8 #.#. . . ./.] ] [ [ /.dXlXKXKXKXKXKX#.{ { #.#...#.#.#.aXaXdX#.( { ` ( u #.#.#.{ y | { { { y [ 6XT.W.W.W.W.T.T.T.T.T.6X6X6X8XT.I.T.T.W.T.T.T.6XrX7XS.F c v K v j v v v Y S.D.I.I.I.V.D.' v v k T C.OX9Xr.q.i.z.v.j.j.6.5.9.U F D G 0 H ;XsX!.D 4 : : 0 D F ) ) ) H F 9 D D D G L L J 2 2 : : c ` !.!.F , 8 y y 8 + . e jXkX#X,.M 1.=.C B U H.E.U.U.W.I.C.U.U.C.U.T.U.U.U.U.C.C.C.C.U.E._.rXrXrXrXrXeXfX7XD.S.!.!.!. .} ` ` ( P y 8 # # # # # # # . # & % % # & & . # $ $ $ $ $ $ $ $ $ $ $ $ # # # 7 L ~ W l h g g g !.t.U g 4 & . . . < D ~ W 3 3 5 6 6 > 2 : > ;XpX!.c > 2 2 > 4 ! ! ! u + % d s d P ! ! ! ! ! P { { { { ! ! ! d d d d d ",
"r b b b b b n n Q Q Q Q Q Q Q Q Q Q n n Q Q Q b Q Q Q Q Q Q Q Q Q Q Q Q Q Q Q Q Q Q Q Q Q Q Q n n n n Q Q Q Q ^ !.~ } sXjXjXjXpXsX:XsX:X:XjX:X;X;X!.!.-X-X-X;XsXjXsX;X;X:XpX;X| ;X;X;X;X;X>X>X;XdX;X/.| !.;XsXjXjXjXpX!.<XW N S S S S S S S S S S S S S S S S S S S S S S S S S S S S S N m S S d.W C M M m z z z l h g g g 3 2 6 6 1 1 1 , @ @ @ @ + + + @ @ + + + + + % % = = O . + @ @ : 2 > + + + @ : : > > 3 g h h l l z z m ~.f.y.B ,.<.,.C A A Z v v K R F F F Y T t.9.1.S n 3 > 4 /.fXU e.U.V.) iXiXiXiXuXqX9XOX9XwX0XY.T.I.T._.eXfXB.F.p.0.9.t.:XsX;X/.jX:XE F 4 L | ;X} ' Y F I N.B.V.^.) ] ` ( P { u , @ @ : @ : > : @ . , { P P (  .( ( ( ( G ( ( ( ( ) [ ] ^.I.[ ) ) I.[ ] V.[ ] ] [ /.( 8 u u i { { { { { #.{ y #. . .] ] S.[ ] ]  ././.dXjXjXKXKXPXCX#.#.#.#.#.#.#.#.aXaXdX .(  .| G 8 #.#...( y | { { / y S.6XT.W.W.W.W.W.T.T.T.T.W.6X6XT.T.T.T.T.6X6XT.T.6X7X7XS.F c v v v j v v v I V.I.I.I.I.V.I.' v v k N.U.rXOX,.,.i.j.v.j.6.5.<.9.I D y y , D  .:X-X` R ` 5 ` ` ' :X`.S.^./.) ' ' ` /.-X;X| > > > : D R ` Y c 7 i y 8 8 @ + J lXkXp.C C >.C B C r.%X9X9XrXrX9X9X9X9X9X9X9X9X9X9X9X9X9X9X9XW.9X9XrX9X9X9XrX7XrX7XI.S.Q.S.S.} ` ` ` { P 8 & X X # # # X . . # & & # # & # . # $ $ $ $ $ , $ @ $ $ $ & # # # 0 L ~ W l h g g k Z.t.U g 5 &   . + 9 J R F 3 3 3 6 6 > > : c ,X:XE 3 2 2 2 6 < ! ! ! u $ & w s s d d d d d d d ! ! ! ! d d d d { { d d ",
"r r b b b b b k b b b b b r r r b b k b b b b b b b b b b b b Q Q Q Q Q Q Q Q Q k k n n n n n n n k k n n k n n ~ ~ c /.jXjXjXpXjX:XsX,X:XjX,XsXsX,X:XsXsX;X;X:XsXsXsXsXsXjXsX,XsXjXAXAXSXAXAXAXAXsXsXsXsXsXAXjXjXjXsX<X<XW S m S S S S S S S S S S S S S S S S S S S S S S S S S S S S N N S W W W Z m M m z N l h g 3 g g g 3 2 > : : : @ @ @ @ @ + + @ , , : @ @ @ + % % % = % . @ 1 : > 6 > % = = 1 q 1 6 6 3 g g h l l z z m y.f.f.B ,.0.,.,.>.A Z x k v R R R F I T 9.>.C S n 3 > 4 /.fXe.B.9XT._ iXiXuXiXiX9X9X9X0XuX0X9XT.I.V.V.D.`.H.J.F.9.9.t.:XpX;X .sX:X' F 4 H  .;X} ' Y F I N.B.D.^.) ] ( ( P { u , @ @ : @ : > : % + w +.{ | `  .` `  . .] [  .[ ] ] [ [ 7XI.[ ) ( I.) ] I.I.] )  .dX .( { u i { d { ..#.#.{ i  . . .] ] /.[ ] ] [ /. . . . .lXKXPXdX..#.#.#.4X#.#.#.#.#.#...{ #.| G 8 #.#.#.{ 8 { { / u y /.6XW.W.W.W.W.W.T.T.T.T.T.6XT.T.I.T.T.T.6X9X6XT.6X7X_._ v v v v v 3 v v v I V.I.I.T.I.V.I._ k h k C.W.rXE.>.=.6.j.j.4.6.5.<.9.I D y y G D ` /./.} | ;XD ' ' ' `.^._ ] S.Y S.S.) ;X| | ~ @ : : < D D F c 5 e d y 8 $ + . J lXkXw.B A 1.C M C F.OXW.W.9X6X6X6X9X9X9XW.W.6X6X6X6XW.6XW.W.W.6X9X6XT.T.U.T.9XrX7XV._ S.S.] S.] ) ` { P 8 X . X X X # X . . # & & X # # # . # $ $ $ $ $ 1 , @ $ , 8 & $ # $ y R ~ x l h g k v Z.t.Z g 0 #   . + 0 L R v 2 3 2 2 6 : > > F sX/.v 2 3 3 2 6 < ! ! ! u & . % & & & & & & & t t & & & & & & & & w w w i ",
"6 6 6 6 6 6 6 6 6 6 6 6 6 6 6 6 k 6 k 6 6 6 6 6 6 6 6 6 6 6 6 6 6 6 6 6 6 6 6 6 k k k k g 6 6 3 n b b b k g n n ~ !.3 } lXjXjXsXjX,XsXsXsXjXsXjXjXjXjXjXAXsX,XsXsXsXjXjXjXjXAXjXjXSXSXSXGXFXFXJXFXFXGXGXGXDXSXSXSXDXDXjX<Xd.3XN N S S S S S S S S S S S S S S S S S S S S S S S S S S S N S S d.d.d.W z z z l Z h g 3 2 2 3 g 5 2 > > : : : : , @ @ @ @ : : : : : : @ @ @ + + + @ + @ 1 : 1 6 1 @ @ 1 1 : > 2 3 3 g g h h l l z z C f.~.B ,.w.<.w.y.y.U x g g k Z v v I U 9.>.C S x 3 > 9 ' _.B.U.yX6X] uXiXuXuXiX6X6XW.qXuX0X9XT.I.^.Q.Q.(.L.P.F.9.9.E !.;X#. .:X/.R H 0 H | ;X} ' Y F I e.C.D.^.) ] ( ( P { P , @ @ : @ : 2 : @ + w @. . .`  .]  ./. . . . .[ [ ] [ [ 7XI.I.I.I.8X[ I.8X7X[ [  . . .| { P { { { { ..#.#.{ y (  . . . .S.] ]  . .dX4X .{ ..dXxXdXdX..#.aX#.#.#.#.#...{ ..{ ..#.` ( i #.#.#. .9 { ..d i y ^.6XW.W.W.W.W.W.T.T.T.T.6X6XT.T.U.U.T.U.T.9X6XT.6X6XR.T v v v v v 3 v v v T C.I.T.T.T.C.I._ g g h C.W.rXH.9.:.6.4.4.4.4.3.,.U F D y y y D L | | ` ` !.D H H Y ' ] ) ) ] H ) H 0 } R L J @ @ : D L D H D 0 u { y 8 @ + . J lXkXw.B C C C M 9.E.eXW.T.6XT.T.R.W.W.T.U.U.T.T.T.T.W.W.Y.T.U.T.T.T.U.U.U.U.rXrX_.N._ V.V._ ' ] ) ` { u & . . . # # # X . . # & & X X # # . # $ $ $ $ $ , , + $ 8 8 & $ & $ y R W x l h g k I Z.U Z 3 0 +   . + D L K v 2 3 2 2 6 : > 2 F :XE h 3 k 3 > 4 < ! ! ! u 8 .   .                                     X w ",
"2 2 2 2 2 2 2 2 6 6 6 6 2 2 2 2 2 2 6 3 2 2 2 2 2 2 2 2 6 6 6 6 2 3 3 6 2 2 2 2 6 3 3 3 6 6 6 6 2 > > > 2 2 3 g ~ ~ 3 F jXSXjXjXsXjXsXjXjX:X:XsXsXsXsXsXjXsXsXsXjXsXjXjXjXjXjXAXjXSXSXSXJXSXSXGXSXGXJXGXGXGXSXDXSXSXJXDX:Xd.<XS N S S S S S S S S S S S S S S S S S S S S S S S S S S S S S S d.~ -Xd.x h g g x k j > : : > > 2 2 > > : : @ @ @ , , < < < : : : : : @ @ @ @ @ @ @ @ : 1 : 1 r 1 : : : > > 2 2 3 3 g g h h l l l l m f.~.B ,.q.<.q.w.y.y.U x h h g h v U r.r.q.,.S N 3 > 4 Y (.Y.OXyXqX) qXiXqXqXiX6X6X6XqXuXwX9XT.V.^.!.!.!.).L.F.e.e.T } @.#.#./.} R Y 0 H | ;X| ' Y I I e.C.L.^.) ] ` ` P { ! , @ @ : @ : 2 : + . 8 | | | (  .(  ./. . . ./.[ 8XI.[ I.7XI.I.I.7XhX8XI.I.8X) [ /.( {  .{ { { / { ( {  .#. .{ {  . ././.[ ] ] /. . . .#.{ ( .. . .dX4X#.aX#...#.#.#.........#. .] ( y #... .#.G  .#.{ i y ^.6XW.T.T.T.T.T.T.T.T.W.6X6X6XT.T.T.T.T.T.6X6XT.6X6XI.Y c v v v v 3 v v F _ I.R.T.T.T.T.T.N.k h k C.eX%XF.8.<.5.3.4.4.3.:.,.U F D y y 7 y D y 7 @ 9 L H H H H Y ) ' ) ' ' ' ) c !.` R  .L y D ` ` ) ) Y D s d y 8 $ + + ! jXgX0.M V B m m t.&XrXrX6X7X7X7XpXfXfXeXeXrXrXrXrXrXrXrXrXrXrXrXrXrXrXrXrXrXrXrXW.V.N.V.V.V.] ) ` ` L u & X . . # # # # X X # & # . . # # . # $ , , $ $ , , + $ 8 8 & $ & 8 D R W l l l g k E Z.U x 3 b .   . + J L F j 2 3 6 6 6 > > 2 c !.v l l v k 2 > < J ! ! ! u # . .                                     X p ",
">X>X>X>X>X>X>X>X-X-X-X-X-X-X-X-X>X>X>X>X>X>X>X>X,X,X,X,X,X,X,X,X,X,X,XsXsX,X,X,X>X,X,X,X,X,XsXCXCXCXCXAXAXAXAXAXsXsX-X-XjXSXjX:X:XjX;X:XjX:X:X:XsXsXsXsX:X;XpX;X;X;X:X:XpXsXsXjXjXDXDXDXGXSXjXSXSXSXSXSXFXDXSXSXDXlXDXlX~.N y.m N S S S S S S S S S S S S S S S S S S S S S S S S S S S S S S S <XAXAX:X<X,X,XAXjX,X>X-X@.@.-X-X-X@.@.| ~ ~ ! ! J J ! J e : : : : @ @ @ @ @ : : : @ : 1 : 1 r 6 > 2 2 2 3 3 g g g g g h h h h l l z d.~.B ,.<.q.<.,.0.y.y.U U W Z S E t.r.w.<.=.g.S 3 > > c L.rX0XyXyX) 6XuXqXqXiXuXwXqXqXuXwX9XR.] /.!.!.Q.&XE.F.9.e.E } @.#.#.| } R R 0 H | /. .' _ I I e.H.R.^.) ] ` ` P { ! , + @ : : > > : + + & { { { (  .]  .dX . . .7X8X7XI.[ I.7X[ ] [ I.8X8XI.I.7X( [  .( { { { P P { { ( ( ..{ ( P G |  ././.[ ) )  . . .#.dX#...{ ( { dXdXaXaX4X#.aX4X#... ...#.aX#. .) y 4X4X#.dX( dXaX{ i y I.6XW.T.T.T.T.T.T.T.T.W.6X6X6XT.T.T.T.6XT.6X6XT.6X6XI.Y c c v v c 3 c v I V.R.T.T.T.T.T.U.T g k k C.rX_.B.A :.3.3.3.3.2.-.>.U F D y i $ 7 @ + + , H ;X/./././././././.c -X;X;XR !.L F ;X .`  .[ [ I.] ' K u d y 8 , + + @.lXfX,.M C C m x U D.I.V.[ ] [ /.pXsXpXpX`.`.U.U.U.U.U.U.L.U.H.H.U.U.H.H.H.H.R.E.H.C.C.V.N.V.] ] ` ` P u = = X X # # # # # # # & # . . # # . # $ , , $ @ @ $ @ $ 8 & $ $ & 8 0 R Z l l l g k E Z.U x 3 b     . @ P R c j 2 3 6 2 6 > 2 2 5 R Z Z x v n 6 > 9 u P ! P s $                                     X   O p ",
"CXCXCXCXCXCXCXCXCXCXCXCXCXCXCXCXCXCXCXCXCXCXCXAXAXAXAXSXSXSXSXSXSXSXSXSXSXSXSXSXSXSXSXSXSXSXFXFXFXFXFXGXGXFXSXAXSXAXjXsXpXjXpX/.!.sXR !.pX;XjXjXsXsXjXsX;X:XsX;XF R } /.:XjXjXpXjXjXsXpXsX,X,XAXSXSXAXAXFXDXAXjXDXDXDXDX1XZ d.1.N S S S S S S S S S S S S S S S S S S S S S S S S S S S S N S S -XSXDX,X,XAXSXGXJXSXCX,X>X>X>X>X>X>X;X-X@.@.| | | @.@.| K 2 : > @ @ @ : : : : : : @ : 1 > 1 r 6 > > > 2 2 3 3 g g g h h h h h h z z d.~.B >.,.q.q.<.,.8.9.9.t.!.d.d.t.e.r.w.u.g.g.S 3 > > j D.tXwXiXyX) 8XiXuXqXiXiXiXwXqXuXiXqXI.] /.!.!.!.&XF.F.9.e.E } #.#... .} ` ` 0 G ` /./.] _ I I e.H.U.^.] ] ` { P | ! , @ @ @ @ : 4 : % $ & { { { (  .(  . .( ( (  .[ /.) ( ) /.) ( ) I.7X7X7XjXKX( ]  .dX .{ / { #.aXFXSXSXSXdX .{ { |  . . .] ) ( ] | dXZXPXFXdX#. .#.4XSXKXSXFXPXFXaX4X......#.xXdX/.) y dXdXdXdX| dXdX..u G I.6XW.T.T.T.T.T.T.T.T.T.6X6X6X6XT.T.6X9X6X6X6XT.6X6XI.I c j c v c 3 c v I V.W.T.U.T.T.U.V.I 3 h h C.rX&Xe.V *.2.3.2.3.2.-.=.U F y y i , 8 , @ 7 0 G | H ` ` ` } ' ` Y : !.} R < D 0 L L ` H /.I.I.7XI._ F y u i 8 $ + + ;XkX&XC B 1.1.N l v I D D D y D | dXsXsX:XQ.N.V.B.B.B.B.B.B.B.B.B.N.B.B.C.B.B.B.B.B.C.C.V.N.V._ ) ` ` P w = = X X # # % # X X X # # . . # # + $ $ , , $ @ @ $ + $ $ $ $ $ 8 u 0 R Z h l l g x Z.Z.U x 2 b     + @ K R c 3 2 5 2 > 6 2 2 5 5 I Z W Z v n c < 4 0 P ! ! d &                     X X X               o p ",
",XCX,X>X,X,XCXCXAXCXCXCXCXCXCXCXCXAXCXCXSXSXFXAXAXSXCXCXCXSXCXSXSXCXSXCXsXsXFXSXSXSXSXSXAXSXGXSXJXSXSXFXFXSXSXAXsXSXjXsX:XlXjX' F sX3 -X,X:X:X;X:X,XsX/.} ;XjXsXK } -X| } :XjX:X:XjXjX;X,Xc ;XAXSXsX>XsXSXjXsXjXSXsXDXDX1Xd.d.1.S S S S S S S W S S S S S S S S S S S S S S S S S S S S N z m S <XGXGXsXsXSXSXSXFXFXSX>X#.#.>X,X>X>X>X;X-X@.| @.| @.| | ~ : : > > > > > : : : : : : > 6 > : 1 r > > > 2 2 3 3 3 h h h h h h h h z z y.f.C 8.C 8.0.,.>.8.r.y.y.y.y.y.t.e.9.r.s.1.g.^ 2 4 2 5 T hXwXuXqX[ I.iXiX6XuXuXuXwXwXwXuXqXC.S.} | } Z.*X*XG.8.N.Y | #.#. .| } ` H D D ` /.S.] ) F I e.H.U.R.] ] { { { { ! : : @ % = 1 > > , + 8 { #.{ {  .{ .. .{ ( i i G ] G G ) I.) H ) /. .dXSXKXPX{ G #.xXaX....+.4XIXPXPXPXPXFXaX#.{ | {  . .( ]  . . .xXPXPXPXdX{ ( | #.FXPXPXPXPXPXSX4X ... .dXKXdXdX) G SXSXdX(  .aX>X+.J L /.7X6X6XW.T.T.T.T.6X6X6X6X6X6X6X6X6XW.6XW.6X6X6X6X6XI.I c j c K c 2 k k T C.U.T.U.C.I.S.v h g g k U.rX&XC *.;.-.3.-.2.2.-.,.U D y y y 8 , @ $ 9 y 0 9 D ` D < 0 F D F c c F H D 7 7 e 9 , y ( I.8XI.V.T 3 > y i -   . 9 ;XlX*XC V =.S M Z v 5 < , : @ 8 { 4XZXsX;XZ.A.V.S.N.N.A.V.N.N.N.N._ N.V.S.V.N.B.B.B.C.C.C.V.S.] ` ` { u 8 - = % # X X X X X X X X . . . + + + + 8 8 , @ $ $ $ + $ & 8 & & & 8 D R v g n h h x A.Z.I j 5 r % . + < H L c 2 2 6 3 > > 2 6 3 v I Z Z v K K b 0 < 8 P ! ! ! w                         . . . . .         d ",
"CXsX;X~ L | ;X>XCXCXCXCXCXCXCXCXSXCX>XsXCXCXFXFXFXCX;X@.;XsX>XCXSXSXCX| | ,XSXCX,XsXSXAXsXsXAXAXAXsXAXSXSXSXSXAXsXsX;X;X;XDXjX!.R ,Xc -X;X} } } R !.;XK c ;XSXjX-X;X;X!.} -X-X} } sXsX>X>X~ ,XAXsX;X| -X;X;X,XAX;X!.jXDXjXE S z N S S S S S S S S S S S S S S S S S S S S S S S S S S S S S ^ d.<XHXSXsXAXSXSXSXSXFXSXaX;X@.@.;X;X-X;X;X-X| | @.| | @.| | : : : > > > > > > > > : : > 6 > : > e > > > > 2 3 3 3 g h h h h h h h l z S d.9.A C >.>.>.>.8.w.r.r.y.y.9.U U 9.r.w.,.g.S 2 2 > 3 U hXwXuXqX[ I.yXqX6XiXuXuXqXwXwXwX9XC.V.] | } S.E.G.G.0.N.Y | #.#.{ | ' ` H D F } /.S.[ ) F I Z.H.Y.W._ ] { { { { L : : @ % = 1 > 2 : + 8 { #.{ {  ...#.;X;X#.{ u i ] ) ) ] I.] ) ) ( ( dXSXKXPX{ i #.xXZXaX$.%.ZXPXPXPXPXPXJXZX4X#...| #.#. .|  . .dXKXPXKXdX( , < y y dXKXPXPXPXPXSXdX#.#.dXxXKXdX/.] ( SXSXdX(  .4X#.+.P ` /.7X6X6X6X6X6X6X6X6X6X6X6X6X6X6X6X6XW.W.W.W.6X6X6XW.I.Y c j j n v 3 v v T C.C.U.I.V.D.!.k h g h v U.&X#XV -.;.-.:.*.;.2.;.,.U G y y y , $ $ $ , , , < #.| D < H } } | R K H `  .| ! e + @ 9 H V.I.] _ Z g 5 , . ; O # 0 :XlX).C B V S N Z v 0 < , : 1 = +.mXZXaX .Z.A.Z.S.N.N.V.N._ N.N.N.N.N.V.S.V.N.C.C.C.C.V.V.V.S.] ` ` { u w - = % ; ; ; X X O X X # X # + + + + @ 8 8 , @ $ $ $ + $ & & & & 8 8 D I n g n h h Z A.N.F 5 6 q % . + 9 H H c 2 6 6 2 2 2 2 6 6 x I Z Z F K c c 4 < 8 u ! ! ! i .                   . . . . . . . .       d ",
",X,XsX>X@.@.@.| >X,X,X>X;X>X>X;XaX#.| ;X>X;XaXCXSXSXCX;X;XaX@.CXFXSXSX;XaXaX;X;X| ;X,X;X .| ;X;X@. .;XsXAXSXSXAXsX;X-X} } lXlX:X~ -XL -X;X} /.-X} } ;X;X} ;XSXDX,X,X>X;X;X;X!.` } sXAX,X@.| >X>X>XsX>X-X;XsXsXsXsX;XsXSXjXd.N m N S S S S S S S S S S S S S S S S S S S S S S S S S S S N m m N ~ <X,XsXAXSXSXFXSXSXSXCX>X@.| | @.| @.;X;X@.| @.| @.@.@.| : : : > > > > > > > > : > > 6 > > > r > > > 2 2 3 3 g g g h h h h h h l l m y.f.C B >.>.>.,.8.0.r.r.r.9.A U U U e.w.C S n > > > 3 Z yXwXuXuXI.I.6XqXqXiXuXqXqXwXwXwX9XT.I.]  .} Q.*XOXG.w.B.Y |  . .{ ` ` ` Y F F ' /.S.V._ I I Z.U.W.W._ ` { { { | L : : @ % % = > 2 @ @ e { { { {  .{ ` ` ` ( G y y ] ] ] ] S.[ ) ) ` ( #.4XdXFX{ ....4XdX4X#...aXPXPXPXPXKXZXaX4X#.#.#.aXaX#.{ .. .dXKXPXKX/.H D D G y  .SXPXPXPXJXZXaXaX4XdXdXdX ./.[ G dXdX .( .. .#.{ P ` 7X6X6X9X9X9X9X6X6X6X6X6X6X6X6X6X6XW.T.T.T.W.W.T.6XW.I._ F v k v v j F I Z.C.C.I.C.V.V.!.k h g h I E.%XK.V -.;.;.:.*.;.2.-.,.U G y y y $ $ $ , + . @ 7 >XaX;X;XdX;X/.;X-X| ` {  .@.s + + : ] 7XrXyXrXrXrXfXpX| & - X . D :XfXK.C M V B C Z v 0 < , : q % d %.%...| } Z.V.V.N.e.N.e.T N.N.N.N.N.N.B.N.N.N.N._ _ _ _ ] ] ] ` ` { u w - = % % & & ; ; ; ; - & & # + + + + $ 8 8 , @ $ $ $ + $ $ # & 8 8 , D F v g n l l Z A.e.v 5 6 q . . + 0 H F j 3 6 6 2 2 2 6 6 6 k v v Z I v v 5 2 < , u ! ! ! s X                       . . . . .         d ",
"sXsXAXsX;X;X>X-X;X>X>X-X-X>X>X@.sX>X@.>X>X@.;X>X>XSXFXaXaXCX#.AXSX,XAXsXsX>X;XsX>X>X>X>X;X;X;X;X;X;XaXAXSXSXAXsXsX;X:X!.F jXjX:X~ ~ | @.;X| ,X,X;XR !.sX;X-XsXAX;X:X;X;XsX,X} } | sXsXsX| -XsXsX;XsXsX;XsXAXsX;XsX;XsXSXHX<XN N N S S S S S S S S S S S S S S S S S S S S S S S S S S S S m N S ~ ,XSXFXSXSXAXSXSXSXSXAXaX@.! ! | | @.>X>X-X@.@.@.@.@.@.@.< : : > > > > > > > > : > 2 6 2 > 2 6 4 2 > 2 3 3 g g g g g g g g g g h h h W <XB C >.,.8.0.0.8.w.e.r.9.A Z U U e.w.C S n : > > 3 Z tXwXuXiX8X[ 8X6XqXiXuXqXqXwXuXuXqX6XT.I.[ ] Z.%XOXG.w.e.T |  .| ( ` ) _ Y F F R S.V.V._ F I B.Y.Y.W._ ` { { { | L : : @ % % @ > 2 @ @ w ! { ( {  .( ( G G G ( ( ] ] ] ] ] V.] ) ( ( ( #.#. .dX( (  .5X4X4X4X4XaXZXFXSXZXdX4X4X4X4X$.4XZXFXZX#.{ ..dXKXKXdX] H H F ) ( [ dXSXPXKXZX4X#.aXaXaXdXdXdX/.[ y (  .( G ....{ { P ] 8X6X6X6X9X6X6X6X6X6X6X6X6X6X6X6X6XT.T.T.T.W.6X6X6XT.C.T F v v v v g I I N.C.C.C.I.V.V.!.g g h h T E._.y.V -.2.;.:.*.-.2.-.,.U G y y y & + # & # . @ u #.| P P | | P D 9 0 7 8 8 i q . @ 9 ^.rX9X9X9XOXOXrXpX( $ ;   . L :XfXe.B M B M Z v c c 4 : 1 q $.ZXmX$.%.#.| ' S.V.N._ N.N._ N.N.N.N.N.N.N.N._ _ ' ) ) ' ] [  .` ` | { u w w = - - - - - - - - - - & & # + + + $ 8 8 $ @ $ $ @ + $ # . & 8 8 , D F x k n l z A A.T v 4 4 1 . . @ c R F j 3 6 6 2 2 2 6 6 3 h x x Z W v v 5 4 < , 8 ! { { d &                       . . . . .         d ",
"sXsXsX,X@.;XsX>X@.;X@.@.>XCXsX;X>X;X#.>X>X;X;X#.>XSXAX;X>XSX;XaXsXsXJXaX@.>XsXCXsXaX;X;XaXaX,X;XsXsXsXSXSXSXAXCXsXsXjX-XR jXjX:X} | ;X| | | :X;X;X!.;X-XR !.jXAX,X,X;X;X:X-XR R !.sXsXAX| -X>X,X,X;X-X;XsXsX,XsX-X!.;XAXDX:Xl z N S S S S S S S S S S S S S S S N S N S S B S S S S S S S M M S ~ ,XJXJXSXFXSXSXSXSXSXSXCX>X@.{ | | @.>X>X;X@.@.@.@.@.@.@.6 > : > : > > > > > > > > 4 2 2 2 2 2 6 2 2 2 3 3 g g g g g g g g g g g h g Z <XA A ,.0.0.w.w.r.e.e.r.y.U U U U e.w.A S n > > > 3 Z rXwXuXiXT.] V.8XuXiXuXuXwXwXwXuXuX9X6XI.[ ) V.E.[.G.0.r.T | | | ( ) ) _ Y F v Y ] V.V._ F I B.Y.Y.W._ ` { { { | L > : @ + % @ > > 1 = w s d i {  .] ] ) ) ] ] ] ] S.V.V.S.] ) ( ( y ( #.#... .G (  .4XaXZXZXZXaX$.4X4X#.......4XmX%.%.mXZXZX#.( ( ;XdXjX/.D 4 F ) ) ( ]  .dXdXaX#.#.%.4X$.#.#.#. ./.[ y (  ...( ..( ( u G ] 8X6X6X6X6X6X6X6X6X6X6X6X6X6X6X6X6XT.T.W.Y.W.6X6X6XT.V.Y v v v Z x g v I N.C.C.U.I.V.V.Q.k h h g D._.E.8.V -.;.;.:.*.-.2.-.=.U G y y 8 & . . & $ . + 8 { P $ + $ 9 7 @ . + #       . + @ 2 V.W.W.Y.Y.OXOXW.^.G + X   . L pXfXA B m B M Z v c 5 > : : w $.ZXmX4X%.+.{ | ] ] ) ) ' _ Y ) ) ) ) ) ) ) ) ) ` ` ` ` |  . .| ` ` { { u i w = - - - - - - - - - - - & # + + + $ 8 8 $ @ $ $ + + # + + $ 8 8 , F v x l l l z U N.T c 4 w %   . @ D R F 3 3 3 6 2 2 2 2 6 g h x x Z W Z v j c 9 : 8 ! { +.! w                     . . . . . . .       d ",
"sXsXCXsX>X,XsXsX;X;X;X-X>XCXCX>X@.;X@.;X;X;X>X;X>XFXFXaXsXFXsXCXsXsXFX,X;XaXsX;XsXsXaXaXsXsXsXsXsXsXAXSXFXSXSXSXSXsXjX:X} jXjX:X-X-X,X| -X-XsX:X!.:X,X} F } sXsXsX,X;X;X:X;X-X-X;X,XsXSX,X,X,X,XsX;X-X;X,X;X-X:XsX,XsXSXDX,Xl z m N S S S S S S S S S S S S S S N N N N M M N N N N N N m m m N ~ ;XFXSXCXFXFXSXSXSXSXFXSXsX;X@.@.@.;X>X>X>X;X#.@.@.@.-X-X0 > : > > > : > > > > > 2 6 2 2 6 3 2 r 6 2 2 3 3 g g g g g g g g g g 3 g 3 x d.y.>.,.q.w.w.w.r.r.e.e.e.9.U T U e.y.A S n > > 2 j z *XwXuXyXT.] ] I.qXiXiXuXuXwXwXuXuXqX6X[ ) ) V.%XOXG.w.B.T } ` ( G H ) _ T F c F _ V.I._ F I B.Y.Y.W._ ` { { { | L > : @ + % @ > > 1 = q u i i (  .) ] ] V.V.V.V.V.^.V.V.V.) H ( ( P ( #...( ( (  . .4XaXaXaX4X$.%.#.#...{ / / %.4X/ / / { { d G | /./.] H c D Y S.I.( ) [  .....4X4X{ #.#.#.#.#. .[ [ y ( ..{ ( { P d u P ] 8X6X6X6X6X6X6X6X6X6X6X6X6X6X6X6X6X6XT.W.Y.6X9X6X6XT.N.I v v S S x g x I N.C.C.T.T.C.C.^.k h h g (.%XL.C &.-.;.;.-.*.-.2.-.=.Z G y y 8 & X . # # . . . . + $ . . + $ + + $ # X X X . + : c V.W.9XOXY.OXOXY.N.9 .     $ | sXfXN B m B m Z c c 5 2 : : p ZXZXmX%.%.+...#.;X;X . .#.#. . . . . . . . . . .#.#.#.#.#.#. .{ { { { { u w w & - - - - - - - - & - - & # + + + , 8 , @ + $ $ + # + + $ 8 8 8 , F v l l l l N U e.Y c 4 w %   . : K R v 3 3 g 3 2 2 2 2 3 h l x z Z I Z v v c 0 , , s { +.! i .                     . . . . . .       d ",
"sXAXAXsXsXAXSXSXAXAXAXCXAXFXFXCXSXFXSXAXCXCXCXaX#.FXFXFXFXJXGXJXJXSXFXSXGXJXJXGXGXJXJXJXJXFXGXJXJXFXGXJXFXSXSXSXSXAXjXsX!.sXjXjX,XsXsX,XsXsXjXsXsXjXjXsX:X:XsXjXsX,XsXsXsXsXjXsX:XsXAXGXSXGXGXGXGXJXGXGXSXsXsXAXJXDXDXGXDXjXZ N z m N N m m m N N N N N N N N N z z z z z z z z z z m N N N S ~ !.-XFXFXAXFXSXSXSXFXSXSXSXCXaX>X;X>X>X>X>X>X>X;X@.@.-X;X;Xb 4 : > > > > > > > > > 2 3 2 3 6 3 2 b 6 3 2 3 3 g g g g g g g g g 3 2 5 3 h Z d.>.,.0.0.0.0.r.r.B.e.e.U U U U 9.y.S n n : > 2 g l OXwXuXyXT.V.] ] 6XiXiXiXuXwXwXuXuXqXqX8X] H ) W.OXG.r.K.E ' R H G F Y _ T v v F _ I.I._ F I B.Y.Y.W._ ` ( { { | L > : @ + % : > > 1 = q u u u (  .] ] V.V.V.I.I.I.V.N._ Y H ) ] { i / ....( ( ]  .#.4X4X$.%.%.%.$.$.$.#.+.+.%.$.mX/ / / +.#.{ (  ././.H 0 D H ) _ V.H ) [ ] (  .ZXFX#.4X4X#.#.;X| [ [ ( { { P { { { ! ! L  .7X6X6X6X6X6X6X6X6X6X6X6X6X6X6X6X6X6XT.W.T.6X6X6X6XU._ I v v S S x 3 v T V.C.C.T.T.I.I.`.v k h g `.%XL.B &.-.;.-.*.*.*.;.*.C I G y i 8 # % # # # + . . # + . + , y u u 8 + .   X X . + : F W.9XyX0XOX0XwX0XR.0 .     + | jX1Xl A m M m F c c 5 2 : 1 p ZX$.O.%.4X4X4XZXZXZXmX4XZXZXZXZXZXZXZXZXZXZXZXZXZXZXZXZXZXaX#. .{ { { P w & - O X ; - - - & ; X X # & & + + + @ , 8 , @ + $ @ + + . + 8 e 8 , < F x l l l l Z e.e.I c < w %   . < K E v 2 3 g 3 2 2 2 2 3 h x x x Z Z v v v c 9 : , u { +.{ s #                             .         d ",
",XsXAXsXAXSXAXAXSXSXFXSXSXFXFXFXSXFXSXFXFXSXSXCXCXJXAXFXFXFXFXSXSXFXFXFXJXSXFXJXGXJXJXJXJXFXSXJXFXSXSXSXSXSXSXSXSXSXjXsX!.;XjXDXjXjXsXjXjXjXjXsXjXjXjXpXjXjXjXsXjXsXjXAXsXsXsXsXsXjXSXSXSXGXGXGXGXDXGXJXAX;X:XDXJXGXGXJXDXjXx h l l z l l l l z l l z z z z z z l l l l l l l l l l l h h g h x g b CXGXCXAXAXFXFXFXFXSXSXSXCX>X>X>X>X>X>XaX>X>X@.@.;X;X>Xb 6 : > > > > > > > > 2 3 6 3 3 g 3 2 b 6 3 3 3 3 g 3 g g g g g g 3 3 > 5 3 3 l ~.>.>.,.,.,.8.r.B.B.r.9.U U U I U U S n k : : > 3 l #X0XuXuX8XI._ _ 6XiXiXiXuXwXwXuXuXuXzXzXhXI.] Y.OXJ.p.L.E E H H D F Y _ T Z v F _ I.I.V.I I A.Y.Y.W._ ) ( { { | L > : @ + % @ > > : = w s P P ( | ] S.S.V.N._ _ _ Y Y I v c ] /. .( i { { ( ( ] ]  ...{ { +.+.! @.+.@.@.{ +.%.4XmX......#.#.` (  .[ /.] G ) ] ] ^.V._ ] S.] ( | aXZX{ #...{  ./. .[ /.dXdXaX{ ..{ { { ! ` /.7X6X6X6X6X6X6X6X6X6X6X6X6X6X6X6X6X6XT.6XT.6X6X6X6XI.T I v Z S n x g I N.C.C.C.U.T.C.I.`.v k h 3 `.eXH.M *.-.-.-.*.*.*.;.*.C I G i i 8 . % & & & & $ + + + 8 u 8 8 ! @.@.P , # & # + @ @ _ rXyX0XOXB.OX0X0XR.9 . X   . | jX1Xl A m N z F c c c 3 > r s ZXvXvXmXmX%.%.mXIXmXmX%.mXmXmXmXmXmXmXZXZXmXmXmXmXZXZXZXZXaX#.{ { { { d & & &   O O O ; ; O O     X & & + + + $ 8 8 , @ + $ # + + . + w u 7 $ 9 F l h l l l A t.T I 5 < w %   . < K E v 2 3 k 3 2 2 2 > 3 k x x N Z Z x v v c 4 : , u { +.{ d &                                       d ",
"sXsXsXsXsXCXAXAXAXSXSXSXSXSXSXFXFXSXFXFXFXFXFXSXSXSXSXSXFXFXSXSXSXSXFXFXFXSXsXSXSXAXFXSXFXSXFXSXSXSXSXSXSXSXSXSXSXSXSXjX:XF jXAXjXjXjXjXjXjXjXjXjXjXjXjXjXfXfXjXjXjXAXAXjXjXsXsXsXjXAXAXAXSXSXSXSXDXGXGXAXAXAXGXGXDXDXGXGXlX!.W W W W ~ ~ ~ ~ W W W ~ ~ d.d.d.~ ~ !.-X} ~ !.!.!.-X-X-X-X-X-X<X-X;X>XSXAXCXaXSXCXCXCXCXAXSXCXaX>XaX@.{ @.;X#.@.@.+.@.{ @.-X~ 4 : > > > > 2 2 2 2 3 3 3 3 g g g 3 2 6 k 3 2 3 g g g g g g g g 3 3 2 5 3 2 l W y.>.>.0.0.0.w.r.r.r.r.A Z U U t.t.S n 6 : > > 3 N r.0XwXqX6XI.Y Y T.iXiXuXiXwX0XuXuXwXzXzXzXhXT.Y.OX[.p.~.t.' ) _ Y Y Y Y T I x v Y I.V._ Y v A.H.Y._._ H P u { | L 4 : @ @ + @ 2 > : 1 1 u 0 9 |  .' Y T T v x I N.I v I F c H  .` { P { ( ( y ) /. .P ( { { ! ! { L | | { { ..#.4X{ .... .` ) ) ] [ I.I.] ) ) ] ] N.N.V.V.] ]  . . . . . .` ( ] ] [ 7XdXdX;X . .{ ( | L H /.7X6X6X6X6X6X6X6X6X6X6X6X6X6X6X6X6X6X8X6X6X6X6X6XT.V.Y I v v n v k k v _ C.I.C.U.T.U.R.^.I v 3 x (.eXB.C *.-.-.:.s.7.*.-.*.A v y i i & # @ @ @ $ $ $ @ + $ 7 0 0 0 P | L L P 8 + . + + : Y rXrX9XB.U Y.0X0XR.: +   # . | jX:Xm C m A x v c 5 j j > 1 d mXvXmXIXmX%.mXmXNXmXO.O.NXmXmXO.mXmXmXIXmXmXNXmXmXmXxXxXxX4X../ { { { d & O O O O X     X O O   X # & & + + $ , 8 , $ @ $ $ + + . . + e u 8 , 4 K l l l l l U Z.T F > 4 w       9 R W k 3 3 3 3 2 > 2 > j !.^.U Z Z x v v K c 0 0 0 u ! +.+.! p                 .   . .               d ",
"sXsXsXsXsXAXCXCXAXAXSXSXSXSXAXCXSXAXFXFXSXCXCXSXSXFXSXSXSXSXSXFXSXSXSXSXFXAXaXCXAXsXSXAXSXSXSXSXSXSXSXSXSXSXSXSXSXSXAXjX:Xv jXHXjXjXjXsXjXjXjXjXjXjXjXjXjXjXjXjXpXsXjXjXsXsXsXsXsXsXsXAXAXsXsXAXAXAXAXSXSXDXjXAXSXsXsXjXSXAX,X:X,X,X:X:X,X,X,X,XjX,X,X,X,XsXAXAXAXsXsXAXAXAXAXAXAXAXAXAXAXSXSXSXSXAXGXSXsX>XsXaXsXaX>XaXCXCX>X@.>X#.{ { { { { { { ! ! @.@.~ 2 > 2 2 2 2 2 2 3 3 3 g g g g g g g 2 6 k 3 3 3 g g g g g g g g g 3 2 5 3 3 h Z 1.>.>.8.w.w.w.r.p.p.y.9.U U U t.t.S n 3 : < > 3 m w.0XwXyX6XV.F Y T.iXiXuXuXwXwXuXqXqXzXzXzXzX6XU.OXJ.p.K.e.' _ _ _ _ _ _ E I k v F S.V.' Y v Q.H.Y.W._ ) P u { L J 4 : @ % + @ > > : @ , P P y ` | F c v v x x T Z.I I I F 5 F ` ( { ( ( y ( G ) [  .( ( { { { { | ` } } ` ( ( ....( ( ( ( ) H H ) ) [ /.] ( ) ] ] T N.B.B.V.S.' } /. .] ] ] ( ] ] I.8X7X/. .{ | ( ( | ` ) ^.7X6X6X6X6XqXqX6X6X6X6X6X6X6X6X6X6X6X6X6X6X6X6X6XT.V.Y v v v n v j j v N.C.C.C.U.T.U.R.(.I k 3 v _.eXC.M =.;.*.:.f.s.*.-.*.A v y i i & + + @ $ $ @ @ @ $ $ , 8 y u L | L L P 9 + . + + > S.rXrX9XC.T Y.9X9XD.: . o . . !.sX~.z M m A Z F c 5 g 3 : 1 d vX%.mXNXmXmXmXmXmXnXO.mXNXNXmXO.nXmXmXmXmXmXNXmXmXmXmXmXmX4X../ { { { i # O o O ; O X O X O X O X # & & + + @ & 8 , 1 @ $ # + + . . $ e e 7 , 4 v h l l h l U Z.T F > 6 q       0 R W k 3 3 3 3 6 6 > 2 F !.Q.t.W Z v k c c c 0 0 0 e u P ! u w . . . .                               d ",
"sXsXsXsXsXsXjXAXAXAXSXSXSXSXsX>XCXaXCXSXsX>X>XsXAXFXFXSXSXCXCXSXSXAXCXsXCXsX@.;XaXsXsXsXSXSXSXSXSXSXSXSXSXSXSXSXSXSXjXjX:Xc sXjXjXjXjXjXjXjXsX:XjXjXsXjXjXjXpX:XsXsXsXsXsXsX;X;X| | -X;X;X;X;XsX,XsX,XsXAXAX-X;X,X| ;X,XjXSXDXDXDXDXDXDXDXGXGXGXDXDXDXFXSXSXFXGXJXFXFXGXGXFXFXFXFXFXFXFXFXFXFXFXFXSXFXCX>X@.;X;X;X-X@.-X>XCX>X#.>X>X@.+.{ { +.+.@.{ ! @.-X~ 2 > 2 2 2 3 3 3 3 3 g g g g g g g g 2 6 6 6 3 g k g g g g g g g g 3 2 2 3 3 g x Z 9.>.,.0.w.w.w.u.s.y.0.9.U U t.d.W k 2 : < 2 3 z ,.@XwXiXqXV.I Y T.iXiXuXqX9X0XwXqXqXzXzXzXzXrXW.OXJ.r.A.U E Y _ Y Y Y T T W x v I V._ ' Y v Q.H.Y.W._ ) P i P P D 4 : @ % % @ > > < + @ P P P ` ` F j j k k x I E Y Y T Y F H ` L | ( { ( ` ( ] [ [ ) [  . . .] ] ] ] ] ) ) ) ] ( ( ( ) ] ) H ( ) G [ [ ) ) [ ] _ e.r.F.H.L.C.B.N._ Y H ( ( ( ( ) I.I.] ] ( ( ] ( ] [ ] ] I.7X6X6X8X7X7X6X6X8X6X6X6XT.T.W.6X6X6XT.6X6X6X6X6XT.N.F v v v n c 3 j F V.C.C.C.T.T.I.I.`.I j 3 T _._.H.M 1.;.*.:.f.f.*.-.*.A I y i i # . @ , , @ @ @ @ 0 7 7 7 y J P L K L L 0 @ . + + : ^.rXqX9XY.U.OX9X9XS.: + o . + /.:X!.z M m C Z F c g g g > q +.mXvXmXIXNXIXmXmXmXO.vXmXNXNXmXmXmXmXmXmXmXIXmXmXmXmXxXIXZX4X../ { { { i & O * * - & ; % - - & ; X & & # . + # % < 1 @ @ $ $ + + + # 8 u e , < c k h l l h l U A.T v > e w     . c W W k 3 3 3 2 6 r : 2 ' Q.D.Z.W K v j 5 5 9 0 9 7 , , , 8 , , + # + + . . . . .                     d ",
"sXsXsXsXsXsXjXAXAXSXSXSXFXFXsX;XaX;X;XaX>X>X;X;X#.;X;X@.@.@.@.@.@.@.@.;XCXCX;X,X;XaX>X;XFXFXSXSXSXSXSXSXSXSXSXSXSXSXjXSX,Xc ;X;X' !.;X:X:XsXsXsX:X:X;X;X:X:XpXpX:X;X/.;X,X;X} K : : > 4 D } | | -X,X:X,XAXjX~ -XsX-XsXsXsXjXlXsXjXAXSXAXSXSXSXSXSXSXSXSXFXFXSXSXSXSXFXSXSXSXSXSXFXSXSXSXSXAXAXSXCX,XCXCXaX#.;X>X;X>X;X;X>XCXCX>XCXCXaX>X>X>X>X>X>X@.@.>X,X@.5 2 3 g g g g g g g g g g g g g h g 2 3 6 6 g g g g g g g g g g g g 3 2 3 3 g h x U 9.A >.<.q.<.<.<.q.,.9.U A W d.W h 2 : , 2 3 z C OXwXiXqXV.Y _ 6XiXiXuXqX9X0XuXqXT.U.V.I.7X6XW.OXJ.w.r.Z I F I I F F I T I v F I _ _ ) Y v Q.H.Y.U._ ` P i u J D 5 : @ % % @ > > > : @ u J G ` ` D 5 j v x v I Y Y Y _ _ Y _ ' H G G ` ( ` ( [ [ [ ) [ [ [  .[ [ ^.I.I.I.I.I.I.[ [ [ /./.[ ] ] [ G ( ( ) S.^._ T r.G.J.OXOX[.J.H.H.C.V.I.^.I.[ 8X8X8X[ [ /./.8X[ [ /.[ [ I.8XT.T.^.^.I.I.I.I.T.T.T.U.U.T.T.T.T.T.T.T.T.T.T.U._ v I Z Z n k 3 j I C.C.C.C.T.T.I.I._.I 3 v C.eXW.B.B :.;.-.:.7.y.&.*.=.>.I D i i X . @ $ @ + + $ 8 J u e 8 7 7 0 y D J J 0 $ . + @ @ ^.rXqX9X9X9X9X9X9X) @ O o . $ /.`.t.m M m B A c c g h g 2 p %.mXvXmXNXNXNXmXmXmXO.mXmXmXmXmXmXmXmXIXmXmXmXmXmXmXmXmXxXmX4X../ { +.{ s - - - - - - - - - - - - & & & # . + # $ , 1 @ @ @ # + + + & u u 8 , < b g h l l g l U Z.I c > e w .   . D R K g 3 3 3 2 > 1 @ 2 S.`.D.Z.K K K b 0 9 4 7 < , , @ + @ @ , , $ $ @ + + . . . .         X X       d ",
"sXsXsXsXsXjXjXAXAXAXSXSXFXGXCX;X;X;X;X;X;X>X>X;X>X;X@.| @.#.;X>X>X;X;X>XCXCX;X;XaXaX;X .SXFXSXSXSXSXSXSXSXSXSXSXSXSXjXSXsXR !.!.!./.} R D D L ~ @.;X>X,X,X,X>X,X:X;X;X,X,X;X| ~ : : : 2 ~ ,XsX;X;X,X,X,XHXHX!.:XsX:XSXjXsXjXlX;XsXjXsXsXsXAXCXAXSXAXAXAXFXFXSXSXaXSXFXAXCXSXFXSXSXAXCXCXCXCXSXFXsXsXCXFXCXCXsXCXCXAXCXsXCXCXCXCXCXCXSXZXZXZXZX>XCX>XaXCXAX,Xb 3 g g g g g g g h h h h h h h h g 2 4 2 6 j g g g g g g g g g g g g 3 3 g 3 3 l Z y.A C ,.<.5.:.*.:.=.>.A N S W S g 2 : 1 2 3 l B {.wXwXyXV.T _ T.uXiXiXuXwXwXuXuX9XN.H [ 8X9X9X9XJ.8.e.Z I I I Y Y Y Y T I F F F Y Y Y I v D.H.Y.E.N.` D $ 8 0 c 5 : @ = % % > > > < : < , y ` L c 2 j F Y E ' ' ` ) ' ' S.S.' Y c y H G y y ) ] ] ( ) ( ( ( ( ] ) ( H ) ) ) ) H ) ( ( ) ( ( ) ] ( ( G ) ^.D.N.r.G.[.{.@X@X@XOXOXJ.F.C.C.D.] ) /.8XI.) [  . . .[ [ [  .[ [ [ [ [ [ ] ] I.6X6X6X6XT.T.T.T.T.T.T.T.T.T.U.U.U.C.T v Z Z Z n h 3 k I D.U.C.C.T.T.I.U.W.Y v Y W.rXW.C.C &.-.;.:.:.=.=.*.=.>.I y i t X . + @ + + + 8 u u u u 8 + . @ , < 9 0 8 # . . + < (.9X9X9X9X9XOX9XW.F @ * o   y /.^.A N C M B A j 5 g h h > d %.%.O.mXNXIXNXmXmXmXmXmXmX4XZXmXmXmXmXmXmXmX%./ 5X5X5X5X5X5X..{ { ..{ ! u w - f - - - & - - - - ; - - & # + + + $ , , @ @ @ # # + # 8 u u < : 4 b g h x l g x T Z.I 5 > e w .   $ H R K g 3 3 2 2 1 1 @ 4 S.7X`.Y K K J b 4 < , , @ , , @ @ : : < < < , , @ @ @ + . .         X X       d ",
"jXsXsXsXsXsXjXjXsXsXAXAXSXSXAXsX#.;X>X;X#.>XaX>X>X>X>X>XsXsXaXaXsXsXsXCXSXFXsXsXsXsX;X| AXSXSXSXSXSXSXSXSXSXSXSXSXSXAXjX,X!.-X!.} !.} D : @ : < u ! @.#.#.@.@.#.;X:X,X,X;X| } | 2 > 5 L -X>XsXsXsXsXpX:XAXDX!.,X,X,XDXjXjXSXGXsXjXSXsXaXsXsXsXSXAXsXsX,XsXCXAXAX>XSXFXsX>XaXCXsX,X>X>X>X>X>XCXSXSXCXCXFXSXFXSXFXSXFXFXSXCXSXCXCXCXCXSXSXFXSXCX>XCX>XCXCXSXsXK j h h h h h h h h h h h h h h h k 2 > > 2 5 3 3 g g g g g g g h g g g g k g 3 g v t.9.>.,.<.7.3.-.*.&.C N m S S N g > : : 2 3 l B {.0XwXyXN.T T V.qXuXuXuXqXwXuXiXyXU F I.T.6X9XOXJ.r.r.U E T N.N._ _ _ T E Y I Y Y Y Y F v D.U.Y._.N.` y + $ < 2 5 : @ = % % > > : > : , + , L H H F H ' !.Z.S.} } ` ' S.^.^.Z.Y F c H 0 $ + ( ] H y y y y y y y y y G H ) ) H D G G G ( ( ( ( [ ( G ) ] V.T e.G.{..X.X+X+X+X+X@X{.G.J.B.V.Y D [ 8X[ ( ( ( ( ( ( ( ( ( ( ( G G G D y H I.6XqX6X6X6X6XW.W.6X6X6XT.W.U.U.U.OXY.e.h x z x x l g x I D.U.C.C.T.T.I.T.W._ _ C.7XrXW.H.=.&.-.;.:.&.V =.*.=.A I y i t   . + + . . + w i & w i $ .   . # + @ $ & X   . + < I.6X9X9X9X9XOX9XW.c + * o   G /.D.Z C C C B Z j j h h g : w %.%.O.O.vXmXvXcXmXmXmXmXO.5XIXmXmXxXmXxXmXmXO.a 5X5X5X5X4X4X..{ { { { ! w = - f - O O X O O ; X O - - # # + + @ @ , , @ @ $ # # + # w u e , : 4 b g h x h g x E T I 3 2 r q .   8 H R n 3 3 3 2 2 r 1 : 9 S.7X(.I L ! e < , @ @ , @ @ , , < < 4 4 4 4 < < , , @ @ + . .         o       d ",
"jXjXjXsXsXsXsXjXsXsXsXsXAXAXAXAXaX,XaXaX>XaXsXsXaXCXCXAXFXSXCXCXSXCXSXSXFXJXFXSXSXSXsX>XSXSXSXSXSXSXSXSXSXSXSXSXSXSXAXjXsX,X!.!.| | | J 9 < , @ + . . . . 8 ! |  .!.;X;X-X~ ~ ~ 5 J | ;X,XsX,X,XsX:X:X-X:XjX!.,XjX,XDXjXSXjXDXjXSXDXsX;X;X;X;XsX,X>X>X;X;X>XsXCX;XCXCX>X@.#.;X@.@.@.@.@.@.@.>XCXFXSXsXCXCXFXSXSXSXSXSXSXSXSXCXCXCXCXCXZXZXZXCX>XaX>XCXsXAXAX~ j h l l l l l h h l l l h l h h k 3 > : 2 2 2 3 g g g h h h h h h h g g g 3 3 g h I 9.>.=.:.7.7.;.*.&.V B M S S z g 2 : : > g z B [.0XwXiXN.N.N.C.qXuXuXqX9X9XuXiXtX9.T W.7X6XW.9XOXr.B.e.Z.Z.V.V._ _ _ T T ' _ _ ) ) ) I v D.U.U._.N.` y @ 8 < > 5 : @ = = % > > : : : u y 8 G ( } ) _ S.' Y Y H H H H Y _ _ T Y _ D H D 7 $ (  .L 7 7 9 8 t & 8 & 8 D ] S.S.Y F y y y y y y ( ] ( G ) ] T U F.[..X+X+X+X+X+X+X+X+X[.J.B._ F 7  .[ ( 9 8 8 8 i 8 i i i i 8 8 8 y @ , D I.6X6X6X6X6X6XW.W.W.6X6XT.T.Y.OX9XtXrXH.U U N z l h h v T I.U.U.U.T.I.I.T.7XN.U.W.W.9XW.B.C &.-.;.*.&.V =.*.=.A F y i t   . . . . . X % & . # & X       . + . . ; * o   + 0 ] 9X9X9X0X9X0X9XU.4 + * *   ( ^.D.z N S 1.A A v k h h 3 : d %.mXcXX.X.O.O.mXNXNXNXmX%.mXmXmXmXIXmXIXmXmX5XO.mXmXxXxXmX4X5X{ { | { u 8 % = f * ; X O O ; ; O O - & # + + + @ $ , , @ @ # # # + & w u w : : 4 c g h l h h Z t.T I 2 4 r q .   9 H R k 2 3 3 2 2 1 q : 9 ] R.N.I L s 1 @ + @ @ @ @ , , < 4 4 5 5 5 4 4 4 < , 1 $ + . .       o         d ",
"AXAXjXsXsXsXsXsXsXsXsXsXAXAXSXFXGXAXCXAXAXSXSXSXFXFXFXSXFXSXSXGXFXAXFXFXSXFXJXGXFXJXJXSXJXFXSXSXSXSXSXSXSXSXSXSXFXSXFXAXjXjX!.} | | L c 9 e e , 8 $ + . .     . @ : 5 K ~ K 5 > c K ~ -XsXAX;XK D c F j v } v ;XsX;XSXjXSXsXDXDXDXJXSX,X;X;X-X;X;X>X>X>X-X;X,XCX;XaXCX>X;X;X;X;X>X;X#.#.@.@.>XSXSXSXaXCXCXJXSXCXAXCXCXCXCXCXCXaXCXCXaXCXCXCXCXCXCX>XCX>XCXAX~ 3 h l l l l l h h h h h h h h h g 6 : : > 2 2 3 g g g g g g g g g g k k h g g g g x W y.C &.3.4.2.-.*.=.C M S S h 3 > : : 2 g z M '.0XiXiXC.D.D.W.qXiXiXuXwXqXqXwXY.N I U.6XI.C.9XOXr.A.t.!.Z.N.N._ _ _ Y T _ _ _ _ _ _ Y v D.U.U.W._ ` G 8 u 0 9 5 : @ = % @ > 2 4 @ < { { y H ] ] H H Y D 0 9 , + $ < 4 5 j v I _ c H H y 7 `  .{ 8 8 i i i ; t & y ) `.fX`.Q.Z.G y u u P G (  .( y G ) Y e.P.{.@X+X+X@X0X0X+X+X+X{.[.F.e.I j /.`. .G u d d d i i i i s e w i i 8 7 G S.8X6X6X6X6XT.T.T.T.T.U.Y.Y.OX9X9X@X@X*X*XK.9.N l g h Z Z.I.T.U.T.T.I.C.T.7XV.W.6XU.W.W.B.V *.-.*.*.*.:.*.*.=.A F y i t   . . . . X X .     O O     O     # .   O * o . + H I.qXqXwXwX9X0X9XR.> + % O . ` /.D.z M B 1.,.A K n x l g 6 +.mXmXmXmXmXZXmXIXIXmXZXIXmXmXmXZXIXIXmXIXZXZXmX%.xXxXxXmX4X#...{ ..@.{ s w = - - - - - - - - - - & - & # + + + $ $ 1 , @ @ # # # # & w e 8 , : 4 c 3 h h h h U Z.E I > < r q . . y R I k 2 3 3 2 2 @ r @ < ' ] F H 9 , + + @ 1 $ @ , , : < 4 0 5 9 4 4 4 4 4 < < 1 @ + . .               d ",
"AXAXsXsXsXsXsXsXsXAXsXsXsXsXAXSXSXSXSXAXCXSXFXAXFXFXAXSXFXSXFXSXFXSXSXFXSXAXSXFXSXSXFXSXSXSXSXAXsXAXSXAXSXGXGXSXSXJXSXAXAXjX!.F D D D D b b J 8 8 , , < 8 $ O O + : : J -X} 5 3 c 3 c ~ | -X| L L L L J D 4 5 -XsX;XAXAXAXAXDXDXGXDXGXsX . .| ;X;XaXsX>X>X>XsXSX@.>XCXCXCXCXCXCXSXCXCXCXCXCXSXFXSXSXaXsXSXCXCXCXsXsX,XsXCXCXCXaXaXaXaXaXCX>X@.$.CXCXCX>XCXAX@.2 v h g h x h k n g k k k j 3 3 2 > > @ : 2 3 3 g g g g g g 3 g k k k h l h h h h l x A >.=.:.6.2.:.&.V B M z h 3 > : : > 2 3 h m G.0XuXiXT.C._ S.8XiXuXqX9X9XiXuX9XN.C.6XqX9XH.%XOXE.9.d.t.U Y N._ _ T T T _ _ _ _ _ Y Y I D.H.U.W.V.) ( i 8 7 0 4 > @ @ % : > > > : 9 | L D H ] ' H < < : + @ .     + : > 3 k x I I R H D G `  ...d i i d d d t y ` R.OX[.[.%X(.] ( u P ( ( ( [ | { P G H D.F.[.@X+X@X@X@X+X@X+X.X@X[.G.r.p.0.~.).A.( / / / / / / / { ! ! ! d d s ! L ] 7X6XT.T.T.6X6XT.U.Y.OXOX@X0X0X0X0X@X@X@X*X*XP.U h g v Q.C.U.U.T.W.C.C.T.6XT.T.W.C.L.e.8.&.*.*.*.*.-.;.;.:.=.Z K y t t i i &   . # X . O O O O . .         # + . . + + 9 ' 7XqXqXwXwX0XyXeXQ.@ @ w + .  ./.Z.x m S B =.B z x x l g g b ! +.+.{ +.%.$.$.%.$.$.$.%.%.%.+.+.+.+.+.+./ d d / +.+./ d i i u ! ! d d p - - w p - - - - - - - - - & # # $ $ , @ , @ @ @ @ + + + # i u $ + < 5 5 6 3 h h l U A.I F @ @ q + + + D R v 3 2 3 3 2 2 > > < 9 J L J < @ @ @ @ 1 1 , : < < < 4 4 4 5 4 9 7 7 4 4 4 4 4 4 4 7 8 8 8 t t & i w # ",
"SXAXsXjXAXjXsXsXsXjXsXsXAXAXsXAXSXSXFXSXSXAXSXFXSXAXCXAXAXCXSXSXAXSXFXGXFXFXGXSXsX,XsXSXSXCXCXSX,XsXsXsXsXCXCXCXsXsX,XsXAXjX!.R ) /.;X-X~ ~ ! u 8 , > > : $ - - , < < J -X} 5 2 v 2 3 K ~ | | | | | | L L c c ;X,X;XSXSXAXjXSXSXJXDXGXjXsXsXsXsXsXSXSXAXAXsXCXSXCXCXCXAXSXSXSXFXFXSXSXSXSXSXCXSXSXSXsXCXAXCXsXsXsXsXsXsXCXCXCXCXaXaXaXaXaX$.@.@.CXCXaX>XCXCX@.5 2 g k g g k k g n n Q Q K L ! ~ @.@.! K K v j 3 g g g g g 3 g g 3 g h h h h h h g h Z A >.q.6.:.&.V B B N x g 2 : : : > 2 3 h m x.0XuXiXT.V.Y S.8XiXuXuXwX9XiXiXyX9X9XqXqX9XE.).Y.E.9.y.U U T N._ T T T _ _ _ _ _ _ T Y I C.H.U.T.] ) ( i & 7 9 4 > @ @ @ : > > @ @ , | P D H ]  .R < 1 1 + @ .   o % 1 3 g h h v Z I F D D ( | ../ i d d d d t P ' E.[.[.[.J.L.V.] L P ( ( )  . .{ / P G S.H.OX@X+X@X@X@X+X+X.X{.@X'.G.u.u.:.u.s.K.| { / O.O.+./ { ( ` R P / / i P H ] _.6XT.T.T.6X6XT.Y.OX@X@X0X0X0X0X0X+X+X@X@X=XrXL.I v v D.I.U.U.T.W.I.C.T.6XT.T.C.T D.e.>.*.-.*.*.*.-.;.;.*.C v D 8 & t / i 8 # . . . . O . . . o .         . . . = + + < ) I.6X9XqXqX9XeX^.} : , e + +  ./.} x z M B =.B m N N x h h v K 3 4 < 8 w w & # w s u e u e : @ @ + + #         O * ; % + $ 8 w w p d a - - - - - - - - - - - - & & # # $ , , , , @ @ , @ + + # & i i $ + < j 6 6 3 h h l 9.A.I c @ & = + + @ D ~ v 3 2 3 2 2 2 > > 6 b ! J 0 < @ @ @ , , : : : : > 4 4 5 9 5 9 7 7 9 4 4 5 5 5 5 9 0 0 u i i i i d u # ",
"AXAXjXAXjXsXsXsX;XsXsXsXsXsXsXAXSXSXSXFXFXSXAXFXSXsX>XsXsX,XSXSXCXCXAXCXsXSXGXFX>X-X;XsXsXaXsXSX,X;X;X,X,X>X;XaX>X;X;XsXAXAX!.} /.pXjX:X!.-X@.L 9 9 c 5 : @ - - 8 < : J ;X;X| } -XR K ~ | | @.;X-X@.@.| | L K -X,X,XDXSXSXSXSXAXSXSXDXSXDXDXSXSXSXJXJXGXFXSXSXGXFXSXSXFXFXSXFXFXFXSXFXSXFXFXSXSXSXSXsXCXAXCXCXCXsXsXsXCXCXCXCXaXaXaXaXaXaX@.+.@.CX,XaX>X,XCX;X~ c ~ } ~ ~ | @.~ @.-X;X;X;X;X>X,X>X,X>X-X} R v 3 g g g g g g j j 3 3 g h l l h h 3 3 g x S y.s.<.&.C C S S x 3 > : : : > 2 3 h m a.0XwXiX6XV.Y S.qXiXuXuXwX0XwXzXyXyX9XqX6XV.C.F.Y.OXw.U Z U T N.N._ _ _ _ _ _ _ _ _ T Y I C.H.U.U.V.] { i & , 4 4 < @ @ % 1 > > + + % +.u y G | /.` 6 1 1 @ : : @ : > 3 h l l l x v v c c 0 G ( { { P { d i i i ` ^.U.J.OXJ.H.H.I.I.' H G ( ] /. .{ / d y ' K.OX@X+X+X+X@X@X+X+X@XOX[.'.u.<.=.<.5.f.-X@./ / +.+... .[ S.V.[ [ ..]  .] V.7X6XT.T.T.T.T.T.OXOX0X0X0X0X0X0X0X0X0X0X0XtXtXeXR.Y I D.U.T.U.T.R.I.V.T.T.T.T._ v Z.e.A *.-.*.*.*.-.;.;.*.B v D t ; t / u u 8 & . . . . .   . .     .       o o f * . # y ( ] I.8XI.V._ ) ` 9 e e . + /./.E x z M M V B m N N x z l h k 2 > > 8 e w & # 8 i i u s u @ + @ + $ # +   . X         . + + # X & - - - - - w - - - - - - - - & # # + $ , , , , @ @ , @ + + # 8 i i $ @ 4 j j 6 3 h h z 9.A.I c @ q w . + < K ~ v g 2 3 2 2 > > > e ! J 8 : 1 @ @ @ , , , : : : > 4 0 5 0 0 0 9 9 9 4 5 5 5 5 5 5 0 e u J P d ! { s & ",
"AXAXAXAXsX,X,XsX;XsXAXsX,X>X,XsXSXsXsXSXFXSXsXSXsX>X;X,X>X;X,X>XsXsX,X>X;XsXSXJXsX,X;X;X;X;XsXSXsX,X>XsXaX;X>X,X>X;X>XsXjXAX!./.;X/.:X!.~ -X@.L P L !.R 2 @ & & 8 @ : J /.,XsXjXDXsX-X;X-X| |  .;X@.@.| | L K !.,XsXAXjXAXSXSXsXjXSXDXDXDXSXSXSXSXFXFXFXFXFXFXGXFXSXSXSXCXCXSXFXSXSXFXSXSXFXSXFXFXSXCXCXCXCXCXAXCXCXsXCXCXCXaX>X>X>XaXCX>X@.! @.>X>X,X>X,XCX,X>X;XsXAX,X>XsXsX>X@.#.;X;X#.@.;X>X>X,X>X-X} R v 3 g g g g g g 3 3 g g k h x x k j 6 > > 2 h S 1.y.1.S S S n k 2 : : : : > 2 3 h m i.@XwXiXqXC.T I.iXiXuXuXwX9X9XqXyXqX9XqXT.F x Z Y.OXr.9.Z e.B.V.N._ _ _ _ _ _ _ _ _ T Y I C.L.U.U.V.] { d w 7 < 2 > @ + % 1 > > $ # = +.s 8 P  . .L < 1 r > > 2 3 3 g l z m m z h h j c 0 7 9 G ` P u u i t i ( ' ^.C.B.Y.H.N.C.C.U.S.) H ( ] /.#.{ d d 9 T F.[.{.].].]..X.X.X{.{.[.[.[.a.u.5.5.2.7.!.@.{ d / ..dXpX7XeX7X7X8X8X7X7XI.T.6X6XT.T.T.T.T.W.9X0X0X0X0X0X0X0X0X0X0X0X0X9XrXrX7XV.Y V.T.T.I.U.U.C.V.I.I.I.V.Y v e.9.>.-.;.*.*.*.-.;.;.*.C v y t ; t t { { u 8 . . .   . . . .     .     o o o *     # y G ) [ [ ) D D G H 0 s w . + /.!.I l m M M B M M N m m z l h g k 5 5 K @.;X#.@.$.$.$.$.$.#.@.{ { { { { { ! ! ! d t - & & & # & - - - - - = - w = - - - - - & & # # # $ $ , , , , , @ @ @ + + $ i i 8 $ @ 4 c k k 6 h l m y.A.I 4 @ w w . + 9 L R v 3 3 3 2 2 2 > 6 b J e : @ , @ @ , , , , : : < < 9 0 0 c 5 0 0 4 5 5 5 5 5 5 4 4 6 0 e e u u d d i & ",
"AXjXjXAXjX,X;X| ;X,X;X| | -X| R ;X| | -X;X;X| ;XAXsXAXSXAXsX,X;X;X;X,XsX,X>XsXSXAXsX>X;X;X;XsXSX;X;X;X>X>X>X;X;X>X;XsXsXsXAX-X;X/.] ' R K | { L ` /.,X:XW > , $ 8 , < D ` /.:X:XsX-X| -X-X| | ;X-X@.| | -X} K } ,XsXAX,X,X,XsXsXSXDXSXSXDXSXSXSXSXSXSXFXFXFXSXAXSXFXSXsX;XaXAXSXCXCXAXsXaXsXsXFXSXCXSXSXCXCXsXsXCXsXsXCXsXaX>X>X>X>X>XCX>X@.! @.,X>X,X>X>XCXsXsXaXsXsXaX#.#.#.#.@.@.@.@.@.| #.;X;X;X;X/.} R I v h g g 3 3 g 3 2 5 3 j k n n j 2 : @ + @ : 2 x S S S x k g 3 > : @ : : > 2 g h m u.@XwXiXwXU.Y I.iXuXuXwX0X9XY.C.U.U.qXiXwXT.Z Z Y.9XF.9.Z e.N.N.e.e._ _ _ _ _ _ _ ) _ Y I D.H.U.U.V.) { d s e < > > @ % % = > : % = - +.p 8 ( #.( 0 > 6 6 2 2 h z z z m B B M z h g 3 5 c 7 , y H G y 8 & 8 (  .D.I.N.T B.N.Y e.B.J.L.Z.) ) ] [ #.{ d d 9 T p.x.@X.X@X.X+X@X.X.X'.p.G.G.a.a.x.i.4.3.g.<X| i i ..dX7X6X9X6X6X6X6X6X6XT.I.6X6XT.W.W.T.Y.OX0X0X0X0XwXwXwXwX0X0X0X0X9XOX9XrX7XI.) I.I.U.I.U.U.V._ C.I.V._ Y v e.U >.-.;.*.*.*.-.;.-.=.Z c y i t t t / { u 8 X X X . X X .   .   .     X X .     . 9 ( [ I.I.] H 0 0 y y 8 s - . , ;X!.v z m M M N m M m m z z z l l x g 3 b | >X>X>X>X>X#.#.#.#.+.+.#.@.@.@.@.@.@.@.$.$.@.@.#.{ { { { d p - - O . . X X # # # # # # # # $ $ , , , < , @ @ @ @ + # & i i 8 + @ 5 n k k g g h N y.t.I > , w w . + 0 R K c 3 2 3 2 2 2 2 b J e : , , , , , , , 1 , < < 4 9 0 0 0 0 9 4 5 5 5 5 5 5 5 6 6 6 6 7 < , , @ & - & # ",
"sX,X;X,XsXsX| 5 ;XsX;X!.-X;X;X!.;X .,X;X-X;X;XsXsXsXsX,X,X;X;X@.;X;XsXAXsX;XsXAXSXsX,XsXsXaXsXGXsXsXAXAXSXSXSXAXsXAXSXAXsXjX:X;X^.) S.R D L J P ` ;XjXjX!.v 0 u e 9 J ~ E } } R } ` L | | ` L | @.| | | ;X-XK } :XAXSX;X} K ;XsXAXjX,XsXSXSXSXSXsXsXSXFXFXSXSXsXsXFXFXsX;XaXsXsXaXaXaXaX;X@.;XsX>X>XCXSXAXCXsXsXsXsXsXsXaX,X>X>X>X>X>XCX>X@.! @.>X>X>X>X>XaX>XaXsXsXsXaXaXaXaXaXaXaXaXaXaX;XaXaXaX>XpX;X!.' E I x k g g g g 3 3 3 2 3 c v v 5 @ . . . . + @ : 3 g 3 3 2 > > : : @ : > > 2 g l m 5.@XwXuXuXT.Y V.qXuXuXqX9X0XY.N.v N.wXiXzXzX9XC.Y.9XF.9.Z e.N.N.T T T _ _ _ _ _ ) ) _ Y I D.H.U.U.V.) P s s e < 2 > @ % % = > > + # = o.w & P  .G , > 6 6 g h A 8.,.C B M M M N h g 2 0 D 0 < D H H y & & i ] ^.C.C.e.T N.V.N.C.F.[.E.D.V.) ] [ #.{ d d c e.u.x.x.x..X.X.X@X].{.{.G.[.G.a.x.}.z.k.4.7.~.| y i ..7XrX9X9X9X9X9X9X6X6XT.I.6X6XT.W.W.Y.OXOX0X0X0XwXwXwXwXwX0X0X0XOX9X9X9X9XT.] ) I.I.I.C.U.U.V._ V.I.V._ _ I e.U 1.-.;.-.*.*.-.-.-.=.N 0 y i t t ; t i i & X X X X # X X X . X X X . & # # # # 8 G [ 7X7X8X[ H D y 9 8 # i # . 7 ;XZ.x z M m N N z m m z z z z z z h h g j c K ~ @.;XaX>X#.$.#.#.#.#.#.#.#.;X#.-X;X$.$.$.#.#.{ i / +.d - X X . . # X X # # # # # . + # $ $ , , , 8 1 @ @ $ @ + $ 8 i 8 # + : 5 k k k g g l A y.t.F : , q - . + D R K c 3 2 2 2 2 6 6 b e < @ , < , 1 , , , , 1 < < 6 0 0 0 0 4 4 4 5 5 5 5 5 5 6 4 0 0 8 1 : @ + + .   . # ",
";X;X-X-X,XsX;Xv -X;X;X;X-X-X;X,X;X;XAXsX-XsXsXsXsXSXsX;X,XsXsXsXsXsXsXSXsXsXsXAXSXsXsXSXSXjXAXDXSXSXSXSXFXJXJXGXFXGXFXSXsXjX,X;XS.] ^.Y c L D J R !.1X1X1Xd.K { J 0 R !.!.!.t.k c c D ` | ` ` | | } | -X:X;XR ~ ;XAXSX;XD : | sXsXsX .;XsXjXAXSX,X,XsXsXsXsXsXsX;XsXSXAXsXsXaX;X>X;X#.aX>X| @.;X@.@.CXSXCXAXCXCXsXsXsXsXaX>X>X;X>X>X>X>X>Xo.! @.>X>X>X>X>X>X>XaXdXdXdXdXaXaXaXaXsXaXaXaXaX;X;XaXdX;X:XpX/.' E E I v h g g g g 3 2 3 j v W K 5 @ .       % . @ @ : : : : : : : @ @ , > > 3 g l m :.@XwXuXiX6X) ] 6XuXiXuX0X0X9XY.N.T.qXyXzXzXhXY.Y.9XF.w.A e.N.N.T T T _ _ _ _ ] ) ) Y Y I D.U.U.U.V.` P w w e 4 2 > @ + % = > > : : 1 ! 8 , P  .D : 2 3 g l N y.#X}.p.<.=.B M N g 3 2 b L D 9 F ) ` u & t ( S.R.Y.H.B.C.C.D.C.J.G.[.J.D.V.) ] [  .{ i P F A.i.c.c.c.XX.X.X@X]..X=XOX=X'.a.x.$Xz.b.h.6.f.' y i [ 7X6X9X9X6X6X9X9X9XqX6XT.6X6XT.W.OXY.OX@X0X0X0X0XwXwX0X0X0X0X0X9X9X9X9X6XI.] ) I.I.U.U.T.W.V._ _ _.V._ _ I t.U <.-.;.-.*.*.*.-.-.V N 0 8 t t t t t & & & ; ; ; & ; ; X X X X & & # & & $ & & 8 y ] 8X7X/.] ( y , # # X w X . y :X!.z z m z N x x m m m m m z z z z x x h g g k K | @.;X#.;X#.#.#.#.#.#.#.;X;X;X>X>XaX$.#.#.../ ..+.d     # & & & # # # # # # + + + @ $ $ , , , < $ @ @ $ + + & i t & + + : 5 k g k g g l A t.T v @ , & & . + J L v j 2 2 2 2 6 0 b e 6 , , , , , : : : : : < < < 6 6 4 4 4 4 4 5 5 5 6 5 4 4 4 4 4 < < 1 : @ @ + .   . # ",
";X;X;X-X,XSXAX:X:X;X;X;X;X!.| ;X,X;XAXsX;XAXAXsXsXJXAXsXSXDXSXSXSXSXDXGXDXSXSXSXDXDXDXDXDXDXDXSXDXDXSXSXSXSXFXFXSXSXjXSXjXjXpX:XS.V.^.F 9 L P D R !.~.1X2X!.R | P 0 R !.<X<X!.h j c D R | | R } } } } -X,X;X~ ~ :XAXSX;XD : | sXSXSX;X;XsX,XsXsX,X;X;X;X-X-X;X-X#.;XsXsXCXsX>X;X#.-X@.CXCX| @.@.>X;XCXAXCXCXsXCXsXsXsXsXaX>X>X;X;X>X>X>X>X! ! @.>X>X>X>X>XaX>XaXaXdXdXdX#.#.#.#.#.#. .#.#.#.#.#.#. ./.pX/._ _ E W Z x g g h g j 3 3 v I E R c , .       % . . @ + @ : : : : @ @ @ , > > 3 g l m :..XwXuXiXqX] ] 6XiXiXiXwX0XwX9XY.9X9XqXiXzXhXY.OX9XH.r.A e.B.C.T T T _ _ _ _ ] ) ) T Y I D.U.U.U.V.] P $ + < 5 4 > @ @ @ : > 2 2 3 5 ~ 0 9 ( /.D > 3 g h z A P.#X*X*X#Xs.,.m h 3 3 2 b ~ K c H ]  .( & i | ^.R.OXJ.H.L.C.N.e.e.[.J.H.S._ ( ) /. .{ i P E P.i.n.$X X=X|.c.|.x.{.=X{.=Xa.u.x.=Xc.k.h.4.u.Y y i [ 7X9X9X9X6X6XOXOX6X6XT.I.T.6XT.W.OXOXOX@X0X0X0X0X0X0X0X0X0X0X0X9XOX6X6XT.I.] ) I.U.U.T.W.W.C._ _ 7XI._ Y I t.U ,.-.;.-.*.*.*.-.-.=.Z c & ; ; ; t t t t t t ; ; ; ; ; ; X ; & & t & & X X & & X 8 G  . . .| { u . .     p X . P ,XQ.z m m l z x x z m N N z z z z z z l l h h h j c | -X;X;X#.#.#.#.#.#.#.#.#.#.#.#.>X#.#.#.....4X#.d X . & & # # # & # # # # + + + @ $ $ , , 1 8 $ @ @ $ + + & i - & . + < j k g g g g z U t.U c @ 8 = = . + K K c 5 2 2 2 4 6 0 J 4 : < 8 , , , : : , : , < < 4 4 4 4 < 4 4 9 0 5 6 6 6 4 4 < < : : @ @ @ @ @ + .   . % ",
",X,X,XsXjXAXAXjXSXAXAXjXAXAXAXAXjXAXjX:X;XjXSXDXAXSXDXSXSXDXSXDXDXSXSXSXDXDXSXAXSXSXSXAXAXlXSXDXDXDXSXSXSXSXSXSXFXSXSXjXsXjXjXpXV.C.^.c D G y y F E y.~.1X!.~ K J J ~ !.:X1X:XQ./.!.!.-X-X!.!.!.!.} !.} ;XjXR ~ ,XSXAX| < , + sXSXsX;X;X,X;X-X;XsX,X-X-X,XsX>X;X~ @.aXCXAXsX>X;X;X>X@.,X,X@.>X;X;XaXCXsXCXAXsXsXsXsXsXaXaX>X;X;X>X;X-X>X>X@.@.>X>X>X>X>X>X>XaXaXdXdXdXdX .{ .... .#.;X#.#.;X;X;XdXdXdXpXpX] Y T I I Z v v x v v v v T E E Y F < .       O X # + + + @ @ : : 1 % @ : : > 3 g l m :.{.0XwXiXuX6X] T.iXiXuX9XwX0XyXwX9XT.U.yXzX9XC.OX9XJ.9.A U B.B.e.U T D.Y _ _ Y Y Y Y I I R.R.U.U.V.` P . $ : 5 2 > @ @ , > > 2 x Z I E ' ' S./.F 2 g 3 z M s.G.J.G.G.G.*X1XA.x 3 2 j b K R D D ) ` i i & y ' C.F.J.F.e.e.e.9.8.J.E.Q.' ) ( ] /. .( u P Z.F.i.b.$XoX=X Xc.z.z.c..X@X{.a.u.].oXoX$Xj.6.s.Z.G G [ 8X6X9X9X6X6XOX9X9X6XT.T.T.6XW.Y.OXOX@X@X{..X@X0X0X0X0X0X0X0X0X9XY.6XT.I.V.) ) I.T.T.C.U.W.C._ _ (.D.I v U t.A ,.-.;.-.*.*.*.-.-.=.A v 9 & & & & ; ; ; ; ; ; ; t   ; ;   X d +.%.; ; ; ; ; ; ; ; ; ;       ; * O . # w - % . | :Xd.m m M z h k g x S S x z z m z z z z l l l l h g 3 k ~ ;X,X;X#.#.@.@.#.#.{ | #.#.#......./ ..4X4Xi X X & - # # . # & & & & $ + $ $ @ @ $ , , , + + % @ . # w - & & . + 4 k g k g g l l y.t.U j @ 8 =   . < D K c > > 2 4 0 b 0 9 9 < < < , , , : : , < < < 4 4 < < < 4 4 4 4 9 9 4 < 4 < < : @ , @ + @ % + + . .     % ",
"SXAXAXAXSXSXSXAXSXAXAXAXAXAXAXjXjXjXAXsXsXSXAXAXAXSXDXjXjXjXsXjXjXjXjXjXjXjXsXpXsXjXjXjXlXlXlXlXlXlXSXSXSXSXSXSXSXAXSXAXjXjXjX:XI._.pXY D D y G E ~.~.#X1X<X} c < 4 K !.~.~.~.t.Z.' } | } ~ ~ !.!.W ~ !.<X,XF W ,XAXAX| D 0 , sXSXsXsXsXsX,X;X,XSXsX;X .;X>X,XsX>X>XsXSXFXAXCXsXCXSXCXFXFXCXFXSXAXSXFXCXCXSXsXaXsXCXsXaXaX>X>X>XCX,X>X>X>X@.@.#.>X>X>X>X>X;XaXaXdXdXdXdXaXaXaXaXaXaXaXdX;XdX;X;X;X;X/.:X/.S._ Y T T I I I I I I I I T e.E E F 9 .       . . + + + + + @ : : 1 : @ : : > 3 g h z :.{.0XuXiXiX6X) V.yXiXwX9X0X0XyXwX9XU.N.T.9XU.C.W.9XH.9.U U B.B.e.T N.D.T _ ) ) ) ) Y Y I R.U.U.U.V.` P . $ : 5 5 2 : : : > 3 x Z 9.9.t.t.Z.N.Z.I v x h N ,.P.G.p.w.8.F.#X).A.E v > > 5 L R c 5 H  .i t ; # H T B.J.L.B.r.r.r.r.H.L.} L G ( ) [  .( P D _ P.i.6. XoX$Xn.4.4.6.c..XoX{.a.a.{.oXoXn.6.5.,.v 8 i [ 8X6X9X6X6X6XOXOXrX6XT.T.6X6X6XY.Y.OX[.'.a.5.i.@X0X0X{.[.[.J.[.OXW.T.T.I.] ) ] I.T.T.U.T.W.C._ _ (.^.F k I E A ,.-.;.-.*.*.*.-.-.&.A Z c 7 8 8 $ X ; ; X X X X X # & & X - d { +.o * * O ; ; ; ; ;         o * o @ , e w % . | :Xd.N M B z l k 3 g h x x x z z l z z z z z z l l l h h v W } | @.@.| { { { #.#.#.#.........t ..4X4Xt     & & # & # & & & & w 8 $ @ @ @ $ $ $ , 1 + + # + . & i i & & . + 5 k h h k g l l y.t.I j @ & -   . < D K c > > 4 5 0 b 0 9 9 < < < , , , < < < < < < < < < < < < < 4 4 4 < , < < < < < < , @ @ @ % + . . .   . % ",
"SXSXSXSXSXSXAXAXSXAXAXAXAXAXjXjXjXsXjXjXjXAXjXsXjXjXjXsXsXsX:X:XpX:X:XpXpXpX:X:X:XpXjXjXjXjXjXjXjXjXjXjXlXlXlXAXSXAXDXSXjXjXjX`.R.rXlXS.D y y P } <X~.~.1X<X} < @ < K !.~.~.~.y.Z.} } | ~ R ~ -X<XW W !.!.:Xv W ,XjXsX-XL 0 + aXAXsXsXsXsXsX>XsXSXSXsXsXsXsXAXFXAXaXsXSXFXSXCXAXSXFXAXFXFXAXFXSXSXFXSXsXCXSXsX,XsXCXsXaX,X>X>XCXSXCX>X>X>X@.{ @.>X>X>X>X;X;XaXaX;X#.;XdXaXaXsXsXsXsXsXsXdXdXdXdX;X;X/././.^.V.T _ T E E E E E T I U e.t.e.T I 0 + .     . + @ @ + + @ @ : : : : @ : > > 3 g h z :.{.0XwXiXiX6X) ) qXiXwX9X0XwXwXwX9XU.T _ C.C.T.9X9XH.9.A U B.B.e.e.B.(.T Y Y ) ] ' _ Y I R.U.U.U.S.` u . 8 > 5 j 2 > 4 5 3 x U 8.p.K.r.t.Z.N.T T E W m y.K.}.G.r.A U F.E.L.A.Z.E 3 : 5 K J 2 4 G  .i & t & y F T H.L.B.B.B.B.B.S.' L y y G ( [ | ( P y Y E.x.5.z.|.$X Xz.z.c.|.].{.'.a.a.'.'.a.5.<.1.A c y ( dX7X6X6X6X6X6X6X9XrXW.T.T.6X6X6XW.OXOXG.a.{.i.5.{.tX@Xw.0.G.J.[.H.U.I.T.I.) _ ^.I.T.T.U.T.W.C.N.N.`.S.F g I E U ,.-.;.-.*.*.*.;.;.*.=.Z v c 0 5 4 $ # # # . . . . + + + . , u u 8 . . . . . . . . . .       o o . > 5 b w + . | :Xt.C B V M z k 3 2 3 g k k k h l l z z z z z z z m z l h h v R } | | { { { ..#.#.#. ......./ 5XZX%.;   . = = X & & & # + % q 1 $ @ @ $ % & , = & # . + . . - d i & # . @ 5 k h h h g h z d.t.I 5 @ & &   . 9 D F c > > 0 0 b b 0 9 < < < < , , , < < < < < < < < < < < < < < < < , , , < < > > < < : @ @ $ .         . % ",
"jXAXAXAXAXAXAXAXAXAXAXAXAXAXjXjXjXsXjXsXjXjX:X:X:X:X:X:XpXsX:X:X:X:X:X:X:X:X:X:X:X:XpXfXfXfXfXfXpXpXfXjXjXjXjXjXjXjXSXSXjXjXjX`.C.rXgXS.G & 8 y R !.d.y.~.<X~ , 8 7 K d.~.~.~.K.!.!.!.| } ~ !.:X,X!.W E !.<XW ~ -X,X;X| P 0 + ;XCXSXAXAXAXsXsXAXSXSXSXSXSXSXSXFXFXAXCXSXFXFXSXFXSXSXAXFXFXCXSXSXAXSXSXsXsXSXsXsXsXCXsX,X>X>XaXSXCXCX>X;X>X@.~ @.>X>X;X>X#.;XaXaX#.#.#.;X#.#.#.| #.;X>X;X;XdXdX;X;X;X . ./.^.S.T N.N.t.E E E E T I U e.e.e.T I c @ . . . . + @ @ + + @ , : : : : : : > 2 3 g g l :.}.0XwXiXiXqX[ ) 9XiXuXqXwXwXwX0X9XOXC.N.C.U.9XuXwXY.9.Z U N.C.e.e.A.(.T Y Y ) ' ] _ Y I R.U.U.U.I.` P $ u > 5 j 3 j K K v Z 9.F.F.r.9.U U T e.Z U A Z s.#XOX[.F.r.r.[.OXF.9.e.E 3 : > b D 0 G ( ( i i / { i G Y N.B.C.L.L.L.Q.' ` P i y ( ] [  .( u y H (.P.a.5.z.|.n.b.n.c.c.].{.'.p.w.p.r.,.&.,.A Z ` | ] 7X7X6X6X6X6X6X6X6XW.W.T.T.6X6X6XW.Y.OXG.x.oXx.i..XtXOX,.u.{.J.F.e.C.I.R.I._ S.^.I.T.T.T.T.6XU.N.V.`.S.v g Z U U >.-.-.*.&.*.-.;.;.-.:.A Z v v x k > : : : : : : : : : @ : > 6 2 : > > > 2 > > > > > > : : : : > > g x Q r + + -X:X9.C V V S x k > : > > 6 k g g n l l z z z m m m m m m l l l x K K | @.| | #.#.#.#.#.../ 5X5X4X4X%.t   # - - # - - & # # = = % + . . + + + + + X # . + . . & i t X # . @ 5 k h l h h h N y.t.v 2 @ & %   + 9 F v b 4 4 e 0 0 0 9 < < < < , , , , < < < < < < < < 4 4 < < < < < < 1 , < < > > > > 2 > : , $ .         . % ",
"sXjXAXAXAXAXSXSXAXAXAXAXAXAXAXjXjXsXjXsXsX,X-X!.;X;X:X:XpXjXpXjXpX:X:X:X:X:XpXfXpXfXfXfXpXpXpXpX`.7XpXpXpXfXjXjXjXjXjXjXsXpX:X`.U.%XrXD.G # & & D W y.f.<X<XL 8 8 , 5 W d.~.~.A.E } | | ~ R !.:XjX<Xt.W d.:XE ~ ~ !.| R J y 7 ;XsXSXFXFXFXSXSXSXDXSXSXAXjXAXSXSXSXSXSXSXSXFXSXSXCXCXCXAXSXAXSXSXFXFXFXCXCXAXsXsXsXsXsX,X>X;XaXSX>XsX,X>X;X@.@.>X>X>X#.>X#.;XaXaXaX#.#.| P y y 7 y P { |  .dXdX;X . .| ` S.`.^._ _ T T T T I I I I I U e.U T I c @ + + + + @ : : @ @ @ : > > > : : : < 2 3 3 g l =.].0XwXuXiXqX[ ) 6XiXiXuXwXwXwX0X0X9XU.U.U.Y.qXiXwXOXe.U U _ C.e.e.D.).Y Y Y ) ' ' _ Y I R.U.U.C.I.] P 8 P 4 5 k x I } E Z A r.B.U x x h h v T x x h m r.P.[.OX[.J.J.OXOXF.e.e.U 3 : : y ! { | { t { ..+.#./ { ` Y T D.(.(.^./.` { / d i ( [ I.` u d i G ' A.K.i.c.c.z.z.b.c.z.].{.'.r.9.e.r.e.9.e.T H ` ] ( I.8X6XqXqXqX6XT.T.T.U.T.T.6X6X6XW.Y.OX{.'.'.x.{.tX0X{.p.[.[.A Z U C._.W.V.V.I.S.I.T.T.T.T.6XU.V.C.`.' c g Z U U >.-.-.*.&.*.-.;.2.;.-.=.A Z S B m g 3 g j g g h h h k l h l x x l z z z z z z z z z z z z l l z z m N ^ 6 + , ;X:XU B B V S N g : + . + @ 1 2 3 n k l l z z m m m m z m m m z z l x W } | | #.#.#. .| ../ 4XxXxXxX..;   % w w % - - - & & - = % + # # # + + % X % . . . . . - t & X X . @ 6 k h l h h h Z y.t.v > , & #   + 0 F v b 6 6 e 0 9 9 < < < , , , , , , < > < < 4 4 < < < < < < < < : : 1 1 1 < > 2 2 3 3 2 > : @ .         . & ",
"sXjXAXAXAXAXAXSXAXAXAXAXAXAXAXAXjXjXjXjXjXsX-X!.:X:X:X:XpXjXpXjXfXfXfXfXfXfXpX:XfXfXfXpX:X`.`.`._._.`.7XpXpXpXpXjXjXjXpX:X:X:X`.W.OXeX^.( . ; # 0 F y.~.<X!.D # i $ < v t.~.~.t.Y R L { L R } <X:X:Xd.Z d.:XE W } !.| ` P G 9 #.sXSXGXFXSXSXSXSXFXSXAXAXjXAXSXSXSXGXJXSXSXSXSXSXSXSXSXSXSXSXSXSXSXAXSXCXSXSXsXCXsXsXsX,X>X;XaXSX;X,XsX>X#.@.#.>X;X>X;X>X;X;XsXaX;X| P y $ , 9 y 7 9 P ` | dXsX;X#.#. . ./.`.^._ T T T I I I I I I I U U U U I c @ + + + @ : : : @ : : > > > > > : : < 2 2 3 g h V '.0XwXuXiXqX8X) T.yXiXiXwXwX0XwX0X9XY.U.U.W.wXuXwXY.B.e.e.T C.e.e.C.`.T Y Y ] ' ] ) Y I R.U.T.I.I.] ( i { 9 5 x I Z.!.U N >.K.E c 2 2 2 > j W W x h A w.F.J.OXOX[.[.[.[.G.F.F.Z.c > < P @.{ { { & ..#.+.%./ %.{ G F _ V.S./. .{ { +./ / ( [ [ ( y d / i G H e.p.].oXoX|.n.oXoX|.{.[.F.B.C.U.H.H.C.S.) ] ] ) I.8X6X6XqX9X6X6X6XT.T.T.8X6X6X6XW.OX0XtX@X.X@X@XtX0X@X@XtX0XJ.Y.rXrXrXT.) _ V.V.I.T.T.T.T.T.U.C.I.`._ j g Z U U =.*.-.&.=.&.-.;.2.2.;.=.=.C C &.B z z m N N m N N N N C C B B C =.V V V V V V V V V V V V B B C V V B S 3 @ 9 ;X/.Z M B V S N g : . O   . 1 e > 2 k h l z z m m m z z l z m m z l l l k D { #.#.#.| P i / ../ / ..t     . % = % = X . . X . . . + % % . .             . . X - - X   . . @ r k h l h l l A t.t.k > , & X   + b K v b 1 6 0 9 < < : , , , , , , , < < < < 4 9 4 4 < < < < < : : , , @ @ @ > g h l l l g 3 2 , +         . & ",
"sXsXjXjXjXjXjXjXjXAXAXAXAXAXAXAXjXjXjXjXjXjX:X:X:XpXjX:XpXjX:XfXfXfXfXfXfXfX:X:X:X1X1X`.`.`.`.`._._._.`.`.pXpXpXpXfXsXpX:X:X:X`.%XOXeX7X] . & & < v d.f.~.!.7 X d - 0 K t.~.~.t.Y H L { | ~ } -X:X1Xt.Z d.:XE W !.,X;X| L P 7 | >XSXJXFXSXSXSXSXSXSXSXSXAXAXSXAXSXGXJXFXSXSXAXjXsXsXsXpX;X/././.;X| #.>XAXSXsXsXsXsXsXsX,X>XaXSX>XaXCX>X@.@.>X>X;X>X>X>X;X>XsXsX#.P 9 $ , u { | P y P |  .;XdXdX;X;X;X/./.7X^._ _ T U I I I I I Y I U U U E W c : @ + @ @ , > > : : > > 2 2 > > > > > > 2 3 3 h V x.0XwXuXiXiX8X] V.9XuXiXwXwX0XwX0X9XY.Y.T.9XwXuXqXY.B.A.A._ C.e.e.C._.N._ ) S./.} ] Y I U.U.U.I.I.` i i { 0 c U e.A.Z.U N ,.r.F 9 @ : : > j K E Z z y.r.H.J.OXOX[.'.[.{.'.[.*X~.I c P | +./ / { { #.#.{ +.%.%.+./ G H Y ]  . .( / / / i ( [ I.( 8 d / t i u F >.a.'.$X$XoX$XoX{.'.F.B.C.W.W.T.T.U.8X[ [ [ I.8X8X8X8X6X9X6X6X7X6X6X6X6X6X6X6XT.OX@X@X@X0X0X@X@X@XG.@XwX0XyX0XyXyX7XV.H Y V.R.W.T.T.T.T.T.U.C.R.`.T j g Z U U C *.*.&.=.*.-.2.2.3.2.-.*.&.*.-.&.B B V V C V &.&.&.&.&.&.&.&.*.*.*.*.&.&.&.&.&.&.V &.&.&.V V V &.&.V S 3 @ e ;X!.N M B B S S g : . ;     ! @.! b g k l l z m m m x l l z m m m m z l g j b L | #.| G i ..4X4X4X4X;       . = .               . w w = % .       O % .   . . - -     . . : r k h l h l l U t.U j > 7 - X   @ J K c 5 : < 6 < < < < , , , , , , , < 9 9 6 6 4 4 < < : : : : , : : @ + + @ 2 n S S S S x h j < +           & ",
"sXsXsXjXjXjXjXjXjXjXjXjXjXjXAXAXjXjXjXfXfXjXjXjX:XfXjX:XfXfX:XfXfXfXfX1X1X1XfXfX`.`.`.`.`.`.`.`._._._._.`.7XpXpXfXjXjXjXfX:X:X`.%XY._.pX .. & i 7 K !.d.d.!.0 8 d i J R t.!.!.t.I F G { | | } !.1X1XW k } ;XR ~ -XsX,X!.L L y { aXSXJXJXDXDXDXDXDXSXSXAXsXsXsXsXsXsXsXsXsX:X;X;X/././.' ` ) ) H H y G -XAXSXsXsXsXsXsXsXaX>XaXFXsXsXCXaX@.@.>X#.;X>X>X>X>X>XsXsX>X{ y y J | ;X;X| y G | | | ;X;X#.;X/././.7X^._ _ T T I I I I T E T T T U E W c : @ @ @ 1 1 > 2 > > > 2 2 2 > > > > > 2 3 3 3 h &.x.@XwXuXuXiXqXI.V.6XyXiXwXwXwXwX0X9XOXW.W.9XiXuXqXW.C.S.D.V.U.N.e.C._.N._ ] /./.S.] Y I I.U.U.I.I.( i i { c c e.e.t.t.U A A A j > : : > 2 g k h h z Q.A.E.Y.Y.OX[.[.OXOX[.[.*XD.F L | #.{ i { { #.{ ....+.%.O.%...{ G G  .dX#.i i / / i ( [ /.( 8 t t t i u D e.p.u.}.$XoX$XoX].a.r.e.C.6X6XT.T.I.8X8X8X8XT.8X8XI.8X6X9X6X8X6X9X9X6X6X6X6X6XT.OX@X@XtXtX@X@X0X0XJ.0XyX0XyXtXrXW.V._ _ _ I.7XR.W.T.U.T.T.U.C.W.`.Y j g Z U U C *.*.&.&.*.-.;.2.2.2.;.*.*.-.-.&.V V &.*.*.*.*.*.*.*.*.-.-.-.*.*.*.&.&.&.&.&.&.&.V V &.&.V V V &.*.&.S 2 @ J ;X!.N B V V S S g : .     ; $.FXZX@.6 6 j k l z z z z x N N m m M M m m N x g 3 K | | L ( ..xXxXxX4X;   # . . .     X .       . w ! @.@.+.! ! d { +.i $ + .   # X     . + : b k h l g l l t.9.U 3 > 8 - .   $ J F c 2 : : < < < < < , , , , : , < < 5 0 5 0 0 4 > > : : : : : @ @ @ % @ : 3 S 1.1.1.1.C N x 5 , .         % ",
"sXsXsXsXsXsXsXsXsXsXjXjXjXjXjXjXlXfXfXfXfXfXfXfX1X1X1X1X1X1X1X1XfXeXfXfXfXfXfXfX&X_.`.`.`.`._._._.`.`.`.`.:XfXfXfXfXfXjXfXfX:X`.&XH._.fX' @ X - - J -Xd.<X!.~ L ! P | !.d.d.!.!.E c c ` | ` R } ~.1XW : y { { P | } sX;X| P y u ;XDXDXDXlXkXlXjXjXjXpX:X:X:X/.!.Z._ Y Y I F F I Y Y I Y Y _ ' ' Y ` H /.AXAXCXsXCXCXaXaXaX>XsXSXsXCXCXsX| @.>X;X;X;X>X>X>X>XaXsXaXaX| y P aX#.aX;X{ 7 { |  .;X .;X ./.pX7X^.D.V.I Y T T U T T T T T N.T U T T c > : 1 : > > 2 2 2 > 2 2 2 2 2 > > > 2 2 3 5 g h B a.@XwXwXuXuXuX8XV.T.rXzXwXwXwXuXqX9XOXT.6XqXiXuXqXW.N.' S.V.C._ N.B.%XD.] ( | ] S._ Y I C.U.W.E.V.` i i { 0 I U 9.A.A.e.9.A Z z z z l l N 9.A.Z h h h (.(.I.W.OX[.F.F.OX%XOXE._ H P { | | ( G { ..{ ......%.+.+.+.../ i #.aX#.d d / / G ( [ /.G i i i 8 y ( G e.w.r.P.#X#Xv.x.a.q.A B.T.6X6XI.I.8X8X8X8X6X6X6X8X8XT.T.6X6X6X6X9X9X6X6X8X6X6X6XOX@X.X=X@X.X@X@X*XJ.OX=XtX=X[.P.B.V.) ) I.7XpX] /.S.I.T.T.U.U.W._._ j j Z T 9.A &.*.*.*.-.-.;.;.;.;.-.-.*.*.&.V V V &.*.*.*.*.*.*.*.*.*.*.*.*.*.&.&.&.&.&.&.&.&.&.&.&.V V V V &.-.1.S 2 @ L -X!.C &.*.&.V x 2 @ @ .     ZXZXIXIXmXd $ : 3 n h N z z m M M M M m m m m z l l k k R H ( #.ZXxXxXZX;     . .       i w & & 8 u @.>XCXCXaXaXaXaXaX$.$.#.#.| { u 8 # + + + 1 6 k g g g h Z 9.e.U j : w =     7 F I k > > > < > 1 1 1 , , : : < 4 5 5 j v v K K b 5 > : : : , $ @ @ + @ @ g ^ N B :.:.:.*.C A x 3 : @ . +   p ",
"sXsXsXsXsXsXsXpXjXjXjXfXfXjXjXfXfXfX1X1X1X1X1X1X&X&X1X&X1X1X1X&X&X&X&X&X&X&X&X&X&X_._._._._._._.`.`.`.`.`.:X1X:X:XfXfXfXfXfXpXpX`.R.%XfXS.7 # - - u | !.<X!.~ ~ @.@.-X-X-X-X<X:X!.K D L ` L ` } :X1XR 0 u i i ( | :XjX<X~ 0 y $ ;XlXpX`.D.S.Y I D F F F F I I I _ _ _ _ _ S.' _ ' ' _ ' ' S.S.S.S.' Y !.jXAXsXsXaXsXsXsXsX>XsXSXCXCXCXsX| @.>X;X;X;X;X>X>X>XaXCXsXdX .P P aX;XaX>X@.u #.#.|  .;X| | /./.^.I.I.^.Y T T T T e.e.T T T e.T U T T v > > > 1 > 2 2 2 2 2 2 2 > > > > 2 > 2 2 3 g g h =.a.OX0XwXuXiXiXT.V.C.eXhXyXwXwXwXqX9XOXU.T.qXqXwXqXW._ H H _ T._ N.F.OXD.' ( { ( S._ T I C.U.T.W.V.] P i { D T t.r.~.K.r.9.A 9.F.J.*X*X%XOX*X*X*XL.e.g _ ^.I.S.D.R.e.Z e.E.OXR.) i d / ! ( ( ( ( { ..........%.+.+.+./ d #.aX#./ / / / G ( [ /.G y 7 8 9 ( ] ] I A 9.r.s.s.u.<.<.0.r.Y.6X6X6X[ I.8X8X8X6X6X6X6X6X6X8XT.8X6X6X6X9X9X9X6X6X6X6X9XOX{.].oXoXc.i.:.M m w.[.{.{.G.J.C.V.] [ 7X7X/., H ] I.W.W.U.U.T._._ j j I U 9.>.&.*.*.-.-.-.-.-.-.-.-.-.*.*.&.V B V &.*.*.*.*.*.*.*.*.*.*.*.*.*.&.&.&.&.&.&.&.&.&.&.&.&.V V V &.*.&.m > + { ;XZ.C *.*.*.B z > + @ +     ZXIXIXZXZX+.i 8 > 3 g x m N N m m m m m m m m m z z z l v 5 D #.FXIXZX4X  . + , q X     - u { #.>XsXAXFXSXSXSXSXFXFXFXFXFXFXSXAXsXaX#.{ s p p r r 3 3 3 g h Z e.e.Z j > q =     7 F I h 2 > > > 1 1 1 1 1 , : > 5 c c v x Z I W W K c 2 > : , , @ + . + @ : g S C &.-.;.6.5.5.<.U I j @ + +   p ",
"jXjXjXfXfXfXfXfXfXfXfX1X1X1X1X1XfX&X&X&X&X&X&X&X&X&X&X&X&X&X&X&X&XrXrXrX&X&X&X&X&X&X_._._._.)._._.`.`.`.`.`.:X:X:X:XfXfXfXfXfXfXeX_.eXfX^.D $ w = e v !.<X!.~ ~ @.;X;X-X!.!.-X<X:X!.L D L L L R <X:X~ y u i i P ` :X,X-X~ 0 P , ;XjX^.S._ _ Y Y Y ) ) ) ' S.S.S._ V._ _ S.^.Q.' S.S.S.S.S.S.S.S.S.' Y } sXSXCXCXCXCXsX,X>X;X,XAXSXAXAXCX| @.;X-X-X;X;X;X;X>X,XCXCX#. .J P aX;X>X>X;X{ >X;X{ ` ;X| ` ) ] ^.I.I.^._ T Y T e.N.e.e.T T e.U I T T F 2 > > 1 > 2 2 2 2 2 2 2 > > 2 2 2 2 2 2 3 g g h M u.OX0XuXiXiXiX9XI.C.C.%X%XwXwXwXwX0XOXY.9XwXuXwXqXW._ G D Y W.N.N.F.OXA.) G ( ) S._ T I D.U.U.T.V.] ( & { R T 9.8.f.d.y.r.r.P.tXtXyXyXyXwXwXyX0XrXE.T S./. .) ( /. .H v e.R.7X .{ d d d P ( ( / i ........{ #.%.+./ / / #.4X#./ / a i i ( [ [ G D G H ) [ /.S.T U 9.r.p.u.<.,.0.w.H.Y.W.9X6XI.I.8X6X8X6X6X6X6X6X6X6X8XT.8X6X6X9X9X6X6X8X6X6X6XOX{.].+X=XXX].5.,.w.[.OX@X@XOXOXU.V.T.I.7X/.H @ @ 0 Y Y T B.U.E.eXZ.v k Z t.9.,.*.-.-.-.-.;.-.-.-.-.-.*.*.=.V B B V &.&.*.*.*.*.*.*.*.*.*.*.&.&.&.&.&.&.&.&.&.&.&.&.&.&.&.&.&.&.*.&.z > : | ;XE M V &.V M k : . 1 .   ; ZXZXmXmXZX%.+.{ J j 2 g l x N m z z m m m m m z z z z z l 3 4 { aXZXaX... + 0 ! ! s w & ! @.>XaXsXsXAXAXAXCXsXsXAXSXSXSXSXSXSXjXjXjXsXsX>X;X@.@.~ K c k g g Z e.e.x 3 r q *     9 H v g > > > > > : : : > < > 3 j v v Z A U 9.t.t.W v 3 2 > : @ + + . + > 3 x A y.:.*.-.2.5.5.<.y.A.U > +     - ",
"fXfX1XfX1X1X1X1X1X1X1X1X1X1X1X1X&X*X*X*X*X*X*X*X=X*X=X=X=X=X=X=XrXrXrXrX&X&X&X&X&X_._._._._.).)._.).).`.`.`.`.`.:X:XfXfXfXfXfXfXfXfXeXeX^.H 7 s e 0 2 Q.:X!.b 0 @.>X,X;X-X-X-X:XsX:X| J P ! ! J } :X| y i u u y L -X:X<X} 0 P $ ;XjXS._ _ V.V._ _ ] ] ] ] ] N._ S.V.V.S.S.S.S.S.S.S.S.S.S.S.S.S.S.' _ ` pXSXsXsX,XCXCXsX,X>X>X,XAXSXsX;X~ -X;X;X-X;X;X;X>X>X>XCXCX| | y y aX;X;X;X;X| aX;XL (  .} H D H ] V.V.I.V._ T T e.N.e.e.N.N.e.U I T T F 2 > : 1 6 2 2 2 2 2 2 2 > 2 2 2 2 2 2 2 3 g g h B u.OXwXuXiXuXwXwX9XC.U 9.B.0XwXwXwX0XOXOXqXuXuXwXqX6X_ G G ) (.V.B.F.OXN.H y 8 ( ] _ T I I.U.U.T.V.] y X P ` T 9.8.y.y.U 9.r.*XtXwXyXyXwXwXwXwX0X9X9XU.^.` D i t ..4X..Y v I S.#./ t t i {  . .{ i t / ......+.%.{ / { ..#.#.#./ / d i i ( [ I.H ) [ I.I.T.I._ N.e.e.e.w.0.,.,.w.r.P.E.eXrXI.[ I.8X6X6X6X6X6X6X6X6X6X8X8XT.8X6XqX9X6X6X6X6X6X9XOX{..X+XXX.X].a.r.F.[.[.{.@XOXY.C.V.8X[ ] H 4 @ , 0 F I I e.C.).fXD.v h Z y.1.&.*.-.-.-.;.;.;.;.;.-.-.*.*.=.V B B V &.&.*.*.*.*.*.*.*.*.*.*.&.&.&.&.&.&.&.&.&.&.&.&.*.=.=.*.&.&.1.1.l : < | -XI N V &.V S n 1 + . .   O +.X.X.O.%.+.$.>X@.J 4 3 g h l l x x z m z m m z z z z z z x 3 < P #.#.u 8 0 J ~ | | ! u ! #.sXsX;X-X-X;X} } } ;XsXAXAXsXsXsXpXpXpXsXjXsXsX,X>X>X:X-XE I k g Z e.t.x > 1 = O   . y F v 3 > > > > > : : : > 2 3 k v I I U 9.0.w.r.y.U x g > > : @ @ + + : j W t.f.~.5.-.3.2.6.5.5.s.~.A.Z : .   # ",
"1X1X1X1X1X1X1X1X1X1X*X*X*X*X*X*X*X*X*X*X*X=X=X*X=X=X=X*X*X=X=X=X&X&X&X&X*X*X*X*X*X%X&X&X_._.)._._._.).).).`.`.`.`.`.:X1XfXfXfXfXfXfXeXeX`.' D J J 0 > !.:X-Xb : ! >X,X>X;X:X;X:XsXsX| D u ! J e ~ -X! 8 u d u 9 K ~ :X:X!.c 0 7 pXjXS.V.V.V.V._ _ ] ] ] ] S.S.V.V._ _ S.V.Y _ ^.S.S.S.S.' _ _ _ _ T Y Y :XGXsX,X,X,X,X>X,XsXaX;XAXJXCX| ~ ;X-X-X@.;X>X>X>X>X>XCXSX| { 8 8 #.;X#.#.#.| >X .| | L D F D D H Y _ `.D.N._ N.N.T T e.N.e.e.U I e.Z.Y 5 > : 1 6 2 2 2 2 2 > 2 > > 2 2 2 > 2 2 3 g g h B u.{.0XwXwXwXwX9XOXB.Z N U 0XwXwXwX0X@XOX9XqX9X9X9X9X_ y G ) ^.V.B.F.OXe.Y y 8 G ] N.T I D.U.U.T.I.( y   y R U >.>.1.A C A w.*XtXwXwXwXwXwX0X0X9XOXY.C.Y 9 $ / a O.5X5X| T Y )  ./ d t t u | /.#.{ X i { { #.....{ ........#.../ / / / i ( [ 8X[ I.T.T.T.T.I.V.U.H.B.e.w.w.r.r.K.F.).R._.7XI.] 8X6X6X6X6X6X6X6X6X6X6X6X8X8X8X8XqX9X6X6X6X6XqX9XtXOX.X.Xc.x.'.a.G.G.[.[.OXOXY.C.V._ I.) H D c F L H Y Z.A.e.e.N.Q.Z.I h N y.g.V -.-.-.;.;.;.;.;.;.-.-.*.*.V B M B V &.&.*.*.*.*.*.*.*.*.*.*.&.&.&.&.&.&.&.&.&.&.&.&.*.*.*.*.&.&.*.C h > 0 |  .F z M M m l 2 .           ; O O ; %.+.%.#.{ J L L b k g g l x x l z z z z m m m m z z h 2 9 y y 0 J D K } ;X;X@.{ ! @.-X} v c v I I I F I ~ -X,X,X;X-X/./.`.pXpXpXpX:X;X:X:X:X:X:XZ.I I e.T k > 1 = .   # y K c 3 > : > > > : > > 2 3 x Z A U U >.q.u.p.p.r.9.N l 3 3 2 : : : : 6 Z K.~.~.#Xi.3.z.v.v.x.x.x.}.G.A.v 0 7 @ ",
"1X1X1X1X1X&X*X*X*X*X*X*X*X*X*X*X=X@X*X*X=X=X=X=X=X=X=X=X=X*X=X=X*X*X*X*X*X*X*X*X*X%X&X&X&X_._.)._._.).).).).`.`.`.`.`.`.`.`.`.`.`.fXfXfXfX^.R L D 5 2 T :X;XJ + @ ! @.;X;X;X;X:XsXsX| 7 , e p e 9 0 $ 8 u i u b K E :X1X<XK D 0 :XjXS.D.I.D.I._ ) ] ] ] ] S.I.S.V._ _ S._ F Y ^.Q.S.S.S._ _ _ _ I Y F F :XGXSXsXsXsX,X,X,XsX>X~ -XCX>X~ ~ -X~ K | -X>X>X>X>X>XCXSX .{ 8 y  .;X#.@.#.| #.{ | ;XG D F D D Y Y _ `.D.V.N.N.N.T T N.T e.T U U N.Q.' c > : 1 6 2 2 3 2 2 > 2 > 2 2 2 2 > 2 2 3 g g h B u.{.0X0X@XOX[.H.H.r.U A 9.yXyXwXwX0X@XOX9X9X6XW.9X9X_ 7 7 H ^.V.N.F.*XN.' G y G ] V.T I D.U.U.T.I.( y . y Y U >.>.1.N N N ,.*X0XwXwXwXwXwX0XwX0XOXY.N.4 , - %.O.nXnX5X{ !._ ) ../ / d t i } ;X>X#.& d { i #.{ { ..#.#.........{ / / / y ( [ 8XI.8X6X6X6XT.C.C.W.W.H.B.r.r.K.P.P.L.).R.R.I.[ I.8X6X6X6X6X6X6X6X6X6X6X6X6X8X8X8XqX6X6X6X6X7XrXrXtX[.{..X.X+X+X@X@X@X0X0X9X9XH.N.V._ [ ) ] _ _ S.] H Y S.D.N.T T _ _ I l N y.y.&.-.-.-.;.;.;.;.;.;.-.-.*.=.V B M B V &.&.*.*.*.*.*.*.*.*.*.*.&.&.&.&.&.&.&.&.&.&.&.&.*.*.*.*.*.&.B M h 2 J | | L Z Z N N k < .           f f f a %.%.+.+.! u { @.~ K 5 2 3 h h l l z z z m m m m M z l v 5 : 4 ~ c v I ~ -X-X| D 2 2 2 2 j I t.A.Q.Q.A.E v v W ~ Z.!.Q.S.^.`.7XpXpXpX:X:X`.`.:XjX,XQ.Z.T I j > q = .   & y K c 2 > > > > > > 2 3 j x Z A 9.9.,.,.q.u.u.p.p.0.A N Z Z x j 2 2 6 k N r.s.s.a.5.;.6.v.v.v.v.x.a.x.}.A.E R 2 ",
"*X*X*X*X*X*X*X*X*X*X*X*X*X=X=X=X=X@X@X@X=X=X=X=X=X=X=X*X*X*X=X*X*X*X*X*X*X*X*X*X*X*X*X&X&X&X*X)._.).).).).).`.`.).(.(.(.(.)._.`.`.pXeXeXfX:X/.!.` v v I ^.-XJ . . w @.;X;X;X;X;X,XsX .7 1 q w s 8 u 8 u s u J K d.<X1X1X<Xc K 9 ;XjX' D.D.V.V.Y ] ] ] ] ] ] V.V.S._ _ S._ F I S.S.S.S.S._ _ _ _ N.Q.I I :XDXSX>X;X,XCXCXCXsX@.< 2 K ~ ~ ~ -X@.~ ! @.;X>X>X;X>XCXSX;X{ 8 y { ;X|  .;X( ( L |  .` ` ` H H ` ) _ (.D.V.N.V.C.N.N.N.N.N.N.T U B.D.Z.c 2 : > r 2 2 3 2 2 > 2 > 2 2 2 2 > 2 2 g g g h V a.@X0XOXp.8.>.w.r.y.y.e.B.wXuXuXwX0X@XOXW.9XqX9X9XyXI.G , D (.V.N.F.*Xe.' L y G S.S.T I D.W.T.T.I.( ( 9 D I U 8.8.>.M m z M G.0XwXwXwXwX0X0X0X0XtX%XZ.: $ - O.O.nXnXO.{ ` H D i i i P u L /.pX;X#.u ! ! u { | { .. . . .#.@. .{ P d u y ( [ I.I.6X6X6X6X6XI.C.U.U.U.B.B.B.F.K.L.e.g > < 0 ) 8X6X6X6X6X6X6X6X6X6X6X6X6X6X6X8X8X6X6X8X8X7X7X7XrXrXp.'..X@X@X@X@X@X@X0XOXOXY.e.T ' ' ) ) I.I.I._ [ ) Y _ V.D.C.C.N.N.T U U w.<.:.-.-.-.;.;.;.;.;.;.-.-.*.=.V M m B V &.*.*.*.*.*.*.*.*.*.*.*.&.&.&.&.&.&.&.&.&.&.&.&.&.&.&.&.*.&.C N x D { @.| ` !.d.!.!.@.+.{ d - ; ; f a a a X.%.%.+.+.{ d { { { ! J b 5 3 j h l l z z z m m m S z l l g 2 K -X:X:X:X:X:X/.R c > 2 g I Z.Q.Q.D.L.`.1X1X~.d.W x !.Q.^.Q.D.^.`.7X7X7X7X`.(.D.Q.`.jX:XS.T v 2 : q =     $ J J c > : > > > > 2 3 k v Z U 9.8.,.<.q.q.5.u.u.p.p.w.0.y.y.t.I x x v Z C <.<.,.<.:.-.3.6.6.i.x.x.x.x.'.P.~.~.h ",
"*X*X*X*X*X*X*XOX*X*X*X@X@X=X=X@X@X@X@X@X=X=X=X*X=X=X*X*X*X*X*X*X=X&X*X*X*X*X*X*X*X*X*X*X*X*X*X).).).).).).).`.`.`.).).(.)._._.`.pXpX&X&XeXfXpX:X:X!.D.U Q.!.J . . w { ;X-X-X;X;X;XsX#.u e w p s { #.#.{ ! ! ! b d.,X1X1X!.v | D /.sX' ^.^.S.D._ _ ] ] ] _ ] ] V._ _ _ _ _ ) _ S.S.S.S.' _ _ _ _ Q.`.Y I :XDXSX>X;X>X>X;X@.>X>X~ -X~ ~ @.~ ;XsX,Xb | -X>X>X;X>XCXSXaX{ 9 P P #.{  .;XG y G `  .| ' /.!.} ` F Y (.R.N._ V.I.C.N.B.B.B.B.e.T B.D.' c 2 : > 6 > 2 3 2 2 > 2 > 2 2 2 2 > 2 2 3 g g h z 0.[.OXG.0.0.w.r.y.y.A.B.C.uXuXwXqX0X0XOXT.6XqXwX0XyXrXV.c c I.V.e.F.OXe.Y G 8 H S.S.T F D.W.U.I.I.) ( G L I 9.C C B m m m B G.0X0X0X9XOX[.[.OX[.P.A.W @ % f O.nXnXO.X./ ` _ _ ( y y D D F Y Y | | J P ! J { | | | | |  .#.#. . .( P u D ) I.8X8X6X6X6X6X6XT.I.U.T.W.U.L.H.L.H.C.N.v Y I.[ 8X8X6X6X6X6X6X6X6X6X6X6X6X6X6X6X6X8XI.[ ] [ [ V.V.C.F.C p.@X@X@X@X@X0X@X0XOXJ.B.T W ~ !.] _ 6XT.T.V.V.] _ Y N.C.D.C.U.C.V.B.r.w.<.<.*.-.-.-.;.;.;.;.;.-.-.*.=.C M m B V &.*.*.*.*.*.*.*.*.*.*.*.&.&.&.&.&.&.&.&.&.&.*.&.&.&.&.&.&.V 1.W W ~  .#. .| } !.!.-X;X#.%.%.%.%.+.+.+.d a d %.+.+.#.+.d { { ! ! { ! J 5 5 j k l l z z z m m z m z h h v ~ !.<X:X:X`.Q.' F c 3 g v E Q.Q.L.(.).(.~.~.~.!.W x l U !.Q.(.(.(._._._.eXfXfX`.(.Q.:X/.Q._ v > : 1 =   . 8 G J j > : > > > > 2 k v W U 9.8.<.<.q.u.<.<.u.u.p.s.s.K.~.~.K.y.A A U 9.0.q.<.,.<.u.5.5.5.i.z.x.c.c.c.x.'.#X~.z ",
"*X*X*X*X*X*X*XOX*XOXOX{.{.{.{.{.OXOXOX@X=X=X=X=XtXtXtX=X*X*X*X&X&X&X&X&X*X&X&X&X&X&X*X*X*X*X*X).).).).).).).`.`.).).).(.L.R.)._.pX`._.%XeXfXfXpXpX:X).R.S.R u & = % ! ;X-X-X;X;X;XdXaX{ ! p q ! @.aX$.$.! ! ~ K -X<X1X1X!.~ } F ;XsX} /.^.S.Y S.) ] ] ] ) ) _ S._ _ _ S._ _ ' S.^.^.S.' ) S.) _ Q.^.' R /.SXDX,X>X;X@.@.~ @.>XCXFX,X-X;X~ CXSXSX-X~ @.>X>X;X;XsXSXaXy y J L  . .;X;X( ( ( ` ( } !./.;X} F 5 c ^.^._ Y N.U.R.L.L.L.L.C.e.N.C.D.Z.F : > 6 > 6 2 2 2 2 2 2 > 2 2 2 2 2 > 2 3 g g h m 9.F.J.F.r.w.w.K.K.K.e.B.U.uXuXuXqXwX0X9XT.6XqXyX0XrXhXrXI.U.rXR.B.G.[.e.F D 8 D V.N.T Y D.U.W.I.I.] ( H Y U >.,.,.8.8.9.A w.[.0X9XOXOXJ.8.,.{.OXr.U I <   a vXmXO.O.a / ` (.C.C._ T T e.I c 9 2 j j j c b K J L L L R R ~ ~ ~ R R K K 5 ] W.7X6X6X6X6X6X6X6XI.V.eXeXC.N.N.N.C.N.V.V.I.8X7X8X8X6X6X6X6X6X6X6X6X6X6X6X6X6X6X6X6XI.V.) D Y Y I U 9.8.u.a.{.@X.X@X@X@XOXJ.B.I I R } ' V.T.6X6XT.U.I.I.I.V.N.D.D.C._.W.I.U.B.w.s.:.&.*.*.-.;.;.;.;.;.-.-.*.=.C M m B V &.*.&.&.*.*.*.*.*.*.*.*.&.&.&.&.&.&.*.*.&.V V V &.V V V =.1.y.W W R { { { ` } } | | @.@.%.%.$.$.$.$.%.+./ +.%.+.+.{ d d / { { { { { { ! b 5 3 3 g l x m z z l z l g g W !.!.:X`.Q.Z.Z._ Y I g v E Q.(.Q.Q._.&X`.`.(.!.I x l h l I Z.Q.Q.D.D.R.R._.eXfXfX&X`.`.`.Q.Y c > : q + . + 8 J J 6 : : : > 4 > > j W d.y.y.y.s.u.u.<.0.0.w.s.s.s.s.s.s.s.s.s.w.w.w.w.p.p.u.q.<.<.u.i.s.a.x.x.x.x.c.c.'.}.#Xz ",
"*X*X*X*X*X*X*XOXOXOXOXOXOXOXOXOXOXOXOXOX*X=X*X*XgXgXgXgX&X&X&X&X&X&X&X*X*X*X*X*X&X&X*X*X*X*X*X*X).).).).(.(.(.(.`.`._._.).R.D.D.^.(.).%X&X&X`.`.:XfXfXfX`.} y # w + u @.-X;X:X-X;XdX>X#.{ e 1 ! >XsX>X@.J J K K ~ <X1X,X!.~ ~ J -X;X!./.Z._ Y _ ) ] ] ] ' S.S.S._ _ S.S.' _ ' S.!./.S.S.' ^.' ' Q.Q.Y R /.AXGXsX-X-X;X>X>X@.>XFXGXAX<X-X@.SXFXCX,X@.@.-X#.@.;XaXAXsXP P { | @.@.;X;X` /.;X .(  . .;X/.F 5 2 c `.^.N.T V.U.U.L.R.R.E.H.B.B.H.D.' F : > 1 > 6 2 2 2 2 2 2 > 2 2 2 2 2 2 2 3 3 g h N 9.B.B.e.r.F.P.J.E.E.C.H.C.qXuXuXqXwX0X9X6XrXhXOXJ.F.%XhXyXyXzXE.C.J.*XK.T G 7 D V.N.T Y D.I.T.T.I.] D 4 I B.G.{.{.*X*X%XJ.[.{.OXOXOXOX[.q.q.OX=XE.A.E 0   f O.mXO.X.a / ` C.J.OXY.E.&X*XH.Y y c g 3 g k k j j j j j j k k v x v v h n k S.W.6X6X6X6X6X6X6X8XI.V.7XW.N._ T I Y C.I.T.8X6X6X6X8X6X6X6X6X6X6X6X6X6X6X6X6X6X6X6X6XT.V.) Y Y I I r.r.8.p.a.G.'.a.a.G.G.r.A I T E F Y ' I.T.T.T.W.6X8X8X7X7X`.`.(.^.^.I.V.N.9.8.s.=.&.&.*.*.-.;.;.;.;.;.-.*.=.C m m B V =.*.*.&.*.*.*.*.*.*.*.*.&.*.*.&.&.&.*.*.&.V V V V C C A 1.y.E W K v D J D J R ~ ~ { { { +.+.+.+.%.$.$.%.%.$.+.+.{ { d / { +.{ { { { ! ! ! J b c j g h l l l l h l x x d.<X:X`.Q.D.D.Q.Q.S.T v W !.Q.Q.(.`.`.fXlXlX`.U x x x g h x Z E E Z.A.V.D.R._.eXfXlXlX:XpX`.S.F : @ q % + @ 0 G D 3 : > : > 4 > > 3 v t.y.y.y.w.q.<.<.0.8.y.y.y.y.p.q.<.q.p.p.a.u.u.u.u.u.u.p.p.p.s.s.s.u.a.a.z.x.x.x.'.'.#Xz ",
"*X*X*X*X*X*XOXOXOXOXOXOXOXOXOXOX*X*X*X*X*X*X*X*X*X*X&X&X&X&X&XfX&X&X*X*X*X*X*X*X*X*X*X*X*X).).).).).L.L.L.L.L.L.`.&X1XfXeX_.L.V.D.D.L.R.E._.:XpX:XfXfXfX`.S.G 8 i $ e | -X;X;X;X:X;X>X>X#.e @ J @.@.| ! e J 5 c K !.:X,X-X~ ~ K @.;X;X:X' Z.S.Y ` ' ' ' Q.`.(.S._ ] S.^.S.) ` S.!./.!.S.Q.:XS.S.S.' Y E -XjXGXAX>X>XsXFXFX>X,XJXGXSX,X~ -XCXCX;XCX@.@.@.@.@.;X,XSXCX| { | ;X| | ;X;X| ;XsXpX)  . .` D 0 L F F ^.C.N._ V.U.U.H.R.U.E.Y.H.H.U.D.N.F : : > > 6 2 2 2 2 > 2 > > 2 2 2 2 2 2 3 g g g z t.H.B.B.U.9X0XyXyXY.e.B.e.9XuXuXqXwX0XW.Y.W.E.F.,.A H.rXyX0X9XU.B.G.[.K.T 0 + D V.C.T I D.U.T.T.I.) 0 5 e.*X=X=X=XtXrXOXOX[.[.G.J.G.G.p.0.F.0XyX9XB.F D % f X.O.%.X.d @.} B.[.OXOXOXtXtXtX6X6XN.Z l h l h g g g g h h h l l z N m l l v D.6X6X6X8X8X6X6X6X8XI.) I.C._ I.U.V.V.T.6X6X6X6X6X6X6X6X6X6X6X6X6X6X6X8X8X6X6X6X6X6X6X7X7XI._ T U e.P.F.w.G.G.p.u.<.:.<.,.A U I I I Y _ V.W.W.T.T.U.I.^.I.V.V.T I F Y F F c j l A g.=.V C &.&.-.-.;.;.;.;.-.*.=.C m m B V =.*.*.&.*.*.*.*.*.*.*.*.&.&.*.*.&.&.&.&.&.V C C C A A y.t.d.W F c 5 2 4 9 0 K K L P ! { +.+.! { +.+.+.+.+.+.+.{ { { { +.+.+.+.+.{ { { { | | ! ! K j g h x l h k Z ~ d.!.:X:XQ.S.Z.D.`.(.D.T k E !.Q.Q.`.`.`.`.lXfXZ.x x I W x k h k x Z W Z.D.C.R.R.L.D.(.`.1XfXpX^.Y < @ 1 @ + , 0 D c 2 : > : : > > > 3 k W t.y.y.,.,.,.<.A A A C N M M B ,.<.u.a.a.a.i.u.<.0.w.s.y.s.s.s.u.u.u.a.a.a.x.x.'.p.K.h ",
"OXOXOXOXOXOXOXOXOXOXOXOXOXOXOXOX*X*X*X*X*X*X*X*X*X*X*X*X%X%X).%X&X*X*X*X*X*X*X*X*X).).).).).).).).).(.L.L.L.L.D.(.).`.fXfXfX&X_.(.R.H.H.L.R.`.`.`.`.%X&X_.Q.L y u 8 y ~ | -X;X;X;X;X;XaX;Xb > J ~ R | | | >XK c v W -X<X-X~ ~ ! | ;X,X-X!.`.^.T Y ' } ' Q.:X`.V._ ] S.^.S.) Y !.!./.!.S.Q.:XS.S.' ' ' R !.sXGXsX,X,XCXFXJXSXsXSX;XAXsXb >XCXCX>XCX@.@.#.-X;X;XsXSXCX| | ;X>XP P  .dX ./.pXpX] ] ] H D D c c c ^.V.N.N.C.H.H.H.H.H.H.U.H.U.U.C.N.Y : > > > 6 2 2 2 2 2 2 > 2 > > 2 2 2 2 3 g g g l Q.rX9X9XwXuXiXiXyXOXe.e.9.Y.wXuXwX0X0XOXH.B.U ,.p.G.OXY.Y.[.OXE.H.G.[.K.T D , D V.C.T I I.W.T.T.I.) H e.).=X=XtX0X@XOXOX@X@X{.[.'.G.G.G.G.OXyXyX9XT 2 4 , f X.%.+.f . u H B.OX@X@X@X@X@X0XqXyXyXY.e.z l z z Z Z Z Z Z Z Z C S C C m m U E.6X6X6X8X8X6X6X6X8X8XV.T.I.T.6X7X6XT.6X6XqXqX6X6X6X6X6X6X6X6X6X6X6X6X8X8X6X6X9X9XqX6X6X7XR.T I e.F.F.G.p.[.OXG.p.u.<.g.1.e.N.T F Y V.U.U.T.T.W.U.N.Y H F c j 2 > : : @ @ @ : 3 N g.=.N B C C *.-.;.;.;.;.-.*.=.C M m B V =.*.*.&.*.*.*.*.*.*.*.*.&.*.*.*.*.&.&.&.V C A A A U W E E E F c 5 2 2 5 c c c D D J P ! ! ! s s d d d d d { { { { { { +.+.{ d s d d d u u u ! ~ L 5 2 3 j 3 k K ~ !.Q.`.`.Q.N.N.V.D.(.(.B.U I Z.`.:X`.(.(.(.`.`.!.v g I E W R v j 3 3 j v T Z.A.R.(.L.B.B.D.R.(.`.`.' D @ @ + + , c F c 2 > 1 : : 2 2 2 3 h h x Z A C B B M m N N z z z m M ,.q.p.a.i.u.5.<.=.,.,.0.y.w.w.w.q.u.p.p.a.a.a.a.G.r.K.g ",
"OXOXOXOXOXOXOXOXOXOXOXOXOXOXOXOX*X*X*X*X*X*X*X*X*X&X&X&X%X%X%X%X*X*X*X*X*X*X*X*X*X).).).).).).).).).(.(.L.L.D.D.D.D.(._.fXfXgXgX7X`._.E.E.(.Q.S.Q.D.E.%XeX_.' G G y 0 K ~ !.;X,X;X;X;X;X| K K } !.!.:X,XsXGX| c c c ~ } ~ ~ ! K ! ;X;X} !.:X^.T Y ' !.Z.S.`.`.N._ ' S.Q.!.' Y } !.!.} ' ' /.' ' } } } K ~ ,XJXsX>XsXCXCXSXAXCXCX-XAXAXK sXSXCX,XSX;X@.;X#.;X>XCXAXsX| @.;X#.y P | ;X` ( ] ] H ] ( H | R K L ' ^.I.C.C.U.U.U.U.Y.U.Y.H.H.U.U.H.S.Y : : 1 > 2 2 2 2 2 > 2 > 2 2 2 2 2 2 2 3 g g g l `.hXuXuXiXiXiXwXuX9X9.9.>.J.0XyXwX0X{.G.G.G.p.p.a.G.J.J.Y.OXOXH.H.G.G.F.N.H G H C.C.T F D.W.T.T.C._ C.).&X=X@X@X@XOXOX0X0X0X@X{.'.'.[.OX[.OXOXyXyXU.Y D u d %.vX+.p 8 0 _ J.OX0X0X0X0X@X0X0XwXyXyXOXA l N S S S Z Z A A A A S 1.C M N B.W.9X6X6X6X8X6X6X6X6X8XT.6X6X6X6X6X6X6X6X6XqXqX6X6X6X6X6X6X6X6X6X6X6X6XT.T.6X6X6X6X9X6XW.W.C.T U p.P.F.G.G.=X*XG.G.s.s.g.d.9.I Y V.T.T.T.U.U.T.W.U._ F > c Y Y I F 9 @ @ + @ : g ^ 1.M N N N C =.*.-.;.;.;.-.*.=.B M m B &.=.*.*.*.*.*.*.*.*.*.*.*.&.*.*.*.*.*.&.&.C C >.U W W E W I F 5 5 5 5 j k c c c c 0 9 9 4 e e e J ! ! ! ! ! d d ! ! ! { +.+.{ d d i 8 8 8 8 8 8 u J 4 : 4 5 > K } !.!.!.^.(.e.N.N.B.D.D.D.A.r.T T t.Q.:X`.Q.Q.Q.t.v k v I I v F c 2 > : > 3 v T N.D.(.).R.L.D.B.C.D.^./.L 8 + + + : c F c 2 > > > > 2 2 3 g k g g h l m m m z l l l l z m B >.w.w.u.p.u.5.<.<.=.C =.=.,.0.0.0.q.q.u.u.u.u.u.u.p.w.A.3 ",
"[.[.[.OXOXOXOXOXOXOXOXOX#X#X#X#X*X*X*X*X*X*X*X*X*X*X%X*X%X%X%X&X*X*X*X*X*X*X&X&X*X%X%X_._._.%X_.`.`.).(.~.L.D.D.A.A.A.D.(.&XfXfXfXfXrXrXeXeXpX:X^.(.E.%XrXeX`./.` G 0 c R !.;X;X;X;X-X| R R /.pX1X1XjXjXHXGX| c c 0 J K L L J J ~ ;X;XR Q.pX`.' I ' !.Z.N.(.).N._ ' ' ' !.' Y ' } !.} ` ` !.Y ` } } } 4 c ;XJXsX;XsXCX,X>XCXSXSXsXSXSX! sXSXCX>XFX>X#.#.@.@.>XCXAXCX| | | | { ;X;X;X` ` ) ( G ]  .;X;XJ c !.;XS.R.U.U.U.Y.Y.Y.E.Y.Y.Y.Y.Y.U.C.S.E > : > > 2 2 2 2 2 > 2 > 2 2 2 2 2 2 2 3 g g g x rXzXiXuXuXuXuXuXuX9Xe.p.G.OXOX@X.X].i.:.<.G.#X}.z.u.a.[.OX[.p.B.B.F.G.F.Z.' ) _ I.C.T F V.T.T.T.U.U.E._.[.{..X{.{.[.OXOX@X0X0X@X[.G.G.[.G.G.F.tXtX_.V.` ! d o.$.+.d ! L `.tX9X9X0X0X0X0X0XwXwXwXyXtXe.l N z x N Z Z Z A A A C C C M N C.6XqX6X6X6X6X6X6X6X6X6X8X6X6X6X6X6X6X6X6X6X6X6X6X6X6X6X6X6X6X6X6X6X6X6X8XT.6X6XT.T.U.U.T.C.B.B.F.G.[.[.G.OXtXOXp.p.s.<.1.N l I I.6X6XT.U.T.W.W.T.V.Y F D _ R.R.R.^.] D $ . + : n ~ S N x x Z C C *.-.-.;.;.-.*.=.V M m V &.*.*.*.*.*.*.*.*.*.*.*.*.&.*.*.-.*.*.&.&.C A U U W W R K c 9 4 4 c c k k j j c 0 0 9 4 6 6 6 r e e u d ! ! d ! { +.+.+.@.#.#.{ ! i 8 & & 8 8 8 u u u u J J 0 ~ | !.} E Q.(.N.A.B.B.N.B.B.K.~.e.Z h Z A.Q.t.U W I v I Y I v c 0 9 < > : : > j Y Z.D.C.R.R.).R.H.C.C.I./.| ! , + @ < D F 5 2 6 > > > > 2 3 k v K v x x Z W A S N N N m m N C A 0.w.w.q.q.<.<.<.,.=.C =.,.,.0.q.0.q.q.u.u.q.q.q.w.8.A.3 ",
"OXOXOXOXOXOX*X*X*XOX*X#X*X#X#X#X*X*X*X*X*X*XOXOX%X*X*X%XOXOXOXOX*X*X*X*X*X*X*X*X&X&X%X_.)._._._.`.`.).(.(.Q.Q.D.D.A.V.N.V.D.(._.fXfXfXrXeXfXfXjXpXpX%X%XrXrXfXjX;X .L D R } -X;X;X:X-X| R F /.fXlXfXlXHXjXjX} K D 0 J J L ! ! ~ | -X,XE !.:X:XZ.Y T Z.Z.N.R.).N._ S.' ) S.' Y Y ` } } ' R !.Y ` ` K R > 4 -XJXAX>X,XCXCXaXCXFXFXsXAXCX~ >XCXSXsXFX>X@.@.@.;X>XCXAXSX@.| {  .;XdXdX;X}  .] ] ) ] dXjXdX< @ c R S.R.T.T.Y.U.U.Y.Y.H.H.H.H.Y.U.C.D.' > : > > 2 2 2 2 2 > 2 > 2 2 2 > > 2 2 3 g g g v 9XiXuXuXuXuXuXuXuX9XJ.OX}.=X'.5.i.|.$XoXx.5.-.].oXoX{.J.F.G.G.H.H.G.G.P.(./.] _ V.N._ I V.U.U.T.W.W.W.H.G.'..X.X{.[.J.[.OX@XtX@X.X'.G.G.P.P.P.P.C.T I H J q % +./ ; & c &XyX0XqXqX0X0X0X0XwXwXwXwXyXB.l z h z x N N Z Z C A A B M m z H.6X9X6X6X8X8X6X6X6XqX6X6X6X6X6X6X6X6X6X6X6X6X6X6X6X6X6X6X6X6XqX6X6X6X6X6XT.6XT.U.H.H.C.C.T e.F.G.a.G.G.G.0XyXOXr.r.<.=.C Z U U.rX6XW.T.Y.W.OXY.C._ ) ) V.R.6XT.T.I.I.] y . . @ b ~ Z Z v v Z Z C &.-.-.;.;.-.*.&.V M m V &.*.=.*.*.*.*.*.*.*.*.*.*.&.*.*.-.*.*.&.C A A Z v v F F D y 9 < 9 c c k k g 3 j 5 0 0 c j b n : : : , e ! { { d { +.! { @.$.$.$.#.{ { ! ! { { P { { { | | { L { | | } E D.L.A.D.B.B.B.B.K.P.P.~.U x x Z U x g v v I E Y F v F 0 0 0 0 > : > 3 F N.D.N.B.E.eXeXE.U.C.S./.-X@.! : : 9 F F 3 > 6 > > > > > 2 k v ~ ~ ~ ~ ~ d.E E d.y.9.A A >.9.9.9.8.y.y.0.0.0.0.,.=.C =.,.<.<.q.q.q.q.u.u.u.q.q.q.p.~.h ",
"OXOXOXOXOX*X*X*X*X*X*X*X*X#X#X*X*X*X=X*X*XOXOXOXY.OXOXOXOXOXOX*X*X*X*X*X*X%X%X%X_.).).).).).).).).).(.(.(.L.D.D.Q.D.D.N.N.N.V.D.(.`.fXeX_.(.`.pXpXfXgXgXgXgXlXlXjXpX/.R I R !.;X-X;X-X;XR c ' `.Q.Q.~.,X:X!.D D D 0 L L ~ | ~ -X| | ,XE E `.:X_ Y Y ' Z.N.(.`.Z._ !.' Y ' ' H F Y } } } ` /.` | L 9 J < 9 | JXAX,X-XsXSXCXCXSXSXCXSXSX@.@.sXSXSXSX#.@.@.;X>X>X,XsXSX#.;X;XsXsX| L H G G y ) H y /.sXdXL | | F ' I.U.U.U.H.H.H.H.B.B.B.H.Y.U.H.D.' > : 1 > 2 2 2 > > > 2 2 2 2 2 > > 2 2 3 k g g x 9XiXiXiXuXuXiXuXwX0X[.p.5.oX=XgX|.b.b.n.oX=X=XoX{.'.G.F.F.G.P.F.B.r.p.L.D.' Y ) _ T _ Y I.T.T.T.6X6XU.F.F.'.].x.x.G.[.[.G.].@X.X{.'.'.G.P.P.K.K.e.U I c e ! d %.+.t i F rXyX9X9X9X9X0X0X0X0XwXwXwXyXB.z z h S z m N N Z Z C C C N N x U.6XqX6X6X6X6X6X6X6X6X6X6X8X6X6X6X6X6X6X6X6X6X6XqXqX6X6X6X6X6XqX6X6X6X6X6X6X6XT.U.H.U.H.C.B.J.J.G.G.G.p.J.tXhXOXr.p.,.C A H.rXrX6X6XT.W.U.Y.Y.U.C.V.V.V.R.T.T.T.T.I.I./. .8 @ : c E Z Z v c v Z C =.*.-.;.-.-.-.*.V M m V &.*.*.*.*.*.*.*.*.*.*.*.*.*.*.*.-.*.*.&.C A W v k j c D D y 0 9 0 b b n k g j j 5 9 9 5 3 3 2 5 5 : @ , u P u u P ! u e ! @.#.#.@.{ { { { { { @.@.@.#.#.@.{ { ` ` !.!.S.A.A.B.A.B.B.B.L.L.K.w.e.e.9.Z Z U W Z I I I I v c c c D y y 0 < : : > 3 Y N.I I N.(.).E.E.I.V.S.;X-X@.< < c H F 2 > 6 > > 2 > > 2 k n v W E d.t.W Z N y.9.A A >.9.y.y.>.8.y.y.y.8.8.,.>.C C C ,.,.<.<.q.u.u.u.p.p.u.p.s.~.1Xh ",
"OXOX*X*X*X*X*X*X*X*X*X*XOX*XOX*X*X*X*X*X*X*XOXOX*XOXOXE.E.E.%X*X&X*X*X*X*X*X).).).).).).).).).).).).(.R.L.L.D.D.L.L.Q.D.D.A.Z.N.D.Q.).&XeXeX`.`._.&XeXgXgXhXgXfXlXlXfX`.S.Z.!.-X;X;X:X;XR 5 F /.:X2 R ~ ~ J 0 J D D c ` } L | | | -XAX-X!.E :XF F Y ' ) R Q.^.' ` | ` D Y } ` c D } | @.;X#.;X{ ! 8 7 0 < @.JXSX>X;XsXGXSXCXFXsXAXDXSX-X4 sXGXAXCX@.{ @.@.@.@.;XaXFXP #.sXsX;XG D H 9 D ) H ) ) I.pXdX` { { ` S.R.U.U.Y.H.B.e.U U e.B.H.Y.Y.U.N.Y : > > 6 > 2 2 > > > > 2 2 2 2 > > 2 2 3 g h h Z 9XzXiXiXiXqX9XY.[.OX{.'.]..X|.oX.XXX X].{.{.{.[.G.J.H.H.H.F.p.r.w.8.w.e.N._ Y Y Y _ _ H I.8XT.T.W.U.N.e.r.F.G.G.'.'.'.'.x.x.].'.'.'.a.a.G.G.G.G.F.A.T F y d +.%./ +.s Y _.0X0X0X0XwX0X0X0XwX0XwXyXwXB.N l ~.A N m m M Z Z S S N N z I U.9X6XqX6X6XT.6X6X6X6X6X6X6X6X6X6X6X6X6X6XqXqXqX6X6X6X6X6X6X6X6X6X6X6X6X6XT.U.U.U.H.H.J.G.J.G.J.OXJ.F.J.OX[.*X*XOX[.p.r.OXyXyX9XT.T.T.W.W.W.U.e.e.H.E.E.U.U.U.U.C.C.V.S. .L 9 5 Z 9.>.C Z c c c x B *.:.:.-.-.;.;.V z z V &.*.*.*.*.*.*.*.*.*.*.*.*.*.*.-.-.*.&.C 1.E W v 5 4 4 4 0 e < < e b b 6 2 2 2 5 5 4 2 > 2 > > 2 > > > < 9 b J D L J 0 < 0 L { #.%.+.{ { ( ` (  .#.@.| @.| { | } _ T N.Z.N.e.e.B.B.B.L.L.L.r.e.U T U U U I I I I F v c c c D D D D D K b 2 > > c I Z.E v v E D.C.I.R.^.Q.!.| | L D D G D 5 > > > 4 : 2 3 2 k k g h Z U >.A ,.<.q.u.q.,.,.,.>.>.>.,.0.y.w.w.0.8.8.A C C A ,.<.0.q.q.u.p.p.a.a.p.~.<X!.g ",
"OX*X*X*X*X*X*X*X*X*X*X*X*X*XOXOX*XOXOXOXOXOXOXOX%XOXE.E.E.E.E.E.).).*X*X*X*X*X).).).).).).).).).).).(.R.L.L.L.L.Q.Q.Q.Q.Q.D.A.A.D.Q.(.`.`.eXeXeX_.).E._.rXrXgXhXfXgXgXfX`.`.^.!.:X;X:X;X} F } :X:X2 c 0 D 0 0 L | K c F L D L | | -XSX<X!.W !.F F F L ` ` | !.R /. .` D D ` ` L D L J | #.>X$.! P u 7 0 : | FXAX,X;X,XFXSXCXFX>XFXGXAX~ : >XFXFX>X! { @.@.@.@.;XaXFXJ | dXsX;X` H L 0 y H ) S.I.I.7XdX .| | ` S.R.Y.Y.Y.H.e.T T U N.C.U.Y.Y.U.D.Y : > > 6 > 2 2 > > > > 2 2 2 2 > > 2 2 3 g h l Z OXyXqXqX6XU.C.T B.[.@X@X+X.X.XoX].].{.'.'.[.[.J.J.F.F.F.F.p.r.w.0.9.9.e.e.T Y _ _ _ _ H V.8XI.I.D.N.T T r.F.P.G.'.}.x.x.x.x.x.x.x.x.x.a.a.a.G.G.P.L.Z.c $ w / %./ d p Y rXwX0XwXwXwXwX0XOX0X0X0X0XwXH.z z 1XA z m N N Z Z Z x Z N x T W.rX6X6X6X6X6X6X6X6X6X6X6X6X6X6X6X6X6X6X6X6XqX6X6X6X6X8X6X6X6X6X6X6X6X6X6XT.C.U.H.H.F.J.P.G.[.[.Y.J.Y.Y.OXU 9.OXtXtXOX0XyXwXqX6XT.U.T.6XW.H.e.e.F.J.OX[.Y.U.Y.H.H.C.D.D./.' H F U 9.=.B Z c 0 0 x N *.;.:.-.-.;.;.&.z z V *.*.*.*.*.*.*.*.*.*.*.*.*.*.*.-.-.*.&.C A W W F 5 2 4 > > 2 : 6 r 6 6 > > 2 2 5 5 4 2 2 2 > > > > 4 4 4 4 5 c K L K 0 2 0 L | @.%.@.| { ( ( ` | | { | | L L } ' T T T e.e.e.e.B.A.A.L.~.K.A.e.T T T T I I I F F F c c c D D D D D F K n c 3 j K K R E v k v I N.V.D.(.Q.!.!.} ` L G P J < > > > < : 2 3 2 k g h h l A 8.q.u.a.G.#Xs.<.V B C C C C >.>.8.0.0.8.9.A A A A >.>.>.>.,.<.q.u.p.s.K.d.~ K 2 ",
"*X*X*X*X*X*X*X*X*X*X*XOX*XOXOXOXOXOXE.E.OXOXOXOXOXE.E.E.E.E.E.L.L.).).*X*X*X*X%X).).).).).).).).).).(.(.L.R.R.R.(.(.(.(.Q.Q.Q.Q.D.D.D.(.).`.fXfXeX_.E.R.U.E._.%XeXrXfXlXlXfXfX:X:X:X:X;X!.R !.sXjXF 0 4 y y J | #.L D c D D J | | -XjX-XW x E v c c L -X,X,X;X| aX;XL D D H L H 9 c D ~ #.>X$.{ { | 0 9 : L GXAXsX;X;XSXFXFXSX| CXFXsXJ : -XsXsX| J @.;X-X@.@.-XaXFXP ( ;XsXdX .` ` D y H ] I.^.I.7XsX/.#.| ( ] R.Y.OXOXH.B.N.B.N.L.E.Y.Y.Y.R.R.E : > > 6 > 2 2 > > > > 2 2 2 2 > > 2 2 3 g h l h N.U.I.C._ Y Y Y C.U.OX0XOX[.OX[.'.'.'.'.'.'.G.G.G.F.p.p.p.w.q.q.0.8.9.e.e.T T _ _ _ N.Y I.T.T.C.N.I I U e.p.G.'.'.x.x.x.x.x.x.x.x.x.x.x.a.a.a.G.P.~.Z.c + . d %./ d p E rXwX0XwXwXwX0XOXOX9XwX9X9X0XC.l x fXT x l z Z U I I W W x Z V.W.7X6XT.6X6X6X6X6X6X6X8X6X6X6X6X6X6X6X6X6X6X6X6X6X6X6X8X6X6X6X6X6X6X8X8X8XT.C.C.H.H.H.J.P.J.OXOXH.Y.OXY.H.x z H.tXtXtXzXyXqX6XT.T.U.W.W.H.e.U B.[.OX[.OXY.Y.J.J.H.H.D.Q./.!.!.} t.9.A C N x c c x B *.-.-.*.;.;.-.V z z V *.*.*.*.*.*.*.*.*.*.*.*.*.*.*.-.-.*.&.C S W W v 2 > 2 2 2 3 3 j 3 2 > > 2 3 3 3 3 5 5 5 2 2 > 5 0 b b c 5 2 > c K K c 5 c F L { @.@.@.{ ( ( { { { { @.| J D ' ' T T T e.e.e.e.B.B.A.A.A.A.t.E T Y I I I F F F v c c c D D D D F D F F K K K K K j c R I v k v T N.D.(.(.Q.Z.` R L ( L c > > 2 > > : > 2 3 k j j g x A r.P.}.#X#X~.s.>.M m m M M N C A A >.>.>.A A U U A A C C N Z A 9.9.y.e.t.F 5 > > ",
"*X*X*X*XOXOX*X*XOXOXOX*X*XOXOXOXP.P.E.OX%X%XOXOXE.E.E.E.E.E.E.L.L.L.E.).).*X%X*X).).).).).).).).).).).(.).).(.(.R.Q.(.(.(.(.Q.Q.Q.Q.D.D.R.).`.&XfXeXeXeXeXeXrXeXrXeXeXfXlXlXlXjX:X:X:X:X-X} } ;XjX!.D 0 P P P | @.R F D F L D L | -X,X~ Z x W v v c ~ ;XCXSXCX>XaX| D D G H H D 4 c K | @.#.#.@.@.;Xc > @ L JXFXCX;X#.SXFXFXsXJ ;XsX>XJ 0 @.@.| K K @.>X>X;X@.@.aXJX{ ( ;XsXdX/.| | H G H ] S.I.I.7XsX;X;X| H ] I.U.Y.OXY.H.L.(.).).E.Y.U.Y.U.R.E > 2 > 6 > 2 2 > > > > 2 2 2 2 > > 2 2 3 g h l l N.U.V._ ) ) ] ] I.T.6X9XW.U.Y.J.G.G.G.'.'.'.G.G.G.p.p.u.u.u.u.u.u.w.r.r.N.N.N.V.V.N.V._ I.T.W.C.T Z Z U 8.r.p.a.a.a.a.x.x.x.x.z.x.x.a.a.a.a.a.p.s.K.Z.c + . i +.+.o.Q T W.0XwX0X0XwX0XOXOX0X0X0XyXwXU.F v lXQ.E I v v v I W E I x T R.W.6X6XT.6X6X6X6X6X6X8X8X6X6X6X6X6X6X6X6X6X6X6X6X6X6X6X8X6X6XqX6X6X6X8X6X6XT.C.C.H.H.H.J.P.J.Y.Y.U.W.9X9XyX9XU.H.B.e.B.9XqXT.T.U.U.U.Y.H.e.e.F.OXOX[.[.[.[.J.J.G.F.K.A.Q.!.!.!.!.t.t.9.A N x v v N C *.-.-.*.-.;.-.V z z V *.*.*.*.*.*.*.*.*.*.*.*.*.*.*.-.-.*.&.C C S Z k g g k k g h x x g 3 3 3 g g k g j k c j 5 3 2 b K K K b 5 2 > 5 c K K c c c D ! { @.@.{ { { { { @.#.#.| F Y Z.N.e.T e.e.e.e.e.e.9.U U U U U U I F v v v v F F v v c v F D F D F D D F K R W R v 3 j E Z.v k v T N.R.`.`.Q.' ` L ` | L 0 : > 6 > > > > 2 j c c j v I t.K.P.P.K.s.9.C m N N N z m m m N N N C C Z W W W N x x x l x Z W W v v j 2 @ @ : ",
"*X*X*XOXOXOXOX*XOXOX*X*XOXOXOXOXJ.J.P.E.OX%X%XOXOXE.E.J.E.P.E.).L.L.L.L.L.L.).).).).).).).).).).).).).).).(.(.(.L.L.L.L.L.L.L.L.L.Q.D.D.D.D.D.L._.&XeXfXgXgXfXfXgXfXeXeXfXfXfXfXpX:X:X:X;X} ~ } ,X;XJ 9 J u u !  .| F D L L D P | ;X,X!.E E E x ~ K K ~ #.CXZX>X| y 8 y L | | R 9 c L | @.@.@.| | ;X5 : > L FXSXsX;X;XsXCXAXsX! @.;X@.0 L -X| L ~ | >X,X,X>X>X-X>XJX| { ;XsX;X/.;X/.] H H ) ] I.I.7XpX;XaX| H ] C.U.Y.OXOXW._.).).R.H.C.H.Y.U.D.T > 2 2 6 > 2 2 > > > > 2 2 2 2 > > > 2 3 g h h v D._.V.) ) [ /.] [ I.8X6X6X7XI.R.L.H.H.J.G.G.G.a.a.a.p.u.u.i.i.i.i.u.p.B.A.V.V.V.V.N.V._ C.R._.U.B.U 9.r.p.p.p.a.i.i.i.x.x.x.x.v.v.i.i.i.i.i.i.u.u.y.d.K : + - +.+.o.Q _ 9X0XwX0XwX0X9XOXOX0X9XOX0XqXV.3 > sX} ~ -X-XF j c c 3 k c V.7XT.T.6XI.6X6X6X8X8XT.8X6X6X6X6X6X6X6X6X6X6X6X6X6X6X6X6X6X6X6X6X6X6X6X8X6X6XT.I.U.H.H.H.J.J.Y.H.H.9XqXwXwXiXyX9XC._ I N.Y.W.T.T.T.U.U.H.e.r.F.OX*XOX{.[.[.[.J.G.G.F.F.A.A.' ' ' E E d.t.A B N x x M V *.-.-.*.-.-.*.B m m V *.*.*.*.*.*.*.*.*.*.*.*.*.*.*.*.*.*.&.V C A A Z Z I U U Z N Z Z Z z z z N Z Z x v v v c j 5 5 b v v b c c 5 2 2 c K F F c c c J { @.| { { { ..@.#.#.#.` R Z.D.B.e.e.B.B.e.e.e.U A A Z Z N z x k k k k c c v F F F v v K K F c F D c F F R R I F j v Z.Z.v g v T V.R.`.`.`.^.!.' }  .| D > > 2 > > > > 2 c v v c F E t.t.9.8.>.Z z h l z N x l l l l z z N N N Z n n n g 3 3 3 5 c c c c 4 @ @ @ @ , @ ",
"*X*X*XOXOXOXOXOX*X*XOXOXOXOXOXOXP.J.J.J.J.OXOX%XOXE.E.E.E.P.E.).P.L.L.K.F.L.P.L.).E.R.R.).).).).).(.).).).).).(.L.L.L.D.D.D.D.D.D.D.D.A.A.N.N.N.B.D.L.)._.&XeXfXfXeX&XeXeXfXfXfXfXpX:X:X/.} R } ;XsXL < e u e ! | | D 0 H G P P | ;X,X-X!.!.W g ~ K b J +.>XZX$.! 8 , y L  .;X| c 9 c L @.#.{ J ~ -Xv v c | FXSXaX>X>XaX>X,XsX;X| @.| L -X;X| ~ !.-X,X,X>X,X>X>X>XJX;X#.dXsX;X;XdX;X| H ) ] [ 8XI./.pX/.>X .` S.I.U.Y.OXY.Y.R.D.N.N.e.N.H.Y.U.D.E 2 2 2 6 > 2 2 > > > > 2 2 2 2 > > > 2 3 g h h l T ^.] H G ]  .[ [ [ [ I.8X7X8XI.R.R.H.J.G.p.a.a.a.a.a.a.i.i.z.6.6.u.p.B.A.V.V.V.V._ N.T C.H.E.E.J.H.H.G.G.G.a.a.i.i.i.i.x.x.x.v.v.i.i.5.5.u.u.u.q.y.Z.W > + & +.{ s 0 V.yXwXwX0XwX0XOXOX9X0XOXOX9XrXI.: : SXy e ! @.-XK > : > > v (.rX6XT.8XI.6X6X6X6X8X8X6X6X6X6X6X6X6X6XqXqX6X6X6XqX6X6X6X6X6X6X6X6X6X6X6X6X6XT.U.U.Y.J.J.J.H.U.H.T.wXiXiXiXiXqXT.T.6XT.T.W.U.T.W.U.C.H.H.r.J.OXOX{.{.{.{.'.'.'.G.a.p.p.r.t.E E R K R ~ ~ W C C N N C &.*.-.-.*.-.-.*.B m M V *.*.*.*.*.*.*.*.*.*.*.*.*.*.*.*.*.&.&.=.C C A 9.r.F.F.F.r.8.r.8.8.8.8.8.8.9.9.U U U I v c j c j j j j j j j j j c v v c j c F D L | | { { { +.+.#.#. .R E A.L.B.B.r.F.p.r.w.w.0.8.A B m z z l l h h x x v v v F v v v v v v c F F F F F I F F v F T Q.!.v h I T N.D.`.7XpXpX:X/.;X;X| D > > 2 > > 2 > 5 K K R F Y Y I v x z z h g h k h g g k g g h x x v N v k k 6 2 > : : : 1 < , $ @ + . . + 8 8 $ ",
"*X*X*X*X*XOXOXOX*X*XOX#XOXOXOXOX*XOXP.J.P.OXOX%XOXOXE.E.E.L.L.L.L.L.P.L.L.K.K.K.L.L.L.L.L.L.R.).(.(.(.(.(.(.(.(.R.L.L.D.D.D.D.D.A.A.A.A.Z.N.e.e.e.e.N.B.L.).eXfX&X&X&X&XeXeXeXfXfXfXpXpX:X!.` ~ } SX| < e u e ! | -Xc 0 D y P D | ;X:X:X<Xd.Z x ~ Q Q ! +.%.$.%.d y y 7 0 | ;X@.c < 0 P @.#.! J d.<X!.!.R | FXFXaXaXaX,X;X,X,X<X-X-X;X-X,X:X!.} !.!.-X-X-X>X>X@.>XJX>X;XsXsX;XdXdX/. .) ) ) ] 7XI.I./. .;X;X/./.C.W.OXY.H.B.N.T I U e.B.H.Y.Y.L.' 2 2 2 6 > 2 2 > > > > 2 2 2 2 > > > 2 3 g h h x v Y ` ( y (  .[ [ [ ( [ 8X8X[ ) I.I.R.U.F.r.p.a.a.'.x.x.z.z.z.j.6.i.p.K.D.S.V._ V.T N.T N.B.H.E.OXOXOX}.}.'.'.x.x.a.i.i.i.i.a.i.i.6.7.5.5.5.5.<.,.w.d.E 4 @ 8 #.{ p 9 C.yXwX0X0X0X0X9XOX9X0XOXOXOX6XV.: + CX. + + e @.| 2 : 2 > Y 7XrX6XT.8XT.6X6X6X6X6X6X6X6X6X6X6X6XqXqXqXqX6X6XqXqX6X6X8X6X6XqXqX6X6X6X6X6XT.U.U.U.Y.Y.J.J.U.U.T.9XuXiXiXiXuXqX6XqXyXqX6XT.T.W.U.U.C.B.B.J.*X*XOX{.].].].x.'.a.a.a.p.p.r.U I R R D K ~ ~ W C =.C V &.*.-.-.-.*.*.*.&.M m M &.*.*.*.*.*.*.*.*.*.*.*.*.*.*.*.*.&.&.&.&.V V >.r.}.*X[.[.[.G.G.p.G.G.G.G.a.p.F.w.r.t.E Z c c c j j j j j c v c v v v v c j c F F L } | ! P { { / { @.| R e.K.P.G.G.G.G.G.p.u.u.u.u.<.,.=.V V V B C C A Z Z Z Z v v v c c c c c F F F F I I F c v _ R.`.Q.I x v I Y N.D.).`.pXfX:X;X!.L 0 > > 2 > > 6 > j ~ R R Y Y F c j k l h k j c n k 3 3 k 3 g k n n n v n 2 : @ @ + + + + + + . . . . # # & 8 & # ",
"*X*X*X*X*X*XOXOX*X*X#XE.E.E.OX#X*X*X*X*X*X%XOXOXOXOXE.E.E.P.L.F.P.P.P.L.P.L.F.B.F.F.B.B.L.L.L.L.L.(.(.(.(.(.(.(.(.R.L.D.D.B.B.B.B.A.B.N.N.Z.B.B.N.N.e.e.T e.B.L.1XfXfX&X_.7XeXfXfXfXfXjXpX/.R L F SX| 9 e u 8 u | ;X0 0 G 7 P 7  .;X;X:X:Xd.W d.-X~ ! o.o.d o.o.& 8 u 7 , | >X-X4 > J L | @.! ! !.!.<X-XL | SXFXCXaXsX,X,X,X<Xd.,X<X,X<X,X<X!.!.!.~ | ! o.>X>X@.>XJX>X;X;X;X| ;X;X . .] ] ) ) I.I.I./.] ;XaX;XpXV.Y.OXY.B.T I I x I N.H.Y.Y.Y.L.Z.2 2 2 6 > 2 2 > > > > 2 2 2 2 > > > 2 3 g h h x 2 9 H y X & ( ( [ [ ( [ 8X[ ( y ) I.I.R.C.e.r.G.G.}.}.x.z.z.z.z.6.i.p.K.L.D.S._ N.T T U e.e.F.J.OX*X}.[.}.}.'.}.'.x.a.u.u.u.i.i.6.6.7.5.3.:.-.*.&.8.d.E 5 < e @.{ J c V.qXwXwX0X0X0X9XOXOX0X0XyXyX9X_ : @ sX+ + + + 9 L Y 5 > 3 _ 7X7XT.T.6X6XT.6X6XqXqX6X6X6X6X6X6X6XqXqXqX6XqXqXqXqX6X6X8X6XqXqXqX6X6X6X6X6XI.C.U.U.Y.Y.J.Y.U.C.6XwXuXiXuXuXuXiXuXuXiXqX6XC.U.U.C.C.C.e.r.OX*X*X@X{.].x.x.c.x.a.a.a.p.r.9.U Z I R K K ~ { R A =.=.&.*.-.-.-.-.*.=.=.V M m B &.*.*.*.*.*.*.*.*.*.*.*.*.*.*.*.*.&.&.=.&.V V ,.}.=XtXOX{.{.[.[.'.}.}.}.}.'.}.}.a.K.s.t.I v c c v v v v c c v k F F F I v c c F F R ~ { ! P d / d d { | E r.G.}.{.'.].].].x.i.i.i.i.i.5.5.5.5.5.<.<.<.<.,.,.A Z N x h g j c c c F I I I Y T I v T R.eXeX).T h g v F Y N.C.R._.7X`./.` c 2 > 2 2 > > 6 > j } ` ' R H D c c v v k c 0 5 c b b j b j c b b n n k j @ + . . . + . . . . . . . # # # 8 & # # ",
"*X*X*X*X%X%XOXOXOXOXOXOXOXE.E.OX*X*X*X*X*X*X*X%X%X%X%XE.E.P.L.L.F.F.P.L.).E.L.P.L.L.B.B.B.B.B.B.L.L.(.(.(.(.R.L.L.L.D.A.B.B.B.N.B.A.A.A.A.A.B.B.B.B.Z.Z.A.B.B.A.A.~.(.`._.&XeXeXfXfXfXlXjXpX!.} j ,X-X~ , u u e { ;XD y | { | y ` ;X} AX:Xd.S ~ n k b o.d d %.+.i u u 7 9 | ;X| 2 5 9 L @.| | ~ !.!.!.c : J FXJXCXsX,X,Xd.d.3Xf.3X1X<Xf.<X~.d.d.d.!.~ ~ o.$.$.+.>XJX;X .;X| ` /.;X;X . ././.] [ [ [ )  . .( 0 ^.C.Y.OXY.B.U T N.D.L.E.Y.Y.OXW.H.N.3 2 2 > 2 2 > > > > > 2 2 2 2 2 > > 2 3 g h k n 2 0 P 9 . 8 ( G /.[ ( G ( [ ( t ( [ [ T.U.e.B.J.}.}.'.x.c.c.j.z.i.u.p.B.Z.' _ _ T T T U U e.r.F.F.G.G.a.a.a.x.x.x.x.a.a.a.u.<.5.5.5.<.:.-.-.-.<.q.y.K.t.j 0 @.aX#.L I rXuXwX0X0X0X9XOX9XOXOX0XwXyX9XV.H : dX# + + + ' /.7X^.I.N._.rXT.T.6X9X6XqXqXqXqXqX6XT.I.T.6XT.I.T.6X6X6X6X6X6X6X6X6X6X6XqXqX6X6X6X6XI.V.C.U.Y.Y.H.Y.OXY.H.T.qXiXiXuXuXuXuXuXiXiXqXT.I.T.U.R.U.N.e.B.J.OXOX}.].'.].].c.c.x.x.a.a.p.p.r.e.U F F F L P { | d.g.:.*.*.*.-.:.-.*.*.=.B M M B &.*.*.*.*.*.*.*.*.*.*.*.*.*.*.&.&.*.&.&.&.V &.u.=X@X@X.X.X.X.X.X.X{.{.].].{.{.oX}.P.p.9.I v F F F I I I F v v v F F v v v v v v F c ~ -X>XaX4X4X4X>XaX;XQ.p.}.].|.|.|.|.n.n.n.n.b.b.b.v.j.j.j.j.j.j.i.i.5.5.<.,.C Z Z x v v F F T E t.T T T T T E._.rXeX).D.U g 3 Y Q.D.N.C.C.C.^.!.R 5 > > 2 > 6 > 6 > c K c } H D y 0 c c c c c 0 0 0 0 0 0 0 c c c c c 5 2 : .         . . . . . + # $ $ 8 8 8 & $ & ",
"*X*X*X*X*X%XOXOXOXOXOXOXP.P.E.*X*X*X*X*X*X*X*X%X%X%X%XE.).).E.L.).E.L.L.L.L.P.P.L.K.B.B.B.B.B.B.A.K.L.L.(.).).).R.L.L.A.B.N.N.N.B.A.A.N.A.N.A.A.A.A.Z.Z.A.A.A.A.Q.~.~.`.`._.eXeXeXfXfXlXlXjX:X/.R !.,X| @ 8 u u { -XL D L L P y (  .} AX<XE S W ^ n Q o.! d +.+.d P P y < K @.@.c K c L | | | | } !.!.c @ 7 CXFXSX,X,X<Xd.g.g.7.g.f.g.1.g.d.d.!.-X-X-X>X>X$.%.o.@.JX;X| ;X;X ./.;X;X/./.pXpX) I.[ [ ) ` | G < S.I.W.OXOXH.C.C.R.).).E.Y.Y.Y.Y.E.N.g 2 3 2 2 2 > > > > > 2 2 2 2 2 > 2 2 3 g h k n > 0 P $ X y ( ) ( I.I.( ) ] ( & i ( ] I.I.C.H.J.E.}.G.x.x.z.6.6.i.u.p.r.T Y I F I I U U U e.e.r.p.p.p.p.a.a.a.a.x.a.a.a.a.p.u.<.5.5.<.:.*.:.<.5.<.>.9.t.v 4 J  . .| S.yXwXwXwX0X0X9XOX9X0X0X0X0XwX9XT.C.Y pX( y 7 9 ^.(.W.T.C.C.W.9XU.U.W.9X9XW.6X9X9XqXqXqX9X6X9X6X6X6XT.T.T.6X6X6X6X6X6X6X6X6X6X6X6X6XT.I.C.U.U.Y.Y.H.Y.OXJ.C.9XuXiXiXuXuXuXuXuXuXuXqXU.T.U.R.R.C.N.N.F.J.[.[.'.'.'.].].c.c.x.x.a.a.p.p.r.e.U I v c y u { { d.g.1.:.-.-.-.-.-.-.*.=.M m M V &.*.*.*.*.*.*.*.*.*.*.*.*.*.*.&.*.&.&.*.*.V *.a.=X@X@X@X.X.X.X.X.X.X.X.X|.].].].}.'.p.e.U I F F v v F F F v v v F F v v v v v v v j R -X>XaXaXZXaXaXsX:X~.p.{.|.XXXXXX X Xm.m.m.m.m.b.b.b.l.l.l.b.b.v.v.z.i.5.u.q.8.9.U I I I I U T Z.A.A.B.B.B.U.U._.%X_.R.e.x > F Q.(.L.C.N.N.Z.' R c 2 > 2 2 > > 2 > K } D R H D 0 0 0 c b c 0 y y 0 0 0 0 0 0 0 9 9 9 4 > @             . . . + @ @ 1 1 , , 7 , $ $ ",
"*X*X*X*X*X*X*X%X*X*XOXE.P.P.OXOX*X*X*X*X*X*X*X*XOXOX%X).).).).).*X).).L.P.P.P.P.L.L.F.B.B.B.B.B.B.B.A.L.L.L.).).(.R.L.D.A.B.N.N.B.A.A.A.t.A.A.A.A.A.Z.Z.A.A.A.A.Q.Q.~.(.`.`.`.eX7XfXfXfXfXjXpX/.' v jX;X4 , 0 J L -X| L D y y y ` | ` sX!.d.d.d.W n Q o.! s %.%.! y y 0 : c | -XK ~ L K L ! | | ~ !.| c + $ aXFXSX,X,X<Xf.1.7.7.7.7.;.*.1.1.d.-X-X-X>XCXUX>X@.o.@.FX>X| | sX;X .| /././.dXpXD ] [ [ ) ` | D : S.I.Y.OXOXOXW.E.(.).R.H.H.Y.Y.Y.E.Z.g 2 3 2 6 2 > > > > > 2 2 2 2 > > 2 2 3 g h k n > b J + & ( ( [ y I.7X] ] ) G X t ( ( [ I.I.T.R.E.P.G.a.a.i.i.i.u.p.r.e.I v c c v I I U U U 9.r.r.r.w.u.u.p.a.a.a.a.u.p.s.K.s.q.u.u.<.,.:.:.<.u.<.C A t.F > < P L | (.yXwXwXwX0X0X9XOX0XwXwXwX0X9X9X9X(.] 7X] ` F c `.W.U.W.C.H.OX9XW.Y.9X9X9XW.W.6X6X9XqXqXqXqXqXqX6XT.T.I.I.I.T.8X6X8X8X6X6X6X6X6X8XT.I.U.U.U.H.Y.Y.H.J.Y.H.U.qXiXiXuXuXuXqXuXuXuXqX6XC.U.U.R.V.N.N.B.F.P.P.G.G.x.x.].].c.c.x.x.a.a.a.F.p.r.9.U v j 9 y u P E y.1.:.-.-.-.-.;.-.*.V M m M V &.*.*.*.*.*.*.*.*.*.*.*.*.*.*.*.=.&.&.:.*.V <.{.@X@X.X.X.X+X.X.X.X.X.X.X.X|.].].].'.p.r.U I I F v v F F F v v v v v F F F F F F v j ~ @.;X>X$.4X$.>XsX`.K.a.|. XXXXXXX X Xm.m.m.m.m.m.m.l.l.l.l.m.m.b.b.b.v.z.i.i.p.r.r.e.e.N.Z.e.B.L.L.L.B.B.N.B.B.H.Y.E._.B.Z 2 5 Y ^._.R.C.N.T T R c 2 > 2 2 > > 2 > K | F F D y 9 9 0 c c 0 0 y 0 0 0 0 0 0 0 9 4 4 < < < $ X X X X X . + + @ @ , , < < < < , , , , ",
"*X*X*X*X*X*X*X*X*X*X*X*XOXOXOXOX*X*X*X*X*X*X*X*X*X%X%X%X).).).).).).).).).).R.L.L.L.L.L.F.B.B.B.B.B.B.B.B.L.L.L.(.(.L.L.D.A.B.A.B.A.A.r.t.r.t.t.A.A.Z.A.A.A.A.A.Q.Q.~.Q.(.`.`.`.`.fXfXpXpXfX:X^.E 2 sXsX~ : 0 D L | ;X| D 7 7 y L H L :X!.!.!.!.K b b ~ ! ! >XCX! 0 9 9 0 L | ~ K | ~ K J L | | } } ~ 0 @ 7 >XJXSX>X<X,X3X1.-.7.7.7.2.:.g.g.d.<X-X>X>XUXUX>X@.o.@.FX>X| ` sX;X| L |  ./.;X;X, ) I.] ] /.| 9 : S.I.U.Y.OXOXW.U.B.B.T U B.Y.OXY.E.Z.g 3 3 2 6 2 > > > > > 2 2 2 2 2 > 2 2 3 g h h k 5 b e $ y ] [ I.G ] /.^.^.[ G X X y ( ) I.I.V.I.I.H.H.G.a.a.a.u.p.r.t.I v c 5 5 j v I I I U U 9.r.w.w.u.u.u.p.a.p.u.u.p.p.K.K.s.s.w.,.,.,.<.<.=.,.A 9.t.I 4 0 L 9 c V.wXwXwXwXwX0X9X9XwXwXwXwX0X9X9X9X_._ I.) ' F 3 `.R.C.9XC.Y.%X9X9X9X9X9X9X9X9X9X9X9XqXqXqXwXqX9XT.I.I.I.I.T.8X8XI.I.I.I.8X6X6X6XT.T.U.U.W.H.H.Y.Y.J.H.H.H.qXuXiXiXuXuXuXqX6XuXuXqXT.C.U.D.D._ T N.C.F.H.G.G.a.a.x.'.].c.x.x.x.x.a.G.G.F.F.r.y.U k 4 9 i y K W 1.:.-.-.-.-.2.;.*.V m z M V &.*.*.*.*.*.*.*.*.*.*.*.*.*.*.*.&.&.&.*.&.*.a.=X@X.X.X.X+X+XXX.X]..X.X.X.X.X|.|.].'.p.9.U I F F v v F F F v v v v v F F F I F F v c ~ @.@.#.@.#.#.;X,XQ.F.x.|. X X X X X Xm.m.m.m.m.m.m.m.m.m.m.l.l.m.m.b.b.v.z.z.a.p.p.K.K.K.K.H.P.P.P.L.B.r.e.e.e.B.H.Y.E.H.U 3 > j T )._.E.C.T Y F j 2 2 2 2 > > 2 > K } K c 0 9 7 9 0 0 0 0 0 0 y 0 0 0 0 0 0 9 4 < < 7 , , & # # & $ $ $ $ , , < < < < < < , 7 7 7 ",
"*X*X%X*X*X*X*X%X*X*X*X*X*X%XOXOX*X*X*X*X*X*X*X%X*X*X).).).).).).E.).).*X).).).R.E.R.L.L.L.K.B.B.H.B.B.B.B.B.B.B.L.L.L.L.L.L.D.L.A.A.A.r.r.t.t.t.t.A.A.A.A.A.A.!.!.!.Q.Q.Q.(.`.`.`.fXfX`.`.fXfX`.Z.v :X,X;X: c D K | :X;XL 9 < 9 y c R :X/.!.~ v K b K @.-X-X,XCXD < 9 K | ,XsX:XK -X| K D J ~ L | } J 9 , e #.PXSX>X-X<X<Xg.1.g.4.4.7.g.f.3X-X-X>XUXUX>X@.@.@.o.>XFX>X~ D >X-XL L L |  .;X;X7  .I.( ] dX` , , ^.I.Y.Y.OXOXY.B.I U Z I B.OXOXY.H.Z.g 3 3 2 6 2 > > > > > 2 2 2 2 2 > 2 2 3 g h h c b 0 : 7 ( [ [ I.) G ] /./.I.( &   y ( ( [ [ ) I.V.V.C.H.F.a.a.p.y.t.U v j 5 5 5 j v v v v I U U 9.w.r.p.p.u.p.a.p.p.u.w.r.p.K.K.s.9.C C =.=.V B V C >.d.K c L ! @ > _ qXwXwXwXyXOXOX0XwXwXwXwX0XOX0X9X_.D.I.V.' v 2 (.R.U.rXH.OXOX9XOXOX9X0X0XqXwXqXqXqXqXqXqXiXqX6XT.U.T.6XT.I.I.I.T.6X6XqXqX6X6X6XT.U.H.U.E.B.J.Y.Y.Y.H.H.Y.iXuXuXuXuXuXqXqX6XuXiXqXT.C.L.D.V.T T N.A.F.F.F.G.a.a.x.'.].x.x.x.x.x.'.G.G.G.G.s.s.y.Z c 0 9 8 0 v A =.*.-.-.-.2.;.*.V m z M V &.*.*.*.*.*.*.*.*.*.*.*.*.*.*.*.V &.=.V V 5.}.=X@XXX.XXX+X+XoXoX.X{..X.X|.|.|..X].'.u.9.Z Z F F F F F F v v v v v F F F F F F F c 0 ~ | @.#.@.#.@.-X:XA.a.x.n. X X X X Xm.m.m.m.m.m.m.m.m.m.m.m.m.l.l.b.l.b.b.b.z.x.a.a.a.a.G.K.F.F.F.F.F.F.r.r.r.B.H.U.Y.Y.U.N.j : 2 v T U.E.R.N.T v 3 2 2 2 2 > 4 6 2 c R F 0 9 7 7 9 0 0 0 9 0 0 0 0 0 0 0 0 0 9 9 7 7 7 7 7 8 8 8 8 8 8 8 8 8 8 < < < < < < 7 7 7 8 ",
"*X*X*X*X*X%X%XOX*X*XrXrX*X*X%XOX*X*X*X*X*X*X*X*X*X*X).).).).).).*X*X).).).E.R.R.R.R.L.L.L.L.F.F.C.C.B.B.B.B.B.B.L.L.L.L.L.L.L.L.A.A.A.A.r.r.t.t.t.t.t.Z.d.A.!.!.!.!.!.Q.Q.Q.(.(.(.`.`.`.eXfXfXfX`.Q./.;X;X: D D K ` ;X;X` D y 7 0 c R ;X<X/.~ v K K ~ ,XAX,X,XCX;X| | !.!.;X:X!.K -X} K J J L L | ~ c 0 7 e { JXFX>X@.<X<X3Xg.g.7.j.7.g.g.3X-X@.>XUXUX@.o.@.-X@.>XFX,X| 0 | | K D 0 J |  . .y /.I.H ] dX` , , ] R.W.OXOXOXY.N.I I T B.U.OXY.Y.E.N.g 3 3 2 6 2 > > > > > 2 2 2 2 2 > 2 2 3 g h h v K 4 @ y ` [ [ 8X[ 8 H /.[ [ ] & . 8 G ( [ ( ( ( ) ] V.C.H.G.G.r.t.U v c 5 5 c c k c v v v F I U 9.9.w.w.w.u.p.p.p.p.p.w.8.w.r.K.y.U N M C C B B M m A d.W b ! J @ 3 C.wXwXwXwXtXOXOX0XwXwXwX0X0X9X9X9XW.R.C.C.S.T x R.U.U.rXU.Y.OXOXOXOX9X9X9X9X9XqX9X9XqXqXqXwXqX9X6X6X6XqX6X6X6X6X6XqXqXqX6X6XT.T.U.H.H.H.H.B.J.Y.Y.Y.Y.Y.9XiXuXuXuXuXuXuXqXqXiXuX9XI.C.D.Z.T Y T N.B.B.B.F.G.a.a.'.'.'.x.x.c.c.'.'.'.'.'.'.'.a.s.y.I c 7 $ 8 c Z &.&.-.-.-.3.2.-.V z l M V &.*.*.*.*.*.*.*.*.*.*.*.*.*.*.&.V &.=.V &.i.$X$XoX.XXXXX.X.XoXoX}.{.{.].].|.|.|.].'.p.8.Z v F F I I F F v v v v v F F F F F v c 5 e | @.| #.@.#.#.;X:Xr.a.c.n. X X X Xm.m.m.m.m.m.b.m.m.m.m.m.m.l.l.l.b.b.b.b.b.c.c.c.x.x.a.a.a.G.F.p.p.p.F.F.F.F.J.Y.Y.Y.Y.W.D.3 > 3 v v e.H.E.D.Z.v 3 2 3 2 > > 2 2 2 j K c 0 9 7 7 7 9 0 0 9 0 0 0 0 0 0 0 0 c 0 9 9 9 9 9 9 9 9 0 9 9 4 8 8 8 8 8 < , < < 7 7 7 7 8 ",
"*X*X*X*X*X%XOXOX*X*X*XrX*X*X*X*X*X*X*X*X*X*X*X*X*X*X).).).).).).*X*X*X).).E.L.L.L.L.L.L.L.L.L.H.C.C.C.C.B.B.B.B.B.B.A.D.D.D.D.A.A.A.A.A.A.t.t.t.A.t.t.t.d.A.Z.!.!.!.!.!.Q.Q.Q.Q.(.(.)._._.eXfXfXfXfX:X:X-X4 D D L R ` ;X| K L 7 0 c R -X:X;X!.R K c K sXGXAXjXjXsX/.} } R R ~ R W !.} K J J L L R L b J u 8 s JXFX>X@.-X,X<Xd.g.7.M.7.1.1.-X@.@.+.vXUX$.@.-X>X-X>XCXCX@.L D  .` 0 @ < L L J 9  .I.] ]  .( y , ) I.W.OXOXOXW.H.N.N.D.E.W.Y.Y.Y.E.Z.g 3 3 2 6 2 > > > > > 2 2 2 2 2 2 2 2 3 g h h v c : @ y  .[ [ [ [ y 8 ( ] ( ( 8 . # y ( ..( i G ( ] _ V.F.F.p.e.I v c 5 5 c j b n n c c c F F U U 9.9.8.0.q.u.p.p.p.p.0.A 9.e.t.t.t.N z B S =.V M m S d.K c ~ Q @ F _.wXwXwXwX0XOXOX0XwXwXwXwX0XwXqX9XU.T.I.C.U.C.N.E.U.U.W.W.H.U.OX9X9X9X9X9X9X9X9X9X9XqXqXqXqXqXqXqX6XqXqXqX6X6X6X6X6X6X6X6XT.U.U.H.H.H.H.F.F.J.Y.J.J.J.9XyXiXuXuXuXuXiXuXuXiXiXqXT.C.V.A.T I Y _ N.N.e.r.p.p.a.a.a.'.'.'.x.c.c.c.'.x.x.'.'.'.x.s.s.t.v 0 8 8 D Z C &.:.:.;.3.2.-.V z l M V &.*.*.*.*.*.*.*.*.*.*.*.*.*.*.&.&.&.&.*.*.i.M.x.].|..X].].x.x.x.'.'.'.].].|.|.].].'.G.r.U I I I I I F F F F F F v F F F F v c c b J @.@.{  .| | ;X;X:X8.i.c.n. X X X Xn.n.m.m.m.b.b.b.b.b.m.m.m.m.m.b.b.b.b.b.b.c.c.c.c.M.v.v.x.'.G.G.G.G.P.G.G.J.J.OXOXY.OXOXR.3 : k I I U B.L.L.Z.W j 2 2 2 2 > > 2 3 k n b 9 0 9 9 7 9 9 0 0 0 0 0 0 0 0 0 0 0 0 0 0 0 y 0 0 0 0 0 0 6 4 < < < , , , , , , 8 7 8 8 8 ",
"*X%X*X*X%X%XOXE.*X*X*X*X*X*X*X*X*X*X*X*X*X*X*XE.E.).).).).).).).L.).*X*X*X).L.K.F.B.L.L.L.L.L.L.H.H.H.H.B.B.B.B.B.B.A.A.A.A.A.A.K.K.A.A.A.r.r.A.A.t.t.t.t.t.A.A.Z.!.!.!.!.Q.Q.Q.Q.(.(.(.(.R._.eXfXlXfX:X/.D D D R L D !.| L | 4 < 0 R !.:X-XW j c 5 c ,XGXSXAXAX;XK c D 9 5 D K ~ !.~ L K J { | J L J ! ! w u JXJX>X@.-X,X-X~ ~ f.f.g.S ^ -X>X>Xo.$.vX$.@.@.-X-X>XCXCX>X| 9 ;X| y @ @ P D 7 7 ` I.I.] ( ` L < ) V.U.OXOXOXOXOXU.R._._.W.Y.OXOXY.B.h 3 3 2 6 2 > > > > 2 2 2 2 2 2 2 2 2 3 g g h K 2 @ @ y  ./.[ [ [ ( X & ( ( G i . . & { ..G i i ( ) ) _ A.B.e.U I v j 5 5 0 0 b c n v v v F F I U A A A >.w.s.u.p.p.p.0.A A 9.t.!.d.A m C g.g.=.V B 1.~ x 5 | Q : I _.wX0XwX0XOXOX9X0XwXwXwXwX0XyXwX9XT.T.T.C.U.E.U.W.H.U.T.9XU.Y.Y.OXOX9X9X9X9XqXqXqXqXwXwXwXuXwXyXqXT.6X6X6X6X8X8XI.I.I.I.T.U.H.H.H.H.J.H.F.F.P.Y.J.H.Y.9XiXuXuXuXqXqXuXuXqXiXqXT.V.V.V.Z.v F T V.N.T e.r.r.p.p.a.a.x.'.'.'.x.c.c.'.x.x.x.].].x.s.s.y.Z c 0 7 G W C &.-.:.;.3.2.*.V z l M V &.*.*.*.*.*.*.*.*.*.*.*.*.*.*.*.=.V &.:.:.u.i.5.x.].].x.i.5.5.5.u.u.a.'.{.{.|.{.].}.}.G.e.U I I I F F F F F F F F F F F F v v j 5 b | @.{ | { | -X!.`.,.i.n.b. X X|.n.n.b.b.b.m.m.m.b.b.m.m.m.m.m.m.m.b.b.b.b.b.c.v.c.oXoXoXoX}.'.'.'.'.}.}.}.P.J.J.Y.OXY.OXOXR.j : j !.C.B.B.C.L.D.E c 2 2 3 2 2 > > j n K b 4 0 0 9 7 7 9 0 0 0 0 0 0 0 0 0 c 0 0 9 0 0 y 0 0 0 5 9 4 4 < < , , , , , , , 8 8 , , 8 w ",
"*X*X%X*X&X&X&X*X*X*X*X*X&X*X*X*X*X*X*X*X*XE.*X*X).).).).).).).).L.L.E.).).).).L.L.L.B.B.B.B.B.B.H.H.L.L.L.C.B.B.B.B.B.F.F.B.B.r.B.B.A.A.A.A.A.A.r.A.A.A.Z.Z.Z.A.A.A.A.!.!.Q.Q.Q.Q.Q.(.(.(.`.`.`.`.fXfX:X' D 7 , D L J L R !.;Xj 5 2 K /.:X/.v F R c c ;XSXDXsXAX5 @ @ u P y u L ~ K ~ ~ c 9 i 8 , 8 J ! { u . SXJXCX! @.{ ! ! r W !.~ 3 3 -XCX>X+.@.$.@.+.+.@.@.@.CXCX#.+ , | | y $ + y P , , ` ] /.dX .y + 9 Y V.W.9XOXY.OXOXY._.U.C.H.Y.OXY.Y.C.x 3 g 2 2 5 > 2 2 2 2 2 3 3 3 3 3 3 3 g g h k b 6 @ + 8  .dX[ ( ( y & & {  .( i X     i { i 8 y y G ` ' ' T T x x k k c 0 0 0 c c c v v v v v v Z I Z A A >.8.w.w.p.p.w.0.9.U U t.t.y.y.,.<.M.7.-.&.g.m S b b c 3 Z.tXwX0XwX@X[.0XwXwXwXwXwXwXwXyX9XT.W.T.C.U.H.e.e.H.U.H.Y.OXOXH.H.OX9X9X9XqXqXqXqXwXW.wXyXyXyXyXyXyXOXC.U.6XqXqXqX6XT.I.I.I.Y.Y.H.J.H.H.H.F.F.H.E.U.C.W.wXiXuXuXuXuXuXuXuXiXiX6XV.] ^.Y : v _ N._ N.N.e.e.w.s.a.a.a.a.a.G.'.x.'.'.x.x.z.x.c.}.'.a.p.w.U Z v v I W A C *.;.2.2.;.&.M z z M V &.&.&.&.&.*.*.*.*.*.*.*.*.*.*.*.*.V &.V y.#Xs.5.3.z.c.i.:.,.>.>.q.u.p.a.x.}.}.|.].].}.}.K.r.U I K K K F I I F F c F D K v k Z h 2 ~ | { @.{ { @.-X<Xy.<.6.z.n. XXX Xn.b.b.b.l.m.m.m.m.m.l.l.l.m.m.b.b.b.b.k.j.b.v.c.c.oX$XoX}.}.#X#X#X}.}.}.#X}.G.[.Y.Y.Y.OX9XeX2 2 I (._.W.W.U.C.^.!.F 5 3 j 2 2 > 2 c K c c 0 9 7 7 7 7 9 c D 0 0 0 0 0 0 0 0 0 0 0 0 0 0 9 9 9 9 < < < < 7 7 < < < 7 7 7 7 7 , , 8 8 ",
"*X*X*X*X*X*X*X*X*X*X&X&X&X&X*X*X*X*X*X*X*X*X*X*X).).).).).).).).).).).).).).).).L.L.L.L.B.B.B.C.H.H.L.L.L.L.B.B.A.B.B.F.F.F.p.r.B.B.B.B.B.B.r.B.r.r.r.B.N.Z.B.Z.A.A.A.A.Q.Q.Q.Q.Q.Q.^.(.`.`.`.:X`.fXfXpX/.` D D D L < < L !.;XW j c E !.:X:XR F R F ~ ,XGXGXFXJX@.Q w s d i i ! ~ ~ ~ } D 0 y 8 8 u u P ! u @ SXFXCX! @.@.@.#.@.-X,X,X@.Q -XCX>X! o.@.@.+.o.o.! @.sXsX@.y | #.| . . 7 J G , 7 | H }  .` D G ` ] V.W.OXOXOXOXY.H.V.T T B.Y.OXOXY.B.x 3 g 6 2 5 > 2 6 2 2 2 3 3 3 3 3 3 3 g g h k b 1 @ . . y  . . .( ( y X 8 { { &       8 u 8 $ . @ 0 H ` ' Y I Z Z x k c 5 0 5 c c v v v v v v v Z Z Z Z A A >.0.w.r.r.w.w.0.9.U t.t.9.8.,.<.s.5.-.:.g.N K K b : 3 D.yX0X0X0X0X0X0XyXyXwXwXuXuXwX0X9XU.Y.W.U.W.C.v l U H.Y.OXOXOXOXY.Y.9X9XqXwXuXwXwX0Xe.H.H.F.G.[.OXOXOXU.U.T.T.T.T.6X6XqX7X6XH.H.F.F.H.H.F.B.C.H.U.H.C.9XwXiXuXuXuXuXuXuXqXuXyXT.[ ] ) 0 : F N.N.T Y T T e.r.s.a.i.i.a.a.a.a.a.x.x.x.z.i.x.x.x.x.p.p.w.9.U A U E W A C &.;.2.2.;.&.M m m B V &.&.&.&.&.&.*.*.*.*.*.*.*.*.*.*.*.&.=.V ,.u.:.-.6.c.].v.u.<.A C q.u.s.a.a.x.x.x.c.].{.}.P.r.U Z n n n x x x x v c D c D b g h g g ~ | { { { ! | -X<Xy.:.3.4.b. X Xm.m.m.b.l.l.l.l.l.l.l.l.l.l.m.b.l.b.b.b.k.b.n.n.c.}.oX$X$X$X$X#X$X#X}.}.}.}.{.OXOXOXOXOX9XrXfX!.I I N.U.9XrXW.I.N.I c c 3 3 3 2 > 2 c c c c 0 9 7 7 7 9 9 0 c 0 0 0 0 0 0 0 0 0 0 0 0 0 9 9 9 7 7 7 7 < 7 7 7 < < < 7 < < < < , 8 8 e ",
"%X%X*X%X*X&X*X*X&X&X&X&X&X&X*X*X*X*X*X*X*X).*X*X).).).*X*X%X_.%X*X).).~.).).).).~.R.L.L.L.L.L.L.C.H.H.H.H.L.L.A.B.B.B.F.F.F.F.p.B.B.B.B.r.r.r.r.r.r.r.r.B.B.B.Z.A.A.A.A.Q.Q.Q.Q.Q.Q.^.(.`.`.:XfXfXpXfXpX:X` D 9 D | @ @ K !.<X<X-X-X;X;XpXjX/.E c c K | FXSXAXCX,X+.u d ! i 8 ! ~ ~ ~ !.K 0 y 8 i u u u P 8 + CXJXCX| @.+.{ +.+.@.@.>X@.b @.sX>Xo.! ! ! ! ! o.o.! >XsX@.{ aX>X .@.#.;X| y , 7  .]  . .` ` ` ` ) C.W.OXOXOXOXY.N.T I I B.E.OXY.Y.B.x 3 g 6 6 4 > 2 > 2 2 2 3 3 3 3 3 3 3 g g g j b , + .   . i ..| ( H D @ @ G ( 8 $ $ 8 y G y 7 @ < 0 H Y Y I F Z x k j j c c c v v v Z Z Z I I Z Z Z Z Z A A A 9.8.w.w.w.q.w.w.t.t.t.9.8.,.<.7.7.-.<.d.x n L J @ F W.qX0X0X0X@XOXOX9X0X9X9X9XwX0XOX9XU.T.9XU.W.U.U Z B.OX9XOXOXrXtXOXY.Y.9X9XwXyXyXyX9XZ F.F.r.p.[.@X0X9X0X9XW.6X6X6X6XqXqX6XU.H.H.H.J.H.H.B.B.H.H.H.C.U.9XuXuXuXqXuXuXuXuXqXqXqXV.] ' 5 : 0 ` N._ T Y Y I U r.u.u.i.i.i.a.a.a.a.a.x.x.i.i.i.z.x.a.p.u.w.9.9.U t.t.W Z B &.;.3.2.;.&.M m m B &.&.&.&.&.*.*.*.*.*.*.*.*.*.*.*.*.*.&.*.V V &.&.-.v.|.oXc.i.<.>.C :.u.i.i.u.i.z.x.c.].].}.}.s.U x v k l x z l N I I j 5 5 c j 3 g c | @.+.+.+.{ @.| d.,.:.6.z.m.oXm.m.m.m.l.l.l.l.l.l.l.l.l.l.l.l.l.l.l.l.b.k.b.n.oXoX}.#X$X$X=X=X=X=X$X}.}.}.{.[.{.OXOXOXOXOXOX*XU z l U H.OXrXW._._ c c c 3 2 3 2 > 2 5 c c c c 7 7 7 7 9 0 0 0 0 0 0 0 0 0 0 0 0 0 0 0 9 9 9 7 7 7 7 7 7 7 < < < < < < < < < < , 8 e e ",
"%X*X*X*X&X&X*X*X&X&X&X&X&X*X*X*X*X*X*XE.E.E.*X%X%X%X).).).%X%X*X*X*X).).).).).).).).).R.L.L.L.L.L.H.H.C.B.B.K.L.B.B.B.F.F.F.F.F.p.p.p.p.p.p.p.p.r.r.r.r.r.B.B.A.A.A.A.A.Q.Q.~.Q.Q.Q.^.`.`.`.pXfXfX`.:XfX:X` 4 @ K -XL K -X,XjXHXDXDXjX:XjXjX:X} D 4 0 J FXSX>XP @.! e { { i 8 ! | ~ d.!.~ c 0 9 8 i u u P u , aXFXSX@.@.{ ! +.+.@.| | ! J @.,X>X! ! ! ! ! ! ! ! ! ,XCX#.{ aX;X>XsXaXaX| 9 , 0 ;X . . .;X;X| H H I.W.OXOXOXOXY.B.C.N.B.R.OXOXY.Y.B.v 3 6 6 6 2 > > 2 2 2 2 3 3 5 3 6 6 6 g g g 3 0 + . #     $ 7 | H H H D D Y ) ' ] ' ' /./.' ' ) _ ' S.S.N._ T x x k j c c v v Z Z Z Z U I I I Z Z Z Z Z Z A A A 9.8.w.q.u.p.s.t.t.t.e.8.,.<.u.7.:.g.d.x b ! J @ ' rXqXwX0X0XOXJ.OX9X0X0X9X0X0X9XH.9XW.W.0XW.9X9XH.H.%XrXrXOXJ.OXtX%XY.Y.OXW.9XyXyXyXOXA J.}.a.G.{.@X@X0XwX0X9XqX9X9X9XqX9XT.C.J.J.Y.Y.Y.J.F.B.B.H.C.C.T.qXuXuXuXuXuXuXuXuXuXuXqX[ ) L : : H S.Y I T E R I I 9.u.u.i.i.i.i.i.i.i.i.a.z.i.i.i.i.i.i.u.u.w.r.e.9.U t.W N B &.;.2.;.-.&.M m m B &.&.&.*.*.*.*.*.*.*.*.*.*.*.*.*.*.&.&.=.V V *.:.i.oXoXn.z.6.5.<.,.:.5.u.u.5.i.i.x.c.c.].#X#XK.U l x h l N C C 8.K.d.x g 2 j k g K | #.$.$.4X$.$.>X,X<X=.:.v.b.m.m.m.m.b.l.l.l.l.l.l.l.l.l.l.l.l.l.l.l.l.l.k.k.k.v.n.oX}.}.#X#X$X=X=X=X#X}.'.}.[.[.G.G.[.[.{.{.[.G.=.C C C 8.J.tXgXeXV.v c c 2 > 3 2 2 2 5 c c c 0 7 7 7 7 0 0 0 0 0 0 0 0 0 0 0 0 0 0 9 9 9 9 < < 7 7 9 9 9 7 < < < < < < < < < 7 7 8 8 e ",
"*X*X*X*X*X&X*X*X*X*X&X&X*X*X*X).E.E.E.E.P.E.).*X*X*X*X).*X*X%X&X).).).*X&X&X).).).).).~.L.L.L.L.L.L.H.C.B.B.A.A.B.B.B.F.F.F.F.F.p.p.p.p.p.p.p.p.p.p.p.r.r.r.r.r.r.A.A.A.Q.Q.~.Q.Q.Q.^.`.`.`.:XfXfX`.:XfXfX/.` L -XsXAXSXJXJXJXGXGXDXsX:XsXpX/.R L 0 0 7 aX>X{ $ s w w { +.u 8 ! | ~ d.-X~ v c 9 8 u u u u 0 @ @.SXSX@.#.@.@.@.@.@.| ! J ~ @.@.@.! ! e e J J ! { >XCXAX;X{ ;X;XaXaX#.;X@.P y P ;X;XpXdXsXdX` D D I.W.9XOXOXOXOXY._.E.)._.OXY.Y.Y.C.v 2 2 6 1 < > > > 2 2 2 2 3 5 3 6 6 6 6 3 g 3 0 + . . * O + @ H H _ V.C._.fXfXfXfXfXfXfXfXpX7XfXeXeXeXeXeX_._.T I v v c v Z Z A A A A U U U U Z Z Z Z Z Z Z A A A 9.0.w.u.s.s.e.e.e.e.w.w.w.<.y.<.y.Z k b ! u , ' rXyXwXwX9X[.OX0XwXwXwXwXyXtXOXC.9X9X9XyX9X0X9XY.Y.OXOXOXY.H.OXtX9XY.Y.OXW.9X0X9X9XOX=.[.}.a.'.'.{.@X0X0XwXwX0X0X0X0X9XOXY.H.J.Y.OXOXOXY.H.H.B.C.C.C.6XqXuXuXuXuXuXiXiXiXuXqX6XV.F 4 : 9 ' ^.Y H ` ` Y I v 9.w.u.i.i.i.i.i.i.i.i.i.i.i.i.i.i.i.u.u.w.w.r.e.9.9.U W Z N V -.-.;.-.V M m m V &.*.*.*.*.*.*.*.*.*.*.*.*.*.*.*.*.*.&.=.V &.5.a.oXoXoXc.z.6.i.u.u.u.i.a.i.5.5.i.x.].].].#X#XP.9.l x l m A <.u.s.f.~.Z h 3 j k j J aXZXZXZXZXZXZXFX,X<X=.-.j.b.m.m.m.m.l.l.l.l.l.l.l.l.l.l.l.l.l.l.l.k.k.k.k.k.k.j.v.oX$X}.}.#X#X}.#XoX}.'.'.'.'.'.[.G.a.a.'.'.x.x.M.#Xv.u.,.0.J.rXeXQ.Y c 5 2 2 6 2 2 3 c v K J 0 7 7 8 8 0 y c 0 0 0 0 0 0 0 0 0 0 0 9 9 9 9 9 7 9 9 9 9 9 7 7 < 7 7 7 < < < < 7 , 8 8 8 ",
"&X*X*X&X&X&X&X*X*X*X*X*X*X*X).E.E.E.E.L.P.E.).*X*X%X*X).).).).).).).).*X*X*X).).).).).(.L.L.L.L.L.K.L.K.A.A.A.A.A.B.F.F.F.F.F.F.p.p.p.p.p.p.p.p.p.p.p.p.p.p.r.r.r.A.A.A.Q.Q.Q.~.Q.^.^.`.`.`.`.:XfX:X:XfXlXlXSXSXJXJXJXJXJXJXDXjXjXjX:X:XsX:X| L J 0 e + s u d u u u u { +.u 8 ! | ~ d.-Xd.v j 5 7 8 u ! ! { ! >XFXFX>X>X@.@.@.@.@.>X;X@.;X@.@.@.~ ! ! ! { @.>XCXSXFXAX>X{ #.>XsXaX#.| #.| P L { ` /.dXdXdX;X' ] I.W.9XOXOXOXOXOX_._.).L.H.Y.Y.Y.C.F 2 > r 1 > > > > > 2 2 2 3 3 3 6 6 6 6 3 3 3 0 , + . % + : > S.R.W.OX%X&X1X&X)._.R.R.R.C.R.C.U.R.R.R.R.E.E._.`.^.Z.I I Z Z A A >.>.>.9.9.U U U A Z Z I I I I Z U 9.8.q.u.s.s.r.e.r.r.w.w.w.,.,.>.1.x c D P y , ) I.rXyXyX9XY.OXwXwXwXwXwX0XOXOXU.qXwXwXyX0XyX9XY.H.H.Y.OXOXY.wXyXyX9X9X6XW.9X9X9XOXOX0.@X}.'.'.'.[.@X0X0X0X0X0X0X0X0XOXJ.F.F.J.J.Y.OXOXOXY.H.C.C.B.C.9XwXuXuXuXuXuXuXiXiXqXqXV.) 4 : : K S.] ` K ` R F v h U 0.q.u.i.i.i.i.i.6.i.i.i.i.i.i.i.i.u.u.q.w.w.e.9.y.y.W Z N S &.&.*.=.V M m M V &.*.*.*.*.*.*.*.*.*.*.*.*.*.*.*.*.*.*.*.V -.a.v.oXc.c.c.c.z.z.i.i.x.c.c.x.z.x.c.].].].].}.#XP.9.z l N A <.5.6.6.5.f.,.z g k k 3 4 .             + c S =.3.z.m. X Xm.m.m.l.l.l.l.l.l.l.l.l.l.l.l.l.k.l.k.k.h.k.k.j.v.}.$X#X}.#X}.G.'.'.'.G.G.G.G.G.G.a.i.a.x.z.z.j.2.j.v.c.x.a.J.%X%X(.' F 5 2 6 6 > 2 5 k K K J 0 < , , 8 0 y D c 0 0 0 0 0 0 0 0 0 0 9 9 9 9 9 9 9 9 9 9 9 7 7 < 7 7 7 7 < < < 7 , , , , ",
"*X%X*X&X&X&X&X*X%X%X*X*X%X*XE.P.E.).E.L.P.R.).%X&X*X).).).).).).(.~.~.).).*X*X).).).).).(.L.L.L.L.K.K.L.L.A.A.A.A.K.F.F.F.p.F.p.a.a.a.a.a.a.a.a.a.a.a.p.p.p.p.p.r.r.A.A.A.Q.Q.Q.^.^.(.`.`.`.`.:XfX1X:XfXjXDXJXJXJXJXFXAXAXjXjX,XsXjX:XpXsXpX;X` J u s w w i { +.u s u d { d e K ~ ~ d.-Xd.Z g 3 , 8 $ 8 , 7 , ! CXSX#.@.@.@.@.@.@.>X>X@.@.~ ! ! | @.>XCXCXSXFXFXFXJXSX>XL #.aXaX;X| y ( ( P { G | /.;X;XdX;X` ) I.W.W.OXOXOXOXW.U.U.B.e.r.Y.OXW.D.I > : 1 : : < > > > 2 2 2 3 3 3 6 6 6 3 3 3 2 6 : @ @ @ e R _ R.W.9X9X%X*X*X*XL.E.H.Y.Y.H.E.U.U.R.E.E._._.%X%XfX:X(.Q.Z.e.U A >.<.<.0.8.9.9.U U U A U U U I I I U 9.8.q.u.s.s.p.r.r.w.8.w.0.C C 9.W g K J u $ 8 y ) V.R._.rX9X9XwXwXwX0X0X9XOXOXY.9XwXwXwX0XyX9XW.U.U.Y.9X9XW.wXuXwXqX9X9X6XW.wXwX0X0XG.@X'.'.'.'.'.OX@XOXOXOX9X0X0X0XOXJ.G.}.J.J.J.Y.Y.Y.Y.Y.H.C.C.U.qXwXuXuXuXuXuXuXuXqX6XT.) D : : 0 | /.) L 0 ~ L F c 3 A 9.0.u.u.i.i.i.i.6.6.5.5.5.6.5.i.u.u.q.q.w.w.r.e.y.t.W v n S S 1.=.=.N m z m V *.&.*.*.*.*.*.*.*.&.&.&.&.&.&.&.*.*.*.*.&.5.}.oXc.z.z.c.n.n.c.c.x.c.].].].].oXoXoX].].].}.}.K.9.N A 9.s.5.3.4.j.6.f.1.m h h j c 4 , + . . . . + @ 2 Z <.6.b.m.m.m.m.m.m.b.l.l.l.k.k.k.k.k.k.l.k.k.k.l.l.k.h.k.k.h.j.v.}.}.'.[.P.G.a.a.G.G.G.G.G.G.p.a.x.c.z.j.4.h.l.b.b.c.c.a.G.*X&X`.!.R b 5 6 6 > 2 3 j k K J 0 , @ @ $ 7 y y 0 0 0 0 0 0 0 0 9 0 0 9 9 9 9 0 0 0 0 9 9 7 7 7 7 7 7 < < < < < 7 , , , , ",
"*X*X%X*X&X&X*X%X).%X%X%X%XE.P.L.).).).R.L.).).&X&X*X).).).~.).).).~.~.~.).*X&X&X).).).).(.L.L.L.B.A.K.L.L.L.D.A.K.K.F.F.F.p.p.a.a.a.a.a.a.a.a.a.a.a.a.a.a.a.p.p.r.r.A.A.A.K.Q.Q.~.(.(.`.`.`.`.`.`.:X:X:XpXjXAXSXjXAXsX,XsXsX,XjXjXlXpX:XpXpX;X| u e u ! d { +.{ i u i d +.! e J ~ ~ d.-Xd.N g 3 + + + 8 u ! { >XSXFX;X-X-X@.@.;X@.@.@.@.! @.>X;X>XCXSXFXFXFXFXFXSXJXSX>XJ | aX;X .| 9 P L P | 0 /. .| ;XsX .G F I.W.W.OXOXOXY.H.C.B.U x U Y.OXW.D.I > : 1 : : 4 > 2 2 2 2 3 3 3 3 6 6 6 3 3 3 3 6 : @ 2 J } ^._._.OXOXOX*X*X~.~.F.J.F.Y.E.Y.%XE.E.%X%X_.E.E.R.R.(.`.`.`.`.Q.e.>.<.<.<.q.0.8.9.9.9.U A U U U I I I U 9.8.q.u.s.s.s.r.r.w.8.0.9.m m W W 3 ~ J 8 + y 7 9 D I V.eXyXqXqXqX9X9XOXOX9XY.Y.9X9XqX9X9XyX9X9X9X9X9X9X9XT.6X6XqXqXqXqX9X9XwXwX0X0X[.@X[.{.'.}.}.OX@X@X0X0X0X0X0X0XOXJ.G.}.[.[.[.Y.Y.J.H.H.U.H.C.W.qXuXuXuXuXuXuXuXuXqX6X] F 4 : 5 K } /.H 9 : L R H v 3 Z A ,.0.u.u.u.5.5.i.5.5.5.5.5.5.5.5.<.<.0.w.w.r.r.y.t.W c c K ~ d.S S N z l z B =.&.&.&.&.&.&.&.&.&.&.&.&.&.&.&.&.&.*.*.&.6.$X$Xc.j.z.c.n.n.n.n.n.c.|.oXoXoXoXoX].|.].x.'.G.p.9.N r.P.}.6.2.4.v.M.s.g.m h h k K b 4 > : : : : > 2 h 1.<.5.b.m. Xm.m.m.m.l.l.l.l.l.k.k.k.k.k.k.h.h.k.l.k.k.k.k.k.h.4.z.v.a.a.a.G.p.p.a.G.G.G.G.G.G.G.'.}.c.j.4.h.l.m.l.l.k.z.a.G.=XfX1X^.!.K 5 > > 2 3 3 3 j v J 0 , @ + + 7 0 y 0 0 0 0 0 0 0 9 9 0 0 9 9 0 0 0 0 0 0 9 7 7 7 7 7 7 < < < < < < 7 8 8 8 , ",
"%X%X&X*X%X%X).).E.E.E.P.P.E.E.E.&X*X).L.L.).&X&X1X&X*X).).~.).).~.~.~.~.K.~.*X1X&X_.~.L.(.).).(.L.L.L.L.L.L.L.L.L.K.F.F.F.G.G.G.a.x.x.x.x.z.a.a.a.a.a.a.G.G.G.G.p.r.r.r.y.A.Q.Q.Q.Q.^.(.`.`.`.`.:X:X:X:X:X:XpXsX,X,X,XsXjXjXAXDXHXDXlXpX:XpX;X#.J ! s d ! d d { i d i d @.! 7 J | !.!.d.~ S l g @ + 7 P @.sXFXJXJXSX-X@.@.@.@.@.@.@.@.@.#.aXSXFXJXJXJXJXFXFXFXFXFXFXJXaXP { ;X#.#.| ( P P { { y  ./.| ;XsX;Xy H I.U.W.OXOXOXC.U I T e.e.B.Y.OXW.C.Y > : 1 : > > > 2 2 2 2 3 3 2 3 6 6 3 3 3 g g g g v } /.`._._.E.OXOXJ.F.r.e.9.F.H.OXOX%X%X%X%X%XE.E.E.R.R.(.).(.`.`.`.`.`.K.8.=.,.<.s.s.0.9.y.9.A 9.9.U I I T U U 9.0.q.u.s.s.a.a.p.q.q.w.w.9.A W W k b ! u . y 9 , 9 K v I W.9XqXqX9X9X9XOXOXU.C.T.9X6XW.9X9XT.U.U.9XyX9XT.V.6X6X6XqXqXqX9X9X0X0X9XOXOX{.{.@X[.OXOXOX0XyXwX0X0XwXwX0XOX[.J.J.J.[.OX[.Y.H.H.H.H.B.U.9XqXuXiXuXuXqXuXuXqX6XI.) : : : c } /.S.F , @ 0 F I I j x N A 8.<.<.5.5.5.5.5.5.5.5.<.:.:.:.:.<.q.w.w.0.8.y.Z.K , @ e ~ -Xd.d.W v g h M =.V V &.&.&.&.&.&.*.&.&.&.*.*.&.&.*.&.&.-.$X$X].c.z.6.j.c.oX|.|. X|..XoXoXoXoX}.}.].].'.'.a.w.8.8.K.}.}.i.3.4.j.v.M.=.m z x v K b n n n x k k h l Z >.<.5.z.m.m.m.m.m.l.l.l.l.l.l.l.k.k.k.k.k.h.h.k.k.k.k.h.h.k.k.j.6.6.i.u.p.p.p.p.p.G.G.J.J.G.G.}.}.}.z.6.4.h.k.m.l.l.k.6.i.}.&XgXfXfX^.~ K 0 4 3 g k k v v c 4 @ + . . $ 8 0 0 y 0 0 0 0 0 0 0 0 9 9 0 0 D J J 0 9 9 9 9 9 9 7 7 7 7 7 < < < , 8 8 8 , ",
").).).).).).).E.E.P.L.L.E.L.E.E.%X).R.L.L.).&X&X&X&X).~.).~.~.~.~.~.~.~.~.~.).&X&X*X).).(.).(.).L.L.K.L.L.D.D.L.K.K.K.F.G.G.G.a.x.x.x.x.x.x.z.z.a.a.x.x.x.x.a.a.s.r.r.r.y.A.Q.Q.Q.Q.~.(.`.`.`.`.`.`.`.:X:X:XsXsXAXSXGXJXJXGXDXHXSXDXlXpX:XpX:X@.J ! s s d d d { i u i d @.{ 7 0 c c v l h l W ~ >XsXFXJXJXFXFXFXJXSX-X| | ! ! ! | >XCXFXJXPXJXJXSXSXSXFXFXFXFXSXFXFXFXsX{ | ;X#.{ { { { { | { J ` ;X;XaXAXdXH H ^.W.W.OXOXY.B.U T B.H.Y.OXOXY.U.I._ 2 : r 1 > > 2 2 5 3 2 3 k 3 g 3 3 g g 3 3 g x E `.:X`.).U.H.J.B.9.N m U B.E.%X*X*X%XOXE.E.E.H.C.C.C.C.D.D.D.(.`.`.`.:X1X).K.w.<.,.<.w.0.w.y.9.9.9.9.U U U T 9.9.8.0.q.u.s.v.i.i.u.u.q.w.8.A Z S v k b ! u + y y 9 D R F 5 F 6XyXuXuXyXyXyXhXyXeX6X6X6X6X6XT.V._ _ C.T.W.6X6XwXqXqXqX9X6X6X9X9XOXOXOXJ.G.G.G.F.G.J.OX9X0XwXwX9X9XOXOXY.J.J.J.J.J.Y.Y.Y.Y.Y.Y.Y.H.W.qXqXqXuXuXuXqXuXuXuX8X) < > > c Y S.I.) c < @ : > c T F x x Z >.>.<.u.u.5.5.5.<.:.:.:.:.=.=.<.w.u.q.,.,.>.y.Z.H $   # e ! ~ ~ ~ R v v m M =.=.V V V V =.1.&.&.V &.&.&.&.&.&.&.&.:.$XoXc.x.v.v.v.v.c.n. X X XXXoXoXoX}.}.}.x.x.x.'.a.q.0.w.#X$X$Xz.4.j.v.M.f.=.m x x v v k N m z z z z z z C >.q.i.c. X Xm.l.l.l.l.l.l.l.l.l.l.l.l.l.l.k.k.k.k.k.k.h.h.k.k.h.4.6.6.i.u.u.u.a.p.F.G.J.OXOX*X}.}.x.6.4.4.h.k.l.l.l.k.z.i.P.E.fXfXfX:X!.R c 5 3 k x x v v c 0 @ + . . # $ 8 7 < < 9 9 9 9 9 9 9 9 9 0 0 0 0 D 9 9 9 9 9 9 0 0 7 7 7 7 < < < , 8 8 8 , ",
").E.E.L.L.L.L.L.L.L.L.L.L.L.L.L.).~.L.L.~.).&X&X_.).).).).~.~.~.).).~.~.~.~.~.~.~.).).).~.(.~.).~.L.K.K.A.A.A.A.A.K.F.F.G.G.a.x.x.x.x.x.x.x.x.x.z.z.x.x.x.x.a.a.K.K.s.s.s.s.K.A.~.~.~.~.(.`.`.`.`.:X:XpXpXjXAXSXGXGXGXJXJXGXDXDXDXDXDXpX;XpXdX .u ! s d ! d d d 8 u 8 8 ! u @ @ > 2 K -XjXHXHXAXAXSXFXFXSXAXSXFXGXCX| L | ;XCXSXFXJXJXJXJXJXJXFXsXaXsXAXSXSXSXSXFXFXFXCX| | @.( 8 y { { { @.J u (  .#.>XCX>XG < I.W.W.OXOXY.H.B.U.Y.W.OXOXOXOXU.R.N.3 : 6 > 2 > 2 3 j j 3 j n k g 3 g n h 3 g Z A.).&X).C.B.B.e.U 9.r.K.L.E.%XrXgX&X%XE.%XE.H.e.e.e.e.N.N.N.N.Z.Z.S.S.Q.^.`.`.).~.s.,.=.,.,.8.9.y.y.9.9.9.t.t.e.w.9.0.0.q.u.i.v.i.i.i.u.w.w.A N Z x x n K J e e u w 7 0 G L 0 : H T.qXqXqXU.e.N.V.V.I.C.V.N.N._ C.C.U.U.T.6XqXyXqXqXqXqX9XqXqXqXwXwXwX0X0XOXOXOX0X0X0X0X0X0X0X0X0X0X9X9XOXY.H.B.J.J.Y.Y.Y.Y.J.Y.B.C.OXyXiXqXqXuXuXqXuXuXqX[ 0 @ : 0 H ] I.V.F c < , < : v D.D.T x Z Z A >.0.<.<.<.:.=.&.=.=.=.=.<.q.s.w.,.=.,.8.w.t.H #     . 8 ! L R } S.Z.U C B B V C C C V V V =.&.&.V &.&.&.V V &.:.#Xx.5.;.5.i.i.3.3.c. X XXXXXoX|.].}.'.x.x.x.x.a.u.q.w.p.'.'.x.6.4.j.v.i.5.B z x x x k l m M M M M M m m N A ,.u.x.n.n.b.l.l.l.l.l.l.l.l.l.l.l.l.l.l.l.l.k.k.k.k.k.k.k.k.4.4.4.4.5.5.5.u.a.a.F.G.G.G.}.#X}.x.i.3.3.4.h.k.l.l.l.k.v.s.s.B.).eXfXfX:X!.R v g x I Z x k j 0 , + .   . X # $ @ : < < 9 9 9 9 7 9 9 0 0 0 0 0 7 7 7 9 9 0 0 0 7 7 7 7 < < < < 8 8 8 $ ",
"E.E.L.H.H.H.L.L.L.L.L.H.H.P.L.L.~.L.L.L.~.).)._.).).~.).).).~.~.).~.~.).).~.~.~.~.~.~.~.~.~.~.~.~.~.~.L.A.A.A.A.A.K.F.F.F.a.a.x.x.x.x.x.x.x.x.x.x.x.x.x.x.x.a.a.P.K.K.s.s.s.s.A.~.~.~.~.~.`.`.:X:X:XfXjXjXjXAXSXSXSXDXGXGXDXSXHXHXDXDXjX/.pXsX .{ ! ! s s s d ! $ 8 @ + 7 J J ~ ;X,XAXGXGXGXGXDXSXSXAXAXAXAXSXSXJXSXsXsXCXSXFXJXJXJXJXFXCXCXCXCXaX>X>XCXSXSXSXFXSXFXFXCX| P u $ . . y u { +.e 8 { L { #.sX#.D : S.U.W.W.OXOXW.Y.%X%XOXY.Y.OXOXY.R.Z.3 > 6 6 2 2 3 3 k k 3 j n k 3 h n x h h I A.).E.B.e.U e.e.r.r.K.~.&X&XrX%XW._.%X%XE.B.e.e.B.B.B.B.Z.Z.Z.S.S.E ' ' ' S.Q.(.`.1X~.0.=.C C C A A 9.9.y.y.y.y.w.w.w.0.q.u.u.i.a.i.i.i.u.w.y.A N W x k K K 0 7 u p w , , 9 L L @ + ) 8XqXqXC.x x v F I Y _ U.9X9XW.rXrXrXrX9X9XqXqXqXqXwXwXwXwXwXwXwXwXwXwXwXwXwXwXwXwX0X0X0X0X0X0X0XwX0X9XW.C.e.H.H.Y.Y.H.H.H.H.H.B.Y.yXiXwXqXuXuXqXqXqX6XH : @ r ! ] [ I.) c F H ] I.I.I._.(.N.I Z Z Z A >.,.=.=.=.=.=.=.,.,.,.y.y.<.=.B B =.0.8.E G &       . e y L !./.(.D.A.r.8.C M m M C C V =.=.=.&.V &.&.V V &.:.}.i.:.*.*.:.:.-.3.z.|.|. X|.|.].'.x.x.x.x.x.x.a.u.<.w.G.}.z.6.6.z.v.v.u.C z h x x x x N B B B B V B M z m m C q.a.v.z.k.l.l.l.l.l.l.l.l.l.l.l.l.l.l.l.l.h.k.k.k.k.k.k.h.h.h.4.4.4.6.5.5.u.p.s.G.G.G.a.a.'.i.5.2.3.4.4.h.l.l.k.j.i.s.r.B.B._.fXfXfX`.Q.' I t.t.E v k j 0 , #           . , < 9 0 0 9 9 9 9 9 0 D D 0 9 9 9 7 9 9 9 9 9 9 7 7 7 7 < < < 7 8 8 8 $ ",
"E.L.H.H.H.H.L.L.L.L.L.L.L.L.L.~.L.R.R.L.(.(.~.~.~.~.~.).*X*X).~.~.~.~.).*X*X~.~.~.K.K.~.~.).~.~.~.~.~.L.A.A.A.A.A.B.F.F.p.a.a.x.x.x.x.c.c.c.x.x.x.x.x.x.x.x.x.a.P.K.s.s.s.s.s.s.K.~.Q.Q.~.`.`.:X`.:XpXjXSXDXDXDXGXGXGXGXGXGXDXDXlXkXDXjX;XpXsX@.{ ! ! s e q 8 8 . 0 P L @.>XsXsXGXJXJXJXGXDXHXHXSXSXAXSXSXSXAXAXAXSXSXJXJXJXJXFXCXCXSXCXaXaXsXCXCXaX>XCXSXSXFXFXFXFXJXsX! , $ . $ . $ u { @.J 8 P P { @.CX>X| D ^.U.W.W.OXY.Y.Y.Y.W.OXOXOXOXY.U.U.Z.k 2 6 3 3 2 3 2 k n 3 g n h 3 k h g h I Q.(.B.e.T e.B.B.D.L.).).).*XE.E.W.E.R.L.L.N.T e.B.L.L.L.L.Q.Q.Q.Q.Q.!.Z.' ' ' !.^.`.1X~.s.8.A B M B N A y.y.y.y.y.w.w.q.q.u.u.u.i.i.i.6.5.<.y.y.W v ~ n n ~ ! 9 , e w w y 9 9 L ! + . 8 G ] T._ v g g 3 3 v V.eXrXrXrXrXtXrXrXrXtXyXqXwXwXwXuXuXyXwXwXwXwXwXwXwXwXwXwXwXwXwX0X0X0X0XwXwXyXyXrX_.C.T B.C.H.Y.Y.J.Y.Y.OXU.U.9XqXqXqXuXqXqXqX6X] 0 @ 1 !  .S.V.V._ I _ I.8XrXrX6XeX_.Q.E W K S Z A A C A =.>.,.,.,.1.,.A C M m M B =.<.8.e.H 8 ;       + 7 G } /.(.E.%X%XE.F.9.A C B B B C V &.&.V V V V B &.<.$Xx.u.5.:.=.:.<.i.c.n.n.|.|.].].x.x.x.x.x.x.x.i.q.<.w.G.}.x.z.c.oX}.a.s.l g g x v x z N M M M B B M m z l l N 8.s.v.v.v.k.k.k.k.k.k.k.k.k.k.l.l.l.l.l.l.k.k.k.k.k.h.h.h.h.h.h.4.4.4.4.3.<.u.s.a.}.'.x.x.z.6.3.3.3.4.4.4.l.l.h.6.s.s.t.T N.R.rXgXfXfX`.`.Q.~.~.A.I v j 0 @ .             7 0 0 0 0 9 7 7 0 0 D D D 0 9 9 9 9 9 7 7 7 7 7 7 7 7 7 < < < 7 8 8 8 $ ",
"L.H.H.H.H.H.L.L.L.L.L.L.K.L.L.L.L.L.R.R.L.L.~.~.(.(.~.).*X*X*X).~.~.~.~.*X*X).~.~.K.A.K.~.~.~.~.~.~.~.~.~.Q.A.A.A.B.F.p.p.a.a.x.x.x.c.c.c.c.c.c.c.x.x.x.x.x.x.x.P.P.s.s.f.s.K.K.K.~.~.~.~.`.:X:X:X:XfXjXDXDXGXDXAXSXSXSXDXGXGXDXlXkXDXjX:X:XsX-X| ! s w + + . + , { aXSXJXJXJXPXJXJXJXJXGXGXSXAXAXAXAXsXsXsXAXSXSXFXSXGXGXFXFXCX;X>X>X>X>X>XCXCXFXSXCXSXFXFXFXFXFXFXFXaXJ . # 8 8 # $ s ! { ! 8 0 | ;X| aX>X| D ^.U.W.OXOXY.Y.Y.Y.Y.Y.OXOXOXY.U.C.A.v 3 g 3 j 3 3 3 n n g k n h g h 3 g Z Q.~.D.e.T e.D.D.A.D.(.P.#X*X*XrX&X).R.B.e.U e.L.).).(.).).~.Q.Q.Q.Q.Q.Q.!.} ' ' ' !.^.`.~.~.s.8.A C A m N A y.y.w.0.w.q.q.u.u.u.u.u.i.i.6.5.<.8.y.W v ~ b b ! ! 9 $ 8 % q y y 9 P P $ . . & G ] ' R K v v v U (.&X_.E.E.%XOXOXOXOXOXOX9X9X0X0X0X0XwXwXwXwXwXwXwXwXwXwXwXwXwXyXyXyXyXyXyXyXrXrX_.D.N.I N.C.U.Y.Y.Y.Y.Y.Y.U.U.9XwXwXqXqXqXuXuX6XH : @ 1 ! | V.V.I.U.T.7XrX9X9XqX9XrXfX`.E R K K W U U A 8.8.y.y.9.>.A A B B B V =.,.<.<.w.y.L i ; ;       + y ) S.I.U._.E.E.%X%XE.H.r.9.C B B B V V V V V B &.<.#Xx.i.u.,.V &.u.M.v.c.n.|.].c.x.x.x.x.'.x.x.a.i.q.<.u.G.x.x.c.].x.u.0.w.h g j v S z z M z z z m m m z l h h Z t.y.5.5.6.4.4.4.4.4.4.4.4.4.4.h.h.h.h.h.4.h.h.h.h.h.h.h.h.k.k.h.h.h.4.4.4.5.<.5.u.i.i.i.6.j.6.4.4.4.4.4.4.k.l.h.6.y.t.T Y N.R.rXrXrXrXeX&X&X&X).e.Z k j 4 @ .             0 0 D 0 0 9 9 9 D D D D 0 0 9 9 0 9 9 7 7 7 < , < < < 7 < 7 7 7 8 8 8 $ ",
"H.H.H.H.H.H.L.L.L.L.L.F.K.K.L.~.L.L.L.R.L.(.(.(.~.~.~.~.).*X*X).).~.~.~.).*X*X*X).~.K.K.K.~.~.~.~.~.).~.(.~.D.D.B.B.F.p.p.a.a.x.x.c.c.c.c.c.c.c.c.c.c.x.x.x.x.x.a.P.P.s.P.K.K.K.~.K.~.~.~.`.:X1XfXpX:XpXjXsX,X;X;XsXSXJXJXGXSXlXlXkXlXjXpX:X:X;XJ < 1 e s @.aXAXFXJXJXJXJXJXGXJXJXJXFXCX,X,XsXAXSXFXDXSXSXAXAXAXAXSXSXFXFXFXFXCX@.;X>XsXCXSXSXSXJXFXFXFXFXFXFXFXFXFXJXsX! + + 8 $ $ w { ! e ! , P #.#.u ;X@.L < I.I.U.W.OXOXOXOXW.W.Y.Y.Y.Y.Y.U.C.D.W k k 3 g g g 3 K W h x S h h h h Z t.~.Q.e.T N.Z.Z.Z.Z.D.L.%XOXOXOXOXL.A.e.Z T A.(.`._._.&XL.L.D.A.A.A.Q.!.!.Z.R R ` ` } Q.^.~.~.~.K.w.8.8.A z m 9.y.w.<.q.<.<.5.u.u.u.u.u.6.5.<.,.9.W v 5 5 2 4 J J y , $ + $ 7 7 7 y u i & & 8 9 0 c j > g k h x I e.B.E.J.OXOXOXOXOXOX[.[.OXOX[.J.[.[.[.OX[.OXOX9X0X0X0XwX0X0XtX0XOXY.J.B.B.B.N.T I v v e.B.U.Y.Y.H.J.Y.H.Y.T.9XyXuXqXqXqXqXqX7X< @ @ @ b ` ] V.T.9XyXyXyXqXqXyX0X9X_.T c c j K K I U 9.9.9.8.9.A N N M ,.1.1.1.<.:.<.<.u.y.L i t ;   O . + 7 H ] C.C.H.Y.W.W.W.OX%X*X*Xr.8.C B V V V V C B V :.}.a.5.q.,.V C y.s.x.c.c.c.].c.'.'.'.a.x.x.a.i.u.u.q.p.G.z.c.].x.a.p.r.U 2 3 j v W z z N Z x z z z l h g g g Z d.y.=.*.;.;.;.-.*.*.*.*.*.*.-.:.:.;.;.;.2.3.4.4.4.4.h.h.h.k.k.k.h.h.h.h.4.5.:.;.:.3.6.4.4.j.j.4.4.4.4.4.h.k.l.h.;.C Z I F N.U.%XrXrXrXrXeX&X*XL.9.Z x j > @ .   o o o     7 0 D D 0 0 0 y J D 0 0 9 9 9 9 9 7 7 7 < < < , < < < 7 < 7 7 8 8 8 & $ ",
"H.H.H.H.H.H.L.L.E.L.L.F.B.K.L.L.L.L.L.L.L.(.).).~.~.~.~.~.).).).).).~.~.~.).*X*X*X).~.K.A.K.~.~.~.~.).).).~.L.L.B.B.B.p.p.p.a.a.x.c.c.c.c.c.c.c.c.c.x.x.x.x.x.x.a.G.P.P.P.P.K.K.~.~.~.~.~.:X1X1XfX:X:X:XsXsXsX,XsXAXGXGXFXDXDXDXlXHXlXjXpX:X;X;X@.@.>XCXCXSXFXJXJXJXJXJXJXGXSXSXAXsX>X>XsXAXAXAXAXAXjXjXAXAXjXsXAXAXAXSXSXSXFXCXCXCXCXCXFXJXJXFXFXFXFXFXFXFXFXSXSXFXJXCX{ $ . . + 8 ! $.! + ! , @.| ! $ #.| D : ^.I.U.W.OXOXY.Y.OXY.Y.Y.Y.Y.H.C.C.R.E v k 3 g g g g W ~ k x W h h x Z d.~.Q.Z.T T Z.Z.Z.Z.Q.(.L.E.Y.J.H.F.r.9.U N.B.R.).`.).(.L.D.A.B.N.Z.A.Q.Q.!.E R R ` ' !./.`.`.`.~.~.A.y.y.t.z l A y.y.,.<.:.<.5.u.i.u.u.u.5.5.<.,.t.W c : @ @ : 0 u u 8 $ + @ $ 7 9 y 8 8 # X - 8 @ 4 K j g g 3 h x l h N N Z Z Z Z U 9.9.r.p.F.F.K.P.}.[.[.J.J.J.[.J.G.F.F.J.[.[.H.e.U U T T E R F j > : F T C.H.Y.J.Y.Y.OX9XOXW.9XwXqXuXuXqXqX^.@ @ : : 0 H ] I.6XyXhXrX6XT.C.V._ T T 2 @ @ : 0 F F I U Z C Z N z z z m y.f.f.<.&.V V =.8.E K i t ; ; ; X . , H I.I.C.C.U.U.Y.W.OXOXOXOX*XF.8.C V V &.V V M V <.#Xa.u.u.s.y.1.y.u.u.i.x.].].'.'.'.G.P.s.a.a.u.u.u.u.p.'.i.x.i.5.i.G.r.Z 2 3 j K W N m S E W W n n x g g 2 g W !.f.<.;.6.7.5.:.-.&.V V V V &.=.1.<.<.<.5.-.;.2.3.4.4.h.k.k.k.k.k.h.h.h.4.3.;.;.2.6.j.j.h.k.k.h.4.4.4.h.h.k.k.3.V l k F F Y C.W.OXOXrXrXgXgX&XL.e.Z v c 0 @ .     o o o   7 0 D D y D J P J J 0 9 < < 9 9 7 7 7 7 , , , < < < < 7 7 7 7 7 8 8 , $ ",
"B.H.H.H.B.B.H.L.L.L.L.H.B.B.B.B.K.A.A.L.~.~.~.~.~.~.~.~.~.~.~.).~.).).).~.L.~.).&X).~.K.K.K.K.L.~.~.~.~.~.(.L.L.A.B.F.p.p.p.p.a.x.c.c.c.c.c.c.c.c.x.x.x.x.x.'.}.'.x.x.v.}.#X~.~.f.~.~.~.~.~.~.1X:X,XpXsXjXAXAXAXSXSXGXJXJXDXSXAXjXjXfXpX:X/.:XsXsXCXSXJXJXJXJXJXJXJXGXFXSXCXsXsXsXsXsXCXSXSXSXAXsXsXsXsXAXAXAXjXjXAXAXAXAXSXFXGXFXFXFXJXJXJXFXFXFXFXSXSXSXSXSXSXCXFXFXSX@.+ . $ u P u ! u + @ u @.| + + { @.L 0 /.S.C.W.9XOXOXOXH.Y.Y.Y.U.H.C.C.B.C.N.v k K n g 3 g ~ W k x Z x x x t.~.Q.T T T N.N.N.D.L.(.(.L.R.H.B.N.e.T T N.L.E.%X%XE.L.C.A.N.N.N.A.A.Q.A.Z.t.E Z.Z.Q.^././.:X:X<X:X`.~.!.t.U U l l t.d.1.,.<.<.5.5.5.u.u.5.6.5.:.1.W K 0 + + . . @ 1 8 0 1 @ + $ 8 y y 8 & & X - w @ < F R W Z x l z l h g g 3 3 2 3 3 g h x N A A 9.9.9.0.0.0.0.0.0.,.=.C A 8.K.A.U x g k k j 5 > @ + . . 7 c e.H.J.[.OX0X0X0X0XOXOXqXwXqXqXqX7X( @ @ D G ` ) ] [ 8X7XD.V.] H D 0 0 + + $ . + . + 9 K F v N z l h g g l M f.s.7.:.&.B M N v L { ! i ;   ; & # + ) I.T.T.U.U.Y.Y.Y.Y.U.Y.Y.OXY.J.F.w.u.<.V M m B q.#XG.u.u.<.<.<.<.<.:.<.a.'.'.'.'.a.p.p.p.w.q.q.q.0.<.p.}.5.i.i.5.i.}.p.N 2 g k n n x z S ~ ~ ~ n n l h g x g C #X#X3.3.v.M.v.4.3.;.-.&.V B B =.1.1.1.1.,.=.&.*.-.3.4.h.k.k.k.k.k.k.k.h.h.4.3.4.j.v.v.j.k.k.h.4.h.b.b.b.b.z.5.,.N g > 0 F _ C.Y.Y.%XtXhXtXhXtXH.T T I c 0 8         o o   0 y D D D y y e 0 9 8 < 1 : , @ @ $ $ $ , , , , $ , , 8 7 7 7 8 8 8 8 , ",
"H.H.H.H.H.C.H.L.L.L.L.L.F.F.B.B.B.A.A.K.L.~.~.~.~.~.~.~.~.~.~.~.~.).).~.L.L.~.).*X).~.L.K.K.L.K.~.~.~.~.(.~.L.K.A.B.F.F.F.F.F.p.x.c.c.c.c.c.c.c.x.x.x.x.x.x.'.'.'.x.x.v.M.#X#X~.f.~.~.~.~.~.~.1XjXjXAXSXDXGXJXGXFXFXSXSXSXSXSXSXsXjXjXjXfX`.:XjXAXAXSXFXJXGXGXJXJXJXJXSXsX>X>X,XCXSXGXJXGXFXSXAXsXsX,X,XsXjXjXjXjXAXAXAXAXSXFXJXJXGXGXGXJXFXFXFXSXCXCXsXsXCXAXSXSXSXSXCX#.8 + 8 { ! 8 8 @ + + e ! u + 8 { { | ` S.D.R.%XOXY.H.Y.Y.Y.Y.U.H.C.C.C.U.D.N.v v K K k 2 g ~ ~ x h x h l Z A.Q.Z.T T T e.e.B.A.L.L.L.D.B.N.e.N.N.N.D.R.%X%XE.H.C.B.B.A.D.A.A.A.A.A.Z.e.U T A.^.`.:X<X`.!.!.!.Q.^.^.Q.Z.E E Z l W d.f.1.<.5.5.5.5.5.5.5.5.3.:.>.W K < . . # $ + + 1 8 + % % % 8 8 8 8 & & X & w , : D R E W U A A A N m z l h g g h h l l l l l z z m m m M M B B B B M ,.>.9.W Z g 3 3 3 2 > @ + .     . : I J.OX0X0XwX0X0X0X0XOX0XqXqXqXqX8Xy @ 7 ) ] [ S.S.) H H 4 4 9 G H G y +       . . + 7 0 J R N z l h h g l M <.7.6.5.:.B m h 9 u ! ! d -   X # # + ] ^.7XW.T.OXOXY.W.W.W.Y.U.W.Y.OXOX#X#X~.,.M C ,.q.p.q.*.*.:.<.:.*.&.&.<.a.'.'.'.[.G.p.r.w.w.w.y.0.0.<.u.a.a.x.x.i.x.}.u.M g g k n n l l z v n n k k k x h l l 0.#X}.4.4.b.b.k.k.4.4.3.;.-.V V B B M M B =.=.=.-.;.4.h.k.k.k.k.k.k.k.k.h.h.4.4.j.j.v.v.k.k.h.h.k.b.m.m.b.c.a.,.Z Z b 4 9 F _ C.H.Y.OXtXyXyXyXhX_.T I Y L u 8           o . y y D D y 0 0 e , , @ @ @ @ % % + + + $ $ $ , , , , 8 8 8 8 8 8 7 8 8 , ",
"H.E.E.H.H.H.H.L.H.H.L.L.K.L.K.F.B.B.B.A.K.~.~.~.K.~.~.~.~.~.~.~.~.~.~.~.L.L.P.~.).).~.L.K.K.K.L.L.L.L.~.~.L.K.K.A.F.F.F.F.F.F.p.x.x.x.x.x.x.x.x.c.x.x.x.x.x.'.'.'.'.v.v.M.}.#X#Xf.~.~.~.~.K.~.`.HXSXSXSXDXGXGXFXFXSXsX,X;X:XsXsXlXlXHXlXjX`.:XjXSXSXSXFXFXFXGXJXJXGXFXSXSXFXGXJXGXGXGXSXsX,X,X>XjXjXAXSXAXAXjXsXAXAXAXAXjXSXSXGXJXJXJXJXJXFXCXCXsXCXSXFXJXFXFXSXCXCXCXCX;X{ u P ! P ! ! u @ + @ 7 7 0 { { { { G } D.R.W.Y.H.U.Y.OXU.B.N.N.C.E.&XD.V.Y v v W W n 3 j ~ ~ n x Z l h E Q.Q.T T T e.e.e.B.A.A.B.B.B.e.T T N.V.D.)._._.E.H.B.B.B.A.Z.N.N.e.e.t.e.T T Q.Q.`.`.^.!.E E E E E !.Q.Q.!.!.t.t.W z m d.f.s.<.5.5.5.5.5.3.:.;.:.<.y.W v < + + p p +   . . . % % @ , 8 8 8 & # # & 8 7 : 9 E K.s.p.p.u.u.u.q.w.y.y.9.9.9.>.>.C N m m m m m m m m M M M M M B B M z l h g 3 5 > > > @ +       . @ v J.0X0X0X0X0X0X0X0X9X9XqXqXqXqXI., < D ] /.7X/.) 0 9 D Y S.S.7X .y . . .     # & $ $ @ y | S x x k k g h z =.<.7.7.,.C z k 9 u u d d -   ; X X + ` /.pX7X_._.7XrXrX9XW.W.Y.Y.Y.OXJ.r.>.A C M q.#X#X}.u.*.&.5.i.5.*.&.*.<.a.'.'.'.'.G.p.0.8.8.8.8.y.0.0.w.a.'.}.}.x.'.}.p.C h 3 g n n h h g 3 3 g 3 g k k h g l 0.#X}.j.k.m.l.l.k.h.h.j.6.7.7.<.:.&.V V &.:.7.6.6.j.j.k.k.k.k.k.k.k.k.h.h.h.j.j.j.v.j.j.k.k.k.l.b.b.m.m.|.}.u.C z W ~ b 0 F T V.H.J.Y.%XtXtXtXyXrXN.I E | P 8 X         o + u D y 0 9 7 7 7 < , , @ + + + + + + + + + @ $ , , , 8 8 8 8 8 8 , 8 , $ ",
"L.E.E.H.H.H.H.L.L.L.L.L.L.L.F.B.B.B.B.A.K.~.~.~.K.~.~.~.).~.~.~.L.P.~.L.K.K.K.L.~.~.).~.L.L.K.K.A.K.L.~.~.L.K.K.B.F.F.F.F.F.F.p.a.x.x.z.z.z.x.z.z.x.x.x.x.x.x.'.'.'.v.v.v.M.#X#Xf.#X~.K.~.s.K.~.jXAXDXGXGXSXAXsXsXsXsXsXAXSXDXJXDXDXlXlXjX^./.jXAXAXAXSXFXFXGXGXJXJXGXGXGXGXFXFXAXAXAXAXAXFXFXSXAXAXsXsX,XsXsXjXAXAXjXsXCXSXFXGXJXFXFXSXSXSXSXSXJXJXFXFXFXFXFXGXFXSXCX;X| @.#.>X@.{ @.! e 8 8 ! | | #.;X@.{ P y S.D.R.W.W.Y.H.H.N.B.H.E._._.(.D.I I F v v I W v j j k n g h Z h x d.Q.t.I T e.T T e.A.A.A.N.N.N.N.N.B.C.D.R.(.).B.C.C.C.D.D.N.N.N.N.Z.A.A.Z.Z.A.Q.(.`.^.!.E T Y E E E } !.!.!.!.d.t.W N l C y.y.5.5.6.6.3.2.;.;.-.-.=.>.Z j : + 8 d d -       = . + + $ 8 8 8 # # % + $ 8 @ , R K.a.a.a.x.x.x.a.i.a.p.p.u.u.u.<.y.g.y.y.1.0.y.y.>.8.8.,.C C C ,.s.w.A N l g 3 5 > > < , + .     # @ v Y.0X0X0X0X0X0X0X0X9X9XqXqXqXyXI., 0 ` ] I.) ) ) ) I.^.^.^.pXpX .y , i w = & - & $ + . 9 @.n n k c j 3 3 h A 1.y.1.,.Z Z v G u i i i ;   - - # . G ` !./.`.7X7X7X7XW.W.9X9XOXOXOXJ.9.z l m w.#X=X#X}.'.x.v.z.M.v.5.5.u.a.}.'.G.G.p.r.w.8.9.>.9.9.9.8.0.r.a.'.].].x.].}.G.r.l 3 3 k g k x g 3 g g g g g g g g l 8.}.oXm.m.m.l.k.k.k.k.k.j.j.6.i.s.7.:.:.:.5.j.j.j.v.b.b.k.k.k.h.h.h.h.h.h.h.h.k.b.b.j.j.k.k.l.m.m.b.b.v.v.s.A z x W ~ K D F T D.R.Y.Y.Y.rXrX9XyXtXH.I E | ! &           . % e 0 9 7 < , , , < 8 8 w , @ + + @ + + + + + + + $ $ $ $ $ $ , $ 8 & $ $ ",
"H.H.L.H.H.H.H.H.L.L.L.L.K.K.B.B.B.B.B.A.A.K.K.K.K.~.~.).).~.~.~.K.K.K.K.K.K.K.K.L.~.~.~.~.K.K.K.A.A.K.~.L.K.K.A.B.B.B.B.F.F.F.p.a.z.x.z.x.z.z.z.z.z.x.x.x.x.x.x.x.x.x.v.v.}.}.M.M.#Xf.f.f.s.s.~.1XjXjXsXsXjXjXsXsXAXSXGXJXDXDXSXjXjXpXjXfX`./.sXjXCXAXSXFXFXGXGXFXGXGXFXAXCXAXSXAXAXSXFXGXGXAX,XsXsX,X,X,XsXjXAXAXAXjXsXAXSXSXGXSXCXCXCXSXSXFXJXJXJXFXFXFXFXSXSXsX>X,X| J ~ @.>X>X#.;X! e P P ;X>XsXaX#.P y y G ] S.U.W.Y.U.C.N.H.U.R._.(.D.e.I g k v I v I E I K k 3 k g g Z g Z !.!.U I T e.T e.N.A.A.B.N.N.N.N.V.D.R.(.(.R.D.D.L.L.D.N.N.T T D.A.Q.Q.Q.Z.A.Q.A.Q.Q.Q.Z.E T E Z.} E } } !.!.!.!.y.t.1.m z =.1.5.7.6.5.2.;.;.-.:.&.B m h 2 : @ s ! s % O - - O   . + + 8 e 8 + . = X # 8 + + H r.a.a.a.z.z.x.z.i.a.a.a.x.a.i.i.i.s.s.s.s.s.s.s.s.s.s.q.<.,.,.q.s.s.y.A l g 3 5 4 4 < , + .     . @ I *XtX0X0X0X0X0X0X0XOXOX9XqXqXyX] : D ' ] [ ] ) H ] 8X7X7X/.]  .L 7 8 u p - - - & & # . 8 | 5 2 > 4 6 < 2 3 Z A 1.1.S Z v K P i i i i ; X - - - . < < c F R } ` ] ^.`.7XeXOX9XOXrXrX~.Z h z f.$X#Xx.x.oX$X$Xv.M.v.i.x.}.}.}.G.p.r.0.8.9.9.U U 1.9.U >.8.w.p.'.].c.x.'.{.}.P.9.z l h g k n h l l l x l g 3 3 l N w.}.oXm.m.l.l.l.k.k.h.k.k.j.4.6.j.6.6.3.3.4.k.k.k.l.l.l.k.h.h.h.h.h.h.h.h.h.h.k.k.k.k.h.k.k.l.m.m.m.M.s.8.N g k v K K K K F Y V.R.Y.H.Y.W.9X9X9XrX_.N.Y L J #           . q 0 0 9 < < < < < , , , < 8 w e e 1 $ @ + + + . + + + + + # $ $ $ & & $ $ ",
"H.H.H.H.H.H.H.H.L.L.L.L.K.B.B.B.K.B.B.A.A.A.K.K.K.~.~.~.~.~.~.L.K.K.K.K.K.K.K.K.K.~.~.~.K.K.K.K.K.A.K.K.~.K.K.A.r.r.B.r.r.B.p.p.a.a.a.z.z.z.z.z.z.z.z.z.z.x.x.x.x.x.x.x.x.v.v.M.M.M.f.s.f.s.s.~.:X,X,X,XsXAXGXJXGXGXGXSXSXSXAXAXsXpXpXjXjX:X/.:XjXAXAXAXSXFXFXSXSXSXSXSXAXAXAXSXGXGXGXSXAXAXAXAX,XsXAXSXAXAXAXjXAXjXsXsXAXSXSXSXCXCXSXFXJXFXFXFXJXJXJXJXFXAXsX>XK j } | R L L ;XaXaXaX{ ! { y @.#.sXsX .i y y ( H _ C.C.C.H.U.U._._.).D.N.I g 2 g v I I v I E I v j 3 v v k W h E !.t.I U e.T T t.N.A.A.Z.N.N.N.T N.D.(.(.(.(.D.L.D.B.e.T T Z.Q.^.Q.Q.Z.t.U T Z.Q.(.(.Q.Z.T I W !.!.} } } !.!.-X~.d.d.d.A z M =.:.5.5.3.2.-.-.-.*.&.C U I k > : ! ! e . % %.+.    . . + 8 u 8 . . = % # 8 + + D A.p.G.a.a.z.i.i.z.x.x.x.x.x.x.x.z.v.v.v.v.v.x.a.x.x.a.a.u.u.u.a.5.u.0.A l 3 3 5 0 0 8 , +         + _ gXtX0X@X@X@X@X0X0XOXY.9XqXqXqX) : F } S.[ ) ) H ] ^.I.] H H H y $ + + & p i - & & &   & ! @ @ + @ , 1 < 2 k Z W W v c b J y i i d d - ; - p p . , @ @ : : + @ 0 H ] ^._._.rXrXrX%Xe.h g A u.}.x.i.x.{.].z.i.z.i.z.}.}.].'.s.p.8.A A A U U W W U Z Z A 9.p.'.x.x.x.x.].].}.P.y.A z l x S z N m m N n h g g h Z p.}.n.m.m.l.l.l.k.k.k.h.k.k.j.j.v.v.j.j.j.b.m.m.l.l.l.k.h.h.h.h.h.h.h.h.h.h.h.k.k.k.h.h.k.k.m.m.b.j.6.,.x 2 > j K K J K L F F T C.U.H.U.W.9X9X9XrXrXR.Y c < +           . w 0 0 9 9 0 0 0 0 0 7 , , , 7 e u 0 w < , @ + + + . . + . + + # # $ $ $ $ ",
"L.L.L.J.H.H.H.F.L.L.F.K.K.B.B.A.B.A.A.A.A.A.K.K.K.K.~.L.L.K.K.K.A.A.A.K.A.A.A.A.K.K.~.~.K.K.K.K.A.A.A.A.K.K.A.B.r.r.r.r.r.p.p.p.a.a.a.a.i.i.z.z.z.z.z.z.z.z.z.x.x.x.x.x.x.x.x.x.s.M.s.s.s.s.s.~.1XAXDXJXJXJXGXSXGXSXsXsX,X,X,X,XAXAXlXlXlXfX`./.jXAXCXCXSXFXDXSXsX,XsXCXSXGXGXGXSXSXsX,X,XsXAXAXAXAXAXjXjXjXjXAXAXjXsXsXjXAXSXSXFXFXFXFXFXSXSXFXFXFXJXGXAX;XK 2 k 3 ~ } ~ -X>XCXCXCXsXP { | , #.#.;XaX#.{ { G G H _ V.V.C.W._._._.D.T k 2 2 3 k Z I E I v Y N.Y 2 3 j W v 3 I k d.t.U I U U U e.Z.Z.Z.N.N.N.N.e.N.A.D.Q.(.(.D.A.N.e.T U T A.^.`.`.Q.Z.Z.T I t.Q.Q.Q.Q.Z.E T ' !.!.!.} } | | !.!.~.Q.d.d.S m m &.:.:.3.2.;.-.-.:.V V 9.!.!.K 4 @ ! ! J + + >X>X$ . . . . & u w . . = % + $ # # 9 E e.r.p.p.p.u.u.u.u.s.s.s.a.i.i.x.x.x.x.x.x.x.x.x.x.x.x.x.x.x.x.x.}.f.9.N k j 6 e e 8 $ .         @ Z.rX@X@X@X'.{.{.@X0X9XOX9XqXqX6X) 2 ` /.S.] H ( D H ) D < @ < D D 7 + + & w - - - & &   # d $ . . . # & $ : 4 5 j c 5 4 e u i i i d d ;   t d d # e 7 < < : + + + @ @ 0 _ (._.fXeXB.N z >.~.#X}.i.:.i.].x.i.5.6.i.z.}.].x.a.s.r.9.A A A A U U W Z z z A 9.r.a.x.'.].'.'.'.}.#XP.8.M m N N N M M m S N l h h h Z p.}.m.m.m.l.l.l.l.l.k.k.k.k.b.b.m.m.m.m.m.m.m.m.l.l.k.k.h.h.h.h.h.h.h.h.h.h.k.k.k.h.h.h.k.k.m.l.k.4.*.z 2 : : c K K J K K K F T N.C.C.C.U.W.9X9X9XrXeXS.D < + .     X   . w 0 0 0 0 0 0 0 0 u 0 0 7 7 7 0 e u e e e 8 , @ @ + + + . . . . . . . + # ",
"E.P.P.L.L.H.H.F.K.F.F.B.B.B.K.K.A.A.A.A.A.K.K.L.K.K.K.K.K.K.K.A.B.B.A.A.A.A.A.B.K.K.L.~.K.A.K.K.A.A.A.A.A.r.r.r.r.r.r.r.r.r.p.p.a.a.a.a.a.i.i.i.z.z.z.z.z.z.z.z.x.x.x.x.x.x.x.x.x.v.s.s.s.s.s.~.lXDXGXGXDXSXjXsX;X,XsXjXAXSXDXDXSXDXHXlXlXfX:X/.jXsXsXCXAXFXGXDXSXFXJXJXGXSXAXAXsXsXAXAXGXGXDXAXjXjXAXAXAXAXAXAXjXsXsXsXjXAXAXAXSXSXSXFXFXSXSXSXSXsX-XK k 3 3 g g l !.W K ,XsX>XaXCXCX{ { { @ #.#.{ @.{ u u 8 + ` S.^._.&XeX).V.v v j 2 2 3 k v E E E v k T C.T I E ' !.R j W I Z.E I U T U U Z.A.N.e.e.N.N.N.T D.Q.(.D.D.D.Z.N.U I I T D.(.`.^.S.T I I v Z t.`.`.Q.Z.T I T Z.!.!.!.!.!.| | | } !.~.!.W W m z M =.:.:.:.*.&.=.1.C N A d.~ K 2 > b ! ! > : -XsXL + + . . & u w . . % % + + # # 8 9 c Z U U 9.8.w.s.f.f.f.f.f.f.s.a.z.i.i.i.a.x.x.x.x.x.x.x.x.x.x.x.x.s.9.Z v b b e e 8 $ .         + Y E.[.{.{.G.OXOX0X0X0XOX6XqXqX6X_ c !.^.V.) ( H 9 G ( G 0 @ 9 G P $ . . # & X - t t & X # d w #   X ; X . . , , : @ + + w d d d i i t     t d d # s ! { ~ J D 0 : @ @ @ : : F N.N.U r.#X#X}.$X$Xx.u.x.{.'.i.i.i.i.'.}.'.p.p.s.y.9.A A Z Z Z Z Z l h l A y.p.a.a.'.].].'.].}.}.}.q.B B B M B B M m M z h g h Z A u.v.m.m.m.l.l.l.l.l.l.k.k.k.k.k.l.l.l.l.l.l.l.k.k.h.h.h.h.h.h.h.h.h.h.h.h.k.k.k.h.h.4.h.k.k.k.k.k.6.C 3 + . 8 0 J J J K K K I T N.N.N.N.C.W.W.9X9XrXgX`.Y 0 @ %   o O   . e 0 9 9 9 9 0 9 7 9 0 y J J J y 0 J J J J u e 8 , $ $ + + . . . .   . . + ",
"E.E.E.P.H.F.H.H.P.K.B.B.K.K.K.A.A.K.K.K.A.B.A.K.K.A.r.r.A.K.K.K.B.B.A.A.A.A.A.A.B.A.K.K.K.K.A.A.A.t.r.t.r.r.r.r.r.r.r.r.r.r.p.p.a.a.a.a.a.i.i.i.z.z.z.z.z.z.z.z.x.x.z.z.x.x.x.x.x.x.s.M.P.s.s.~.jXjXjXsXsXsXjXjXjXAXSXDXGXGXGXDXSXDXlXlXlXfX`.!.jXjXsXsXAXFXGXGXFXSXSXAXAXAXAXAXSXSXDXDXDXJXDXSXAXAXjXjXjXjXAXAXAXsX,XsXAXAXAXAXFXSXSXFXGXAX,X-Xk k k h h h h h l z W W ~ ;XaX@.#.aXsX{ ! u $ { { ! ! +.{ 8 + @ !.:X:X`.`.N.v v 2 3 j j k v I W E E W v I U D.T I I I !.E 3 !.W E I T E T T e.N.T e.e.T T T e.Z.D.Q.Q.Z.N.N.N.T I T Z.Q.`.`.Q.Z.T I v v I Z.^.:XQ.D.T I T Z.Q.!.!.!./.!.| } | } !.!.!.!.~ Z z m B &.:.=.V C C S m m x h K n > b n k h g v Q.:X!.} ! 8 . # w - . . + + + .   X & , 4 > E t.Z h N m M N N C A A >.0.w.w.p.p.K.P.P.G.P.a.a.x.x.i.i.i.u.u.w.Z v J e 8 8 $ . .         + c fXJ.G.G.}.}.[.@X0X0XY.6XqXqXI.Y Y S.] ) ) G y y y G D 0 , 9 L y $ . . 8 - w & X X X X & d d ;   ; a - X   . + . . . . - d i i t t ; ; ; ; i i i i { { ` | } } R L P 7 @ @ : I T 9.G.}.].'.a.a.a.u.a.{.'.a.a.a.}.#X}.G.r.8.9.A A Z Z Z Z v x l h h m A y.K.a.'.'.'.'.x.].].].}.a.*.B B V B C M S M l z l g Z y.<.6.m.m.m.l.l.l.k.k.k.h.h.h.k.l.l.l.l.k.l.l.k.k.h.h.h.h.4.4.4.4.h.h.h.h.k.k.k.k.k.h.4.4.4.h.k.k.j.7.m > . & , e J J K K K W v F Y _ _ _ V.T.9X9X9X9XeXfX:XD 8 w   = %   $ , 0 9 9 9 9 9 9 < 7 7 7 7 7 9 9 9 0 0 0 e e e e u e 8 8 & # + . . + . . w ",
"P.P.P.P.H.F.F.H.F.F.r.B.F.K.K.F.K.K.K.K.K.K.K.K.K.r.r.r.r.A.A.A.r.A.B.A.A.A.A.A.A.A.K.K.K.K.A.A.t.t.r.r.r.r.r.r.r.r.r.r.r.r.r.p.p.a.a.a.a.i.i.i.i.i.i.z.z.z.z.z.z.z.z.z.z.x.z.x.x.x.a.s.s.u.u.~.:X,XsXsXsXAXSXSXJXGXSXSXDXDXDXDXSXDXlXlXlXjX:X!.sXjXAXAXAXSXSXAXAXAXAXAXAXAXAXAXSXGXGXGXGXJXGXSXAXAXAXjXAXjXAXAXAXsXsXAXAXsXjXDXSXSXSXSXAX>X~ x l l l l l l l z l z Z W W -X;X| @.>XaX#.{ 8 $ { ! ! ! ! s s 7 @ } :X/.T Z h 2 3 g v v I I I W E E E W v I T R._ F F _ `.S.3 Z.T E I T T U T T N.T T T T T T Z.Z.Q.A.Z.Z.Z.T U I T Z.^.`.^.!.Z.' I v v I Z.Q.~.Q.Q.Z.T I E !.Q.Q.!.!.!.!.} } } } !.!.!.!.~ x l m m M C =.A C N N z l x k n b > Q n x x N U ~.).~.-X-XJ + + p - . . . + + . . X & 8 < @ ~ !.E z m l l l l l l z l x v x v v Z I U 9.y.y.w.s.s.s.s.i.u.u.9.x j 6 , $ # .             + c fX*X[.F.F.P.F.J.OXOXU.6XqXqXT.) ' S.] ) ( D y 9 y y D 0 , 9 P y + + + 8 & i & X X X   X i d ;   ; a a - - X X X     X t d d t t ; ; ; ; ; t i 8 8 P ( ` | !./.!.| @.| J 0 < R A.H.}..X].].x.a.<.<.a.[.}.G.G.G.P.P.K.r.A Z Z Z Z Z Z v x x h h h z Z 9.r.K.a.a.'.'.}.'.].].].].x.i.5.=.B m m l M m h l h l t.y.=.5.m.m.l.l.k.k.k.k.k.h.h.h.k.k.l.l.l.l.l.l.k.h.h.h.h.h.4.4.h.h.h.h.h.h.h.k.k.k.h.h.4.4.4.h.j.j.7.=.h @   X & e J J K K K K F F F Y _ N.C.W.9X9XOX9XrXfX:XL < %   .     + $ y c 0 0 0 9 9 < , , , , , , , , , : , < 7 0 e e e e 8 8 8 $ # + + . + w ",
"P.J.P.F.F.F.F.F.F.F.r.r.F.K.K.K.K.K.K.K.B.B.B.B.B.r.e.e.e.r.r.r.r.r.r.r.A.A.A.A.A.A.A.A.A.A.r.e.r.y.r.r.r.r.r.r.r.r.r.r.r.r.r.r.p.a.a.a.i.i.i.i.i.i.i.i.z.z.z.z.z.z.z.z.z.z.z.z.z.x.a.s.s.u.s.~.,XjXSXDXDXGXDXSXDXAXsXsXAXSXSXSXSXSXlXlXlXlX:X!.:XjXAXAXAXSXAXsX,XsXsXSXGXJXJXJXGXGXGXSXSXDXGXSXAXAXAXAXAXAXAXAXSXAXsXsXjXDXDXAXAXAX>X~ n g 3 g l l l l z z z m m z z x v | ;X;X#.#.#.{ ! 8 + e u e u s u $ + @ b } E h g h l v k v E Z.Z.Z.E T E E E Z I T R.N.v F S.pX^.j T Y Y I T T I I T T T Y I I T ' Z.Z.Q.Z.T T T I I T Q.^.`.^.!.T I I F v v E Q.`.(.A.Q.e.U T S.Q.Q.Q.Q.!.!.} } } } } } } !.!.} K x z l z N Z Z v x x x h g 6 6 > : ~ n W W y.f.P.}.#X`.:X~ + + w %     . + + .   O ; & , : } <XQ.A l z l z l l h h 3 @ + + + + @ @ : 4 c k x Z S S y.u.u.u.9.x 2 @ . .                 . : Q.L.K.U Z U U B.OXY.H.T.6XqX8X] ] ] ) G G y 7 8 e y u e , y P 8 + + # 8 & i 8 # X X     t i ; ; - a a f - ; ;       ; t d d t ;   ; X ; ; t t & & 8 y G ` ' !.!.-X;X;X| J 5 E L.*X=X@XXX@X}.G.u.q.p.'.G.F.p.r.A.r.e.U Z x x x Z Z Z x h g 3 h z Z 9.y.p.K.a.a.'.'.}.}.'.c.x.c.oX=X2X#X1.M W z N z l h h l y.y.C <.v.m.b.k.k.k.k.k.k.h.h.h.h.k.k.k.l.k.l.k.h.h.h.h.h.h.h.h.h.h.h.h.h.h.h.k.k.h.4.4.4.4.4.6.6.7.1.m 2 +   O & w J J K K K F K D c F Y _ C.W.9X9XOXOX9XrXpX' < + .     . . $ J D c 0 0 0 9 7 < , , , , , @ @ @ @ @ @ , , 7 8 u u u e 8 8 & $ $ + @ w ",
"H.H.F.H.F.F.F.F.F.r.r.r.F.K.K.F.r.A.B.B.r.r.r.r.B.r.e.e.e.e.e.e.e.e.e.e.r.r.r.r.A.A.A.A.A.r.e.e.e.r.r.r.r.r.r.r.r.r.r.r.r.r.r.p.p.p.a.a.i.i.i.i.i.i.i.i.i.i.i.i.i.i.i.i.i.i.i.i.i.a.a.s.s.s.f.1XDXGXGXGXGXSXjXsX:X;X,XsXSXGXGXGXSXSXSXlXlXlX:XQ.:XsXjXsXCXAXSXSXFXFXGXGXGXFXSXSXGXFXSXsXsXjXGXDXAXAXAXAXAXAXAXAXjXsX,X,XSXJXSX;Xn k h g 3 h x S l z z z z z m m m m z x v ~ ;XaXaX#.{ d ! u + , 0 8 8 w 8 + : b -X-XW h g h g g g v E !.A.N.T T E E E I I T E.N.F I Q.:XQ.v T I I I T T I I T E Y I F I T Z.!.Z.Z.Z.T T I I T Q.:X^.Z.E T T I F I I T A.`.`.(.A.e.T T S.Q.Q.Q.Q.Q.!.} E E } !.!.} ` R } -X} v h l l l x x k j k n n g > : @ : Q n ~ d.~.#X}.x.#X~.:XW @ + %       . + + .   ; ; . $ 4 } /.A.A l m z z z l l g 2 .               . + @ @ : > 3 Z p.i.p.y.v > +                     . @ Y T U g 2 3 k e.E.H.C.I.T.qX8X] ] ] H G G y 7 , w e u 8 7 i P 8 + $ $ 8 $ y i & # & X   - t ; ; t a - ; ; ; ; ; ; ; ; t d d t ; X ; & ; X & 8 & # # # 8 y Y ' } | @.! 0 > v E A.G.{.].].|.a.P.P.a.p.p.p.r.r.e.U U Z v k g h l x x v x h g h l Z 9.w.p.F.G.'.x.a.'.}.}.x.x.c.c.x.}.#X2X2XjXd.n g g g g g x t.y.C :.z.b.b.k.h.h.h.h.4.4.4.4.h.h.k.k.k.k.k.k.h.h.h.h.h.h.h.h.h.h.h.h.h.k.k.k.h.4.3.3.4.4.6.6.:.1.N 3 @ + # ; & e J K K F D K L D c D F Y N.R.%XOXY.Y.OXrXeXS.0 + +   . + . 8 J D c 0 0 0 0 9 9 9 9 7 7 7 7 7 < , , @ @ @ @ $ 8 8 8 e e 8 8 8 , $ $ w ",
"J.J.H.F.F.F.F.F.r.r.r.r.r.p.r.r.r.r.r.r.r.r.r.r.B.r.e.e.e.e.e.e.e.e.e.e.e.e.e.e.A.A.A.t.r.e.e.9.e.e.r.r.r.r.r.r.r.r.w.w.r.r.r.p.u.u.p.i.i.i.i.i.i.i.i.i.i.i.i.i.i.i.i.i.i.i.i.i.i.i.i.s.s.s.f.1XDXSXjXsXsXsXsXsXSXDXGXJXGXAXsX,XSXSXDXlXlXlXfXQ.:XsXsXsXsXSXGXGXGXGXGXGXGXGXFXFXSXAXjX,XsX,XGXDXAXAXAXAXAXAXAXAXSXAXAXSXsX!.v k g g h l l l l l z z z z z z z z z z N S ~ L | #.>XaX#.{ { u @ u 0 J e , , ! ~ ~ ~ n h h x n h k g x E Z.Z.N.T T T T T I U N.E.N.U T (.D._ F Y c F F Y Y F F T T I F F I E Z.Z.Z.E ' T T T Z.Q.^.`.Z.T I I Y I v I T A.(.`.(.A.N.U T Z.Q.^.Q.Q.Q.S.Z.E E E } !.!.} ` R } -X| K h h h h x k 3 > 2 S S h : @ @ w e 5 ~ d.y.s.u.u.v.#X~.W > +     -   . . . .   O X   $ 0 R E Z A N z l l l h g 3 :   o o o o o o o o * . . . + : v p.u.s.y.v : +                   o X @ F I v > : > j E D.e.T V.T.6XT.] ` ( G y y 9 8 q q 8 u y 8 i u $ + $ , 8 , y y & & i # X t ; ; t t t - ; O ; ; ; ; t t t t t - ; ; & t & X & 8 & # . . . , < 0 c K K c j F t.A.r.w.u.u.5.-.&.:.q.u.w.r.w.9.U U Z v j 3 2 2 g h h k x x x x Z Z U w.r.p.a.a.'.'.x.'.'.'.x.z.z.].$X*X#X~.d.K b : : > 2 2 3 ~ !.t.N C 5.6.j.4.3.2.2.2.2.3.4.4.h.h.h.k.k.k.k.k.h.h.h.h.h.h.h.h.h.h.4.h.k.k.j.v.7.3.2.2.3.4.3.3.1.A x : + + % % 1 e b J F D D D L J J D D F e.L.%XOXY.OXOXrXrX^.H @ + X + . . u y c 0 0 0 0 0 0 0 0 0 0 0 0 y y y y 9 7 , $ $ @ , 7 7 8 0 y u u 8 , 8 8 ",
"J.F.F.F.F.F.F.r.r.r.r.r.r.r.r.r.r.r.r.r.r.r.r.B.r.r.r.e.e.e.e.e.e.e.e.e.e.e.e.e.r.r.e.e.e.e.9.9.9.9.9.e.r.e.r.r.w.w.w.w.w.r.r.p.u.u.u.i.i.i.i.i.i.i.i.i.i.i.i.i.i.i.i.i.i.i.i.i.i.i.i.u.s.q.f.1XjXjX,XsXjXAXSXDXGXJXGXSXAXsXsXAXSXDXDXDXlXlXfX^.<X,XjXAXAXSXGXGXGXGXFXFXFXFXSXSXAXsXsX,XsX;XSXSXAXAXAXAXAXAXAXAXjXsXsX;XR 3 3 k x h h h l x m z z m m z z z z z z m m S K 0 u #.#.+.#.+.+.! + u 9 0 y J ! @.~ K n k h l x h g k g x W t.N.N.T T T T T I T N.).N.T e.(.T I I I j F F R I v F W I F F F I E Z.Z.E Y T T E Q.`.(.Q.t.T T I I I I I U Z.(.`.(.A.e.e.U Z.Q.(.^.D.S.D.Z.T E T ' !.!./.} } } | | } W v h h x v c > @ > Z W x > @ , u 8 : j x m V :.5.i.s.s.t.K e     ;     . . .     O X # 9 c c 3 I U l l h g k g 2 :   o o o o o o o o o     . . $ K r.u.r.t.v @ .   o o o           o O + 4 5 5 0 < : 0 R Z.I I _ I.8XI.) L G y y y 8 q = q 8 9 9 8 i u & + $ , 8 8 y y 8 8 u w X i ; ; t d d i - - t ; ; t t t t t t ; ; & t t & & & 8 & # # . + 8 y 7 9 D c j v Z.~.#X#XG.G.a.u.&.V B B V ,.8.A N z x g 3 2 2 2 3 3 g g h x v Z Z U U 9.w.p.p.a.a.'.x.x.'.'.x.x.x.x.{.#XK.t.K e @ + + 1 1 > : 5 !.!.I g m u.a.i.;.*.*.*.-.2.3.6.j.h.h.h.h.h.h.h.h.h.h.h.k.h.h.h.h.h.4.4.h.j.v.z.i.:.-.-.;.2.3.3.:.1.S 5 @ . + + + 1 8 b J c c D D L L ! L F v T L.E.E.Y.OX9XrXgX7X` 9 + + . . + J 0 0 0 0 c D 0 0 0 0 0 0 0 y y y y y y y 9 7 7 7 $ , 7 7 7 0 0 e 8 8 8 e ",
"F.F.F.p.F.F.r.r.w.r.r.r.r.r.r.r.r.r.r.r.r.r.r.B.e.r.r.r.e.e.e.e.9.9.9.9.9.9.9.9.e.e.e.e.e.e.9.9.9.9.9.e.e.e.r.r.w.w.w.w.w.w.w.u.u.u.u.u.i.i.i.i.i.i.i.i.i.i.i.i.i.i.i.i.i.i.i.i.i.i.i.u.u.y.f.1XAXAXSXGXJXJXGXDXSXSXAXsX,XsXAXSXFXGXJXDXlXlXfX`./.,XjXAXAXSXFXFXDXFXFXFXFXDXFXDXAX;X:X,XsX| SXSXAXAXAXAXAXAXAXAXAXAX,XR 3 3 k g g g h l x z z l z z z z z z l z N M l l k : 7 #.#.t +.#.+.! . 0 P P ! { { ! 0 5 k h l x h h k k g x U e.N.e.T T T T T I T N._.N.T e.(.T I F v c F F K F v F W F v F F Y E ' E T I I E !.Q.^.!.t.I T E T I I U T Z.Q.`.`.D.e.9.T Z.Q.Q.Q.D.A.N.N.T T T E Z.Q.Q./.!.} } } !.-X~ ~ v v Z K c : @ 4 S y.Z j : , i 8 + @ g S 1.<.7.M.v.s.~.} e X         . . .       ;   $ 9 c > I W x k j 6 r r 1 1 .                       . . $ F r.u.r.t.j +   o o o o o       o o o @ < > 9 P w % < K R v v Y S.I.] ) P J y 8 8 8 - = = 8 8 8 8 i u & + $ $ 8 7 y y 8 8 d i # d ; t i d d d i t t t t t d i t t ; ; ; ; & t t t & 8 & . # # % w - 8 8 D K I T L.P.[.}.#X#X#XK.s.7.:.:.,.0.8.A z x x g 2 > > 6 6 3 g h k x Z W W U 9.9.w.p.p.a.x.x.x.x.x.a.a.x.'.oX}.p.Z g : .     # w , : : 0 -X!.v 3 Z P.#X}.<.:.:.5.i.v.v.v.v.j.j.h.h.h.h.h.h.h.k.k.k.k.k.h.h.h.4.4.h.j.6.5.<.V V *.-.;.2.:.1.S j @ + . + @ @ 1 r b b v c D D L ! { ! K F U A.H.J.Y.OX9XrXrX_.!.L $ . . . w J y c 0 0 D D c 0 0 0 0 0 0 0 9 9 0 y y y y y 0 9 7 7 7 7 7 7 7 9 8 e 8 8 ",
"F.B.r.r.r.r.r.w.8.8.r.r.r.r.r.r.e.r.r.r.r.e.e.r.e.e.r.e.e.e.e.e.U U 9.9.U U U U e.e.e.e.e.T 9.9.9.9.9.9.e.e.e.r.r.r.w.w.w.w.w.q.u.u.u.u.i.i.i.i.i.i.i.i.i.i.i.u.i.u.i.i.i.i.i.i.5.i.i.u.s.s.~.2XDXDXGXJXJXSXjXsXsXjXAXSXSXSXDXGXFXGXJXDXlXlXfX`.Q.:XjXjXsXAXSXDXFXFXGXGXGXGXGXFXAX;X;X;X,X~ AXSXAXAXAXAXAXAXAXAXSXSXjX-XK h g h h h l l l l z z z z z z z z z z m m l x n : 7 #.#.  #.aXd 8 . ! -X;X;X! 4 6 c n 3 g h g 3 k k g g x U e.e.T T U T T T I T N.).B.U U `.E I v v v I K K K v K W v c v I E ' E T I I T Z.Q.Q.E T Z.T E E T T T T e.(.`.(.L.N.e.e.e.(.`.(.D.Z.Z.N.T T T T T Z.Q.^./.!.} ` } -X:X-X!.E W I v 2 @ : J W d.E F < + 8 8 + + b -X<Xf.~.#X#X#X~.~ @   ;         . . .     ;   # u J > K v c j 4 1 r q % + + . . .                 # . , F p.u.r.t.c +   o o o               . y L F F L @ w , > 5 j v ' /.[ ) ( P J y 8 $ 8 = % % & 8 8 8 y u $ # $ $ 7 7 y y 8 8 P i # i t t i d i t t t d t t d / / i t ; ; ; ; ; & t i w w #   . X % w i d s P R I I U 9.9.r.K.K.y.t.f.~.f.f.~.K.y.9.U E ~ n 6 > : : > g h l x Z W W U U 9.8.w.p.a.a.a.a.x.x.x.a.x.'.}.}.r.Z 2 @ + O * = # + . + : 0 | !.R c E :X1X#Xw.w.p.}.#X$X#XM.v.v.j.4.4.4.h.h.h.k.k.k.k.k.h.h.h.h.4.4.6.6.5.:.V m M V *.-.-.1.g.k : .   # @ : 6 1 r b b c c D D P P P L K F I e.B.H.J.OXOX9XrXI./.| 9 . . $ ! P J y y y y y y 0 0 0 0 0 9 9 7 7 9 0 y y y y y 9 y 9 7 7 , , , , 8 8 8 8 ",
"A.r.e.e.r.r.w.8.A >.w.r.r.r.e.e.e.e.e.e.e.e.r.r.e.e.e.e.e.e.e.e.U U U U U U U U e.e.e.e.e.e.e.e.e.9.9.9.9.9.9.9.r.w.w.w.0.0.0.q.u.u.u.u.u.u.u.u.i.i.i.i.i.i.i.i.u.u.u.u.i.i.5.i.i.5.u.u.0.s.1XlXJXDXjXsXsXjXSXGXJXJXJXJXGXFXDXDXDXJXDXDXlXlXlX(.Q.(.pXjXsXAXSXFXFXFXFXFXDXGXGXGXAX;X!.<X,XjXjXSXSXAXAXAXAXjXjXjXDXSXDX<Xx g h x l l l l l z z z z z z z z z z z m m z l K c @ , $ . #.#.d +.#.;X-X~ k g 3 g g g g g h g g g 3 g g h I t.e.e.e.T T T T T I N.E.C.U N.Z.E I F v v K F F F K K c j c v F I Y Y I I T t.Z.t.E t.E E E E E T I T Z.Q.`.`.Q.N.T e.A.(.(.D.Z.e.T T T T T T Z.Z.Q.Q.Q.Q./.| L K R !.!.<X!.d.E c > : J ~ E t.W j 4 u s % . + 6 K W A =.1.s.f.f.-X-XJ . . . . + + + + + .     . & w u 0 9 0 0 0 0 8 8 & %                       . . + 9 I r.p.A.t.c +       o       . # . $ ( ] ) H ) H < 9 4 > : > F ] /.] ) G y y 9 8 $ & & = . & 8 & i y 9 , , , , , 7 y y y y u 8 & d d t t d d d d / / / d d / t ; t t           O X     O O   . 8 8 8 u P u J L K c c c v v F v v x A 9.y.t.t.W W W ~ K c 6 > : r b n l S ^ S N U 9.9.8.w.r.p.G.G.G.F.G.a.x.c.}.}.P.U j @ + + @ q q = w @ @ @ > ~ -XL < < L | } ~ W r.}.#X#X#X#Xs.i.v.v.v.6.4.4.4.4.h.h.h.h.h.h.4.4.4.4.7.7.<.,.M l h l M B &.=.S ^ 1 . X   X $ > 2 > e b J D c D D K D c D F F I T e.B.H.Y.rXhXrXI.^./.| y 7 8 8 , $ , 8 u u u u u 8 y 0 0 e e e 0 > 4 9 < 7 0 u y i y y 0 0 8 8 8 8 8 8 8 ",
"e.e.e.e.r.r.w.8.,.,.,.8.9.w.r.r.e.e.9.9.w.e.e.e.e.e.e.e.e.e.e.e.U U U U U U U U T e.e.e.e.e.e.e.9.9.9.9.9.9.9.9.r.w.0.w.0.0.0.q.u.u.u.u.u.u.u.u.u.u.i.u.i.i.i.i.u.u.u.u.u.u.u.5.i.5.u.u.,.y.`.jXjXjXjXSXDXGXGXJXJXJXJXGXGXGXGXGXGXJXGXDXDXkXlX).L.(.:XjXjXAXFXFXFXFXFXDXDXGXGXGXDX,X;X:X,XjXjXHXSXAXAXAXAXjXjXAXjXSXjX~ h l h z l l l z z z z z z z z z z z z z m m z l n k 4 ! u . { >X#.@.{ | K n g g h h g g g g g g g g 3 3 g h I t.e.e.e.T T T Y T I N.E.H.T N.Z.T F v v c c c F K K D c c c v F I I I I I U E t.t.E E E W E E E I T T A.Q.Q.D.Z.e.e.A.L.~.D.D.N.e.T T T T e.Z.Z.Q.Q.Q.Q.Q.-X@.} L R E } !.!.!.W 3 > 4 | | E E x 2 < e s w + + : 5 x N 1.f.f.f.y.y.E j : @ : 0 L ~ R K 5 @ +   . & w 8 8 7 7 9 9 7 7 $ # X                       . . + 9 I w.w.r.E c +           X     y  .] I.I.[ ) ) ) H F D 0 4 y ) ] ] ` ( G y y 8 8 & & # & . # w & u y 9 7 7 , , 7 7 y y y y i 8 8 { / a a / d ; t d d / d d / t t t t           O             & i u 7 9 y J J J y 0 0 0 0 D c c 5 j x x x v Z W K K b 0 < @ + @ e ! ~ S S W A A A A 0.w.r.p.p.F.G.F.F.F.a.x.}.#Xs.A j : .   # % q q = w @ @ : 2 | | K : + 9 J ! ! F U G.}.G.a.u.:.-.*.;.2.2.2.2.3.4.j.h.h.4.4.4.4.4.2.7.7.1.N l g h h l m M V C S Q = O     X $ > 4 < 9 e J b c D D D c c F F F F Y N.C.H.Y.%XtXrX_.^././.` 0 7 0 7 8 8 8 8 , 7 7 7 y y 0 9 9 9 4 4 j c c 9 7 7 8 8 y y 0 0 0 8 e 8 8 8 8 8 ",
"e.e.9.9.0.0.,.=.:.:.:.:.,.<.q.q.,.8.8.8.w.w.9.9.9.9.9.e.e.e.e.e.e.T T U U U U U U U U U U U T 9.9.9.9.9.9.9.9.9.9.8.8.0.0.0.<.<.u.u.u.u.u.u.u.u.u.u.u.u.i.i.i.i.u.u.u.u.u.5.5.5.5.5.5.u.,.w.<XjXHXAXSXSXDXDXDXGXJXJXJXGXFXGXGXGXGXGXAXjXjXfXfX_.L.(.:XjXjXAXFXFXGXGXFXFXFXDXDXDXGXjXsX,XsXAXSXDXSXAXAXAXAXjXjXjXjXGXHXW h x h l l l l z z z z z z z z z z z z z z m z x k c | >X>X{ @.@.| | 0 > 5 3 3 g g g g g g g g g g g 3 3 g h I t.e.e.e.e.T T Y T I N.E.H.N.N.T I v c j j > 5 D K K c c c c c F F F F F I I T E E T T T I W W I T E Z.Q.(.A.Z.e.N.A.L.L.D.A.Z.N.T T T T e.Z.Z.Z.Z.Q.Q.Q.!././.} R E R R E !.!.K : @ e @.| W I g > 0 u e s % + : 2 h m 1.f.#XM.s.w.y.Z g h U t.Q.~.Q.A.e.I D + . . 8 8 $ , , < < < , $ # X                       . . + 9 W p.p.y.W c +             X y [ 7X8X8X8XI.[ ) ) ] ] ] H H ) ] ] ] ( H G y y 8 8 & $ # # . # w & u y 8 7 7 8 8 8 9 y y y y i 8 8 { / d d / t     t i d d d d t t d t     X . . . . . .     $ 8 u ! 0 > 9 J P 9 7 y y y y y y 0 0 9 v k h j j j j 5 > : @ + + + w L E e.e.9.e.r.w.8.r.p.p.p.p.p.p.a.a.a.a.'.}.s.A g : + . X = % 1 1 % q + : : 5 -X| 0 @ + @ , < e j e.J.J.p.<.:.*.;.-.-.;.-.*.-.3.j.j.4.4.3.3.4.7.7.:.1.1.N g 2 2 j h z M M C A x 6 % o     X # 1 6 < 4 e e e D J K 0 c D D D D F Y N.C.U.W.%XrXrXeX(.^././.H D D 9 9 7 < : @ @ > 4 c c c v v Z I I U U I v 0 7 7 , 8 8 7 7 9 0 8 e 8 8 8 8 ",
"r.9.9.>.,.,.:.-.-.;.3.5.5.5.3.:.:.,.<.0.0.8.9.9.9.9.9.e.e.e.e.e.e.e.T T U U U U U U U U U U U U 9.9.9.9.9.9.9.9.9.9.8.8.0.0.<.<.u.u.u.u.u.u.u.u.u.u.u.u.i.i.i.i.u.u.u.u.u.5.5.5.5.5.i.u.0.s.1XlXDXDXAXjXjXjXAXSXJXJXJXGXJXJXGXDXGXAX:X:X:X`.&X_.(.Q.`.jXjXAXSXFXGXGXFXDXSXDXDXDXDXAXjXsXjXSXDXGXDXAXAXAXAXjXjXlXHXJXHX~ h l h h l l l z z z z z z z z z z z z z l l h v g b >XsX,X#.@.J 4 5 2 2 j 3 2 3 3 3 g k g g g g g g g g g g I t.N.e.e.e.T T Y T Y N.E.R.V._ Y F v c c 5 2 9 c D D D c c c c c c c c v v I I Y T T Y I I I I E t.A.Q.(.(.A.Z.Z.A.L.(.L.A.Z.Z.N.N.e.e.N.Z.Z.Z.Z.Z.Z.A.Q.!.^.!.!.} !.} R R } | L @ + J #.L j v 3 > J ! e 8 @ @ > 3 l m V :.s.s.s.s.K.r.U 9.*X*X#XP.P.P.*X`.!.0 + + @ 8 8 $ $ $ , $ $ # # X                         . + 9 W s.s.y.W b @           X G 8X8X8X8X8X8X8XI.[ ] [ I.[ [ ] [ [ ] ( G G y y 9 8 8 & # # X . . & w i y 8 8 8 8 8 8 y y y y y i & t { / d d / t   ; t i d d d d t t d t O   & # # # # # & . + 8 e 0 K b 4 4 J J 7 7 y y y y y y y y 0 c c c c 5 2 : : : @ @ @ + . # 9 T B.B.e.B.F.r.F.p.p.p.p.a.a.p.a.a.x.}.P.9.Z 3 : + . % % = % @ @ % 1 @ > > c ;X~ < , @ + + + + : r.J.J.u.:.-.-.2.6.6.6.2.-.-.3.7.7.3.;.;.:.:.1.1.1.N h 3 2 6 r r k m N N C A l > +         # q r 7 4 0 e e D J J 4 0 D D D D D H _ C._.eX%XW.W.eX7X^.^./.!.` F c c c c j j v Z I U U 9.e.r.F.P.P.P.K.t.I c 9 , , 7 8 7 7 7 7 7 8 8 $ 8 8 ",
"w.8.,.=.:.5.i.i.j.v.v.v.v.j.h.4.2.:.<.<.0.8.9.9.9.9.T e.e.e.e.e.e.e.e.9.U U U U U U U U U U U U U U U 9.9.9.9.9.8.8.8.,.0.<.<.<.u.u.u.u.u.u.i.i.i.u.i.i.i.i.i.i.u.u.u.u.u.u.5.5.i.i.i.u.q.~.2XHX:XpXsXsXAXGXJXJXJXGXGXJXJXJXSX,Xg g h t.`.`.1XfX).L.`.fXjXjXSXFXGXGXFXSXSXSXSXSXSXjXjXsXjXAXAXSXDXAXAXAXAXAXjXlXjXAXjX!.h h l l l l z z z z z z z z z z z z z l l h 3 k 3 j -X-X! 6 5 5 3 2 g ~ 6 2 2 3 3 3 3 k g g g g g g g g g g Z t.N.N.N.e.T T I T U T L.L.Z.T I v c c c 0 0 5 0 c c D K D c c c c c c j c I I I I I I Y W T E Z.Q.Q.~.Q.D.A.A.L.L.L.L.D.A.Z.Z.Z.Z.Z.Z.Z.Z.Z.Z.Z.Z.Z.Z.Z.A.Q.Q.Z.Z././.} ~ L | L @ @ y @.L 2 j 2 : J ! e @ @ : 3 l m M B B V =.8.y.y.y.e.r.K.p.p.w.w.p.p.K.`.!.c : @ 8 w # + + @ @ + + . X                 o     . . + 0 E w.u.y.W c @     X   X ( I.8X8X8X8X8X8X8X8X8XI.I.[ [ [ [ [ ] ( ( D y y 9 8 8 & & # # . . . # w i y 8 8 8 8 8 8 u y y y y y & t { / / d d d i i i d d d d i t t d t ;   - - 8 8 8 8 8 , 7 J c 4 c K b c c 0 9 9 y y y 9 y y y y y 9 9 9 4 < : < 8 $ + . + + .   + I A.A.e.r.r.r.p.p.p.a.a.a.s.s.a.z.x.G.r.x : + . O * = = % @ @ @ @ : @ > 5 L ;XK @ , $ $ + + + : ).tXtX=X$X}.z.6.j.v.M.v.7.;.;.;.:.&.&.&.=.A N z l 3 : : 1 e w : g z N C A U x : .         X q r 7 8 9 e 0 J J P < 9 D D c c D F Y V._.rXeXE.U.E._.`.^.^.`.Z.I I T e.N.N.B.F.J.P.[.[.[.'.].{..XoX#XP.y.I j > , 7 , , 7 7 7 < < , , $ $ 8 ",
"<.<.:.<.i.v.M.$X$X$XM.m.m.b.b.v.3.3.5.<.<.0.8.9.9.T T e.e.e.e.e.e.e.e.U U U U U U U U U U U U U U U U U 9.9.9.9.8.8.8.8.0.0.q.q.u.u.u.u.i.i.i.i.i.i.i.i.i.i.i.i.i.i.i.u.u.u.u.u.i.i.i.u.0.K.fXkXDXDXDXDXGXJXJXJXPXJXGXAX,X!.n 3 3 h l d.1X1XfXfX).D.(.fXjXjXSXFXJXGXFXSXSXSXSXSXAXjXjXsXsXjXsXjXDXAXjXjXAXAXAXHXHXjXjX!.l h l l l l z z z z z z l l z z z z z l x g 3 3 2 3 K b 3 > 2 2 g n ^ ~ > : : 2 6 3 3 3 g g g g g g g g g g Z t.N.N.N.T T T I Y I U B.B.N.Y F v c c c 0 J 0 4 4 0 c K J c c c 0 5 5 5 c R F F F I I Y T t.Z.Q.Q.Q.D.A.N.B.D.L.R.L.A.A.A.Z.Z.Z.Z.Z.Z.Z.Z.e.e.t.Z.Z.Z.Z.Z.A.A.Z.!.:X;X-X| L | L : @ : L D c 5 > : 0 ! J : : > g z N C V V z z Z A U 9.r.K.P.a.u.u.u.p.p.P.).:X/.K < @ & % + . + + + + . X                 o o o . . + 0 E y.u.y.U 5 + .   X i (  .8X8X8X8X8X8X8X8X8X8X8X8XI.I.I.I.[ ( ( ( y y 7 8 8 8 & & # # . .   . i i y 8 8 8 8 8 0 y y y y i & X t { / / d d / { { / / i d d i t i d a ; ; - 8 8 y y y y D L R D 3 3 K K b 0 9 9 0 9 8 8 8 8 8 8 8 9 7 < : @ @ , 8 e $ .           . 2 Z e.e.r.r.r.p.p.p.p.p.s.s.s.s.x.p.9.x > .   o * f = = % $ $ $ @ @ @ > c | | 0 @ @ + + + . @ c ).tXtX=XoXc.j.6.j.j.v.j.7.:.-.=.B M M N N x g 2 : @ : q w w + @ g m C >.r.r.Z : +         X = q w 8 9 e 0 u J J < 0 D y 0 0 D D H _ ^.7X7X_.R.U.R._.(.(.`.C.T B.H.P.}.OXOXOXoX@X@X@X.X.X|.|.|..X}.s.0.Z j : @ $ & $ $ $ , , , $ $ # $ 8 ",
"<.<.5.i.M.M.M.M.M.m.b.b.k.k.k.k.4.6.5.5.<.<.8.9.e.e.T T T e.e.e.e.e.9.U U U U A U U U A A U U U U U U 9.9.9.9.9.8.8.0.0.0.q.q.u.u.u.u.u.i.i.i.i.i.i.i.i.i.i.i.i.i.u.u.i.u.i.i.i.i.i.a.u.0.~.lXHXGXJXGXJXJXJXJXGXsX,X-X~ k 2 3 k h l l W ~.&XfXgX`.D.Q.pXjXsXAXFXJXJXGXDXDXSXSXSXSXjXsX,XsXsX,XjXDXAXjXAXAXHXHXHXDXjX,Xd.x l h l l l l l l l l l l l l l l l l l l g h g g k 3 3 k n k 2 g ~ ~ 3 4 @ @ : 4 2 2 3 3 g g g h h g g g g v E Z.N.N.T T E I T U I e.e.T F v c c j 5 0 0 9 4 4 4 c b K J J D 0 9 9 c c F c c F F I I T t.Z.Q.D.A.A.A.A.A.D.D.D.A.N.t.Z.e.T e.N.N.e.e.e.e.Z.Z.Z.Z.Z.Z.Z.N.A.A.Q.;X;X-X;X@.` D > : > I R } 4 : 4 0 J J > 2 3 l N A 1.,.=.x k k v W t.A.p.K.p.u.u.u.q.p.K.K.~.`.E 4 + + % X O X + . . . .                 o o o   . + 0 ~ y.s.y.Z 2 @ + 8 y  .8X8X[ 8X8X8X[ 8X8X[ [ 8X8X8X8XI.[ [ [ ( ( ( y 9 8 8 8 8 & & % # . .   . u i y 8 8 8 8 8 y y i y y y &   i { { / i / { { { { / i i d t t i d d ; ; t 8 9 y y D D L | } R v j J J 0 9 7 7 7 8 , 8 8 8 8 8 8 8 8 , @ @ 8 8 8 # . .   . .     . : 2 W d.d.y.s.K.p.p.p.p.p.p.p.s.s.A h > + . O * * * = % # , , @ @ @ : > K -X| < @ + . . # . @ D E.tXtX@X].c.z.z.j.j.6.6.5.:.=.=.z l k j 3 > : + + @ w w w 1 + @ l A 8.p.P.*XA.v @ .       X = q w 8 9 e e u J J 9 0 y 0 0 y 0 0 D F _ D.(._.).R.R.).).)._.E.H.J.[.{.{.@X.X.X.X.X X X|.|.|.n.n.n.z.u.,.Z j : + + # # # $ $ $ $ @ + + # 8 ",
"5.6.z.M.M.M.v.j.h.h.h.h.h.h.h.4.j.6.6.5.5.<.0.9.e.e.e.T T e.e.e.e.9.9.U U U U A U A A A A A U U U U U 9.9.9.8.8.0.0.0.0.q.q.q.u.u.i.i.i.i.i.i.i.i.i.i.i.i.i.i.i.i.i.i.i.i.i.i.i.i.i.a.u.w.~.lXDXGXJXJXGXGXDXjX,X~ j > 3 k h h x l x l A ~.&X1XfX&XA.Q.:XjXsXAXFXJXJXJXGXDXDXDXDXDXjXsX,XsXjXsXDXGXSXAXAXHXHXHXHXjXjX<Xx l x h l l l l l l z l l l l l l l l l l l h n x n n g k 3 > 2 n Q ~ ~ : J 8 + + : 4 6 6 3 g g g h h g g g g v E Z.N.N.T T E I T I Z U e.I v v c c 5 2 4 < < 4 < > 4 b K K K J c 5 5 c F D c c F F I I I T e.Z.Z.Z.N.A.L.L.D.A.B.e.e.T U T T T T T T T T Z.Z.Z.Z.Z.Z.Z.Z.e.A.Q.Q.-X-X-X;X;XR c c v k D.:X-X4 : J J b b 2 3 k v S y.1.1.A n 6 3 c W !.A.r.p.u.i.x.x.a.p.p.p.p.t.I 5 + . = O O X X X + . X               o o o o . . + 0 ~ 9.y.9.Z 3 , y ( 8X[ I.8X8X8XI.8X8X8X8X8X8X8XI.I.8X[ ) ) ] ( G y 9 8 8 8 8 & & & # #   #   . u u i 8 8 8 8 8 9 y y y y i X   i +.{ i i / { / / ../ t i d t t d t / - & i 8 y D D G D ` /.!.~ W K e e 8 8 8 7 , 8 7 8 8 8 y 8 8 8 $ + + 8 s ! 8 . . . & w & .   . @ > K -X!.A.K.p.p.p.p.p.p.p.r.A.E n : + . O % - O = = + @ , @ + @ @ > : L ;XL : + + . % % . . c N.OXtX@X].x.z.z.j.j.z.i.s.<.=.m k r 6 < @ + . . 8 w w e 6 6 4 3 Z 0.p.}.=XgX).T : + .     + % q 8 7 9 0 u u J D 0 y 0 0 0 D 0 9 0 c F T Q._._.).R.L.L.).%X&X*X[.{..X+X+XXXXX X Xn.n.n.n.n.c.z.z.i.<.>.Z k : + X X X X # # # $ # + + # 8 ",
"j.v.v.v.j.h.h.h.4.4.4.4.4.4.4.4.4.4.3.3.:.:.<.w.9.9.e.e.e.e.e.e.e.U U U U U U U U U U U A A A A A U 9.9.9.9.8.w.0.0.q.q.q.u.u.u.i.i.i.i.i.i.i.i.i.i.i.i.i.i.i.i.i.i.u.u.u.i.i.i.a.a.a.s.w.~.lXDXJXJXGXjX!.j > > 3 3 g h x x x x l z l N ~.1X1XkX*X(.(.:XsXsXAXFXJXJXJXJXJXJXJXJXGXAXsXsXsXjXAXGXGXSXAXAXHXHXHXjXW x h h l x z l l l l l l l l l z l l l l l l l S N x z l l h g 3 n 2 2 ! @.@ , ! ! q + : : 4 2 3 3 g g g g g g g 3 v T e.N.N.T U E I I I Z U U v v v c 5 > > 0 4 0 9 < > > 6 c k j j c F F c c c c F F v F I T Z.A.A.A.A.A.Z.Z.T T T T T T e.e.T T T T e.e.N.N.T e.N.N.Z.Z.Z.N.e.A.Q.^.;X!.} | ;X-XE N.L.E.OX%X} : @ L ! b 5 > j x Z W 1.1.1.S !.~ v k Z t.p.u.u.i.x.].x.x.oX#X#X#X~.Z.c @ . O o o o . . . . . X             o o o o . . + 0 ~ 9.>.Z x F ] I.8X8X8X8XI.I.8X8X8X8X[ [ I.I.I.I.8XI.[ ) ) ( G y y 9 8 8 $ & & & # &     . . # u i i 8 8 8 8 8 9 y y i 8 # # t d { i i / / { ....../ i t i d t d / d d & & 9 y D H D 0 D H ' R v j e e w 8 $ $ $ , 8 0 8 8 e e 1 @ @ $ + w { ! + + . . s +.+.%   . . + 5 !.^.A.r.G.F.p.p.p.F.B.r.T 7 = . . . % = = # # # # @ @ , : : @ : c R ;X0 + . . % O . . . : T OXtX=X{.x.z.z.6.6.i.i.q.A m h r q + . . + # # 8 8 4 > 2 g W d.K.P.}.=XtXhXtXL.c > @ . . # w @ < 7 0 0 y 0 9 < D 0 0 0 0 9 9 9 0 c c v T (.`.).(.L.K.L.*X*XOX{..XXXXXXX X Xn.n.n.n.n.c.v.z.6.3.-.=.C x 5 : % O o o o X X . . . . . + & ",
"j.j.v.v.j.h.4.4.4.4.3.2.;.;.;.;.3.3.3.2.;.:.<.0.w.w.e.e.t.t.e.e.e.9.U U U U U U U U U U A A A A U U 9.9.9.8.0.w.q.q.q.u.u.u.u.u.i.i.i.i.i.i.i.i.i.i.i.i.i.i.i.i.i.i.i.i.i.i.i.i.i.i.a.s.K.1XlXlX;X~ 5 > 2 2 2 3 g g h h x x x l l z l N ~.1X1XgX&X).Q.:XsXsXAXFXDXDXDXDXGXGXGXJXGXSXsXsXsXjXDXJXGXGXGXSX,X!.x 2 l x x z z l l l l l l l l l l l l l l l l l z z x x z z l h h g 2 g 2 b ! ! @ w +.+.w . + : r 4 2 3 g g g g g g g 3 v E e.N.e.T T E I I I Z U A I I v v c 2 > 4 9 9 4 < > > 2 j h v W K K K F c 5 c c F F F Y E t.e.t.Z.Z.e.e.e.T T T T T T e.e.e.e.e.e.e.e.e.e.e.e.N.N.N.e.e.e.Z.S.Z.!.;X/.} } !.^.D.).&X*XOX%X} @ , ! ~ b 3 2 k k x Z W Z N x K b 2 2 v U 9.0.u.x.}.}.}.'.a.a.a.p.r.!.R @ . .             .   X             o o o o   . + 0 R U 9.e.N.V.I.8X8X8X8X8X[ I.I.I.8X[ [ I.I.I.[ I.8XI.[ ) H G y y 9 8 8 & $ & & # # .       8 i u y 8 8 8 8 8 8 9 y y u 8 & # i / { / / / / / / / / / i d / / d d / / d & 8 D G D H H D 9 D R R v c 8 - w w 8 $ , 8 @ < w e e e r @ , + + e ! w + + % $ w ! s + . . . . , L S.A.F.F.F.p.p.F.F.B.T F   o * = q q 1 @ $ # # # $ @ : > : @ : K } | 9 + + + % X     . @ T Y.rX*X{.'.x.x.i.i.u.q.9.Z x 3 1 % O . . % % , , 4 j k x N A 8.p.a.'.oXtXhXgXrXN.c @ + + @ , , , , < 9 0 0 D D c c D D D D c c c c c v T Q.`.`.1X&X).(.).*X*XOX|.|.|.n.n.n.n.n.n.n.z.6.6.3.:.&.:.,.A x 2 @   o o o O O O X O . . . . & ",
"h.j.j.j.4.4.4.4.3.2.2.;.-.*.*.*.;.2.2.;.-.:.:.<.w.w.y.y.e.t.e.e.e.e.U U U U U U U A U U A U U U U 9.9.8.8.8.0.q.q.u.u.u.u.i.i.i.i.i.i.i.i.i.i.i.i.i.i.i.i.i.i.i.i.i.i.i.i.s.i.i.a.a.a.s.~.1X<X!.j > : 2 j h g h h h l l l l l l z z l m d.*X&XfX1X`.Q.`.sXjXAXSXJXJXJXJXGXGXDXDXSXSXSXSXDXGXJXGXGXSX,X~ v g 3 g g l N N z l l l l l l l l h h h h l l l x z z z l z l l l h h g 3 3 2 | ! $ . - +.+.& . . + : > 2 3 3 g g g g g 3 3 v W T e.e.T T E I I U A U A T I v v j 5 > 4 9 < < < : > > 3 l S d.Z x v F c j c v F F I Y E T T T e.e.e.e.T e.T T T T T t.e.T T E E E T T T Z.N.N.T T T e.e.S.Z.' !.-X-X!.} !.Q.D.).*X*XOX*XR + 7 ! ! b 2 j k g g x x x g 2 : + + @ 4 c Z U >.s.u.<.u.u.,.0.q.,.A t.K @ . X                 X           o o o * o   + @ 4 F T B.R.W.8X8X8X8X8X8X[ [ [ [ [ [ [ [ [ [ [ I.8X7XI.] ) H G D y y 8 & $ & & & # X   X     P { u y 8 8 8 8 8 8 9 9 8 8 & X # w d { d i i i / / / / / / / / / / / / { u 8 y P H H } ` D 0 y D c 5 9 s w & # # + $ 8 , < e r r r 1 1 : + < J e @ @ @ @ + # = % . . .     . 0 T D.F.F.G.G.G.K.A.t.x > o * * = % @ @ @ , $ $ $ $ @ : : @ : : L | L @ + . . X o     . @ T Y.%X*X[.'.a.'.i.u.0.>.A v k 2 . o O . + + , > 2 j x Z C ,.<.<.5.i.i.].@XtXtXtX%XU 2 : @ @ , 7 0 0 0 0 9 9 0 c K L R R R F F F K F F I U A.~.`.1X1X1X~.~.).#X}.].|.|.n.n.n.n.n.z.6.3.;.-.*.V B C N x g > + . o o o o o o o o       . - ",
"4.h.4.4.4.4.4.4.4.3.2.;.-.*.*.*.-.;.;.-.-.-.:.:.<.q.w.y.r.y.e.e.e.e.9.U 9.U U U U U U U U U U U A 9.9.8.8.<.q.q.u.u.i.i.i.a.i.i.i.i.i.i.i.i.i.i.i.i.i.i.i.i.i.i.i.i.a.i.s.s.i.x.x.x.s.s.K.~.W g 2 3 k k g 3 h x l l l z z z z l z z h z y.~.1X1X1X`.~.^.,XjXAXSXSXDXGXJXGXGXGXDXDXJXJXJXJXJXGXDX,X-Xv 2 2 3 h h l z z z x z l l l l l l l l l h l l x z z z x l l l l h h h h g g 2 6 @.! . . & d -     . . @ 1 4 3 3 3 g g g g 3 2 k I T e.e.T T T I U U A 9.9.e.I x k j 3 4 4 9 < : : : : > 3 S 1.1.N z x v v v v F F v F I I U T T e.e.e.e.T T T T T T T E E T T T T T T T T Z.e.T T T T e.N.Z.Z.' !././.!.!.!.Q.A.L.%XOXJ.e.5 + u ! J b > 3 g g g c k 2 : @ .     & w 8 b ~ S N z l m z l m C A A t.K : + &             o               o o o *     + + < Y N.I.W.8X8X8X8X8X8X8X[ [ [ [ [ [ [ [ ( ) ] [ 8X7X^.] ) H G J y y 8 $ & & & & X . .     8 { { y & 8 8 8 8 8 9 9 9 8 & # % w d d d i i i i i i i i i i d / / / / i d i y G F D R ;X| L D y 0 9 9 0 $ . . + + . + , 4 8 e q 1 = = 1 + , 8 e @ + + @ + . . . . . .       . < I D.L.F.F.G.F.s.t.Z h > % * % % @ : < < , $ $ $ $ @ @ : @ > > | -X0 + + . . .     . # < T E.&X*XP.G.p.G.p.w.A Z Z v 5 < . . . + + @ > 3 v Z N C ,.:.<.5.5.6.6.i.c.@XtXtXtXL.F 2 @ + , 9 < 9 0 0 0 c D L R ' E R E ' Z.!.} Z.Z.t.t.r.~.`.`.1X1X`.).).#XP.{.].].].c.c.c.z.6.3.:.*.=.C C N z l g 2 : + . O           o o       . & ",
"4.4.4.4.3.3.3.4.4.3.3.:.:.*.=.=.*.-.-.-.;.;.;.;.5.<.q.w.w.r.e.e.e.e.e.9.9.9.9.U U U U U U U U U A 9.9.8.,.<.q.u.u.i.i.a.a.i.i.i.i.z.z.z.z.i.i.i.i.i.i.i.i.i.i.i.z.z.a.a.a.a.x.x.i.a.a.s.f.d.Z 3 g 3 3 g g g h z z z z z z z z l l z l z 9.~.1XfXfX1XQ.Q.,XjXAXSXGXDXGXGXDXDXDXGXGXGXGXGXJXGX,X~ 2 > > 3 k x l h l x N N x z l l h h h l l l l l l x z x z l l h h h h h h h h g 3 > 5 ~ J . &     ;       . w r 4 2 3 3 3 g g 3 3 2 k I T e.e.T T T T T I x U e.r.U l g 3 3 5 0 4 : : : : : > g g.<.=.=.A N x v v v v v v v F I U T T E e.T T T I I I I I I I Y I I I U T T T T T T T T T e.N.Z.Z.Z.Z.!.!.!.!./.!.!.Z.Q.(.L.e.g @ + ! J b K 2 3 2 j v b 0 : @ .   o * a a - p ! ! 6 2 g 3 2 2 3 m 8.A.~.} c 8 # . .         o o               o o       + + 0 S.T.6X8X8XI.[ 8X8X[ [ [ [ I.I.I.[ ( ( ( ( ( ] [ [ ] ] ( G G y 0 8 $ & & & & # X       & { { ( y & 8 8 8 8 9 y y y u 8 = w d { d d i i t t & X     ; & t t i d / d ( P G G F D K  .| L y y u u y 8 8 $ + + + + @ < , , 1 1 % % % + + ! ! , @ @ + $ + # + . . .       o . , v Z.K.G.G.G.s.8.m 3 2 > : @ @ + + + . . @ $ @ @ @ @ + @ @ 4 0 @.@.< + + . . O X . + $ < Y L.`.(.L.K.A.K.r.e.U v v 5 : + . . + @ : 2 g x Z A =.<.<.5.5.3.6.6.6.5.i.].@XtXtXfX!.n : + , y 7 9 0 0 9 c F R R ' Z.Z.Z.Q.`.`.!.^.`.~.K.r.K.~.`.1XfX1X`.&X*XP.[.'.'.].].x.i.5.3.:.:.=.=.C z h l g 2 > @ + . . . . . .     o o     . - ",
"4.4.3.3.3.3.4.4.4.3.2.;.-.*.*.*.*.*.*.-.;.;.;.;.3.:.<.<.w.w.e.e.e.e.9.e.9.9.9.U U U U U U U U 9.A 9.8.8.0.q.u.u.a.i.i.z.z.i.i.i.i.z.z.z.z.i.i.i.i.i.i.i.i.i.i.i.z.z.a.x.a.a.x.x.i.a.a.s.f.y.Z h g g k n n x z z z z z z z z z l l l l l A ~.1XfXgX1XQ.Q.:XsXAXSXGXGXGXGXGXGXJXJXGXJXJXHX!.g 2 2 3 j j g 3 g g h h x ^ ^ N l h l h h h l l l x x x x x l l l h h k g g g g g g g 3 2 ! @.+.! @.{   ; o     q ! : > 2 2 3 3 3 3 3 3 2 k I T T e.T T e.T T Z x 9.B.K.e.Z l g 3 5 0 < : : : : : 2 n g.:.:.<.1.C z Z x v v v v v I I U U U T T T T T I I I F F F F I I I I I T T T T T T T T e.N.Z.Z.Z.Z.Z.!.E E !.<X<X/.Z.!.!.Z.I > @ w ~ ! b b 3 j 2 b K J < @ +       * a a * - p o.r > 6 2 j K W y.~.`.<X} b 8 $ # X .       o o               o o     X . @ H /.8X6X8X8X[ [ [ [ [ [ [ [ [ [ [ [ [ [ [ [ ( ( y y G G y y y y y 8 & & & & & X .       d #.{ y y 8 8 8 8 8 y y y 8 i & % w d d i t i i i i i 8 & #   X X & t i / { { ( G G F D D K ~ y + # 8 i & . + @ @ @ : : : @ + + + @ % X   . + ! J + + + . . . . .     .     o o   + 2 U r.G.p.a.u.A l 3 2 2 3 3 > : + . # # + @ : : @ + + + , < ! @.| @ + + # X X O . . + @ c t.Q.A.A.A.A.A.t.E I c 0 : + + + @ @ > j x Z Z M C :.5.u.6.5.3.6.6.4.3.5.a.{.@X*XfX:XK : + $ 9 y c 0 4 5 c F Y ' Q.Q.Q.D.Q.Q.A.Q.`.&X).P.p.p.K.~.:X`.~.A.Q.~.L.P.J.G.}.'.x.i.5.:.:.=.=.A C z h g 3 > > : 1 $ $ + + + . . o o o     . - ",
"3.2.2.2.3.3.3.4.3.2.2.;.-.*.*.*.=.&.&.*.;.2.2.2.2.;.:.<.0.9.e.e.9.9.9.9.9.9.9.U U U U U U U U 9.A >.8.8.0.q.u.i.a.a.z.i.z.i.i.z.z.z.z.z.z.i.i.i.i.i.i.i.i.i.i.i.z.z.z.x.a.a.a.i.i.a.u.s.f.U z h h l k h h l z m z z z z z z z l l x l l N y.&XfXfX1X(.Q.:XsXAXSXSXDXGXJXJXJXJXGXAX:X~ k g g g g 3 3 j k h l x n h z S S N l h h l l l l l l x x l l l l h h h h 6 6 6 3 3 3 g 3 k j ~ J e $ w X   O   O - s ! @ > 2 2 3 3 3 3 3 6 2 k I T T e.T T T U T U U B.).*XK.e.U v k 5 0 < : : : : : r ^ 1.2.:.:.,.B m x x v v v v F I I I T T T T T I I I I I F I I I I I I U U U T T T T T T T e.N.N.Z.Z.Z.Z.Z.I I Z.!.:X:X!.!.} ~ R > @ e ! ! b 5 3 j j K L 9 @ # #     . # - = . + q o.Q 2 > 2 n ~ !.~.~.t.E K 4 7 , $ # .       o o                 o       . D /.^.8X8X8X8X[ [ [ [ [ [ [ [ [ [ [ ] ( [ [ [ [ ] ( G 8 8 8 8 8 y i i 8 & & # X X     X i { ..( y 8 8 & & $ 8 y y 8 8 $ + % = - - & & $ $ 8 u s ! ! ! 8 i t & t d { { ` ` H D F K c 0 0 $ .   & t & . @ c } ;X,XpX-X| , + . . X X     + 7 , + . + . . . . .         o o o . @ 3 U F.[.OX@X@XOXOX).`.1X*X#XA.I ,       O = 1 1 @ + . . $ : @.| P + + + . . O X . . . @ > Z E E t.t.t.Z.W F c 4 @ + . + < > 3 c Z W A C C =.<.5.5.5.5.5.4.7.7.3.3.5.G.[.J.~.E 5 : @ $ 8 9 0 c D F R E ' Q.`.`.Q.A.e.e.U e.K.).P.F.p.r.r.r.t.t.t.e.e.e.e.B.B.F.K.P.}.a.a.<.:.=.C C Z Z x 3 2 2 4 e e 8 9 , , : @ + % * *     O = ",
"2.2.2.2.3.3.3.3.3.2.;.;.-.-.*.*.&.&.&.*.;.2.2.2.;.;.:.<.<.0.9.w.9.9.9.9.9.9.9.U 9.U U U U U 9.9.A >.,.<.q.u.u.i.x.z.z.z.i.z.z.z.i.i.z.i.i.i.i.i.i.i.i.i.i.i.i.i.z.z.z.z.a.a.a.a.u.u.q.w.f.A l l l l h l z N z l z z z z z z z z h x x h z t.`.1XgX1X(.Q.:XsXCXSXDXGXJXJXGXSX,X<XW x g g g g h x k g 3 g h x h g x l l z z x l h l l l l l l l l l h h h h h h k 6 6 4 2 2 2 2 2 > > ! 0 w 1 w w p     d +.+.! 1 1 2 2 3 3 3 3 3 3 2 k I T T e.T T T U e.r.r.*XtX*X*XP.y.U Z k j 2 > > 2 > > k ~ *.2.2.*.B M m m x x v v v F I I E T T T T T I I I I Y Y Y Y R E T T T T T T T T T T T e.N.N.N.N.D.Z.Z.E I I E !.!.;X;X;X| ~ L > < e ! ! b : > j c R L , . & -   . . # & # . . @ ! ~ b : 2 n K W Z Z g c c < 7 8 $ # # .                                 . ` pX^.8X8X8X[ [ [ [ [ [ [ [ [ [ [ [ [ [ ( ( ( ( ] ( y y y 8 & & 8 i t 8 & & # X X     & { #.{ y 8 & 8 & & & & 8 8 8 $ $ @ 1 = + . $ 8 + + + 7 u P ! { { { ! u i P ( ( ( ` ` G D D c c @ + + + 8 y P L !.`.1X1XjXlXjX:XF 4 @ + + . . @ L F F F F R R ` L F c < @ @ + @ + + : j U J.OX@X@X@X@X@X=XtXrX*X=X=X*XA.v + . . O * = = % + . . , : @.| e + + .       . . . . + : k K R R R R R c c 2 : @ @ : 4 n x x Z E y.C M ,.<.<.<.:.:.5.5.7.7.7.2.-.:.q.p.U Z 2 : @ @ $ 7 0 D L ` } ' E T Q.`.).A.e.e.e.U A r.K.p.w.r.r.0.A A U e.e.e.e.e.U U U e.F.G.G.G.P.u.,.C N N Z v v c c c b 0 0 4 4 4 > < : % = = . . . & ",
"2.2.2.2.2.2.2.2.;.;.;.-.-.-.*.*.-.*.-.;.;.;.;.2.;.2.5.5.<.<.<.0.8.8.0.r.r.r.e.9.U U U U U U U 9.9.,.0.q.u.u.i.i.z.z.z.z.z.z.z.z.i.i.i.i.i.i.i.i.i.i.i.i.i.z.i.i.z.z.z.a.a.a.p.p.q.,.8.y.y.N l z l h l l l l l z z z z z z z z l z x l l h Z `.1XgXfX`.Z.!.sXSXSXDXDXHXAX,X!.v 2 g h h l l l l l h h h h l l l l h l l l l l l l l l l h l l l l l l h h h h h k k 6 6 2 > : : : : > ~ J J u 8 +.+.s w ! +.+.s % 1 > > 5 3 2 3 j g h v E E I I T U e.r.F.[.@X@X@X@X@X}.a.0.C m z l l h g h l N g.:.;.*.*.&.V B M d.S x v I E Y I T E E U U I T T I Y T E E R R I I I I I I I I T T T N.N.Z.Z.N.N.Z.A.T T Y v I E !.!.`.:X!.` K : 4 L J J J 4 6 5 K L D , @ .   O     X &     . . % @.o.@ @ : : e 2 5 b e 1 : @ $ $ # # .                                 y ] S.I.I.I.8X8XI.[ [ [ [ [ [ [ [ [ [ [ [ ( ( ( ( G y y y y 8 & X & - X # & .   o     ; / { { ( y 8 7 8 & & & 8 $ + + , @ > 6 > > c K J @ + 7 y 7 7 G L ;X| | ` H H ) H G ( ` L D 0 4 > : > 2 c I V.(.%XgX2X=X&X*X&X&X&X).T g 2 g v I U P.J.[.[.OX*X*X*X=X*XOXJ.r.9.Z Z z A r.[.@X@X@X@X+X+X+X+XoXoX=X=XoX.XoX=X#X>.g > % o o o . + @ : > 9 ;X! $ + . . . + . . . . + . + r 1 7 P J 7 9 , : : : 2 g x Z y.y.S A y.d.y.,.=.=.:.:.:.:.:.7.3.3.-.*.1.g.S n > : : @ : < < 9 D F ' !.' F x v e.K.L.K.r.r.9.A m B w.w.q.#Xs.,.C C >.y.y.9.U e.U U U U 9.r.r.p.P.#XK.>.Z 9.r.e.I F F F F v c j 5 5 5 4 > < r e 9 , y + ",
"2.2.2.2.2.2.2.2.;.;.-.-.-.*.*.*.*.*.-.;.;.;.;.2.2.3.5.5.<.<.<.0.0.0.0.w.r.r.e.e.9.U U U U 9.U 9.>.,.0.q.u.i.i.i.i.z.z.i.6.i.i.i.i.i.i.z.i.i.i.i.i.i.i.i.z.i.i.i.z.a.i.i.a.p.u.w.9.9.9.y.A m l l l l l l l l l l l l z z z z z z z m l l h Z ~.1XfXfX`.A.!.sXSXSXDX,Xd.k 3 3 g l h h l l z l l l l l h h l l h h h l l l l l l l l l l l l l l l l l h h h h k k k 6 6 > : : @ @ @ > @.! { P 8 ! @.s + # = . . + r r 2 > 2 k ~ !.-Xd.W W W E I I e.B.OX=XtX=X@X+X@X@X.X'.i.<.,.,.B C N m m m B g.-.-.-.*.&.&.&.C d.W S Z F F v v I I I I I I I T T I I F v c c k v v I I I I I T T N.A.S.D.A.N.N.T Z.Y E R v I E !.Z.Q.`.!.!.R 4 c ~ K e e : 0 L L R D @ + + .       ; -     .   . o.! + + + + 1 1 q e r 1 @ + @ % # + .                               X y ] [ [ [ [ [ [ [ I.I.I.[ [ [ ] ] [ [ [ [ ( ( ( G 9 , , 8 $ # X X - ; O . .     o     t i i G i y & $ @ & & & & 8 $ , < : 5 c c c F I I D D | ;X/.| H 0 : 9 R } Y I Y H G H L H c 2 3 j T Z.L._.%X%X%XOXOX{.{.{.[.[.[.[.*X*X*X*X&X&X1XgX@X@X@X@X@X@X@X@X+X+X+X@X@X=X=X=X=X=X=X@X@X+X+X+X+X+XXX|.z.z.z.c.i.{.=X$X$X2X3Xn : o o o   . @ > D c ;XJ @ . . $ + + + @ + @ , q 1 p w + $ # . $ + @ : 3 x A 9.y.1.C m m S ~.~.,.=.&.:.<.:.*.-.:.-.:.1.1.S n 6 : @ + @ , 7 b K L } R Y E I v x Z K.~.).K.r.w.>.M m m ,.<.s.#Xu.V V V >.w.y.9.e.e.A.B.e.e.9.U A C K.~.#XP.P.E.J.B.T Y T T T T I I v v c c 5 4 5 9 0 < y @ ",
"2.2.2.2.2.2.2.2.;.;.;.-.-.*.*.*.*.*.-.3.5.3.6.6.6.6.5.5.5.<.<.<.0.0.0.0.w.r.r.e.9.9.9.9.9.9.9.9.>.,.0.u.u.i.i.i.6.6.6.6.6.6.6.6.i.i.i.i.i.i.i.i.6.6.6.i.i.i.i.i.i.i.u.u.u.q.,.>.A A U W N l h h l l l l l l l l l l z z z z l z z z l l h Z ~.:X1XfX1X(.Q./.-X-Xh g g g l x x l l l l l z z z l l l l l h h h h l l l l l l l l l l l l l l l l l l h g g g g g 6 6 6 > : @ @ @ : 6 @.! ! ! ! { ! 8 . + d - . % @ 6 6 2 3 K | -X-X~ c 2 2 x U r.*X*X=XtXtX@X+X+X@X@XoX}.x.i.u.q.,.1.A C C B &.7.:.2.2.;.-.*.*.1.M N x v F F I E I I I I I I I I F v v v v v F I I I I Y T T T T N.Z.A.S.A.N.T T U T I E ' F F Y ' E !.^././.} D F ~ K b e @ < J R } L , + + .       X -     .     w p % . . . + @ 1 1 1 @ + + + # # . .                               X i ` ] ) ) ) ] ) G y ( ] [ [ [ [ [ [ ] ( ( ( ( ( ( G D D y 8 $ # & & ; ;         X X i { ( ( G y y 8 8 w & # + $ < 0 c F } Q.(.(.R._.W.W.`.S._ Y H H ` ` | | L F H ' ] ) c c c F Y T D._.E.%X%XrX*X*XOXOX@X@X@X@X@X@XOXOX[.OX@XtX@XOX*X=X@X@X@X@X@X@X@X+X+X+X+X+X@X@X=X=X=X=X@X@X+X+X+X+XXX+X+XXXc.6.2.-.V ,.q.s.#X#X~.d.> @ .       . @ L K @.0 @ + + ! | | D R 0 9 8 u e ! u @ . . + < : 2 j v W t.1.A A l h l N !.<Xd.,.B *.<.<.:.1.1.=.,.A z g > : + . . + , 0 D L R R F v F I I U U L.).).K.r.8.A m M m V ,.~.#X<.B V B C 8.y.y.e.e.r.r.B.F.F.F.r.r.w.p.P.*X=X*XOXJ.e.T T N.N.N.T U I I F v c c c c c 9 D @ ",
"2.2.2.2.2.2.2.2.;.;.;.-.-.-.*.*.*.*.:.7.v.v.v.v.6.6.6.5.5.<.<.<.q.0.8.0.w.r.r.r.9.9.9.9.9.9.9.9.>.,.0.u.u.i.i.i.6.6.6.6.6.6.6.6.6.6.6.6.6.6.5.5.5.5.5.5.5.5.5.5.u.q.<.,.,.,.C M N A S N x h h h l l l l l l l l l l z z z z z z m z z z l N d.`.&X1X1X`.Z.I j 3 x l h h l l x x z x z z z z z l l l l h l h h h l l l l l l l l l h l l h l l l l h h g g 3 3 3 6 6 2 > : @ @ @ < e | e 8 ! +.{ { ! s ! %.! . . : 6 b b K ~ R L | ~ K v I L.*XtXtXtXtX@X@X@X@X@X@X@X.X{.x.a.i.u.w.y.1.>.,.=.:.7.7.7.7.2.2.2.:.:.M m x v v v F I I I I I F F v v I I I I I I I I I Y T E E ' Z.Z.T T T T T T I I U T T !.} K D F R R } !././.!.R R } K b e @ : 0 L | L 9 @ + . O     X &     .     . % % . . . . + + @ @ + . . . # + .                                 X i ( ( ( ( ( ( ( ) ] ) ( ( ( ( ( ] [ ] ( ( ( ( ( ( ` ( G G 9 $ #         o o O X & 8 P  .( ( y 8 & & - - % @ @ : 0 L } ^.(._.eX9X9X9X9X9XW.E.W.I._ Y Y Y } | | L D H ] S.I Z U B.R.%XrXtX0X0X@X@X@X@X@X@X+X+X+X@X@X@X@X@X0X0X@X@X@X@X@X@X@X@X@X@X@X@X@X+X+X+X+X+X+X@X@X@X@X@X@X+X+X+X+X+X+X+X+X@X$X|.6.&.h h l z Z I W K > @ + .     o & J | ~ < @ @ 9 | /.;X!.;XR K 0 ! J ! J , + @ : 5 j v T t.t.A M m N h h h g Z !.<X~.,.=.<.:.:.:.V N Z x 3 > @ + + + , y P ` } } } E Y W E t.e.e.e.r.K.K.r.r.9.A B C M B ,.~.~.=.B B B C ,.8.w.r.r.K.K.K.P.J.J.G.G.q.0.q.G.#X*XOXJ.B.B.N.B.C.A.N.T T U I I I I F F D c J @ ",
"2.2.2.2.2.2.2.2.;.;.;.;.-.-.*.*.&.&.<.s.M.M.v.v.z.6.6.5.5.5.<.<.q.0.8.8.0.w.y.y.9.9.9.9.9.9.9.8.>.,.q.u.u.i.i.i.6.6.6.6.6.6.6.6.6.6.6.5.5.3.3.:.;.;.:.:.:.:.:.:.,.=.C B C N M m N N N x h h h h h l l l l l l l l l z z z z l z m z z z l z t.~.&X&X&X~.E v 3 3 h l l z x N x z z z z z z l l l h h h l l l l l l l l l l l h h h h l l l l h h h h g g 3 3 3 2 6 6 > > : @ @ @ @ 8 | e 8 u { u ! #.@.+.+.p + q s r 6 K ~ ~ R L ! J F E `.gXgX=X=X@X@X@X@X@X@X@X+X@X.X.X].x.a.u.u.s.w.<.<.:.:.7.M.j.6.3.4.j.6.<.=.M z x v c c c F F F F F F F v F F I I I I Z v v F I T T E E E E T I I I I I I U T W !.} c 9 0 K L } !.!.!.!.' } | L 0 < @ , L L L D 9 7 + . O     X %               .     O . . . . . . . . . X . .                       o o o       i P G G G G G ( [  . . .( ( ( ( ( ( ( y y ( ( ( ( ] ] ( H G G y &         o - p u y L ` ( ( G y 8 & ; O + : 4 c E Q.`.7X9X9X9X9X9XqXqXqX9X9XrX9XU.V._ I D R } L D D H _ Z r.[.OX=X0X@X{.@X@X@X@X@X@X@X+X+X+X+X+X+X+X@X@X@X@X@X@X@X@X+X@X@X@X@X@X@X@X@X+X+X+X+X+X+X@X@X@X.X@X+X+X+X+X+XXX+X+XXXXX$X$XoXx.m 3 2 2 2 > > < @ + . .     o & P ;XD : : : } /.^.`.(.`.!.!.K K D D < @ @ > 3 k Z U e.e.9.C C N Z x h g g 3 Z <X~.9.C V V =.=.B Z k > : @ 9 D J | | | | } ' E I I W t.Z.Z.e.9.9.9.9.9.9.9.9.A A M M M C y.y.B V B V =.=.>.8.0.0.s.s.p.F.F.G.G.G.G.u.<.u.a.[.}.OXP.H.H.H.E.E.L.B.e.e.T T T T Y Y F F K @ ",
"2.2.2.2.2.2.3.2.;.;.;.;.;.-.-.*.B V :.s.M.v.z.z.6.6.6.5.5.5.5.<.q.0.0.8.8.w.w.w.9.9.9.9.9.9.8.8.8.0.q.u.u.i.i.i.i.6.6.6.6.6.6.6.6.7.5.5.3.3.:.:.*.*.*.&.&.&.*.&.C M m m m M M N A S z l h h k k h l l l l l l l l l z z z z l z m z z z z z A ~.1X1X1X`.Z.I k g Z N z l l l z z m z z z z l l l h h h h l l l l l l l l h h h h h h h h l h h h h g g 3 2 2 2 2 2 2 > : : @ @ @ : e ! e 8 8 u & s +.{ p w p w w 1 : > K ~ ~ L L ! ! K ' (.fXtXtX@X@X@X@X@X@X@X@X+XXX.XoXoX}.v.v.s.s.u.u.5.:.:.3.6.4.3.3.j.v.z.5.&.m l k v F c c c c v F F I I I v v I I I I Z Z k v v I T E E T T U I Z Z I I U U T W } } < @ < 0 J R ` ' } } } R } | P e , < | | ` D 0 y u q X     X X     O   X           X O     .     .   . . .                           o o o     & i y y y y ( G i i (  . . .{ { ( y &   & ( [ [ ] ] [ ] [ [  . .( 9 #       w d u y 0 0 D G G y i & o   @ 5 Y S.(.7XrX9X9X9X9X9X9X9X9X9X9X9X9X9X9XW.C.I I R H F F D D I r.{.=X@X@X@X@X@X@X+X+X+X+X+X+X+X+X+X+X+X+X+X+X+X+X+X+X+X+X+X+X+X@X@X@X@X@X@X@X@X+X+X+X+X+XXX.X.X.X.X.XXXXXXXXXXX+XXXXXoXoXoX$X=X1XW 3 2 : + . + . . . .     # 8 J ;X> : > F :X1X_.E.E.B.Q.!.I : < < @ : 2 v W E t.y.y.>.C C =.1.U I h j k 2 g t.<X~.9.C C ,.=.C x j 2 5 F | ;X;X>X;X-X!.t.E U Z U T t.t.e.e.e.e.A A A C A A A A A M C C <.<.V =.V =.1.,.=.,.,.,.,.8.0.w.p.G.[.[.}.a.u.u.u.a.'.}.J.G.F.J.[.OXOXP.H.B.B.N.e.T T Y Y R L : ",
";.2.2.2.2.3.3.3.2.2.2.2.;.-.-.*.B B &.<.7.i.6.6.6.6.5.5.5.5.5.<.q.0.,.8.0.0.8.9.8.9.9.9.>.9.8.0.0.q.u.u.u.i.i.z.z.z.z.i.6.6.6.5.7.7.7.3.:.:.*.*.&.V V V B B B B m m m m m M A 1.d.S z l h g g k h l l l l l l l l l z z z l l z m z z z z z N ~.*X1XgX1XQ.E x 3 h l m N N N z z m z z z l l l l l h l l l l l l h h h h h h h h h h h h h h g g g g 3 2 2 2 2 2 2 2 > : : @ @ @ 7 ! ! @ , 8 i & s d w & - w & . + @ 0 K ~ ~ L J L L L I I e.OXtXtXtX@X@X+X+X+X+X+XXXXXoXoXoXc.v.a.a.i.u.i.5.;.3.4.4.4.4.j.n.v.i.<.C m x v c 0 9 c c v F I Y Y I Y W I I Z v x x v v I T E E E T I I I Z I I T T T e.E !.~ : + , , 0 D F R } } ' H L R L ! e @ J @.#.` 9 y P u & .   X X     X     X                         . . .                             o o o     X & & y y y 8 8 8 y i i { ( i 8 & & # X y [ 8X[ ] ] ] ] [ [ I.[ ] ( 8 .     & s u 9 7 @ + , 9 y & X   . 9 Y C.(.rX9X9X9X9X9X9X9X9X9X9X9X0X9X9X9X9XrXrX(.k F I I F c H C.@X0X0X+X@X+X@X@X@X@X+X+X+X+X+X+X+X+X+X+X+X+X+X+X@X@X@X+XXX+X+X+X+X+X+X@X@X@X@X+X.XXX+X+X+X+X+X+X@X+X+X+X+XXXXXXXXXXXXXoX.X|.|.}.2X1XK.k : + .     o o o . + 7 D L } : 2 I `.fX&Xr.r.F.N e.A.E > : : 2 k I t.d.d.y.y.,.&.V =.,.,.9.S x k k 3 3 x Q.:X~.9.A C m m h v E !.:X:X;X!.!.!.d.d.d.K.~.~.~.!.t.t.t.e.r.r.9.A N m m N N S S C 1.1.,.1.=.=.=.1.f.1.=.C ,.,.0.0.q.u.p.G.[.[.'.'.a.u.u.u.a.a.a.p.p.F.G.J.[.J.E.P.J.F.B.e.e.T T Y R : ",
";.;.2.2.2.3.3.3.2.2.2.2.2.;.-.*.V B V :.5.7.7.i.6.3.5.5.5.u.5.<.<.<.,.0.0.0.8.8.8.>.>.>.>.,.8.0.w.q.u.u.u.i.i.z.z.z.z.i.6.6.5.5.5.5.:.:.*.&.V V V B B M M M M M m m M M M C 1.f.~.1.m l l g g k h l l l l l l l l l z z z z l z N z z z z l m ~.*X1X1X).A.E Z h l z z z z z m N m z z z l l l l l l l l h h h h h h h h h h h h h h h h h h g 3 g 3 3 2 2 > > 6 2 2 > : : @ @ @ < ! ! @ 8 8 i w w % X .     . . + 0 L ~ L ~ R L L L F F v Z e.P.=X=X=X=X=X@X+X+X+XXXXXXXoX|.c.z.i.i.i.i.i.6.3.6.4.j.j.h.j.n.c.z.5.,.Z v v c 0 c v v v F I I I I F F v v v Z Z Z I I I W E T I I Z Z Z Z I U T t.e.A.Z.!.~ @ + < @ < 9 c R } } ' } F 0 9 ! s . $ { ;X| , + 8 w # .   X X     O     O                         X X                                 o * o       . 8 8 8 8 & & & & & u i i 8 & #     y ] [ ] ( ] [ [ [ [ [ [ [  .` y . . # 8 8 8 y 8 . $ 8 8 & & & 9 H V.W.6X9X9X9X9X9X9X9X9X9X9X9X9XOX9X9X9X9X9XrXE.D.T v v T T C.OX0X+X@X+X@X+X+X.X@X+X+X+X+X+X+X+X+X@X@X@X+X+X+X+XXX+X+XXXXX+XXX|..X.X.X.X.X.X.X@X.XXX+X+X+X+X+X+XXXXX+X+X+X+X+X+X+X+X.X.XoX|.].x.}.#X*X).W : . ; o o o o + , c F } R 2 v !.lX).r.w.F.OXm w.K.Q.h > 2 v E t.r.w.,.=.&.V V :.<.<.=.A A Z x h g g 3 g A.A.A A Z N A d.!.Q.!.d.t.W W Z Z A 1.y.y.y.y.9.U Z Z U y.r.w.9.A m z z m N S S M 1.>.C 1.A B 1.g.f.y.=.V =.,.,.,.<.q.p.G.'.'.'.[.'.a.u.u.p.p.a.a.p.p.a.G.G.[.OXOX[.J.B.r.e.e.e.T E > ",
";.;.2.2.3.2.2.2.3.3.3.3.2.;.-.*.B B &.:.:.5.3.3.2.3.6.6.5.5.<.<.<.<.<.<.<.,.8.8.A >.,.8.8.0.0.0.q.q.u.u.u.i.i.z.z.j.6.6.6.6.5.5.:.:.:.*.&.V V C B M M M m m m m M B C &.&.:.5.s.#Xf.C l l h g k h l l l l l l l l l l z l z z z m m z m z h N K.*X1X1X1Xr.9.Z l l l z z m m m m m m z l l l l l l l l l l l h h x h g h h h h h h g h g 3 x ~ ~ 3 2 j > : 6 > 6 > 2 > : @ + @ , e u J u w 8 & & # X       . . . , J ~ ~ L R L L R R L F F F F v B.).&X=X=X=X@X+X+XXXXXoXoX|.c.c.z.6.6.i.i.i.6.6.4.3.3.4.j.b.v.z.u.,.N x c j b K I I W I I I I F v v v v x x Z I E E I I I v v v Z Z I I T t.t.t.A.A.Z.!.K @ @ 8 : < 9 c R ' Z.!.} ` 9 7 , . + . ! | | + + + @ + . % %                                                               . .         o o         . + # & 8 w w & .     X # & & X     ( ] ( ( ( ] [ [ [ ] [ [ [ [ [ ] y 8 $ & & & & X   - i & 8 y y H C.T.6X9X9X9X9X9X9X9X9X9X9X9X9X9X9X9X9X9X9X9X9XeX_.T x Z B.Y.9X0X0X+X+X+X@X+X.X@X@X@X@X@X+X+X+X@X.X@X@X@X.X.X.X.X.X.X.X.XoXoX].c.|.].c.].]..X.X.X@X+X.X.X+X+X.X+X+XXXXXXXXXXXXXXXXXXX.X.XoX{.x.i.].{.oX*X#X!.k +   o o   & 6 3 W !.c I ' ^.fXL.F.G.[.[.[.G.P.).t.v K E Z.r.9.C V V &.*.:.:.:.:.=.=.=.1.S x h g g h Z U U U Z E d.~.d.y.U Z Z x l x z z N C C A 9.A N m N Z 9.y.9.A 9.A m m z z m m m M M M M M B C g.f.f.<.V &.=.C B C ,.p.P.}.[.'.[.G.a.p.u.q.u.u.a.a.u.u.a.G.G.G.J.J.G.F.F.B.B.e.e.Q.> ",
";.;.2.2.3.3.3.3.4.4.4.7.7.3.;.*.B B V =.:.:.2.2.2.3.6.5.5.5.:.:.<.<.<.<.0.0.8.8.>.>.,.,.,.,.0.q.u.u.u.u.i.i.i.i.i.i.6.6.i.6.5.5.:.:.*.&.V B B M C N N M m M N B C ,.<.:.:.:.6.s.M.f.=.z l l g k h l l l l l l l l l l z l z z z m m z z z h N y.~.&X1X1XA.t.Z l l l z m m m z z z z z z N N z z l l l l l l l h h h h h h h h g g k x g k !.jXDXc > > > > 6 : : > > > : @ @ , 8 u e e 8 $ # X X             . . e ! | ~ R ~ ` L R R R H F D D c c I t.).=XtX=X.X@X.X.XoXoX|.n.c.z.i.i.i.z.i.6.6.6.4.4.6.z.v.v.i.u.C z l g 3 5 c Z U W I I I I I v v v v x Z Z W Y I I I I I I I Z Z I I T e.e.e.e.A.!.E F b < @ > 5 5 c v Y } ` ' ` 0 0 , . . . # u J @ 0 8 8 . . % % .         X                                               X     . # + . X O O O ; # . . .     # w s w - &         X X & & ( ( G G ) [ ] ) ] ] [ [ I.I.I.I./.( y # X X X ;   - w u L L ` ] T.W.6X9X9X9X9X9X9X9X9X9X9X9X9X9X9X9X9X9X9X6XW.W.%XB.U r.[.OX0X0X@X+X+X@X@X.X.X.X@X@X.X.X.X.X.X.X{.@X@X.X{.{.{..X.X.X{.{.{.{.{.].c.c.x.x.'.}.}.{..X@X.X.X+X+X.X+X+XXXXXXXXXXXXXXX|.|.].]..XoX].x.a.'.|.oX#XP.t.K .   ;   % 6 g ~ !.c F !.:X1XB.F.G.{.{.OXOX*X1XQ.!.!.t.t.9.C V &.&.*.-.:.:.<.:.:.:.1.=.C N x v Z x v Z Z I I W E A A N N N x l h l h l l z l x Z U A C N N y.f.9.A 9.A m m z z m m m m m m m m m M =.g.f.<.V =.<.=.B M B ,.p.P.[.[.[.G.a.p.q.q.u.u.u.u.u.u.p.a.a.G.G.G.G.F.F.F.B.K.A.~.2 ",
";.;.2.3.3.4.4.4.4.4.j.v.M.7.2.*.B B V &.*.-.;.;.3.3.6.5.5.:.:.:.<.<.<.0.0.0.0.0.0.<.,.,.,.,.q.u.u.u.u.u.u.i.i.i.i.6.6.i.i.6.6.5.:.:.*.V B M M M N N N m m N C A <.<.7.5.3.3.4.6.M.M.7.M l l h h h l l l l l l l l l l z l z z z z m m z z l z A ~.&X1XfXL.t.Z h h l z z z m m m M M N N N N z l l l l l l l l h h h h h g g g g 3 j g v !.HXJXDX;Xj : : > > : > 4 > : @ , 8 w e e 8 , + . .         .       + , ! | | } ~ } ` L Y Y Y H P J u u 9 4 j U K.*X=X=X@X@XoX|.|.|.n.c.x.z.i.i.z.i.6.6.v.z.6.z.v.v.v.i.q.C l h g 3 3 h Z A A Z Z Z I Z v v v x x x Z I I I I I I I I I I I I T e.N.N.e.B.N.Q.Y j 2 : > c R c j c I !.R ` R D u %   . . . $ u y ! ! s @ . % % .         X           O                                         & e u s ! +.o.! ! ! ! u 8 #     # w w w - .         & t i ( ( y G ( [ ] ) ] [ [ I.I.I.I.I.I.[ ( y #       o ; - u D F Y C.eX9X9XW.OX9X9X9X9X9X9X9X9X9X9X9X9X9X9X6XW.W.W.W.%XJ.F.[.@X0X@X@X@X@X@X.X.X.X.X.X.X{.{.{.{.{.{.{.{.{.{.{.{.{.{.{.{.{.{.[.'.'.'.].].].x.a.a.G.}.#X}.{..X.X+X+X@X+X+X+X+X+XXXXXXX.X].x.z.z.].oXoX{.a.a.c.c.|.oX#X~.j + .   + 1 b ~ :XE R R !.Z.l z w.G.[.G.w.w.P.~.t.T U U A B B V &.:.:.<.5.7.1.:.:.=.=.C S S S W h g g h x v v x x l l l x x l g h g g 3 3 3 j v Z >.A C A K.K.A C 9.>.N m z z N m m m m z z z z z M 1.g.,.V :.s.y.N z z M >.p.}.[.[.G.F.p.w.q.q.q.u.u.u.u.p.a.a.a.a.a.F.p.F.F.F.P.L.(.3 ",
";.;.2.3.3.4.4.4.4.4.j.v.M.7.3.*.B B V &.*.-.-.;.3.3.5.5.5.:.:.:.<.<.<.q.q.q.w.0.w.q.0.<.<.<.q.u.u.u.u.u.i.i.i.6.6.6.6.i.i.i.6.5.5.:.:.V B M M m M m m m m N A ,.<.5.6.6.4.4.4.4.j.M.s.V l h h g h l l l l l l l l l l z z z z z z m m l x x l z K.*X&XfX~.A.Z h h h l l z N S S S S m z z z z l l l l l l l l h g k k g g g g j 3 c F I } sXDXDXAX~ : : > > : > > : : , 8 e e e , @ + . .         . X     . 8 ! | | } ~ R R L F F F F D J J u u J 0 9 c v U K.*X=X=XoX|.|.|.n.c.z.z.i.i.z.i.i.i.M.v.z.z.v.v.s.s.1.M h h h g g l N C C N N Z v v v v v k k x x v I I I I I I I I I I T T N.N.N.N.D.T Z.F 3 j > v F E v k v F !.} ` L J u &   o     8 P P ! ! u 1 + + X .         O           X O                                 # i ! s e 8 e u & + . & u ! ! ! ! &     . X % %     X X & - t i i G G G ( G G ) ] [ I.I.[ [ [ V.I.I.^.[ y X       & u P F F N.eXrX9XOXOXOX9X9X9X9X9X9X9X9X9X9X9X9X9X6X6XW.W.W.W.OXOX[.OX@X@X+X+X@X@X@X.X.X@X@X@X@X{.{.{.{.{.#X}.OX{.{.{.{.{.{.{.{.{.[.[.[.G.G.[.G.s.s.y.y.y.~.#X#X*X@X{.@X+X@X@X+X+X+X+XXXXX.X.X|.].i.5.i.'.oX=X}.'.z.z.n.|.}.P.U 2 + . + e ! @.} R v 3 I Z.T e.F.G.p.w.w.p.K.r.9.U A C B M B V =.:.:.<.<.1.1.1.&.&.V C S S x h g g h x Z Z x g h x x Z Z I I I v v j 5 2 > 2 j l C A >.y.~.s.C B >.>.C m z m N S Z C Z Z N N m z m C 1.=.V <.#Xf.C z z m B ,.p.G.G.G.G.p.q.0.<.q.u.s.p.s.p.a.a.a.a.p.p.p.p.F.K.P.K.~.3 ",
"-.;.2.2.3.4.4.4.4.4.4.6.j.7.3.*.V V V &.*.-.;.;.2.3.5.5.5.<.<.<.<.<.q.q.q.q.q.q.q.u.u.u.u.u.u.u.u.u.u.i.i.6.6.6.j.6.6.i.i.i.i.i.5.5.<.:.=.C B M m m z m m M C =.<.5.6.4.4.4.4.h.h.v.f.=.l g g 3 h l l l l l l l l l l z z z z z z N z l x l h l K.).&XfXL.A.Z h g h x x N N S S S m z z z z z z l l l l l l l h g k h g 3 g k j c F E !.!.:XjXDXDX;X5 : > > : : : : : 7 e u e 8 @ + + . . .       . .     $ P | | ~ ~ K K H F D c c c D D y u u u y D c j g Z e.#X*X$X}.].].c.x.z.i.i.i.i.i.i.i.v.i.5.6.i.s.u.y.A z h h h h l m C =.A C N N x x v v v v x x v v W I I I I I I I T T T N.N.N.N.N.N.T e.v I /.E v I U v x k c } } ` D D e % O o     $ u ! ! u 1 + # X . . . . . . X         O & X                                   s { P e J J e + . . . @ 9 c y +.w         .     O O X & & & & i i i y 8 @ @ 7 ) [ I.[ ] ] [ [ I.I.I.I.] ( G P $ 7 L ` I I N.W.9XOXOXOX9X9XOXOXOX9X9X9X9X9X9X9X9X9XW.W.W.W.W.OX9XOXOXOX@X@X+X.X@X@X@X@X@X@X@X@X@X@X{.{.{.OX*X*XOX{.{.{.{.{.{.{.[.[.[.[.J.G.F.K.K.!.t.W v v Z U ~.*X=X@X@X@X.X.X+X+X+XXX.X|.].].oX}.'.i.u.a.].{.#X}.c.z.j.j.i.a.K.x : @ : J @.-X!.!.R v W } E Z.K.E.F.G.G.F.p.8.K.w.A M m M B =.C =.=.,.:.:.1.1.V C C S n x 3 > 3 x Z E E Z x h l Z U E U U E t.I v v v 5 2 2 g h m C 8.y.y.,.C B >.>.A M m M S 1.U U A A Z Z N N m C 1.C B <.#Xf.=.M M M M V <.p.p.G.G.a.u.<.,.<.<.q.u.s.s.s.s.p.p.p.p.p.p.p.F.K.K.~.g ",
"-.;.;.2.3.4.4.4.4.4.4.4.4.3.2.*.&.V &.*.-.:.;.;.3.3.5.5.5.<.<.q.<.q.q.u.u.u.q.q.u.u.p.p.u.u.u.u.u.u.u.i.6.6.6.6.j.6.6.i.i.i.i.i.i.u.u.5.<.,.C C M M M M B C =.:.5.6.4.4.h.h.h.h.4.j.f.1.l g 3 2 h l l l l l l l l l z z z z z z z m z l x l h l A.).&X1XL.A.I l g k S S S N m m m m m m z z l l l l l l l h h k g h g 3 g v v v K H !.:X:X:XpXjXJXSX} > : : : > : < < 8 e e 8 , $ $ @ + + .             + w ! | ~ ~ R K F F D D D D D c 0 0 0 0 0 0 0 0 5 2 2 k r.}.#X}.].c.c.z.z.i.i.i.i.i.i.i.5.<.:.-.:.<.,.A N l h h l l z B ,.1.<.>.C Z Z x x x v v v v I I I I I I I I I I T T N.N.N.N.N.N.B.e.D.D.^.:XE Z 9.U U Z v v R | R 0 0 w X O o o   . $ ! ! ! r + % . . . . . . . X         X - =                                   s ! u J ! L 0 < , , 7 D J L L { #   . . . X   O .       X X # 8 i & # $ $ + @ ( ] [ ] ] [ [ [ I.V.I.I.I.I.[ ] F c c F I T C.W.OXOXOXOX9X9XOXOXOX9X9X9X9X9X9X9XOXOXY.W.W.W.9X9X9X9XOXOX.X.X.X.X@X@X@X@X@X@X@X@X@X@X@X@X@X{.OXOX{.{.{.[.[.[.[.[.[.G.P.P.K.p.r.t.W W b 4 : : : 2 U L.OX@X@X@X.X.X+X+X+XXX|.c.x.x.].oXoX].x.a.a.'.'.{.|.c.6.;.:.u.~.U 2 2 c ` ;X/.E Y R R K c c T A.%X*XP.p.8.r.r.w.>.C C B M M C V C =.=.=.*.*.=.1.Z Z x g 3 2 > 3 v E d.y.Z z l Z U e.t.U A U U U Z Z Z x g 3 g m M B ,.y.>.B C C 8.8.C B M M A 1.U U A A Z Z Z S N C A C B ,.f.y.,.B V V V V :.u.u.p.a.a.u.<.=.=.,.,.<.<.<.q.u.p.p.p.p.p.p.p.r.K.K.~.h ",
"-.;.;.2.3.4.4.4.4.4.4.3.2.2.;.-.&.&.&.*.-.;.;.2.3.5.5.5.5.<.<.u.q.q.u.u.u.u.q.q.q.u.p.p.a.u.u.u.u.u.u.i.6.6.6.6.z.j.6.6.i.i.i.i.i.i.i.i.u.q.<.<.C C C C =.,.<.<.5.4.4.4.h.h.h.k.h.j.f.g.z g 3 2 h l l l l l l l l l z z z z z z z z l l l l h x A.~.&XfX(.Q.U x h n n S S z z z m N N N z l l l z l l l l h h h g g 3 3 k W ~ R } !.pXsX} F ' :XsXGX;X> @ : > 4 > 4 e e 8 8 $ $ $ , , $ # .     . . . % w ! ! | ~ R W K F F F H F D D D D c c c c 0 9 < < 8 , > N p.}.}.'.c.x.x.z.i.i.i.i.5.5.u.<.:.&.V V V C N N l l x z z m C <.<.1.=.C C Z Z x v v v v v v I v v v v I I I T e.N.N._ T T T T B.N.B.(.(.e.I U y.r.K.U Z R K } H 4 0 8   o o o .   + ! u J 1 1 % .   . . . . X +   . .   % - -                                   + 8 e J ! { L @.@.@.| | ` ~ ~ P .   # . . #   O .       X X & & 8 X . q w , @ ( } ] ] ] [ V.] [ [ V.V.V.V.V.N.I v h x v e.U.W.9X9X9X9X9X9X9XOX9X9X9X9X9X9X9X9XOXOXY.Y.W.OX9X9X9X9XOXOX{.{..X.X.X.X.X.X.X.X.X.X.X@X@X@X@X{.{.{.[.[.'.'.'.G.G.G.a.p.w.8.9.A Z x : + . . . + @ : g e.J.[..X@X+XXXXXXXXX|.c.z.i.i.x.}.oXoX{.].a.i.x.c.{.].i.,.C A d.~ l v I ' Q.' I v F K 5 : 3 I `.`.B.r.K.F.s.y.M M B A >.C B M B B V V V V V B Z x k 3 > > > 2 v E !.!.y.A C C 9.e.e.9.9.A A C >.>.9.1.S N l l C C A >.1.C M A ,.y.0.A C N M C U U U A I Z Z Z S S S A C B =.<.,.=.V V &.1.1.<.u.u.u.u.u.u.<.=.C C C A =.C ,.<.u.p.p.p.p.r.w.0.p.p.~.g ",
"-.-.;.2.3.3.4.4.4.4.4.3.2.;.;.-.*.&.&.*.-.;.;.2.5.5.5.5.5.<.<.<.q.u.u.u.u.u.q.q.q.u.p.p.u.u.u.u.u.u.u.u.5.6.6.6.z.6.6.6.i.i.i.i.i.i.z.a.s.s.u.q.,.,.<.<.<.5.5.7.3.4.4.4.4.h.h.h.h.j.M.s.M g 5 3 h l l l l l l l l l l l l l l z z z l l l h l Z t.~.&XgX).~.t.Z k n n x l l x S z z x l h h v W x l l l h h g g g g 3 3 v ~ !.} !.-XsXsX` : : : 5 sX-X> 2 4 4 : 6 0 e 8 8 $ $ $ @ $ , $ # # # & % + # w ! { { ~ L R R R L H H L K J K F F D D D 0 c 0 9 0 e 8 @ 2 A P.}.x.x.c.x.x.z.i.i.i.5.5.u.<.,.V B M M N N S N S S C M V :.:.:.:.=.V C N N x v v v k k k k x k k v v I T T T N.N.T T I T T e.e.I U U 9.e.9.r.r.~.U v R D L D > e 8   o o O     . s @ @ @ 1 % . . . . . . + +   . . . + w -                                 X + , 7 , @ , 9 e u J 0 5 5 5 5 ! + . .     X .   . X # & & & & & 8 #   O - . . {  .] ] ] [ [ ] ) ] ] _ _ V.W.rXrXrXtXrXOXOX9X9X9X0X9X9X@X@X@X0X@X9X9X9X9X9X9XOXY.Y.Y.Y.W.W.9X9X9X9XOXOX[.'.{.{.{.{.{.{.{.{.{.{.{.{.{.OX{.{.{.[.'.G.a.a.a.a.a.p.u.<.V B M m z g > @ + + @ @ : > x e.G.a.'.]..X.XXX.X.X|.x.i.i.i.x.'.}.oX=XoX'.i.z.z.x.}.P.w.A N W E v Z Y T _ F F D F D > 2 } :XQ.L.r.r.F.p.r.8.B B C A >.>.A A B B B B B B B M l h 3 2 : > 2 j I E d.t.A C N C 9.9.U 9.w.w.8.>.>.,.y.y.y.A M M M A 1.y.y.A B =.w.y.y.C C N m N W U U U Z Z Z Z N Z A A C C C V C V B B =.1.g.7.u.u.u.u.u.<.:.=.=.C C C V B V ,.q.u.p.p.p.w.8.>.>.8.K.g ",
"-.-.;.;.2.2.3.4.4.4.3.3.2.2.2.;.;.-.-.-.;.;.;.;.3.3.5.5.<.5.5.<.<.<.q.u.q.q.q.<.q.u.u.p.u.u.p.u.u.u.5.5.5.5.6.6.6.6.6.6.i.i.i.i.z.z.a.a.i.i.u.u.<.u.5.5.5.7.7.3.4.4.4.4.4.4.h.h.h.j.j.7.1.z 3 g h h h h h l l l l l l l l l l h x l l l l l l l Z A.&XfX&X~.9.N k n n n h l l x g n n 5 b ~ @.-X~ h g x g 2 6 2 2 2 3 > E !.Z.Y E ~ | ;X@.9 + @ < L 0 : 2 > : 4 e 0 9 < , $ $ $ + @ $ , , , $ @ + @ e ! ! ! ! P J J J K K L L L R R L L L F F F K J D 0 9 7 8 9 : j U f.}.v.c.c.c.z.i.i.i.u.5.u.q.>.C M m z m N S S C =.:.:.2.2.2.3.:.-.&.V B N Z v v v v k v v v v v I Y E E E Z.T T I I I T T A A A U r.r.r.8.w.~.y.h v | P y 0 9 ! . . .   X     . w ! @.@.! + + + . + . + + . . # . .   u -                             o O + , 8 , @ + + @ 7 1 6 r 3 > 3 F | . . #     o = . . . . . . X X $ 7 #   o o   #  .^.I.V.[ ] ] ) ] ( L D v U E.rX0X0X0X@X@X@X@X@X@X@X{.{.{.{.@X@X@X0X0X9X9X9X9XOXU.Y.W.W.W.6X9X9X9X9X[.OXs.}.'.[.[.[.[.[.{.{.].].{.{.OX}.P.F.F.p.s.s.u.<.:.:.<.<.5.i.a.x.a.a.p.p.9.Z h 3 g Z r.P.}.'.x.x.z.z.z.x.c.c.c.c.].{.x.5.:.i.x.].].oXoX}.5.5.5.u.s.y.>.m Z x Z E ' Y D D G y 9 4 v t.~.~.K.s.p.w.w.p.G.P.0.C m M A S C M M M m m m m z z h l h g 3 g l x W t.W A A Z N Z A A U 9.e.r.r.r.9.9.8.8.y.8.C B A >.8.y.1.V B C 0.s.f.1.m l l x l z N Z A A U U C A A A >.C B M M B B B B =.u.s.u.<.<.u.<.<.<.=.V V V B B V V V <.w.p.p.q.0.0.w.0.9.9.3 ",
"-.-.-.-.;.;.2.3.3.3.2.2.2.2.2.2.2.;.;.;.2.3.2.:.3.3.3.<.3.<.<.<.<.<.<.q.q.q.<.<.q.u.u.u.u.u.u.u.u.u.5.5.5.5.6.6.6.6.6.6.i.z.z.z.z.i.i.i.i.i.i.u.u.u.i.5.6.6.6.2.3.3.4.4.4.4.h.h.h.k.j.v.7.m 3 g h h h h h l h h h h l l l l l l n n l l l l l l A A.&XfX&X~.y.S k n n k n x h 2 j 2 @ : J @.;X-X~ k g k 3 2 6 > 2 > 2 2 E Z.Z.T I v K | @.! , + 8 0 < : > > 4 6 6 < < , , , , 8 8 , @ @ @ 1 1 e 8 0 0 e e e u D 0 0 0 0 c c c D D D D D K K L L L P J e 0 9 7 7 , 4 v y.f.v.v.z.x.z.i.i.u.u.5.u.0.C M m z z z N N C =.*.-.2.3.3.3.3.2.;.*.&.B M z x v c v v x x v F I Y E E E E T I v v I T T t.y.9.9.r.F.F.r.0.q.s.A h v | P y 0 e | @ . .         . w { @.@.! + + + + . + + + . . + . . . s w         o o                 o . + e P u 7 @ 7 y P b b b c F _ ' ;X@ . +         . . . . . . X . , 9 w O o o   # ` ] ] _ _ ] ) ( ] G 9 > > l A.OX{.@X+X+X@X@X+X+X.X{.{.{.oXoX@X@X@X@X@XOXOXOXY.Y.Y.T.W.W.W.6X9X9X9X9XY.P.y.s.G.G.G.F.G.G.'.'.[.[.[.G.P.K.p.r.r.r.,.,.=.=.:.5.i.x.].|.oXoX.X.X{.{.}.P.p.p.F.[.}.oX@X@XoX|.].x.a.i.i.i.i.x.].oXoX].x.5.5.i.}.oXoX$Xv.<.V V <.s.y.Z x I E E R F D D y y D F E A.~.s.s.u.q.p.G.J.J.OXP.0.M m N S 1.1.m m m z z l h h l N Z N z Z U U t.y.t.A Z x l x N A 9.9.e.r.r.e.r.r.9.8.y.0.,.=.0.w.y.y.=.B V ,.p.s.d.S l h h k h l x N N A A 9.A A A A >.A B M M M M M B =.u.s.u.<.<.<.<.<.<.<.=.=.V V V V V V ,.<.w.u.q.0.<.0.8.9.t.g ",
";.;.-.-.;.;.2.2.3.3.3.2.3.3.3.3.2.2.2.2.3.3.3.3.3.:.<.<.:.:.:.:.<.<.<.<.q.q.<.<.q.q.q.q.q.q.<.<.<.5.5.5.5.5.5.5.6.6.6.6.6.i.i.z.6.6.i.i.i.i.u.i.u.i.i.6.6.6.3.2.2.3.3.3.3.4.h.h.h.j.j.M.f.M 3 g h h h h h h l l h l l l l l l l h l l l z z z z Z d.&XfXfX).d.S 2 n n h h z x x 2 > : : : J | ;X!.x g k 3 2 6 > 2 > 2 c !.Z.t.E I c c J ! ! ! 8 < @ : > : 4 e 6 6 < < , @ @ @ @ , 8 8 e e e e e u e 9 < < < 9 0 J J D D D D c c 0 0 c c c D K L L P J J 0 0 9 7 8 < 3 Z s.s.x.z.x.a.i.i.u.u.5.q.1.C m z z l l z N C =.*.-.;.3.4.3.3.3.;.-.&.B M z x v v v v x x W W W E I I I I I v Z I e.e.e.U y.y.r.p.F.p.w.,.w.f.N x W L L y 4 K @.9 + .       O   & ! ! e e + + . . . . + + . . + . + . d p         o o               o o . % , u J y 7 D H /.} ' _ _ I.W.R.;X8 . .   o     . . . . .   X . $ e d * * *   X ( ] ] ] ] ] ] ] ( 7 : r > g U F.J.{..X+X+X+X+X+X].].x.x.].{..X.X{.@X@X@XOXOXY.Y.W.W.6X6XW.9X9X9X9XOXH.y.C 1.p.p.F.K.F.G.G.G.G.G.K.s.w.8.>.,.,.,.=.,.<.u.a.'.oX@X$X@X@X@X@X@X@X@X$X*X*X=X=X=X@X@X@X+X+X+XoX.X].].z.i.6.i.c.}.$X=X$Xa.<.5.i.a.x.}.#X<.M z B 9.y.U Z I E Y F F D c 5 D Y Z.~.~.s.q.<.=.<.P.*X*X*X*X*Xs.C m m N W d.m m m z z l h h Z U U U U 9.y.y.9.y.U Z Z l h z m A 9.9.e.e.e.9.e.y.8.w.s.y.,.,.p.G.f.y.V M &.q.P.K.y.N h g g g g h l z N Z A 9.>.>.>.>.8.>.C M M M M M V ,.q.s.u.<.:.:.:.:.<.<.,.=.C V V V V V =.,.0.w.w.0.<.,.8.9.t.g ",
";.;.;.;.;.2.2.2.3.3.3.2.3.3.3.3.2.2.2.2.3.3.3.3.:.:.<.:.:.:.:.:.:.:.<.<.<.<.<.<.q.q.q.q.<.<.<.<.<.<.5.5.5.5.5.5.5.3.3.3.3.5.6.6.6.6.6.6.5.5.5.u.5.i.i.6.6.6.3.2.3.4.4.4.4.4.4.h.k.k.j.M.f.C g g h h h h h h l l l l l l l l l l h l l z N N N N N t.).eXfX&XA.W g n g h l Z t.~.:X,X:X!.c 2 F /.!.Z h h 3 2 2 > > > > K !.E E E E I v 5 9 ! ! e @ : < > > 9 e 6 < < : , @ @ @ @ 8 8 e u e e w < @ @ , 9 e J ! ! L P P J J J J D c c 0 0 5 0 0 0 J J J u y 0 e e 8 < 2 x >.s.a.z.x.a.a.p.u.u.<.q.>.N l l l l l l m M C *.-.;.2.3.3.3.3.;.-.&.B M N x v v v v x x I I W I Z v x v Z U e.e.r.e.e.9.s.s.p.p.p.p.w.8.y.d.x K ~ K K 5 3 W -XD + +       o     w 1 + w + . . . . . . + . . + . + . s p         o o                 o . + , 0 D y 7 D ) _ _ _ N.W.rX9X7X/., .     * O   . . . . .       + u o.* * *   + ( ] ] _ _ ] [  .G + : Q 6 3 Z e.F.G.[.{..X+X+X+X].z.5.3.2.5.i.i.'.[.{.OXOX[.OXOXW.6X9X9X9X9X9X9X9XOXP.y.z B >.9.8.8.w.r.p.r.w.8.9.A B M B V &.:.u.a.'.{.@X@X@X@X@X@X+X.X.X.X.X.X@XoX@X@X@X@X@X@XXXXX+X+X+X@X@X@XoX].z.z.z.x.].$X$X$Xv.<.&.,.<.0.y.y.>.m l z A E U I I F F F D 5 c T !.~.~.s.0.=.=.,.p.*XgXgXtX*X*X}.w.C z z S d.N N m z z z z z 9.e.r.r.e.r.e.9.U 9.A N z h h z z A 9.9.9.9.9.U U 9.9.8.s.y.<.,.G.}.s.<.B B <.a.#Xs.>.z g g g g g h h l z N C A >.>.8.y.y.8.C M M M M M B =.<.u.<.:.:.:.:.:.<.<.<.,.=.V B B V V =.,.,.0.w.q.0.,.>.9.t.g ",
";.;.;.;.;.;.2.2.2.2.2.2.2.2.2.3.2.;.;.2.2.3.3.:.:.:.<.<.:.:.:.=.=.,.,.<.<.<.<.<.q.q.q.q.<.<.<.<.<.<.<.5.5.5.5.3.5.3.2.2.2.2.3.3.3.6.5.5.3.:.5.5.5.i.i.5.3.3.3.2.3.4.4.3.4.4.4.h.k.k.v.M.M.>.h g h h h h h h l l l l l l l l l l z z z N N N N N z U L.&XfX&X~.d.n 6 2 x d.~.~.1X1X1X1X:XQ.E T U d.Z h g 3 2 2 > > > 2 ~ !.E E E W E R c : < < + : J J 4 4 0 0 7 : , , 1 8 w e u u w 8 , , , 1 1 u J J J J u e 0 J J J J J J J D K D c 0 9 4 9 9 9 9 0 0 0 0 e u 8 8 4 k Z 8.p.a.a.a.a.p.u.q.<.<.A z l l l h h h z M C =.:.;.;.;.2.;.;.-.*.&.B M z x v v v v v v v Z Z Z Z Z U U e.r.r.r.r.r.r.F.p.a.a.a.a.p.p.y.t.E g ~ } c v j h e.!.K @ +       o     w , @ J . . . . . . . . . . . . . . s w                               . + 0 ` } F 4 F V.(.D.T _ R.V.I Y L + . .   O O O   . . . .       . w d * * *   + G ) ) Y H ) ] ] H @ @ r : > v T r.F.G.'.{..X+X+X+X.Xc.z.i.i.z.z.a.a.[.[.[.J.J.OXOX9X9X9X9X9X9X9X9X9X%X~.N Z A Z A C N N Z Z N N l h l z V <.i.i.].{.@X@X@X@X+X+X@X+X+X+X+X.X+X+X@X@X.X.X+X+X+X+X+XXXXXXXXXXX+X@X=XoX].].x.i.i.i.}.#X#Xu.C M M M N t.d.A h g Z E E I v v F c c c U d.~.~.y.,.V V V 0.P.#X=XgXtX=XOXOXP.r.A l z S S N z z z z N Z r.r.B.r.r.r.9.A A A Z z l h h z N A e.e.9.9.9.U A A A A w.w.0.0.a.'.s.:.V *.u.}.#Xr.C h g 3 3 3 h h h h l z N A >.8.y.s.f.y.C m M M m M M C =.,.=.&.<.<.:.:.<.<.<.,.=.V B V C C ,.,.,.0.w.q.0.0.>.9.t.g ",
"-.-.-.;.;.;.;.;.;.;.;.;.;.;.;.;.;.;.;.;.2.3.:.:.:.<.<.:.:.:.=.=.=.=.,.,.<.<.<.<.<.q.q.q.<.<.<.<.<.<.<.<.<.<.5.3.5.5.3.2.2.2.2.2.2.3.3.;.;.:.:.5.i.i.6.3.2.2.3.2.3.4.4.3.3.4.h.h.k.k.j.M.#Xy.z g h h h h h h l l l l l l l z z z S S N N z z z l l Z A.&XfX&X~.d.> 6 n !.1X1X).1XfX1X1X1XfX1XQ.U t.Z h g g 2 2 > > > 2 !.!.E t.U W E K 2 : @ @ @ b ~ L c 0 e 0 8 w e e e w e u u $ $ , 8 e u J J J J J J J ! ! ! J J J J J J J J D D D c 0 0 0 0 < < < 7 9 0 0 u w u 0 j x A w.s.a.a.a.p.q.0.<.,.N l h h h g g h x m M =.:.:.;.-.-.-.*.*.&.V M m h g j k v K W W W U U U U e.e.B.B.r.r.r.p.F.F.p.a.a.a.a.i.s.y.d.W v 2 K ~ v v x A K.~.E > @ .   o o   O w & @ s . . . . . . . . . . . . . . s -         . . . . # # & - w w # + @ D } /.S._ V.R.R.C.I T R.C.I Y c + + .   o         . . .       & s p O o o . + G ) ) H H ) ] ` G , + : 1 : j W U 9.r.G.}..XoX=XoXoXoX|.].].c.x.x.'.'.[.J.G.J.OX%XW.9X9XOXOX9X9X9X9XrXE.Z 9.D.L.A.9.Z l h g g g 3 3 h M <.a.].|.+X+X+X+X+X+X+X+X@X+X+X+X+X+X+X+X+X+X+X+X+X+X+X+X+XXXXXXX.X.X.X.X.XoX{.|.].i.5.:.u.<.y.y.1.N l l h Z W v k v I E R F F F c j v T d.K.f.y.C B V V ,.u.s.p.G.*XtXtXOX=X*X~.9.x h x l l l l z m S 9.r.r.r.r.F.K.w.A A A N z l h h z U t.y.e.e.e.e.9.A A M M A ,.,.q.u.a.u.*.&.<.a.}.P.8.z g 3 3 2 2 k h l l l z N C A 9.y.s.y.,.C m M m m m M B V =.V &.<.7.:.:.:.<.<.,.=.V V C =.=.,.,.<.0.0.q.w.0.8.9.t.g ",
"-.;.;.;.:.2.3.3.3.2.2.;.;.;.;.;.;.;.;.;.2.3.<.<.:.:.:.<.:.:.=.=.=.=.,.,.,.<.<.<.<.<.<.<.<.0.0.q.<.<.<.<.<.<.<.5.3.2.2.2.:.:.;.;.;.;.;.;.-.;.5.5.i.i.6.3.2.3.4.4.h.h.h.4.4.4.h.h.k.l.k.M.M.f.N h h g h h h h h l h l l z z m N N S S m z l l l l l Z A.&XfX&X~.!.> ^ -X:X1X*X#X*X&X&X&X&X&X1X&X~.t.Z h g g 3 2 > > 2 2 -X!.t.t.U t.W k 2 c J ! @.-X| L L J u u e u u e e 8 & $ $ . + 8 u ! ! ! ! ! ! ! J u u u u J J J J J J J J c c c D D D D D 9 9 7 < < 7 9 8 w u e 5 k Z 9.q.u.s.s.u.0.<.,.A z l h h h g g h n x m B =.1.:.*.*.&.&.V V B m l 3 2 2 2 k K ~ ~ E 9.9.e.e.r.r.r.r.r.p.p.G.G.p.p.a.a.x.a.i.w.y.W K 9 < J L v Z 9.p.#XP.A.5 : .   O o o O % + @ 8 . . . . . . . . . . .   .   s w       . $ e u P ! ! ! ! ! ! J 0 H Y S.(._._.%X%XE.B.U B.E.%X_.(.0 . +     O         . . .       u ! + . . . @ + ` ) ) ) _ I.S.Y 7 , @ 1 q q 1 b c v U r.s.'.].oX{.oXoX$X$X$X$XoX{.'.G.G.G.F.F.E._.W.W.OXOXOX9X9X9X9X9XR.Z Z.`.fX`.~.t.I c c 4 4 6 5 v U p.'..XXX+X+X+X+X+X+X0X0X+X+X+X+X+X+X+X+X+X+X+X+X+X+XXXXXXXXX X X.X.X.X.X].].].].x.a.5.*.&.B M S W v h g 2 3 j c v K R R v v v v v F Y Z.y.s.,.V B V =.,.q.u.u.q.u.}.=XtX=X=X*X~.t.v g g g h l z m A 1.y.r.w.9.r.F.K.r.A A A Z z l l x W y.t.t.9.9.e.e.9.U A M m A >.,.<.q.u.5.*.*.s.}.P.r.A h g 3 2 2 2 g h h l l z N C A 9.y.y.,.C B M m m m m M B C V V =.y.s.:.&.:.<.0.,.=.C V C =.,.,.<.0.0.,.0.w.w.0.w.t.g ",
";.2.3.3.7.7.7.5.7.5.5.5.3.2.2.2.;.;.;.;.3.5.5.<.:.:.<.<.,.,.=.=.=.=.,.,.,.,.,.,.<.<.<.<.<.<.0.q.q.q.<.<.<.<.<.5.-.-.-.;.;.:.-.-.-.;.;.;.-.:.5.i.6.6.5.2.2.3.j.v.v.b.k.j.h.4.h.h.k.l.b.v.M.f.C l h g h h h h h l h l z z N N S S z z z l l l l x h N A.&XfX1X~.!.2 @.:X:X1X*X#XOXOX*X&X&X&XfX1X`.U Z h 3 j 3 2 > > 3 3 -X!.t.Z.W E W h v -X>X,XSXsX| L | J u ! u w w 8 $ @ + . . $ $ $ , 8 e u J J J J J u u u u u u y 0 0 0 0 0 0 c b J J J J J D 0 9 < < < < 8 w u e 4 k Z A ,.w.s.s.u.<.,.=.C l h k k g 3 g k ^ x l m C 1.1.&.&.V B B M m l g 3 > : > 5 b K W Z A A 9.r.r.p.p.F.G.G.a.p.u.a.a.i.a.x.s.s.>.S n ! 0 0 J K I U r.}.*XP.K.k > + .       O % - w w . . . . . . . . . . .   . . d w     . $ e ! | -X@.| ! ! ~ { ~ R ^.R.R.R.U.Y.OXOXOXB.B.U.Y.rXrXR.9 . .     % o       . . .       s ! . + @ + < @ ) ) ) ) I.(.S.F + , + . = = % q > 5 v U w.u.a.x.u.i.i.a.'.}.}.}.'.p.w.r.r.e.r.H.E.W.W.9XOXOX9X9X9X9XrX_.I E `.`.`.Q.Z.E L J u w , 7 c T K.OX@X+X+X+X+X+X+X@X@X@X0X0X0X+X+X+X+X+X+X+X+X+X+X+XXXXXXXXXXX.X.X{.].].'.'.x.a.a.s.5.=.m M N l x n j > : : 2 c K ~ R K c c c k F E !.A.y.<.B M B ,.<.<.u.q.<.u.p.'.=X=XgX=X).K.E v 3 2 2 g l N A 9.y.s.w.9.A 8.K.K.w.N N Z N z x Z Z t.d.t.9.U U U U U A A A A >.>.C =.<.u.<.&.:.f.P.s.8.N g 3 3 6 > 4 3 g h l l z N C A 9.y.8.C M M B m m m M M B C C C ,.s.s.=.&.:.:.0.,.=.C V =.=.<.,.<.0.<.,.,.0.w.r.y.t.g ",
";.;.;.3.7.7.6.7.7.7.6.5.5.3.3.2.3.3.3.3.:.:.:.:.:.=.=.=.,.,.=.=.=.,.,.,.,.,.,.,.<.<.<.<.0.0.<.<.<.<.<.<.<.:.:.:.:.:.;.:.:.:.:.-.-.-.;.:.3.5.6.i.i.5.-.-.3.z.M.M.v.b.v.v.j.k.k.k.l.k.b.v.M.f.C l h g h h h h h h x x m m m m m z z z z z z l l l l Z B._.fXfX~.!.3 ~ !.`.&X#XJ.OX[.*X*X&X&XfXfX1X!.g 3 j 3 2 : 6 : : ~ -X!.!.t.E E W k n ~ | | -Xb | -X| 0 , $ & @ @ + . . . $ 8 u 8 + + @ 1 4 e 9 8 8 8 7 7 7 9 9 9 0 0 0 0 y y J J J J J J J J J J J e e 0 9 9 $ 8 e b k h N >.,.0.q.y.y.,.C N h 3 3 j 3 2 6 n ^ n h l N S C B B N m z l h g 2 2 : : < : : > 3 l m A w.w.r.p.F.G.G.a.a.a.a.a.a.a.x.x.p.8.W n b + . 8 0 F t.r.P.}.'.[.F.U I c @ .   O     w p & . . . . . . . . . . . .   . d d     . 8 { R R F j 5 4 2 c } ;XZ.T C.U.U.Y.OXOX9X9X9X9X9X9XwX0XT.0 @ .       o o                 8 y @ @ @ : 2 : ^.^.I.I.7X(._ D + + + . O = * . + @ > x A 8.0.V V V V =.<.<.q.<.q.,.r.r.e.e.B.N.T.T.W.9X9X9X9X9X9XrXR.v j c j 5 c j 2 > , @ # X   . : c e.J.OX.X+X+X+X+X+X+X+X@X@X@X+X+X+X+X+X+X+X+X+X+X+X+X.XXX.X.X.X.X{.].'.'.a.a.a.a.u.q.=.C N z h g 3 2 : @ : < D L ~ L K c c 3 j I Z.Q.t.U M M M C ,.w.q.q.<.:.<.5.5.u.}.=X2X*XK.U x 3 > > 3 g x A y.y.y.8.8.A C A y.y.A z N Z Z Z W W E E Z Z Z Z Z U U U A A A C C ,.,.=.,.<.:.&.1.f.s.,.N z g 3 6 6 > 6 g g h x z z m A A A A A C B M M N N M M M M B C C =.<.1.,.&.&.V =.,.<.C C 0.y.,.=.C =.,.8.,.>.8.y.y.t.3 ",
";.;.2.5.7.6.7.5.u.5.5.5.5.5.5.:.:.:.:.:.:.:.:.:.:.=.=.=.,.,.A C =.,.,.,.,.,.,.,.<.<.<.<.<.<.<.,.,.,.,.,.:.:.:.:.:.:.:.:.:.-.*.-.*.-.:.:.5.7.7.i.5.:.-.-.:.7.v.v.v.v.v.z.j.j.k.k.l.k.k.j.M.f.B h h g g g h l x x x z z m m m m z z z z z l l l l l Z N._.fXfX`.!.j K !.(.).P.J.OX[.OX*X&X&X1X1X1X:XW 3 3 5 2 : > : > ~ -X!.!.Z.t.t.W g 3 c 0 0 J : D L J , @ + + + + + + % & w w & # . . + , < 8 , , 7 8 7 7 7 < 0 0 0 e u J J J J J P J J J J J ! P P J J u e 0 , , < 4 5 g x C A ,.<.1.,.C m l k 3 2 2 2 > 6 b b 3 2 3 l N m z l l l h h g 3 6 1 1 1 @ @ @ @ 2 l B 0.s.K.p.p.p.G.G.a.a.a.a.a.a.a.x.G.s.U v 5 , + + y F T A.p.G.].'.a.p.9.T E K + . .   . w p = . . . . . . . . + + . .     w w = % . e } } !.!.!.Z.W I I Z.^.`.U.Y.Y.U.Y.OX9X9X9X9X0XqXqXwXqXW.9 @ .     o   o                 . | >X,X;X!.!.Q.7X7X7X7XfX^.I 4 @ . . . O * o o . + 4 v Z U 9.0.w.w.w.w.q.w.0.0.r.r.r.e.U T N.N.U.T.6X6X9X9XrX%XeX_._ 3 > 3 2 > > > : @ + .       . . : v B.OXOX{..X@X+X@X@X@X@X@X+X+X@X@X+X+X+X+XXXXX.X.X.X.X.X.X.X].].'.G.G.G.p.p.p.w.8.>.C N z x g 2 > : @ @ < 0 L { L J 5 > 2 j F E t.U A N m M C ,.w.y.y.q.u.5.<.<.<.<.i.#X#XK.U k 2 > > > 3 k Z t.y.r.9.A C M m M S S N h l x Z W W W Z v l l x x Z Z U A A A A A A C C =.,.q.1.&.1.g.y.,.N z g 3 6 1 : > g h l x z z N A A A A A C B M m M m m m M M M B B =.1.1.,.=.&.V C ,.,.C =.y.y.=.C B C ,.,.,.8.w.y.y.W 3 ",
"3.2.3.5.5.i.u.u.5.5.5.5.5.5.5.5.:.:.:.:.:.:.:.:.,.,.=.=.,.=.A C =.,.,.,.,.,.,.,.,.<.<.,.,.,.,.,.>.>.,.,.,.:.:.:.:.:.:.:.-.*.*.*.*.-.:.<.5.7.s.s.:.-.*.*.-.:.5.7.6.6.6.6.6.j.j.b.b.k.b.v.M.f.V l h h h h l x x S x z z z z z z z z z z z l l l h h x e._.eXfX1X!.c c E Q.L.P.[.OX*X*X*X&XfXfXfXfX,X!.5 2 6 2 : : : 6 @.-X!.!.Z.t.E Z g 3 j 4 > 9 0 J J 9 @ + .   % + # = w w - # . . . . @ , , < , , , , 7 8 7 9 u u u J J J J ! P ! ! ! J J P ! J P P ! J J J e e 8 : < 2 3 h z C A C A C m l g g 2 > > : : < e < : : > 3 g g 3 2 3 g g 3 6 e p e s & . + + @ 2 Z ,.p.P.P.a.u.u.'.a.a.a.a.a.a.z.a.x.G.y.I 5 @ . + + K ' Z.K.K.a.'.x.x.p.w.r.!.!.4 @ + . X - w = . . . . . . . . . .   X     & %   . + K !.Z.Z.A.Q.Z.T T T T D.eXrX9XW.U.C.H.W.W.eX9X9X9X6XW.U._ < + .   o o o                   . #.SXSXAXfX^.`.`.pXfXpX/.Y 5 2 , . . X X O o o o + D R I Z U e.y.y.s.K.p.p.p.K.K.K.t.Z I Y _ C.R.W.W.T.6XrX7XR.D.^.' c 5 5 > : : : @ @ @ + % O o . . + > I Q.*X[.{.{.{.{.{.@X@X+X+X+X@X+X+X+XXX.X.X.X.X.X.X{.{.{.}.'.'.a.p.p.r.r.0.8.A Z N x x 6 6 6 : @ @ @ , D L | L D < : > j I E E A N m m N A 8.w.y.y.q.<.s.7.<.:.:.=.<.0.U Z g > : : > 5 j v U t.r.9.A m m z l l z x h g g h x Z Z v h g g g h x Z Z Z Z S Z A >.A C C ,.,.<.1.&.=.1.1.,.C z h g 6 6 > 2 g x N x z m N C A A C C C B M M m m m m m m M M N C 1.1.,.=.&.=.V =.,.C ,.w.0.C B M B C ,.,.0.w.w.9.U 3 ",
"5.5.5.5.6.i.u.u.u.u.5.5.5.5.5.5.<.<.:.:.:.:.:.:.,.,.=.=.=.=.=.C =.,.,.,.,.,.,.,.,.,.<.,.,.,.,.>.,.,.,.,.,.:.:.:.:.:.:.*.*.*.*.*.-.:.<.5.5.5.u.u.*.&.&.&.&.*.*.-.;.;.2.3.3.6.j.j.k.k.v.j.s.f.C z h h x n n x x z z z z z z z z z z z z l l l h h g h e._.&XfX1X~.F c E (.P.[.*XOX*X*X&XfXfX:X:X:X;X-Xc > 6 > 1 @ @ 6 -X-X!.!.Z.t.W v 3 5 b e 0 b L ~ L 9 + . . . % % % = = & X   . . . + $ , , , , , $ , , 8 e u J J J u J J J J e e e e e e e 0 0 0 0 e e e J J J e e 4 4 2 3 h N S S N N l g 3 2 > : @ : @ @ @ @ @ @ : > > > : : > 2 2 6 b ! ! ! d = . + + @ v y.s.s.G.a.u.u.u.x.x.a.a.a.a.a.z.x.x.s.t.c : . . + > E Q.A.K.P.a.x.].'.'.G.K.A.!.v > @ + . = w - . . . . . . . .   .   X     s p % . @ | :XA.T U U U U U e.e.B.%X9XOXY.C.T I T _ S.S.S.S._ _ I c , + .   o o o                   & #.AXAXjXQ.k I :X`././.` 0 > 0 1 % . X X     *   & L } _ Y I Z Z A U 9.r.A.K.~.A.!.U k v T S.^.(.E.W.6X9X7XS.Y 4 H } } ~ L D 5 c 5 > : @ + . . o O O . @ 2 R ^.*XOX[.[.{.{.@X@X+X+X+X+X+X+X.X.X.X.X.X.X{.{.}.}.}.}.a.p.u.w.w.w.9.A A Z x h 3 2 > : @ + + @ 9 J ~ R L c < > 2 c ~ ~ E A m z M C 8.w.r.w.0.<.<.<.<.<.=.=.=.C C N h 3 > : : > 0 c c I U U U A N N z l l h h h g g k h k k h g g g g h h x Z Z W W W S A >.A B C 0.0.<.1.=.1.1.,.,.C m l h g 6 2 2 h N S N m N C C C C C C A C N N M M M m m m m M N C >.1.,.=.=.=.V C =.,.0.s.0.C B B B B C ,.0.w.y.9.A 3 ",
"5.5.5.5.u.i.u.u.u.u.u.u.u.u.u.i.5.<.<.<.<.<.<.,.,.,.=.=.=.=.C C =.,.,.,.,.,.,.,.,.,.,.,.,.,.>.>.>.>.,.,.,.,.:.:.:.*.*.*.*.*.*.*.<.<.5.5.u.<.<.<.&.V V V V V V V &.&.&.&.*.:.3.6.4.4.4.3.7.g.M l l x x n n z l l z l z z z z z z z z l l l l h h g h e.).&XfX1X~.W j I ~.).OX*XOXOX%X&XfX:X!.R D | -XJ 4 6 @ : @ @ b -X;X!.Q.A.Z.E k 2 2 4 < : : 0 D D 7 + . . X X % % % .       . # $ 8 8 8 , , , , 7 8 8 y u u e e 8 8 7 < < < @ @ @ @ @ @ @ @ , : : : : < 9 0 e e e e 7 : > j n x N x k j 2 > > < : : < , + . . . + + @ @ @ @ : > 2 6 r Q o.+.o.p . . + @ < ~ K.a.a.a.u.<.5.u.x.x.a.a.i.i.a.z.c.x.r.W 0 + . . @ v A.~.G.G.}.'.x.].].}.}.P.K.A.I j : @ + + - -       . . . . .   . . X   . d +.- . + } fXfX&X&X&XfX1X&XfXrXrXyXyXrXrXR.F : @ @ + + @ + : : @ @ , + .   o o o                   i #.SXGXSX!.> j /.F @ @ @ + @ @ q = + .       .   8 L } S.S.E v z z z Z U e.e.e.t.E x g I ' S.^.`.`.W.6XeX^.D < : G | /.;X;X:X,X;X;X-X| ! b 6 @ @ . . + . + 4 R (.).*X*XOX{.{.@X.X.X.X.X.X.X.X.X.X.X{.{.}.}.'.'.a.a.u.q.,.>.A A Z Z x x j 2 : @ + . . + @ 0 L R ` K 0 > > 5 K ~ ~ W Z z m C ,.0.r.r.r.w.<.,.:.:.=.=.=.A A Z z h > : : : < 6 0 c v I U U Z m m N l l l h g g g g k g 3 3 3 3 g g h h h h x x Z W S S N C C C ,.s.u.<.=.&.1.1.:.<.,.C m z l k g g h N S N m N A A C B M N C S S S M M M M N M M M M C A ,.>.=.=.=.C C =.>.w.s.0.C C B B B C >.0.w.w.A S 3 ",
"6.5.5.5.i.i.i.u.a.a.u.u.u.u.i.i.u.u.<.<.<.<.<.,.,.=.=.C =.=.C C =.,.,.,.,.,.,.,.,.,.,.,.,.,.,.>.>.>.>.,.,.,.<.<.=.*.*.=.:.:.:.:.5.5.5.5.<.<.<.<.&.V V V V B M M M B M M B V *.;.2.;.2.-.1.1.N l S n z l l l l l z l z z z z z z z l l l l h k k g h T (.&XfX2X:XW 3 v D.).OXOX[.OX).).Q.} ` L J | @.~ J w @ @ @ @ L ,X;X!.Q.A.Q.E j : : : @ @ @ @ < 0 e , .       . .       . # & & 8 8 8 8 < 7 $ 7 0 u u y 8 7 , , , @ @ @ @ @ : , @ @ : , : : < < : @ @ : : : @ , 8 8 , $ < 0 k k k k 3 > @ + < 7 < e u u & . . . . + + + + @ : > 6 r Q ! o.+.! = . . + @ b !.r.u.a.a.i.u.u.i.x.x.a.i.i.i.z.z.c.x.y.I 7 .   + 2 E ~.#X'.x.}.}.'.'.x.'.}.G.p.K.U Z k > + + - -     . . . . . . . # X X     d +.d & + } fXfXrXfXgXgXgXfXrXtXtX0X9XOX7X(.F @ . +       . . % = q 1 + .   o o o o                   # ! ,XDXjX!.:X-XD + . . + 1 w q = + . . + . . + 8 L ] S.^.!.E v l h l Z U U U Z x g k R !./.^.`.`.W.rX7X' : + + + $ 7 0 L !.-X-X-X;X;X-X} K b J @ . . # . . : I B.).*XOX[.{..X.X.X.X.X].{..X.X.X{.}.'.'.G.a.p.u.u.<.,.C C N N N x x j 2 : + . .   . + 0 L ` ` F c 2 > j n K W S x l z C ,.w.w.0.w.w.q.<.:.*.*.&.=.C N x k 3 > @ @ @ 1 e 0 0 5 k Z U A Z z z l h h g g 3 3 3 3 3 3 3 3 g g g g h h h h h l x Z W Z N B C >.w.P.u.:.&.:.:.-.:.5.u.,.C M m l h l l N S N m N A 9.A B M m N N S S C C C N N N N M N N A A A A A C C C =.,.w.s.0.C C C B B C ,.w.r.w.A Z 3 ",
"6.5.5.5.i.i.a.a.a.a.u.u.u.u.u.i.u.q.<.<.<.<.<.,.,.=.C V C =.=.C C >.,.>.>.>.>.,.>.,.,.,.,.,.,.,.>.,.,.,.,.<.<.<.:.:.:.:.:.<.<.<.u.q.<.<.<.<.<.<.=.=.=.C C B M m m m z z m M V &.-.-.:.*.1.1.S n n x l h h l l z z z l l z z z z z l l l h h k k g h U L.&XgX2X1X~ 3 g e.).OXOXJ.E.).D.F c J { | | ! ! J 1 1 + + @ ~ ,X:X!.Q.A.A.W 3 : : : : , @ : 9 b J u q .           . X - - - 8 w 8 8 8 8 7 8 8 8 8 8 7 , @ @ @ @ @ , , < 8 e e 9 9 e e e e e 0 0 9 < < < : , @ # & & # $ < 6 5 g 6 > @ . . , < 1 8 s s i # . # & & . . % % , < r Q ! o.o.o.p + . + @ 4 ~ d.w.u.a.a.a.i.i.a.x.a.a.i.i.i.a.z.v.i.w.F 8     + k f.s.x.].x.].{.'.'.a.a.'.'.p.s.A U E b : % - -         . . . . . X   .     w w ;   . ` 7X7XrXrXrXgXgXgXrXtXyX0XyXW._./.D .       ;         . % 8 +     o o o o                     + J -X-X!.| J $ . .   . = p = = @ $ y P u + @ , G ' ' _ ' !.S n l l z Z A A z g h W } !./.(.(._.T.6X7X] , . $ . . + @ : b K K R !.Q.`.`.^.!.` J , + . .   . 2 v e.K.P.[.{.{..X.X.X.X.X{.{.{.].'.a.a.p.u.u.q.u.<.<.<.,.C C Z x x j 2 : +         X 8 P ( L H c j 3 j v K v v h l z N ,.0.q.u.w.w.q.<.:.:.*.*.V V N l 3 2 : + + + $ 8 8 0 0 5 k Z U A Z z l h h g 3 3 3 3 2 2 2 2 3 5 g g g g g h h h g h x x S S N B A 8.p.P.q.:.*.1.:.*.:.i.a.u.=.C M z l z z m N N m M A y.9.A m z m N S S C C C C C B N N N N N A C C C C C C A >.0.w.0.>.C C C C C ,.w.w.y.A Z 3 ",
"6.5.5.5.i.i.a.a.a.a.u.u.u.u.u.u.u.q.<.<.<.<.<.,.,.=.V V C =.=.=.C >.>.>.>.>.>.,.>.,.,.,.,.,.,.,.8.8.8.8.0.0.<.<.<.<.<.<.<.<.<.u.q.q.<.<.<.<.<.<.,.,.>.A C N m m l l l l l z M V &.V =.B B S x x l l l l l l l l x l l l l z z z z l l l l l l h 3 l I A.&XgXgX1X!.j 3 T ).*X}.}.P.).S.c @ 7 u s { u ! e @ < @ @ : } ,X;X!.Z.Z.Z.R 2 @ : , , 8 $ 9 8 0 u u u w % % X . X & w w w - w 8 & $ , 8 e u e 8 $ + + @ @ @ @ , , 4 e J J u e 0 e e u u u e u J J J e 0 9 0 , + # & $ $ $ 1 6 r 6 < $ .   @ @ @ 1 u ! u & w p s w = + % = @ : r ! o.o.! s 1 + : : @ K !.d.s.a.a.a.a.i.a.x.x.x.i.i.i.i.z.z.v.i.0.I 9 . . + x K.u.i.c.x.x.'.'.x.i.a.}.x.u.u.A t.!.~ 4 1 w = . X     . . .               X   .   . G /.^.`.fXfXfXlXlXrXrXyXrXhX_.^.| y     o             . & w + .   o o o o                   & . + : > J b @ . . = = = = % = = @ 9 | ;X| : + @ D  .) c F !.d.W Z x l x x Z h 2 v } !.!.^.(.L.%XW.6X7X/.0 @ . . 8 e @ @ : > : > j F E !.Q.Q.!.} L 7 + + + + @ : 3 I A.).}.'..X.XXXXX.X{.{.'.a.a.u.u.u.<.<.<.u.u.u.q.0.>.A Z k 6 > @ . .       X 8 P { L F c j j j c v v k g h Z A 9.>.,.0.u.s.s.<.:.&.&.&.C M N x 3 : @ + . # # # & 8 0 0 c v Z Z S N x z l h g g g g g g 3 g g g g g g g k g h l l l l x N S Z N B >.w.s.P.<.,.:.7.-.&.3.M.}.a.<.V M z z z z z m N m m A y.y.A m z z m N N C C C C C N N M N N N C A C A C C C C >.8.0.8.>.,.1.1.C C >.8.,.y.A Z 3 ",
"5.5.u.i.i.i.a.a.i.a.u.u.u.u.u.<.q.<.<.<.<.,.,.,.C C C C C =.,.,.,.,.,.,.,.,.>.=.=.,.,.,.,.<.<.0.8.>.>.,.0.w.w.q.0.0.<.<.<.<.<.<.<.<.,.,.<.0.0.0.>.>.9.A A A Z Z x k g g g l z N S B M M m z l l z l h h l x x l x l h l h z l m z z m m m m z z l g Z U 1XgXgX*XZ.j 3 d.1XK.a.q.,.gX:X`   & & ; t t t & , 4 2 > 2 x W R D D ( ;XL @ @ , u s p # ! e 7 e e J P J u e w w w u u s e u u s u w q $ + + + + + @ , , < 7 9 0 e J J J 0 y J J J J J J J J J J J u y y 9 9 , @ + . + # = w w & & 8 $ . @ + , e s ! ! ! +.! o.o.! s p p s s Q ! s p s s q @ @ : c ~ !.t.p.i.a.a.a.x.x.x.x.x.z.z.z.z.x.c.z.i.,.A v > 0 c v t.C V &.*.V #X}.G.a.u.a.}.a.q.y.!.!.~ b e 8 1         . . .     o *   ;       + . @ . + y { -X;X:X:XpXpXpXpXpXpX/.L 9 +   o * o o o       . + $ . . X . o * * o =   .     ;     . . %   o . . . % . . . % + + + @ 6 ! ;XCX>Xe @ : 0 D D 9 0 R S.Q.N.T I v v j c F R } !././.`.).W.T.eXeX^.Y H @ + , u s = . . . + @ @ : 0 ~ -X;X-X} } F 2 : : + + + @ b } ~.~.=X+XXXXX+X.X].a.w.0.<.<.5.i.i.i.z.i.i.q.8.9.Z k e % . . . + . . + 7 L ` L D c 5 c b b k j g h l Z A A A 8.0.0.0.u.<.,.C B N N Z j 2 : @ . . . . . . + 8 8 9 9 c c c v Z N z z z h n h g N Z N N m m z z z x x x x Z Z Z Z Z Z N A A A >.0.w.0.0.A ,.u.5.*.*.i.}.v.a.<.V m z l l l l z z z m >.f.y.8.C m z m N S S N M N M M M C C A A N m N N N B C C C C A >.>.>.,.1.,.,.,.,.8.A S x g ",
"5.5.u.u.i.i.i.i.i.i.a.a.u.u.u.u.q.<.<.,.<.,.,.>.A A C C =.=.=.=.,.,.,.,.>.>.,.,.,.,.,.,.<.<.<.0.0.8.8.0.w.w.w.q.q.q.q.q.<.<.<.<.<.,.,.,.,.0.8.8.8.9.9.A Z U U W g g 3 g h x S S N N m m z z z z l l l l h h g h g x z g g S l l z z m M M M m z g g W !.fXgXtX*XA.v g ~ <Xf.s.i.=.&X!.L   t & ; ; t t u ! !.<X~.y.y.y.t.I F Y } F j : @ + 8 8 $ s e e e 9 9 0 y e e e e e e u u w 8 q & # + . . + + + @ @ , , 8 7 7 9 0 0 J J J 0 y J J J J J J J J J J J y y y 0 0 9 < : + + . # & & X & 8 , @ @ + + , e ! ! ! @.! o.+.+.@.o.o.s s ! ! o.d d d p w 1 6 K ~ !.d.y.p.p.a.a.a.x.x.x.z.a.i.i.z.x.x.v.v.q.A x 2 j c I A.9.w.s.u.=.s.}.G.a.u.a.}.s.w.y.d.~ n 6 4 4 ,         . . . o o o o   X   # + + + 7 $ . + + @ + @ @ @ @ + + + @ @ @ @ . o o * o o         + e 7 + + + @ @ : + + e u u 8 y { u u s d d - * o o   . . . s ! i $ @ 4 K ~ @.aX,X! @ @ < L L 9 9 ` S.R.D.D.V.T Z._ Y ) ' !.!./.^.(.R.W.W.eXeXR.) H 0 , , s s %         . . . + e J ~ :X,X!.I v v > : + . . . : ~ ~.#X@X@X+XXX.X'.a.w.r.p.a.a.x.c.c.x.x.s.0.C x g > % o     . . . . 0 J R R F c c D 5 5 5 5 j g l z Z C A >.8.8.,.,.<.:.=.C N z x c > , + .         . . @ 8 0 9 0 0 c c v Z N z z z l l l m 8.r.w.q.<.,.=.A A A Z Z Z A U A A A A A A A >.>.0.0.<.,.A ,.s.u.*.:.i.M.v.i.<.V m z l l h l l z z m A y.y.8.A M m m m N N N N N N M M N B C A B M N N N N B B C C A >.>.>.>.,.>.>.>.,.8.A Z x 3 ",
"5.5.u.u.u.u.u.u.i.i.a.a.a.u.u.u.<.<.<.,.<.8.,.,.>.,.=.=.=.=.&.=.,.,.,.,.,.,.,.,.,.,.,.,.<.<.<.q.w.w.w.w.w.u.u.q.u.u.u.q.q.<.<.<.,.,.,.>.,.,.,.,.>.9.9.U U U U Z 3 k n n ^ S S N z z z z z z z z l l l l h h h h l g h N d.<Xh l z z m m M M m z g h W `.fXfXtX*XA.Z l W <Xf.#Xv.a.1XZ.P . d d d d d d ! ~ d.~.f.s.v.v.c.x.a.a.G.K.Q.E c < @ @ $ 8 7 e e < @ 7 7 e w w w w 8 8 $ @ + . . . . . . # $ $ , 8 8 8 8 9 9 0 0 0 D J P 0 0 J J y y y J J J J y u y y y D D 0 0 < @ . . . X X X & 8 e w 1 + + @ 1 s ! ! ! s ! o.o.o.! ! Q Q ! o.o.! d o.! ! Q Q ~ -X!.d.d.y.s.s.s.s.s.s.p.a.a.a.a.a.a.a.i.a.q.9.Z k I T Z.~.p.P.#X}.<.s.}.'.a.i.a.}.s.0.1.E ^ j : : < ,                 * o o     . u D L L { u . .   . . . + + + + . . + @ 7 w % o o o o o       . u { ;X' I F c v v c I E ' ' ' } } c @ @ 1 = = w -   . + + + +.{ e . @ < b J ~ ;X>X~ @ @ < | | c 2 H _ D.R.R.D.N.D.S.S.S./.^./.^.Q.(.R.U.W.7X7XI._ H L 0 8 s s %   X     O . . + + : b ~ -X-X!.E v 3 4 : , $ + + : c N.*X=X@X].].c.x.p.p.a.a.a.x.c.].}.#X#Xy.x 3 > : .       . . $ 7 L L K c 5 5 c K 5 5 3 3 g h x N N A >.>.,.,.=.=.&.V C N z h 3 > @ + . .         . + $ 8 0 9 0 0 c c v v N z z z z z M w.P.#X}.'.a.a.p.u.w.w.8.9.9.r.r.r.w.9.9.>.>.>.,.8.0.,.=.=.,.w.s.u.*.:.v.M.z.u.:.V M z l l h l l z z m A 9.y.0.>.C m z m N m z m N B M M N B C A C N N N m M M B C C A >.>.>.>.A >.>.,.,.>.Z N h 3 ",
"5.5.5.u.u.u.u.u.u.u.u.a.p.u.u.u.<.<.<.,.0.8.,.,.,.>.,.=.=.=.=.=.=.=.=.,.,.,.,.,.,.,.,.<.<.0.q.q.q.q.u.u.u.u.u.q.u.u.u.u.q.q.<.<.,.>.>.>.,.,.,.>.C A 9.9.9.U Z x v n W ~ W S z l z z z z z z m z z l l l l l h g x l d.:XHXHXl z z z m m M M m z h g v `.fXfXtX*XL.U l N ~.M.#Xv.'.P.U J 8 ! { +.+.+.{ ! ~ E y.u.v.n.m. X X X|.|.=X1X&X`.Z.c : : @ < 0 e , @ $ & $ $ $ @ + + + . . . . . . + $ 8 $ 8 8 8 8 8 8 8 7 9 0 0 D J J J 0 0 y J u y y y y y y y y y y y y D D e 0 , + .         # q e e e @ + , w ! o.! ! ! +.o.s s s ! ! ! ! ! o.o.o.o.o.! ! ! @.@.| ~ !.!.d.d.d.d.s.s.s.s.s.K.K.K.K.p.s.P.s.r.T I Z.Z.A.L.F.}.*X}.p.P.}.G.a.u.a.}.s.0.A W n 2 @ @ @ #                 o     X . $ | } } } | 0 . . O       . . # 8 8 8 7 7 u u .   o   o     . . . u | :X(.(.D.N.N.B.C.H.H.R.A.A.Z.E 2 > : @ , e ! s . + @ : + | u $ + @ > 0 0 4 K L c 4 : 5 } !.F j I D._._._.).(.`.(.^.^.^.^.^.Q.Q.(.R.U.T.7X7XR._ H H D J s u #   .   X O X + + + @ > : c !.:X-XR F D c 0 9 , @ + @ F S.*X#X'.x.v.z.a.a.a.x.x.].oXoX$X#X~.W 3 @ + . . . + . . $ u { { J 5 2 5 j j j j j j 3 g l N Z C A >.,.=.V B B B N N z h 3 > @ + . . .         . + $ 8 0 9 0 0 0 c v v x l l z M M 0.}.}.oX@X.X.X{.}.'.'.G.p.p.p.F.F.p.p.p.w.8.>.,.0.0.<.,.=.V <.s.P.u.*.3.v.M.i.5.:.V M z l l h l l l l z N A 9.8.9.A M m m S N m m M M M M B C C C N N N m m m M B C A A ,.>.>.C C C ,.>.>.A N x h 3 ",
"5.5.5.u.u.u.u.u.u.u.u.u.u.u.u.u.<.<.<.,.0.0.,.,.,.>.=.=.=.=.=.=.C C =.,.,.,.,.,.,.<.<.0.q.q.q.q.q.u.u.u.u.u.q.q.u.u.u.u.u.q.q.0.>.>.>.>.>.>.>.>.>.9.U U U U I Z W W S x l l z z m m z z z z z z z z x l h h h h W <XHXHXDXHXm z z z m m M m z z h 3 k ^.1X&X=X*X(.T g h f.f.x.5.-.B h 5 8 ! ! { %.+.{ { R U >.<.x.z.b.n.m.m.m. XoX=XgXgXgXQ.k 2 : > 4 4 e 8 & & # + + . . . . . + + + $ , 8 8 8 8 8 8 8 8 7 , , 7 0 0 J J D D 0 0 0 u u y y y J y y y y y y y y 0 0 D e e < + . .       . $ 8 e e 1 1 w u ! +.! o.! +.! p p p ! ! Q s s s d o.o.o.o.! o.@.@.~ ~ ~ ~ } !.!.!.!.!.!.!.!.Z.t.t.t.e.s.K.r.A.A.Z.Q.A.r.r.F.}.#XG.G.}.P.G.u.u.i.a.s.8.S S n > + . .                         . + J -X!.I R } e . .           X - s d d s u i &     X X           . . 7 ) V.`.7XE.U.C.N.N.B.OXH.B.e.A.x 3 2 2 4 J | ! , @ @ < @ | J 7 @ @ J | K @ : > 2 K v v Y ' I F T D.(.R.R.)._.&X).D.D.D.D.D.D.(.R.R.R._.eXeX(._ D 9 P ! u & . .           . . . + + : < 0 | sX:X} D H ` F 0 9 < : @ D Z.Q.~.P.s.i.i.x.x.].oX=X=X$X$X#Xy.x : + o   + . + + 7 J L | J 0 2 3 j c j 2 c k g g g l m C B C C C B B B M m x h g 2 > @ + . . . . .       . + 8 8 8 9 0 0 9 5 j v x l l z B =.G.=X.X@X+X+X+X+X@X.X.X{.'.'.G.'.[.G.G.G.p.0.,.,.<.<.<.=.&.&.q.f.f.<.&.3.v.M.6.5.:.=.B m z l h l l l l z M C A A >.A M m N S S N m m m m M C A C N N N m m m m M N C A A A A C B M C A >.>.A N x h 3 ",
"5.5.u.u.u.u.u.u.u.u.u.u.u.u.u.q.<.<.<.,.<.,.,.>.>.=.=.C =.=.=.=.C C =.,.,.,.,.,.<.<.0.0.q.q.q.q.q.u.u.u.u.q.q.q.u.u.u.u.u.q.q.0.>.A A A A >.>.A A 9.9.y.t.t.W Z Z x l h h l z m m m m z z z z z z z l g g x d.<XjXHXGXDXHXlXN l z z m m m m z l 3 g k Q.~.~.=XgX%XN.h h ~.~.v.6.;.M l g 4 J D P y D K E t.y.p.x.x.c.n.m.m.m.m. Xc.oXtXgXkXfXt.g > 3 2 4 e w & # # + + . . + + @ $ $ , 8 8 8 8 , 8 8 8 8 7 7 , , 0 0 y J J D 0 0 0 y J J y y y J y y y y y 0 0 y 9 0 0 e e 8 $ + .       . + , e w 1 1 e u ! ! ! ! w p q q s p p ! s p s s d d o.o.! ! ! o.~ ~ ~ ~ ~ @.@.@.@.@.| } } ~ R W I F v U 9.U t.t.A.K.A.A A F.OXOXp.J.P.G.a.u.<.u.a.s.8.S n 6 : +                         O   . @ ~ !.E I I E J @ .     o       O = = = & + . . .             . @ + + + @ 4 Y ^.`.eXrXT.T T OXH.H.L.).e.t.!.-X!.~ | ` c D 0 c c -XL 0 0 0 ! | ~ 4 > 2 j R W E E Z.T I I I T U U B.L.).L.C.C.V.C.D.R.R.R.R._.7XfX7X^.) 0 @ P { u + . .   X         . . . + , @ + <  .;X| G ) ` Y F H D > @ : 5 v Z A ,.<.i.c.oXoX$X$XoXx.u.,.l > @ . * o + + + < L { L c 4 5 c c k j j g k k h g g h l m m m M M M M M N k 6 6 > : @ + + .             . . $ 8 8 7 9 0 9 4 4 5 k x h h z M 5.{.@X+X+X+X+X+X+X+X+X+X.X{.{.].[.{.'.'.G.p.<.,.<.<.<.=.&.=.=.u.s.s.:.V :.v.v.5.5.:.=.C M m l l l l l l m N N N A A A N N S S 1.A M m m m M A A C N M N z z m m M N C A A A A C B M B C >.A A Z Z x g ",
"u.u.u.u.u.u.u.u.<.u.u.u.u.u.q.<.<.<.<.,.,.,.,.,.=.A =.C =.=.=.=.=.=.,.,.,.,.<.0.q.q.q.q.q.q.q.q.u.u.u.u.u.q.q.u.u.u.u.q.w.0.0.,.>.A C C C C A A M A 9.d.d.d.W N z z z z z z z z m m m z z z z z z z l x W !.,XHXGXHXlXHXHXlXU l z z m m m m z l 3 j k !.A.P.gXgX%XB.l l ~.#X$XoXn.6.<.A Z W U T r.r.K.P.}.'.'.}.$X$X$X$XoXb.k.j.6.x.{.=X*X*XK.Z g k j 2 8 , X X # + + + $ $ 8 8 8 8 8 8 8 7 , , 8 8 7 7 7 7 7 7 y y y y y 0 0 0 0 y J J J J J J J J u u y 0 0 0 0 0 0 e e e 1 % .       . + $ e , 1 w e e s ! ! p q p w p ! ! s s p p s s d d d d d s ! ! ! ! o.! ! o.@.@.~ ! ! L K K D c 5 5 5 Z U U U Z Z 9.9.>.C G.OXOXp.J.G.G.a.u.<.5.a.s.y.N k > + .                           . + > !.t.9.9.U E K @     o                 . . # ! #.+.u i , , , e ! ! e : : : 9 F ' ^.`.R.N.N.9XC.H.E.%Xe.Z d.!.!.~ } } R ' Y Y !./.K 2 0 J J K J K K K I I E Z.A.D.N.U I I e.U U e.F.E.U.C.C.C.C.R.R.R.(.`.7XpXpXS.) H D @ D { u . . .   X X X O O X . . . . . . + $ u {  .] ( F F T W v b 0 4 2 2 3 h M a..X=X=XoXoXc.i.=.M g > @ . o   + @ 4 J ~ L c 2 5 j c k 3 3 g k h l l l h h l l z z l z x x x n 1 1 = % + . .                   . $ e 8 7 9 9 9 4 2 2 j k k g l V x.@X+X+X+X+X+X+X+X+XXXXX.X.X{.{.{.{.{.'.'.p.<.<.<.<.,.&.V =.:.y.u.u.*.&.:.7.i.5.<.:.,.=.C N z l x l h l m N N N N C C N N S S 1.A N N M M C A >.C m m m z z N m N N A A A C C B M M M C C C C N Z x 3 ",
"u.u.u.u.u.u.u.u.q.u.u.u.u.u.u.<.<.<.,.,.,.,.,.>.>.=.=.C =.=.=.=.=.,.,.,.<.<.w.w.w.q.q.q.q.q.q.q.u.u.u.u.q.q.u.p.u.u.u.w.w.0.,.>.A C N M M B C A M C A 9.d.d.t.S S Z N m m m m m m m m z z m N N z x W <X,XHXlXjX1XlXjXlXlXDX~.z l l z m m m z l h k g !.A.#XgXgX*Xr.l l f.M.m.oXm.b.M.M.s.P.s.G.}.}.}.oXoX}.}.oXc.v.z.j.6.3.2.2.;.*.5.u.p.p.s.y.l Z v 3 < @ . . . . + $ , 8 8 8 8 7 8 8 7 7 7 7 8 7 7 7 7 7 0 0 J J y y 0 0 0 0 y u J J J J J J J J J u u 0 0 0 y y 0 e e e e 1 .     . . . @ w , , w e w e ! ! w q s s p ! ! s p p p s o.d d d d d s ! ! ! ! +.! o.o.o.! Q e 1 e 6 4 < < < < 4 j I I Z z m 8.w.w.C G.OXOXp.P.P.P.s.u.<.<.s.s.y.x 3 @ .     o o                     . @ c <X9.r.r.U Z.E 0 +   ;       X     o . % . . u #.@.L | L L J ! ~ @.J @ @ @ @ > 2 F ' _ N.N.rXH.B.B.Y.e.A y.!.!.t.Z.Z.' T T S.:X!.j : b 0 0 5 5 c F R E Z.Z.T e.e.T U e.N.D.e.U 9.B.E.E.U.I.C.I.R.R.(.(.:XpXpXS.D 9 D L @ y ! u +             X X O . . . . . # + . + 8 {  . .' Y Z W W b b b K K c v A x.oX=X=XoXoXoX}.x.s.9.Z c e %   + 9 L } L c 5 5 c n j 3 2 2 g k h l x x l l l l x k k n n b 6 : % O O . o                       . , 8 0 7 9 9 9 < > 2 5 c j 3 h <.{.@X+X+X@X+X+X+X+XXXXXXXXX.X.X.X.X.X{.{.'.p.<.q.q.<.,.V V =.1.y.<.<.*.&.:.5.5.5.<.<.,.,.C M m z z l h l N Z N N N N N N C S S 1.A C C C C A A 1.N m z z z z N N N N C C C C B M M M M B C C C N Z x 3 ",
"<.5.u.i.u.u.u.u.u.<.<.<.<.<.<.<.<.<.<.,.,.,.,.=.,.>.=.=.=.=.=.=.=.=.,.,.<.<.<.0.q.q.q.q.u.q.u.u.u.u.u.u.u.u.u.u.q.w.w.w.w.8.>.>.C N N N N C A >.A B M M C S y.y.y.1.1.A A C B M M N C N m z z N S S <XHXjXjX<XZ.t.1XjX1XlXDXlXz h l l z z z z l x 3 h !.9.K.2XgX=Xp.A m q.s.n.m.m.m.m.m.v.n.oXoXn.n.n.|.}.c.x.i.*.&.&.&.&.&.V V &.&.V V V C >.9.A A Z v > + . # $ $ , , 8 8 8 8 8 7 7 7 7 7 7 7 7 7 7 7 7 0 y J y y J J J D y y J J J u 0 0 0 0 J J J J u u e 0 0 0 0 0 0 0 e w +       . + $ $ $ @ w u w u s w q w p ! ! s p s p p p s s s s d d d s s ! o.o.o.o.o.! ! p r : : > < > < < < 4 4 c v v x h m 8.s.q.,.a.*X}.0.P.P.P.P.u.<.u.s.s.~.S j @ . o o o o                   X . : E Q.e.r.w.r.A.!.K + .                   . . @ 0 0 D L R ~ ~ K K b j 6 6 e > : > > > g x U A.*X%XJ.F.J.p.w.y.A.t.U T N._ T N.A.Q.Z.v 2 > 4 < > > > > c } Z.!.e.U T e.e.e.e.A.A.e.9.r.H.E.E.U.I.R.R.R.`.pX:X;X` 9 @ < D G @ ! ! e . .   X         X           # w # . . . & P  ./.Q.E W ~ K 0 6 L /.`.D.F.oXoXoXoX X|.oXoX$X2X2X~.:X-X+ + 0 R } R c 5 5 c c j 3 2 2 2 6 k x n S n x h h g k b b r 1 @ + + o o o o o                     # $ 7 8 8 9 7 9 9 < 4 > 2 6 > > h q.oX$X+X+X+X+X+X+X+XXXXXXXXX.X|.{..X.X{.].'.p.u.u.0.,.=.&.V V V ,.<.:.:.*.-.:.5.5.<.<.,.=.C C N m z l l z m N C A C M z z m N N C C A A A A A 1.1.N m z z l l z m N S N N A A C N M M M B B B N Z Z x 3 ",
":.<.5.u.u.u.u.u.u.<.<.<.<.<.<.<.,.,.,.,.,.=.=.=.A A =.C =.=.=.=.=.,.,.,.<.<.<.0.q.q.q.q.q.q.q.q.u.u.u.u.u.u.u.u.w.w.w.w.0.,.>.A C C A C A >.>.,.1.>.B M M M M m m m M B C 1.1.1.1.1.1.S N z l l l x -X,XjX<XZ x Q.fXlXfXlXlX1Xl h h l z z z z l h g x d.m ,.#XgXgXF.A l >.s.v.m.m.m.m.m.m.m.m.m.$X$Xc.i.3.-.V B V V B C C C C V &.&.&.&.&.=.,.,.>.A U Z c 4 e u u u u u u u 0 8 8 7 7 7 7 7 7 7 , 7 7 7 7 8 0 y y y y y y y y y y 0 0 9 7 7 7 7 0 0 0 u u u u u 0 0 0 0 0 8 e 8 # .     . + $ $ @ $ 8 e e e e q e e s ! ! s p s p p p s s s s p s p p s ! o.! ! ! s p 1 @ @ : > > > > 4 4 4 9 9 2 2 h x N 1.s.s.q.,.G.*XP.9.P.K.K.K.q.,.q.s.s.~.W g @ . o o o o                     . 0 } Z.9.r.8.e.e.Z.D + .           . .     . % e L L F F F j g 3 g j j c c 0 9 9 4 : : > 3 x U A.L.P.*XOXr.w.>.A U Z v T Z.N.D.Q.Q.T k 2 > > > > > > > c R E E T T U T T U e.Z.A.e.9.e.H.E.%X_._.(.`.`.:X:X .L , + @ 0 L P : { +.s . %             X       O . w d p # . . # . , | ,X<X} !.| b @ 4 _ ).rXtX=X=XoX|.c.z.z.z.x.}.2X1X1X;Xc K R ~ K c 5 c c c 5 3 2 > > 2 6 k x x n n x h h j j 0 0 , # .                     X       . + $ , , 7 8 9 9 7 < < < < < < 4 > : h p.$X=X@X+XXX+XXX+X+XXXXXXXXX.X.X{..X.X{.].'.a.u.q.<.,.C V V V =.=.:.:.*.*.*.:.<.5.5.<.,.,.=.A C N z z z m N A A A N m m m m m N M m m C A A A A A N z z l l l x m Z S C C C A C N M M M N C C N Z Z v 3 ",
":.:.<.5.5.<.<.<.<.<.<.:.<.:.:.=.=.=.=.=.=.C C C C C C C =.=.=.=.,.,.,.,.<.<.0.0.q.q.q.q.q.q.q.q.u.u.u.u.u.u.u.w.r.w.w.0.,.>.A C A A >.8.8.0.0.0.,.=.V B B B M m B C C B B B B B A A S N z l l l h N N W <X<Xd.`.1XfXlXlXlX1X1Xz h h l z z z l l g g x d.M V }.2XgXL.T j v U p.'.|. XoXoX$XoX Xn.5.:.&.V B V =.C B C C A A A A A =.:.:.:.<.<.<.<.<.1.y.W n b J ! { { P L P P J u y 0 7 7 7 7 7 7 , 7 9 0 9 7 7 7 y y y y 0 0 0 0 9 9 7 7 < , < < 7 9 0 e 0 y u u 0 0 0 0 0 4 8 8 $ .     . . % % @ , 8 w u w 1 % s s s ! s p p p p p p p s s p p p p p s s d s s w q @ @ @ @ : > > > 6 6 0 9 4 4 > > g S 1.f.f.u.q.0.P.*XK.A s.s.s.s.,.,.0.p.s.f.E k @ . o o o o                     + L !.T U e.r.B.N.Z.D + # X       . . .   . . + e L R I I I I Z x h g k c D ] [  . .` L K R !.Z.Z.I I A.).K.8.,.r.r.U U T N.N.A.D.N.I v v c b J J c J K K } Y I Y I I T A.Z.T Z.Z.e.U e.B.L.R._.7X`.:XpX/.} 0 @ + + @ D L J : ! o.s . %             X   X X X   . & .     . + + @ 0 @.>X;X| | G 4 v B.&XtXtX=X=XoXoXn.n.n.c.z.i.}.P.~.!.v I ~ K j 2 3 j j 5 2 2 2 > > > 2 6 k x S S S n n k > : @ + .                   . . + . + @ 7 P { J 7 7 9 9 7 7 < < < < < , < @ @ 3 #X=X=X+XXXXXXXXX+XXXXXXXXXXXXX.X|..X.X{.{.}.G.p.q.<.=.V V V =.=.&.=.=.*.*.*.-.:.5.5.<.<.,.,.,.A C m z m N A 9.9.A N m m m m z m m z m A 1.9.>.A A N z l l h h l z Z S A A A A N N m m M N C C N Z v v 3 ",
":.:.<.<.<.<.<.<.<.:.,.:.:.=.=.&.=.=.=.=.=.C C A C C C C =.=.=.=.,.,.,.,.<.<.0.0.q.q.q.q.q.q.q.q.u.u.q.q.q.w.w.w.w.w.0.8.>.A C C >.>.w.y.y.y.q.<.=.&.V &.=.=.V V B B B B B B B M m m m z l l l l x d.W Z <X1X:XjXjXjXlXlXlX1X1XN h h l l z z l l g g l d.w.u.oX2XgX(.' 0 7 D I 9.,.:.:.:.5.5.3.-.&.V V V B V V V =.,.1.<.<.,.,.,.1.7.7.7.7.u.u.u.5.<.1.W v 5 e ! { P P P P P P P y y 8 7 7 7 7 7 7 7 7 7 < < < 7 e e e 0 9 7 7 7 7 7 7 7 7 7 7 7 0 0 0 0 0 9 9 9 0 0 0 9 6 < < , $ # .   . . % = @ 8 , w s e @ % s s s s p p w p p p p p p p p w q p p s s p p w @ @ @ @ : : : : > < 6 r 6 < : : : > k W d.f.s.<.,.8.P.).r.A y.y.y.y.>.A <.w.s.f.d.n @ .   o   o                 X . 7 | ' T U e.e.e._ ' y .         . . . .     . + 0 K F F I U Z z l g k I ' S.8X8X8XdXdX . ./.:X/./.S.F I T T r.K.*X).A.D.A.T A.D.D.Z.E !.!.| 0 J b c D K K R F v I I v I Z.T T Z.Z.e.U U e.C.(.`.`./.| ` 0 + . . . + @ 0 P P , ! ! p . X     . .         X X     % w & . . . @ 6 1 @ e { @.#.( H Y L.*XtX=X@XoXoXoXoX X Xn.c.z.:.:.C U t.U W v j 2 3 j c 2 : > > 2 2 > > > 2 g l n S n n g 3 : : @ + + . . . + + + + + + + @ : : 9 D L -X;XL < 7 9 9 9 < < < , < , 1 , + + 2 #X=XoXoXXXXX+XXXXX+X+X+X+XXXXXXX.X.X.X{.{.{.'.a.q.<.=.&.V &.&.&.V &.*.*.*.*.*.:.5.u.u.<.,.<.<.1.C M m M A 8.y.y.>.M z m m z z N m m C 9.y.y.>.A C N z l l h h l z N A S S S C N N N N N N N N N Z v v 3 ",
":.:.:.<.<.<.<.<.<.:.=.=.=.=.&.V =.=.=.=.=.=.A A C C =.=.,.,.,.<.,.,.<.<.<.<.<.0.q.q.u.u.u.u.q.q.q.w.w.w.w.w.w.w.w.0.8.>.A A C C >.0.y.s.s.q.<.:.:.:.=.*.*.=.&.&.B B V V V V V V B M N N z z l l x W d.<XjXjXjXfXjXjXjXlXlXlXlXm h h l l z z l l h h h 9.P.a.oX=XgX`.] y ; y y F e.A M M C =.&.V V &.&.*.-.:.:.2.3.5.6.6.6.3.5.5.5.7.7.7.7.6.6.6.7.<.,.S k > , e L G y y y y J P J u 8 7 7 7 7 7 0 9 7 , , , < 9 e 0 8 7 8 7 , , , , , < 7 9 0 e e e 9 9 7 7 7 7 8 8 9 9 9 < < , $ # .     . % 1 $ 8 , w s e @ 1 p s p p w w q q w w p p p p w q q w p p p w = % + + @ , 1 : : : > > 1 < : @ + @ @ : v d.d.f.s.,.A 9.).P.r.A w.y.9.9.A C <.s.s.f.!.n : + .               . . . . . . e ~ R T N.T _ V.S. .y .         . .         . 1 J ` Y I Z Z Z N z l v !.:XpX8X8X8XdXdXdXdXdX/.[ /./.H c c T E.*X*XL.N.D.D.U A.Z.e.I I !.!.R > 6 > > 9 c D K c 5 K R F R } R Y E Z.Z.e.U e.Z.D.' H D , + + + % . . . . , P ! 8 u e s .     X . . .   .       O O - u w $ $ + @ 1 1 + . . u #.H N.E.*XtX=X=XoXn.c.c.c.n.n.n.n.z.5.=.M m U I v j j j n k 4 : @ : : : > > : : : g h h h h g g 3 v c j c 5 0 0 0 9 4 4 2 2 5 5 j F v E Z.!.:XQ.c < 7 7 9 9 7 < < , < 1 $ & . . > #X$XoX.XXXXX+XXXXXXX+X+X+X+X+X+XXXXX.X.X.X.X].a.u.<.:.*.*.*.&.&.&.&.=.*.*.*.*.:.5.u.u.:.,.<.q.1.=.V B C ,.w.y.y.1.M z z m m N Z m C A y.1.A A A N N z l h h h h z Z A A A A Z N N N N N N M M m x v k 3 ",
":.:.:.:.<.<.<.<.:.:.=.=.=.=.&.V =.=.=.=.=.=.=.>.=.=.,.,.,.,.<.<.<.<.<.<.<.<.<.0.q.q.q.u.u.q.q.q.q.w.w.w.w.w.0.8.8.8.>.A A A C C ,.0.w.u.u.<.:.:.*.*.*.*.*.*.&.&.&.&.&.&.V V B B B B M N m z z z x l W :XlXjXjXlXjXjXjXjXlXlXlXz h g h l z z l l l h h B s.5.c.=XgX&X' y X i y H Q.t.N z z M V &.*.-.-.-.;.;.3.4.4.4.j.j.j.j.j.j.3.3.3.3.6.6.6.6.5.:.=.C h : @ e | ( J G G y P L P u 0 7 , 7 8 8 0 7 < , @ , 7 e 9 8 8 8 , , , , @ , , , < 9 9 0 7 7 7 7 7 7 7 7 8 8 7 9 9 < < , $ # .     . % q & , 8 u s w % q q w w q = q q = - - w w w q q q q w w w q % % + + + + + + @ @ @ , , : @ @ + + + > 3 W d.1.1.,.=.C 9.).L.r.9.,.>.A U A C <.s.s.f.!.n : + .               . . . . . + u L R S.D.N.S.^./.;X{ X .       . .           8 | ;X/._ U Z Z Z N x Y /.pXlX7X7X7X7X7XdXdX7X8X] ] ) F 5 c ^.eX*XE.L.Z.Z.Z.I T I Z x v E ' c > 1 : < 0 b c J D c D K c K ~ L v Y Z.A.e.U T N.F 4 @ + . . & ! -     . + 8 J J u u e s + .   X . . . . . . .   O   X # + + $ + @ 1 %       $ D D.E.=X=X@XXXoX|.n.c.z.j.j.j.z.z.v.M.#Xy.A Z x 3 3 6 6 3 > : @ : > : @ @ @ : : : 3 3 3 g k Z W E !.Z.Z.t.E E E W F v v v v v Z Z E t.A.~.~.~.r.g 4 7 7 9 7 < < < , , 1 $ & .   > #X$XoX XXXXXXX XXXXXXXXXXXXX+X+XXXXXXX.X.X.X].x.i.u.5.<.:.:.*.&.&.&.*.*.*.*.-.:.5.u.u.:.=.<.q.1.=.&.=.,.0.w.w.0.,.M z l m C A A m N A >.C M M N N N N l h h h h z Z A A A A Z m N Z C N N m m m x x k 3 ",
":.:.*.*.:.:.:.=.:.=.&.&.=.*.=.&.=.=.=.=.=.=.=.>.>.,.,.,.,.,.<.<.<.<.<.<.<.<.<.<.<.<.q.q.q.<.<.<.0.0.0.0.0.8.8.8.>.A A C C A A A ,.<.<.<.<.<.:.*.*.*.*.*.*.*.-.*.&.&.&.&.&.&.&.V M M m m z z z l l z Z <X1X1XjXjXlXjXjXlXlXlXHXN g g h l z z l l l l g M s.:.z.$X=X=XQ.F , P G R ~.d.S M M V *.-.&.&.*.-.;.3.7.j.6.4.4.4.6.j.j.6.4.4.4.4.3.4.4.3.3.-.V N g : % u @.` L L L P P L P u 0 8 , 8 8 8 8 7 , , , , 7 e 8 8 , , , , , , , , , < < 7 9 9 7 7 7 7 7 9 9 0 7 8 7 7 9 < < , $ # .     . % w w & w s w $ % q % q q % % = q = - - - = q q 1 q q r r 1 @ @ + + + + . . . + + + @ @ + + + % = 8 K v W t.>.>.=.B A 9.%XK.r.8.,.B N Z N B ,.w.y.d.d.K > + .               . . + + . 1 ! { | /.^.S.[ [  .#.u     o o o .             8 | ;X^.Z.T U U y.W v F _ ] [ I./.I.[ ] [ [ [ I.] _ Y T v g ~.&XOXE.L.D.Q.E k U I I I I S.!.F > : @ < e 0 < 9 J J D 9 @ @ @ @ 2 v E Z.t.T T Z.Y 9 + + .   - d p X . $ i P J 0 7 u u u + & # . . . . . . .         = u w 8 , . + w -   o   @ j ).@X@X+XXX|.|.c.oX Xc.j.4.3.3.3.2.u.s.8.Z g > : 2 2 2 : : : 4 K ~ J : + @ : , : > 2 g v W t.!.Q.~.K.K.A.A.r.e.9.U U U Z A A U 9.9.y.y.r.s.s.>.h 4 7 9 9 7 < , : , 1 $ % & .   : P.$XXXXXXX XXX XXXXXXXXXXXXXXX+XXXXXXX.X.X.X|.].x.z.i.i.5.3.-.*.*.*.*.*.*.*.:.<.<.u.<.=.&.<.q.<.=.=.:.<.q.w.0.,.B M z z N 1.U Z M M N C N m m N N Z N z h l h h z Z A A Z Z N m N N N N N m m N x x j 2 ",
"*.*.&.&.*.=.*.&.=.&.&.&.*.=.*.&.&.&.=.=.=.=.=.=.=.,.,.,.,.,.<.<.<.<.<.<.<.<.<.<.<.<.<.<.<.<.<.<.0.0.8.8.9.9.9.9.A A A C C A A >.,.,.<.<.:.:.:.-.:.;.;.-.-.*.*.*.*.*.*.&.&.&.V V V V B M m z l l h N l x !.:XlXjXlXjXlXlXlXlXHXt.g g h l l l l h x h g M #X6.j.oX=X=X~.T 9 L D F W S M B &.&.*.*.*.-.:.:.2.3.4.4.j.j.4.4.4.6.4.4.j.j.4.4.4.4.4.3.2.*.V N g : @ e | L G L P D y J P J 8 8 , 8 8 8 , , , , , , 8 e 8 8 , , $ $ $ $ 8 8 7 7 9 9 9 9 9 9 7 8 8 8 e e 7 7 7 9 4 4 < , + X       . % w w $ e s 8 + % % % % % + . % w - w - = = % 1 1 1 q 1 1 , @ + + @ + + + + + + + + + + + + : w e J W Z W W A A >.C A r.&XK.r.9.C z z Z m M ,.w.y.y.d.Z 2 @ .               . . . + @ e ! | /./. . . . .#.#.d           .           X 8 { | ` I U U Z A W I Y V.I.V.I.^.I.V._ ] V.V.V.V.I._ N.I h ~.).%X).Z.Z.^.Z.3 Z v I I I Z.!.v > : @ 4 J 9 : 4 : c K L P e , @ @ 4 R Z.Z.T T Z.^.H @ . . . - d d - # $ 8 P P J + 7 e e . i w   . . . . . .     . . & q $ 8 8 $ # # - - * . : E P.{.XX X|. XoX$XoXoX$XoXoXoXoXoXoX#Xf.s.y.N h h h h g 3 2 g E <X:X} c > : > < > 2 3 x W E t.e.9.r.r.r.w.w.w.8.>.U A A Z A A A 9.9.y.9.9.9.9.N g 9 9 0 9 < : : : , 1 $ % & .   : s.$XoXXXXX XXXXX XXXXXXXXXXXXX+XXX+X+XXX.X.X.X|.].c.x.z.i.5.:.*.*.*.=.*.*.*.:.5.<.u.<.&.V <.q.,.=.:.<.w.q.q.<.>.m M m z S d.y.N M m m M M m m M N C S z l l l l N Z A Z Z Z N m m N N N N M N N x v j 2 ",
"*.*.*.*.=.=.=.:.&.&.&.&.&.&.&.&.*.*.*.&.&.=.=.=.=.=.,.,.,.,.,.<.<.<.<.<.<.<.<.<.,.,.,.,.,.,.,.,.8.8.9.9.U U 9.9.A 9.C A C 8.K.w.:.:.:.<.<.:.:.:.;.;.;.2.;.;.-.-.*.*.*.*.*.*.*.*.*.&.&.V M m z l l z z l x !.jXlXjX`.:XlXlXkXlX~.g g g l x h g n k k g l 2Xj.k.$X=XgXL.T F H K F x N B V &.*.-.-.-.;.2.2.3.3.4.4.4.4.h.h.4.4.4.4.h.h.h.h.h.4.4.2.3.:.C z g 2 1 @ J L L D D y 0 J P u e 8 8 8 7 , , $ @ @ , 8 8 8 $ $ $ $ $ 8 8 8 $ & 8 9 0 0 9 9 0 7 7 8 w % = e ! c 9 5 2 : : w . o O o   . % r @ e ! w + % = = + @ % % # & & - = q 1 1 1 1 , < 1 1 @ @ @ + + + + + + + . . . . + + : 5 n v v x z m l S W Z U Z >.P.=Xp.w.d.x 3 k x z m A w.y.0.9.W j @ .         X o o o o   . + J | !.| | { { { { { ! i .                       s #.@.K k Z W W I E U Z N.R.U.U.U.U.C.V.C.C.U.C.V.I.C.V.N.T D.R.).Q.I !.-X!.h x W W Z W -X-XK 2 > 4 : J D 0 2 3 k I v c ! ! % % & J ~ Z.e.e.A.Q.' : , $ i i d d u u 8 7 y P J + , u u $ & #               . . . . # & 8 8 & $ . . - - * . < v K.}.@X+X+X+X=X=XoX=X=XoXoX$XoXoX$X$X$X$X#X#XP.K.p.K.K.p.0.w.G.#X*X*XA.l 2 3 c k g l Z W t.9.w.r.r.r.w.w.w.y.9.A A A A A A A A A Z Z W W Z v k 5 9 7 9 7 < < < < : : , $ + .   + W #XoX Xm.m.+X X.X.X.XXXXXXXXXXX+X+X+XXX.X XXX.X|.|.].x.x.i.5.:.V =.<.<.5.5.5.5.:.:.*.&.V C C =.=.:.1.<.,.,.=.C B m z M 1.d.S m m m m m M M M m N N m m m z z z N N m N m m z z N N S S N N N N z x k 3 ",
"*.*.*.*.*.*.=.=.&.&.&.*.*.*.*.&.*.*.*.*.*.=.=.=.=.=.,.,.,.,.,.,.<.<.<.<.<.<.<.,.,.,.,.,.>.>.>.>.>.>.9.9.U U U A A A C >.8.s.~.y.:.:.:.:.<.<.:.:.-.;.;.;.;.-.*.*.-.-.-.*.*.-.-.-.-.*.*.&.B M m z z z z h l E <X:X~.A.<XjXfXlXlX1Xv 3 3 h l g 3 3 5 3 2 h 2Xv.h.m.=XgX%XN.F R K v x N C &.*.-.-.;.2.3.4.4.4.4.4.4.4.h.h.h.h.4.4.4.h.h.h.h.h.4.4.2.-.&.B z g 2 : : 6 J K J D D 0 y u 8 8 , , 7 < , $ @ @ $ , 8 8 8 $ $ $ $ $ , 8 8 & & 8 7 9 9 0 0 7 0 8 # + 1 w r K c v F v j 2 r e - o     + + + : e e % . % = = % % % $ # & = - q q 1 1 1 1 1 , , , @ @ + + + + + + + + . . . + @ : 2 k v Z N N m m h n K c I Z 0.#X=Xp.8.d.n r k k h z A 0.w.8.9.W j @ .           o o o     . J L } } | { d d i p i w $     .                   s @.@.c g v W U I U U Z N._.E.Y.Y.U.H.U.H.C.C.R.I.V.T N.N.N.Z.Z.E Z.E <X-X~ h N Z z l I -X<X~ 6 : @ @ P 0 4 > 3 E T v c J s p f - 8 K E e.e.B.D.S.0 y 9 i i u u i u 8 7 y P J + , u e . . O               . . . . . # # & - 8 # . ; - O   @ k K.}.@X+X+X@XoX.Xc.oX$X|.|.|.|.oX$X$X=X=X=X=X2X2X=X=X=X=XoX{.].].{.*XP.9.Z W W x h z Z 9.w.8.r.r.r.r.w.w.9.9.A A Z Z Z Z Z Z Z Z x v v n v c 5 4 7 7 9 7 < < < < : 1 1 $ . .   . c ~.oX Xm.m. XoXoX.X.XXXXXXXXXXX+X+X+XXXXX XXXXX|.|.].'.'.a.u.<.<.0.u.u.u.<.<.<.:.*.*.&.V C C =.=.,.,.,.,.,.C B M M m M S g.S m m m m M M M M m N M N M m m z m N N N m m z z z N N Z Z N N N N x x k 3 ",
"&.*.*.*.*.*.*.*.&.&.&.&.&.&.&.&.*.&.&.&.&.&.=.=.=.,.,.,.,.,.,.,.,.,.,.<.<.<.,.,.,.>.>.>.>.>.>.>.A A 9.9.U U A A 9.A >.9.y.~.Q.y.=.:.<.<.<.<.:.:.-.;.;.;.;.-.*.*.-.-.-.-.-.-.-.-.-.*.*.&.B M m x z l l l h x E t.!.~.fXlXlXlXHXHXd.h 3 l z z x j b 3 2 g #Xv.j.n.gXgXrXD.F ' L v x m B &.*.-.;.2.3.4.4.4.4.4.4.h.h.h.h.h.h.h.h.4.4.4.4.j.j.4.3.2.*.&.M z h 3 > : : 6 b 0 0 0 7 7 8 , 1 1 , , , , @ @ @ , 8 8 8 8 $ $ $ $ , , 8 8 8 8 8 7 8 8 8 u u 8 $ , + @ : j 3 g x Z A Z S W b Q p %     . . e u w X   o O   % % % % # + = = = 1 q q 1 , 1 , @ @ @ @ + + + + + + + + + + + + 1 < 5 v Z Z N N m m h k c 5 v Z r.*X=Xq.A E j 6 6 3 g l A 0.w.9.U W j @ .           o o o   . @ L D c F L L ! ! { ! ! s &                         s +.! 5 3 x U U I U I I N.R.L._.E.L.A.A.D.D.D.D.D.I x Z U I k x W <X~ ~ ~ k x h g h x T Q.S.F 2 : , + u , : : > 7XrXT.I.D @ w d & + 0 I T e.e.D.S.H G y i i i u i 8 8 7 y P J @ 0 ! u + . O                   . .     . # - w # .   O o . @ 3 &X=X=X@X+X.Xc.i.c.oXoXc.z.c.c.].oX}.}.}.}.$X=X=X=X=X=X=X=XoX'.a.'.#X#XK.~.<Xd.h h z A 9.w.w.r.r.r.r.e.9.U A Z Z Z Z Z x x x x x x v v k c c 5 4 9 8 7 7 < : : < > 1 1 $ .     . > A.}.|. X X XXX.X.X.XXXXXXXXX+X+X+X+XXXXX X XXXXX|.|.].}.'.a.u.p.s.p.u.u.<.<.:.=.*.&.V C C C C =.=.=.V =.=.V M B M M M A S C m m m m M m m m m N N N N m m m m m m m m z z z l z N Z Z N N N N x x k 2 ",
"&.&.&.*.&.&.*.*.&.&.*.&.&.&.&.&.&.&.&.&.&.&.=.=.=.,.,.<.,.,.,.=.,.,.,.,.,.,.,.,.>.>.>.A A A A A A A U 9.9.U U A 9.A 9.y.~.<XW N C <.<.<.<.<.<.<.:.2.2.2.:.:.-.-.-.-.-.-.-.-.-.-.-.-.*.=.B N z l x h l x l l N Z U !.1XfXjXlXHXJX<XN h z z l x g n 3 > g ~.s.6.v.gXgXfXD.F } R v x m B &.-.;.2.2.3.4.4.4.4.4.h.h.j.j.h.h.h.h.j.j.4.4.6.j.j.6.3.;.-.&.B N l g 2 > > 2 2 > : : , , , $ @ 1 , , , , + @ $ , 8 8 8 , $ , $ , , , 7 7 8 8 8 8 8 w w w w . . , : > Z ~.Q.A.y.8.,.B B M x K J e .     X 8 - #     o o o O % + + + . % = = 1 q q 1 1 , @ @ @ @ + + + + + + + + + + # # @ r r k v N N N N m z h j 5 2 3 x B.*X*X8.A t.2 : 4 2 3 l A 9.9.9.U W 5 + .           o o     + 7 | F 5 5 c 0 9 e u u e 8 +     X                   w J J 5 k Z U U U T U I U e.e.A.A.A.U x g g k I Z.Z v I E E g 2 v -X3 n -X~ Z h h x T S.Q.V.H < @ . . s ! e @ 5 rX9X6X7X) 7 , w X + 9 I U U T N.S.Y D 9 8 8 & i 8 8 8 7 y P J 7 J { ! & . O                   .         X & - + .       . : 3 *X*X@XXXXXXX|.c.x.oX].6.5.5.i.i.}.}.}.x.a.a.a.a.P.P.}.}.}.}.}.'.G.P.#X~.<X~.W h l N A 9.9.w.r.r.w.e.e.9.Z x x x x x x k k k k h k j j j 5 5 5 9 9 8 7 < , : : : < 1 , + .     . : U '..XXX X X X.X.X.XXXXXXXXXXX+X+X+XXXXX X XXXXX.X|.].].}.x.a.u.u.u.q.<.<.<.,.&.&.V V V V C C =.C B B V C C M B M B B C C M m m m M M m m m m C C N N M m m m m m z z z z l l z x N Z N N N N x x k 2 ",
"&.=.*.*.*.&.*.*.*.*.&.&.&.&.&.&.&.V V V V V =.=.=.,.,.<.<.,.,.=.=.A A A >.>.>.A >.A A A A A A A A A A U 9.9.9.r.r.>.y.!.<X!.c 3 N ,.0.<.<.<.<.<.5.3.3.:.:.:.:.:.-.;.-.-.-.-.-.-.-.-.*.V M z h g g 3 h n x l z m z A U y.d.!.~.1X!.m m S C S d.~ ~ ~ ~ !.1X~.s.s.gXgXfXD.F } R v x M V *.;.2.3.3.3.4.4.4.4.4.h.j.j.j.h.h.h.h.h.j.6.6.6.6.j.6.3.;.-.*.V M z h g 3 3 3 3 2 > 2 9 9 < , 1 , , , $ @ + @ 1 8 w 8 , , @ , , , , , , 7 7 8 8 8 w - - - O . + : x A.2XkXgX2X#X#XM.M.M.M.d.S k < @ . .   # .       O * ;     . . . . % = = 1 1 1 1 1 @ @ @ @ + + + @ @ + + + + + # @ @ , 6 r k x x N M M z z h g j 2 2 Z %XtXOXr.A.:X2 : > > 3 x U 9.9.U I F 5 +                     , J !.Y v v j 2 < 9 < < , @ .     * o o o o o       . $ 8 9 c I U T T T e.T U I U Z U T t.t.Z x g g x t.I I I E E x 3 F } : k -X!.~ I Z U N.V.N._ Y 9 @ + $ ! s < : F fXyXqX7X) D u & # , D I U U U T Z.Y 7 $ # & & & & $ $ $ 0 P J , u ! d #                                 . . X + .       . @ 2 r.G.].|.|..X.XoX].].x.5.5.u.i.i.x.}.P.s.p.u.w.w.w.s.s.p.a.a.a.a.a.p.K.~.~.t.z h z Z U 9.9.9.8.w.9.9.U Z x h g g 3 3 3 3 3 3 3 3 5 5 5 5 5 9 0 0 9 8 < , : : : : < 1 @ + .     . @ x F.oX X X X|..X.X.X.XXXXXXX+X+X+X+XXXXXXX X X X|.|.|.].].x.x.i.u.u.<.<.<.,.,.V V V B V V C C =.V B B B C C B C B B B B B M M M M M M M m m M N N N N M m m m m z z z l l l l l x x Z Z N N N x x k 2 ",
"=.=.*.*.*.*.*.*.*.*.&.&.&.&.&.&.V V V V V V C C =.,.,.,.,.,.,.=.=.C C C A A A A A A A A A A A A 9.9.9.9.9.r.r.p.r.y.A.~.<X} 4 > z A 8.0.<.<.<.<.<.:.:.:.:.-.-.-.;.;.;.-.-.-.-.-.-.-.=.V M z h 3 2 > g x x z m m m m z l l h l N N l m 1.1.g.d.d.d.!.!.!.!.t.8.0.=XgXfXL.F R R F x M &.-.;.3.4.4.3.4.4.4.4.4.h.k.k.k.k.h.h.h.h.h.6.6.6.j.j.6.3.2.;.-.&.V M m z l l l x v v K K b 4 8 1 1 & $ # . + @ , 8 8 , 1 $ @ $ , , , 8 8 7 $ , 8 8 8 % X O   . 9 E `.2X2X2XgXgX2X2X$X$X$X2X2X~.W j : @ 8 J u $                 . . . + % = = % 1 1 1 @ @ @ @ @ + + @ @ @ @ $ $ $ @ @ @ @ : 6 j k l z m M M m z x k k 3 3 U rXtXJ.F._.fX> @ > > 3 v U 9.U U I K 4 + .               . + 0 R ' I Z I I v v K F D b 0 , .   o o o o o       . . @ < 9 F T T T T T e.e.T U U I l l x I W E Y I I Q.Z.T U U U Z I } -Xc K ~ ~ !.E U e.A.A.N.T Y J + @ u @.e < c D ^.7X7XI.H P u & $ 0 L E U U U N.S.' : + . # - # # $ # + 8 P J + $ e 8 .     O       X             X X         & # X o   . + > x 8.a.].].|.|..X'.'.u.u.u.a.u.p.q.u.s.s.w.8.8.8.C ,.w.q.q.<.<.<.p.u.r.K.y.C l h m Z U 9.9.9.8.8.9.U Z x h 3 3 2 > > > > > 2 2 2 2 2 4 4 4 9 0 0 0 8 , , , : : : , 1 + . .     . @ 2 r.}.].|.|.]..X.X.X.XXXXXXXXX+X+X+XXXXXXXXX X X X|.|.].].c.x.x.a.i.u.u.<.,.=.B B B B V C V V C B B B B B B C C C B V C B M M M B C N M M M M N N C N N M m m m z z l l l l l l l x N N N N m x x h 2 ",
"=.=.*.*.*.*.*.*.*.*.*.&.&.&.V V V V B B V V V C =.=.,.,.,.,.,.=.A C C C A A A A A A A A A A A U 9.9.9.9.e.r.r.r.r.K.K.<X-Xb @ @ g A y.0.<.<.5.<.5.<.<.:.:.-.:.-.;.;.;.;.-.-.-.-.-.*.*.V M z h g 2 > g x z m M m M m z z l l l l l l m m m m z l l h g g 3 3 g h }.gXgX`.F c v v N C *.;.2.3.4.4.4.4.4.4.4.h.h.h.h.h.h.k.h.h.h.h.j.6.6.j.j.j.4.4.2.;.-.*.=.C C C C A 9.y.U E W v 0 8 1 % % # . . + @ 1 q 8 1 $ @ @ $ $ , , 8 8 7 $ & $ $ $ + + + + 5 !.fXkX2X=X=X=X=X=X$X$X$X$X$X2X1Xd.l 2 x !.:X-XK @ + & &         . + + + = q 1 @ % @ @ @ + + + + + + @ @ @ : , , $ 1 @ : : : 2 g k l z M N C M m N x x k h B.tXtXF.F.&XfX: @ : > j Z W U U I I K 4 + .       o       . @ D !.E U U U U I I T I F D D 8 .   o o o o o   . . . + < 0 c R T T e.T T T e.t.T U U e.U I I E Z.Z.T N.D.R.C.B.V.N.D.D._ T F } E ~ !.!.t.t.Q.Q.!.Z.} ~ : : D ;X| K K c : : @ 9 J ! p e 8 c R E T e.e.A.D.!.: + . X ; . . # + + 8 J u + @ 8 w .     X                                 + % = * o   . @ g A w.a.]..XoX{.a.u.<.q.u.<.C C >.8.8.9.>.A A A N C >.0.0.0.0.0.q.w.w.r.w.A m h z Z A >.>.9.9.9.9.U Z k 3 2 > : @ @ @ : : : : : : : < < < 9 9 9 9 , , @ , : , 1 < @ + . . .   . + : U P.[.{.].|..X.X.X.XXXXXXXXX+X+X+XXXXXXXXXXXXX X X|.|.].].].].x.x.a.u.q.,.C M M M B V V V V B M M M M M B C =.C B C C C B B B C C C B M M B N C C N N M m m m z l l l h l l l l l x N N N z x x k 2 ",
"=.=.=.=.*.*.*.*.*.*.&.&.&.V V V B B B B B C V C =.=.=.=.=.=.,.=.A C A A A A A A A A A A A A U 9.9.9.9.r.r.r.r.r.r.~.!.-X~ @ . + 3 Z y.w.<.<.5.<.5.5.<.<.:.:.:.:.;.;.;.;.;.-.-.-.-.*.*.=.B m l h 3 3 k x z N B m V M M M z l l h z N m z m M M m z h l x h l l l p.gXgX1XI 2 j v Z C *.;.3.4.4.4.4.h.h.h.h.h.h.k.h.k.k.k.h.h.h.h.h.j.j.j.j.j.h.h.4.3.3.2.5.<.<.5.5.u.s.s.8.9.W v c 6 1 % % O X   + % q q 1 % @ $ @ $ $ , q 8 8 8 & & $ $ @ @ @ : W ,XHXkX2X=X=X$X$X$X$X$X$X$X$XM.M.#X1.h l d.1X1X1X~ 2 > b J e $ . . + @ @ @ 1 q 1 % @ @ + + + + + + + @ @ @ : : < , 1 : : : > > 2 k l l z N C C B N N z x x x L.tXtXF.F.&XfX> > : > k W W U Z Z I K 4 + . .     O     . + : K Q.I U U U e.e.e.e.e.T Y F 0 $     o o     . . + + + e K K T T T e.T T T T T U U U T T T T T T Y I N.V.R.C.C.N.T C.C.D.S.Y R v W Z.t.Z N Z A W t.d.S d./.S.Z.F v ~ > : > : @ @ q p J 0 c I E t.e.A.L.Q.!.: + .         . . . 8 u u @ , s ! p # O               o o             . .   O * * o   . + ~ t.y.p.G.'.'.x.a.p.u.G.P.8.M M m m N N z z m N N N N C >.>.>.,.,.w.w.w.r.y.A l z N A A >.8.9.9.t.A x g 2 > : @ @ + + # @ @ @ @ @ @ , , < < < < 8 , @ @ , , 1 1 , @ + . . . . . . + v t.P.}.'..X.X.X.X.X.XXXXXXX+X+X+XXXXXXXXXXXXXXXXX X|.|.].].].x.x.a.p.q.,.A M M M B B V V V m m M M M m M C =.C B C =.V B C B C C C B M B N N N C C N M M m z z l l h h l l h h l x N N N z x x g 2 ",
"&.&.&.&.*.*.*.*.*.&.&.&.V V B B M M M M M M B B C C A A >.>.A C C C C C C C C A A A A A A A 9.9.A 9.e.r.r.r.r.A.~.!.d.K > + . + > l U y.p.u.5.u.u.u.u.u.<.<.<.5.3.3.;.;.-.-.;.;.-.*.*.V B m l h k k n N S B B B B M M m m z x x l z N m m M M S m z z m N N l l p.gXlX1XZ.> j W A >.-.;.4.4.4.4.h.h.h.h.h.h.h.h.h.h.h.h.h.h.h.h.h.h.j.j.k.k.k.j.h.h.4.6.6.6.6.6.6.i.i.a.p.w.U Z v 5 1 % % o     % q w w = % % % % & & q & & q - X X + + @ > W :XlXlXgX2X2X$X$Xm.$X$Xm.m.b.b.v.v.7.f.1.z g.#X2X2X2Xf.C N ~ ~ L c 4 @ @ @ : @ @ % @ @ @ @ + + @ @ @ @ + + @ : 7 8 : : < > : : > 2 k x x z N A A C C >.A A N N z P.gX=Xr.OXfX`.v 3 j v W W Z N Z Z v v 0 : + + % % % o . + @ D } !.I U U U e.B.r.B.B.e.Y F D 0 $       . . + @ , : b b c F I T T T T T T T U U U U U T Y I I I F v F T C.U.N.T T C.R.C.I I E F v !.t.9.A m z N A y.m y.r.e.e.N.E W 2 > @ @ @ % = 1 0 R F I T T r.r.L.Q.Q.5 < .             . 8 u u @ 8 u s w X   O O         o o     o                 * * o o O . J ~ E A 0.p.a.}.G.p.s.P.w.>.A z Z N N z l l l z N A A 9.8.0.8.8.w.w.0.w.r.K.P.~.C B C >.>.>.8.y.y.Z x j 4 @ + . + . . . . + + + + + + @ , 8 9 8 , , , , , , 1 1 $ + . . . . X X   @ : v ~.#X'.oXoXoXoX$X$XoXXXXX+X+X+X+XXXXXXXXXXXXXXXXXXX X|.|.].].].'.x.p.0.,.M M B B B V V V B M M m m M M B C C =.,.=.=.V V B C 1.1.C M M B M N C B M M M z z z l l h h h h h h h l l z z x l n k > ",
"&.&.&.*.*.*.*.*.*.&.&.V V V B B M M m m M M M M B B C C A A A A A A A A A A A A A A A >.>.9.9.9.9.9.9.9.e.t.A.Q.t.W v 3 : . . + : h A y.u.u.5.i.u.u.u.u.u.u.5.5.3.3.;.;.-.;.;.;.;.-.-.&.V M z l x x x N M M M M B B M M m z x x l x z m m m M C S S S S S S N M 0.2XlXfX!.> j W U 1.:.2.6.4.4.h.h.h.h.h.h.h.h.h.h.h.h.h.h.h.h.h.h.j.k.k.k.k.k.j.h.4.4.6.6.6.6.j.j.j.z.z.a.u.9.Z v c 8 % X o o   % = w w % # + + . . + # + + + # &   . : R <X1XgXgXgXgX2X=X$X$X$X$X$Xm.b.k.j.4.5.:.1.&.M f.M.$XM.2XM.7.=.1.d.E W v v c 5 > : @ + @ @ @ + + + + + + + @ , : < < > > 2 2 2 2 2 3 g l x z m N A A C A >.A 9.N N m }.gXOX0.J.*X~.x g x Z W Z Z N N Z x c 6 : + @ % % = O + + : R Q.Z.U 9.U U e.r.r.r.B.e.T I R L L P i i 8 8 L | | L K K K I T T T T T T T U U U U U U T T I v v k j v _ R._.C._ N.D.D.T x v E I W !.d.d.y.A C A A A B <.w.8.r.r.U W n b 4 < : : = : K R I I T U e.e.A.L.Q.F : .             . & u u @ $ 8 w - %     O         o     o o         . . X   o o o o *   = b c h A y.s.s.}.p.p.K.y.A A W W Z h h l Z Z Z A U 9.9.9.9.8.9.8.8.8.w.p.K.P.#XP.w.A C ,.0.w.y.y.Z h 2 : + . . . . . . . . . . . + + @ , 8 e 8 , , , , , , 1 1 $ + . . . . X O   + + 2 t.~.}.'.x.x.'.}.oX|.|.|.|..X.X.X.XXXXXXXXXXXXXXXXXXX X|.].].].].x.a.q.,.B B B B B V V V B M m m m M M B C C =.,.,.=.V V C C =.C C B B B M C C N M B M m z l l h h h h h h h h l l l z z x S k 2 ",
"=.=.*.*.*.*.*.*.*.&.&.V V B B M M m m m m m m m M M N C C A A A A A A A A A A A C A >.9.9.9.>.A U 9.t.Z.t.E E W x g > : @ @ % + : 3 Z y.q.5.5.i.i.u.s.s.u.u.i.5.5.5.3.:.;.;.;.;.;.;.;.-.&.B m l z z m m M M M M B M M M m m z z l x x z z m M N S C S S S S N M C *XkXlXQ.> j Z A ,.:.;.4.4.4.4.4.h.h.h.h.h.h.h.h.h.h.4.4.4.h.4.k.k.k.k.j.k.k.j.j.j.j.j.v.v.v.v.c.c.c.].].G.r.U I K b % . O O   & , q $ + . . + + + $ @ + . . . . # P -XjXkXkXkXgX2X=X=X=X=X2X2X$X$X$Xm.b.j.3.:.,.<.=.*.M.M.M.M.M.M.7.*.&.>.9.t.t.Z.E v > : + . @ @ + + + + + + + + 1 < 7 < > > 2 3 g g g g h l z m m M C A A A >.>.>.1.C M C *XgXOX0.G.*Xs.N l S S Z N m z z x v k 4 @ + @ % % = O + @ 2 !.`.e.U e.e.9.r.r.r.r.B.e.T I I Y L J L L P P | ,X:X} 5 c c v I T T e.T T T T U U U U I E W v g 3 3 3 3 F S.^.V.T N.`.Q.I g k v v Z W t.s.s.p.r.r.r.w.,.q.q.q.p.K.y.U R Y H H H D b c R Z.I I T U e.e.r.K.D.T @ . . o         . & u u + + + + & % X                   o     . . . . . .       o * * o   + @ : h t.y.s.p.s.p.w.8.9.U y.W Z h l Z W t.t.t.e.y.9.9.9.9.9.9.9.8.w.p.G.}.#X*X#Xu.0.0.0.w.9.9.Z g > @ . . o O . . . X X . . . . + $ , 8 8 e , , @ @ , , 1 1 @ + . . . X X O o O . + v Q.P.u.5.5.u.a.x.x.c.c.].].].|.|..X.XXXXXXXXXXXXXXXXX.X|.|.].].'.a.u.q.&.C V V V C V C B M M m m M M B C C =.,.=.C V V C C C C V C B B B C C C C C B m z l l h h h h h g h h h h l l l x S k 2 ",
"=.=.*.*.*.*.*.*.*.&.&.V V B B M m m m z z z z z m z m m N Z S S N C C A A A A A A A A A >.>.A A U t.d.d.E I k 3 2 > : > > 1 % + @ 3 x 9.q.5.5.i.i.i.s.p.u.u.i.i.6.5.5.5.3.:.2.2.2.2.2.;.*.V M m z z m M M B B B M M M M m m m m z z z z z z m m m M B C C B m m M *XlXlX:X> 3 v N >.:.;.4.4.4.4.4.4.4.h.h.h.h.h.h.h.4.4.4.4.4.4.j.j.j.j.j.j.j.j.j.z.v.v.v.v.v.c.|.|.].{.{.J.r.U v K 0 + .       . + + + + + + @ + + @ + + + + + 7 @.AXDXHXlXgXgX=X#X'.}.$X=X2X2X2X$X$X$X$XoXz.5.<.:.:.-.M.k.l.l.j.M.v.-.&.,.w.w.y.A.!.I 2 + . + @ @ + + + . + + + @ 1 < 1 > > 2 g h h l l l z m m M N C A A A A 9.>.>.y.>.M 8.=XgXOXr.J.*X9.N z W S N z z z x x k j > @ + + @ + . X + @ F Q.L.9.9.r.r.r.K.K.r.r.B.B.e.T I F c 5 : > > : > 5 j 2 > 2 j v I T e.e.e.T T T T T U U U E W k g g k c 3 c Y T Y I Z.:X!.v 3 g 3 3 h x Z A w.K.P.K.r.K.p.s.u.s.#X#Xy.E I H ) ) ] ] } E E Z.I I U U 9.9.r.F.L.Q.: +   O           # w u . + # + % = %                         . . . + + . .         o o o   + @ 3 W d.y.V s.s.=.A 9.A Z x Z W W W W E t.t.t.9.9.U U U U 9.8.w.r.r.F.G.[.#X#X#XP.p.q.,.A A x 3 : + . o o o o o   X X     . . + # $ , 8 8 , , @ , $ $ $ $ + . . . . X X O o o   . > E P.u.-.*.=.<.s.a.x.].].].].].].|..X.XXXXXXX.XXXXX X X|.|.|.].].x.a.u.:.=.V B B V C C B M M M m M M B C A =.=.=.C V V =.C B B V V C B B C C C C C B m z l h h h h h h h g g h h h l l x S k 2 ",
"=.=.*.*.&.&.*.*.*.&.&.V B B M M m z z z z z z z z z l z z x N N N N N Z S S A A A A A C A A A A t.W W v j 3 2 > > > 2 2 4 > : : : 2 x >.<.5.5.i.i.u.u.u.u.u.i.i.i.i.i.5.5.3.3.2.2.2.2.2.:.*.V V M M M B B B B B M M M M M M M M M m m m z z z z z m M M M M N M M #XlXlX:X2 3 x Z >.<.2.4.4.4.4.4.4.4.4.h.h.4.4.4.4.4.4.4.6.6.6.6.6.6.6.6.i.i.i.i.i.a.x.'.}.}.'.}.].'.}.OXP.B.T F K b : + + $ + y D J J P L ~ | @.#.;X;X;X;X;X>X;XpXjXfX:X`.~.K.K.p.p.G.}.#X$X$X$X=X2X2X2X=X$XM.5.&.V &.7.4.h.h.4.M.s.*.*.5.u.w.8.y.d.E c @ . + + + + + . . + + # % 1 , : > 4 5 l z z z z m m M M N C A A A A A 9.9.9.9.>.M p.tXtX[.F.*X*X>.m z N N z z N x x k b 6 : + + + + +   + + 2 Z.A.9.9.9.r.A.A.K.K.r.r.F.B.e.e.e.T I I I R W W F v F I F F I T T e.e.e.N.N.N.N.e.e.e.e.t.E Z g g v K K W R E E I F ' :X!.v k n > > k v h l Z r.K.9.C 0.=.V V <.s.0.m h v F H ) _ _ _ E e.r.U Z U U 9.9.r.F.L.(.2 + .             # 8 u . 8 u w # X X                       + . 8 @.aX;X7 @ . . X     * o O . + > Z t.y.V i.u.V B A A Z x W E E S Z A t.9.U U A A A A A 9.9.w.r.r.p.F.G.'.}.*X=X#Xs.0.C z g > @ +   o o o o               . # # & , , 1 , , @ @ $ $ $ $ + . . . X + X . * o o . @ v r.a.<.*.&.,.w.p.'.].].'.'.'.].].].]..X.X.X|.|.|.|.|.|.|.|.|.].c.x.i.5.:.&.V B C C C B B M M M M M B C C =.=.C V V V =.V B B C V C B B C C C C C C m l h h h g g g g g g g g h h h h x S k 2 ",
"&.&.&.&.&.*.*.*.*.&.&.V B B M M m z z z z z z l z l l h h h x x x N N S S W W U Z Z Z Z Z Z Z Z W Z h 2 : : > > > 2 2 > : : > < < 5 x A <.5.5.6.i.u.u.u.u.u.i.6.i.i.i.u.5.5.3.3.2.3.3.2.;.:.*.&.&.&.V V V B B B B M M M M M M B V B M M m m m z m m m z z m N C B #XfXlX,Xj 3 h Z 8.<.;.3.4.3.3.3.3.3.4.4.4.4.4.4.4.4.4.6.6.6.i.i.i.i.i.i.i.u.u.a.p.a.G.P.P.}.}.#X#X#X*X*X_.(.Q.!.!.| ~ ! ~ { L ` R R L L R R R R R R R R ` } } S._ I Z Z U U Z U U r.K.G.a.x.}.$X$X$X$X=X=X$X$XM.:.V &.v.v.j.4.i.M.s.&.&.:.:.&.,.>.t.d.K : . . + + + + + + + + % % @ @ @ : 6 n x m m m m M B C C C C A A A A U e.9.9.9.>.M P.gXtXJ.J.tX1XA m z x x z N Z x x k b 4 @ . . . . .   + @ c Q.r.C 9.A e.e.e.A.B.r.r.K.B.r.e.e.N.Z.Z.U Z v I I v v I R R E E T T T T e.N.N.N.N.N.e.e.A.t.Z g h K ~ W R R R E I F E !.!.~ ~ K 2 > k K g g z y.s.N l A A C C 0.p.>.m x Y Y ) _ _ N.e.U e.r.U U U U w.8.r.F.P.(.F : .             . & e + d { p .                   o O   . . . , @.sXsX| L 7 . .       o * O . : v W >.u.u.<.=.C M Z W Z Z Z Z Z N Z A Z Z N N N Z Z Z A U 9.9.0.r.p.G.}.}.}.$X=X#Xs.8.z g > @ .   o o o                 . # & & & $ , , , @ @ $ $ @ + . . . . X % X . O o * X + 3 r.[.a.u.,.,.w.p.G.'.].].'.'.}.'.].].].].].|.|.|..X.X|.|.|.|.|.].c.x.i.5.:.V B C C C C B B M M M B B C C C C V C C V C V B B B V B B C C =.C C C C m l h h g g g g g g g g g g h h h l S k 2 ",
"&.&.&.&.&.*.*.*.*.&.&.V B M M m z z z z z l l x n x h g g g g h h l x Z Z Z Z Z Z Z Z Z Z Z Z Z x h 3 2 > : : : 1 1 2 > > > 2 5 6 6 v A :.:.3.5.5.u.u.u.u.u.6.6.i.i.u.i.5.5.3.3.3.3.3.2.2.;.-.*.-.-.*.*.&.V V C B B B B B V B V &.V V C N C N N M M M m m z z N M P.1XlXjXF 5 3 z >.<.;.3.4.4.3.5.6.6.i.z.z.z.z.z.z.z.z.x.x.x.x.}.}.}.}.G.G.F.p.F.F.F.B.r.B.B.B.A.A.A.A.A.S.Z.' !.!.| | | | | } } } ` R R Y R Y D D c c c F F I T U U U I v v v F v U A.P.'.'.].}.}.oX$X$X$X$X$X$Xs.u.u.#X}.v.3.u.f.y.B B &.&.&.,.>.1.W b : . . + + + + + + + % % @ @ + @ : 6 n m M M M B C C =.C C A >.A A A U T e.t.U A N *XgXrXF.J.gX1XN m z l x x x x x v j 0 , . . .     . . + 4 R t.9.C A A e.e.e.B.r.r.r.A.r.e.e.e.e.e.e.U Z Z Z Z Z Z v F I I T U U U T T T T T T e.e.e.e.e.I h h I W I F F F I I F I ' ' ' R F 4 : 5 K 3 h z A d.N z S S N N 8.w.A N W !.!.!.!.Z.N.e.9.r.K.e.9.9.U w.w.r.p.E.L.' < .   o         . $ w $ ! { w                     O - - . . + , ` :X;X;X:X| , . .       o o . : v W N M.5.:.,.C m Z E Z Z x l z z m m m m z z z N N N Z A U 9.8.0.r.G.'.].}.}.=X=X#XP.9.Z 3 : .   o o                   . # & & % % @ , , @ $ $ $ @ + .   . . % % X . o O * X . 2 e.{.{.x.u.y.y.p.a.a.x.x.x.x.x.a.a.i.i.i.z.x.c.|.|..X|.|.|.|.|.|.c.c.x.i.:.&.V C C C C C C B M M B B C C C C C B C V B B B B V B B B C C 1.=.A C C m l h h g g g g g g g g g g h h l l v k > ",
"V V &.&.&.&.&.&.&.&.V V B M M m z z z z z z z x n n g 3 2 2 2 2 2 2 3 j c v v v v Z I I I Z v v g 3 2 > > > : : : > 2 6 5 5 5 5 0 b x A :.:.3.3.6.5.u.u.u.i.i.i.i.i.i.5.5.3.3.3.4.4.3.2.2.;.-.-.-.-.-.*.*.=.=.=.C V V V V C V V &.&.V V A A A A A >.1.y.S S N m M f.1XlXlXY 5 > x y.w.<.u.i.i.i.v.}.#X#X#X#X#X#X*X*X*X*X*X*X*X*X*X*X*X*X).~.~.~.A.Z.T U I Z Z v k k g 3 3 2 2 2 c c c D F F F D F F F F F I Y Y ' ' ' ' S.^.:X:X&XrXgXgX&XA.e.T I x x r.*X*X}.'.x.#X$X$X$X$X$X$X$X#X#X}.#Xx.i.:.:.q.,.M M 1.d.f.y.y.S g : @ .   + + + + + # % % + + + + + : e n m M M B C C ,.,.C C A 9.A A A U 9.e.e.A A N *XgX*Xr.J.gX1Xz z z l x v v x x v c 0 @ . . .     . # + c E 9.>.,.>.9.r.N.N.N.N.e.e.e.e.r.w.r.w.8.>.A U A N N N N z Z A U 9.9.9.9.9.U U T T T T e.e.I U I k g F R I R F F F I F I Y F F D c 4 > c W g x N Z W N h x S N m A 9.N N t.!.!.!.!.A.t.r.w.r.P.r.e.e.9.w.w.p.p.[.H.Q.4 + . .       . . $ w # d ! -     O               ; - p . . + + 4 D c !.jXsXD . . X         + > v U m s.<.:.,.C N Z Z x k h h h l z z z z z z z N N N N A A U >.8.w.p.a.'.}.}.}.=X*X*X#XA.Z 5 : . .                     . X & & $ @ @ @ @ @ $ $ # + +       . X X .     ; *   . < e.OX@X{.a.p.p.p.r.u.<.<.q.q.q.<.<.:.:.<.5.i.x.c.|.|.|.|.|.|.|.|.n.c.c.i.:.&.V C C A C C C B M B B C V C C V B B B V B B V V V B B B V =.1.=.A C B m l h h g g g g k g g g g g g h h h n k > ",
"&.&.&.&.&.&.V V V V V V B M M m l z m z z z Z W ~ k 2 > : : > : + + + @ @ : : > 4 5 c c c j 3 2 2 2 2 2 > > > 2 2 2 2 5 5 0 0 5 c c z B *.2.3.3.4.4.5.5.5.i.5.5.6.6.6.4.4.3.4.4.4.4.3.3.2.;.-.-.-.;.-.*.*.-.:.:.=.:.,.,.,.,.1.<.,.=.=.,.0.w.r.s.A C C A A W E y.f.f.1XhXgXS.2 : 2 } <X1XkXkXkXlXlXlXlXfXfX1X1X1X:X:X`.^.!.!.Z.' R R H F D c c c c 5 5 4 2 > > : 5 5 5 j c c v F H H ) ) ) ) ) _ _ _ ' ] _ Y Y Y Y Y F I S.:X:X(.tXtXgXgXgXgXgXgXgXgX2X2X=X}.u.<.5.s.M.$X$X$X$X$X$X=X=X$XoXc.6.3.;.i.<.m l v K n n g 2 : @ .     + + + + # + # # . . . . . . % b N M M B C A A A C A A A 9.A A 9.8.0.r.A A m 1XgX*X,.*XkXgXN l g k x x x x x k j < , +   .     # y 0 I r.u.}.gXgXhXkXkXkXzXzXhXrX%XH.p.5.3.7.7.=.=.A C V V &.&.*.<.:.:.<.5.<.<.,.U U I I I I I Z I Z e.T v v Y Z.' T Y T T Y I Y T Y Y v 3 k I v l N A W N h h z S d.y.8.C m U A.A.Z.~.Q.A.K.9.9.,.8.9.9.9.9.y.p.p.p.[.OXR.I @ , e e u u u e , + . . w w X . X                 o o     . u ;X!.> D ` | + .   O     . + @ K E A C s.<.,.>.A W n c 6 6 5 g h h l h l l z m z l z N N Z A A A 9.w.p.G.G.'.[.}.}.}.*X#XP.L.A.E v > @ +       o o o o   X O # # $ @ @ @ @ $ $ # # .         X X X       % o   . + (.*X@X.X.X|.'.u.C z m m z m m m M M M =.<.u.z.c.|. X X X X X X X|.|.n.c.i.&.M M M M C >.>.C M B C V B B B B B B B B B B B B B B B B V V C =.A C M m l h g g g g g 6 3 3 3 3 3 3 3 g k k k 2 ",
"&.&.&.&.&.&.&.V V V V V B M m m z z m z z m A E W j : > > : > @       . . + @ : 6 6 0 0 0 6 6 2 4 4 2 > 2 2 2 2 2 2 5 5 0 0 0 5 c x z B *.;.3.4.4.4.4.6.6.6.5.5.5.6.3.3.3.3.4.3.3.4.3.3.2.2.2.;.;.2.3.2.-.-.:.:.<.:.:.:.:.:.:.<.,.,.,.w.p.G.P.#XK.y.A N Z A W d.g.f.*XgXhXI.5 @ 1 ! } ^.fXhXgXlXfXfXfXfX:X:X;X/.} ` R H G D y 0 7 8 7 7 7 7 9 9 0 0 D D D D K F H H R R R R R R R ) ) ( ( H ) _ ) _ ' ' ) ) ) _ ) Y H Y ' Z.Q.(.*X=XtXtXtXtXtXtXtX=X=X=X*Xa.=.M =.:.7.v.M.M.M.oX$X$X$XoX|.c.6.2.3.v.q.z 3 2 6 e b 6 > : + .     . + + + + + + + . . . . .   % e x N N B A A A A A U A U U A A 9.r.w.p.8.9.C gXgX#XC p.#X`.l h k k x x x x x k j J J q .     & u ` _ A.p.:.4.c.].*XtXrXrXrXtXhXhXhXhXgX$Xk.h.2.-.*.:.5.3.3.4.j.M.M.6.3.5.5.:.:.,.A Z I U Z v I U U I Z.T v F I I Y T Z.S.N.T T T I I T I x I T Z Z Z U U Z h h l A y.s.r.>.M 9.L.A.A.L.A.A.K.9.9.,.,.w.e.e.U e.s.p.p.[.OXE.T > < 4 6 0 e e 8 $ + . # i p # X #                 o o o   . P ;X:XF c 0 9 + #       % q > 3 W A B ,.w.,.,.9.Z v j 4 : : : > 3 h x N z m m m m m z z z z Z A A 9.y.s.p.a.G.G.'.}.}.}.}.}.}.P.K.9.Z v : + . . . O o o   X O # # $ $ @ @ $ $ $ & # .         X X . .     O o   . < `.*X@XXXXXXX|.a.w.A Z N l h h l z m C <.u.x.].].|. X X X X X X X X|.n.c.i.:.V B M M =.,.,.C C B V V V V V V V V V B V V V B B B B B V V C C C C B m l g g g g g 6 6 3 2 2 2 2 2 3 3 g k 5 2 ",
"&.&.&.&.&.&.&.&.V V V B M M m m l z z z z N U t.W 2 : : < > : + .     . . + @ < 6 4 6 6 6 6 6 2 4 4 2 2 2 2 2 2 3 3 5 5 0 0 0 9 5 k x N =.:.2.3.3.3.3.3.5.5.5.5.5.5.3.2.2.2.2.2.3.4.4.3.3.4.4.2.;.;.;.;.-.-.*.-.-.*.*.:.:.<.s.f.s.s.s.p.p.p.P.#XK.9.N z z Z t.d.g.g.).gXhX`.c @ @ b F Y _.gXgXlXlXjXfX:X:X^.Z.' R R H H H G H G J J D D D D D D D D F H R R ` ` ] ] ' ' } } } ' R ( H H H H Y ` Y R ` ` } }  . .| ` H R F j v t.*X=X=X=X=X=X=X=X=X=X=X2X=X}.u.:.V V -.3.z.v.n.oX$X$X$X$XoXv.j.3.6.M.f.z > @ : 1 b r > : + .     . . . . . . . . .   . . .   . 1 k N A Z C A >.A A 9.9.U U Z Z U r.9.r.9.9.A gXgX#Xz N y.!.h k h x x x x x x k 5 J ! d p - & i { !.K.s.i.j.k.k.j.j.c.].a.a.'.=X=X=X=X=X$Xk.h.4.4.4.j.b.b.m.m.m.$Xv.i.i.i.5.:.u.*X~.e.I I I U U I U U Q.A.I I T Z.E ' Z.Z.T T N.D.E W t.E U e.e.Z U U U U A z z z A y.r.p.r.A r.R.L.D.D.B.B.B.e.9.,.,.r.r.e.U 9.y.q.p.G.[.E.S.c > < < 6 4 8 $ + . . & w - X O X                 o o     . y | !.' | L 9 + + . + , u J K W t.A C w.w.0.8.9.z 3 2 : + . . + 2 v W d.U 9.>.C N N m l z l z Z A 9.y.s.p.p.p.a.a.'.'.'.'.}.}.}.P.K.r.t.v j > @ + + + . . . X # # # $ $ $ @ $ $ $ # + . . . + + @ @ + +   o   . + R &X=X+XXXXXXXXX{.}.K.w.A m l l z M C q.p.'.{.oX.X X X X X X X X X X Xn.].v.u.=.V B B ,.<.0.,.C V V V V V V V V V V B V B V B B V V V V V V C C C B M h g g g g g 6 2 2 2 2 2 2 2 2 3 g k 5 > ",
"V V &.&.&.&.&.&.V V V B M m m z z z z z z N W E K 2 : : : > : + .   . . . + @ < 4 4 4 6 6 6 6 6 4 4 4 2 2 2 2 2 5 5 5 5 5 0 9 9 0 c x N =.:.2.2.3.2.2.3.5.5.5.5.:.:.:.:.:.;.2.2.2.4.4.3.3.4.4.2.2.-.&.*.-.-.*.*.&.&.*.:.<.s.f.f.#X#XP.p.w.8.w.F.w.A N m Z W t.d.g.=.P.gXhXfXL @ @ e c F (.lXkXlXlXfXfX:X:XQ.!.' !.} ' ` ` | | | | | } ` ` R R Y H Y Y Y ) ) ) ) ] ] ] ' } } ' ' H L ` ` ` ` R R } | | | ` | | | L D D D 5 : 2 Z 2X2X2X=X$X$X=X=X=X=X=X=X=X=X=X$X:.*.-.3.6.j.j.z.oX$X$X$X$X$Xv.z.s.f.d.l : @ @ 1 e 6 : @ + .     . . . . . . . .     .         + 3 x W A A >.>.A >.9.9.A Z v v I t.t.r.w.0.p.gXgXP.z z A.~.x k g x x x x x x j 5 4 ! ! { ! u d { !.K.u.6.b.m.m.b.k.j.j.3.2.4.j.j.j.k.b.l.k.k.h.h.k.l.l.m.m.m.b.j.3.<.<.<.<.p.=XkXkX&XT v I T U I I T (.Q.v v E ^.!.Z.T T N.Z.A.Q.Q.t.E T U e.e.U U 9.9.9.9.U A A 9.y.9.r.F.r.F.P.L.L.D.N.B.B.e.9.A ,.r.B.e.A U r.q.p.G.J.E.D.v @ : : 1 , 1 $ .     # - - .                       o     . < D F H ;X>XL + + @ J K K W W t.y.>.>.w.K.w.8.C h 3 > @ +     . < b ~ d.d.f.s.8.8.w.9.N z l l x Z U 9.9.0.q.q.u.u.u.i.i.a.'.}.'.P.P.K.s.!.E v j > : @ + + . + + + % & & @ $ $ $ # + . . . + % % @ @ @ + o o . + : `.*X=X+XXXXXXX+X$X$X#X}.s.0.A A >.0.q.G.}.oX@XXXXXXXXX X X X X X X X Xn.|.M.i.<.&.V V ,.<.<.<.=.=.V V V V V V V V V B V V V B V V V V B B V C C C B m h 3 3 3 g 6 6 2 2 2 2 2 2 2 2 2 3 g 3 > ",
"V V &.&.&.&.&.&.V V V B M m m m z z z z z N U E K > @ : 1 8 e 1 .   . + + + , 6 4 4 4 4 5 6 5 6 4 2 6 4 2 2 2 2 5 5 5 5 5 0 9 0 0 c x N C :.;.2.3.3.2.2.3.3.2.;.:.:.:.:.:.3.3.3.2.5.5.3.3.7.3.;.:.:.:.<.<.-.*.*.*.-.:.:.:.:.:.,.f.s.K.F.w.,.0.r.s.r.9.9.t.d.Z.d.d.A K.rXhXfX` @ @ e c F Q.lXkXkXDXDXkXlXlXlXjXjX:X;X/.| } } | } R R R R R ` ' Y ' ' S.S.^.^./.^.[ ] ] ' } ' ' ` } | | | | | } } @.@.| ! 0 < : : > : > > : : > h f.M.M.#X$X$X$X$X=X=X=X=X=X=X=X=X=X$X$X$Xv.z.z.b.n.oX$X$X=X=X$X}.f.d.W g : + @ @ , @ @ + + . X   X . . . . . . .               . : j Z W U 9.>.C ,.,.9.A x k c c v U e.9.8.G.tX=XF.z l !.<Xx k h x x x x x k 5 4 e s d d ! d P | t.K.i.4.k.l.m.m.$X$Xm.b.k.l.l.l.l.k.l.l.l.l.h.k.l.l.l.l.l.l.k.3.-.:.:.<.G.=XkXkXkXkXL.v Z U U T U T (.A.k j v T Z.t.T Z.Z.Z.e.e.E U I I U A.A.r.9.e.r.r.r.y.9.9.9.9.A w.F.r.F.L.L.R.D.B.B.B.B.r.A ,.r.B.e.A A w.w.p.G.G.L.Q.W : @ @ @ % $ + .     & - X .                       ;   . + J R c c { @.0 @ @ c ~ W Z A A A 8.8.,.8.K.8.A N z l 5 @ .       $ 5 K W 9.y.y.w.s.~.~.y.N x h h x Z Z A A >.,.<.<.<.5.5.i.a.x.a.a.}.P.p.K.K.r.t.U v 2 : @ @ + + . . + + # # # X X . . . . . + % % % @ + o o + > l 1X=X@XXXXXXXXXXX+X$X@X=X}.'.a.a.a.'.'.}.oX.X+XXXXXXXXX X X X X Xm.m.m.n.n.n.v.5.-.&.&.:.<.<.<.:.:.&.V &.V V V V V B B V V V V V V V V B B C =.=.C M z h 3 3 3 3 3 2 > 2 2 > > 2 2 2 3 3 3 2 > ",
"&.&.&.&.&.=.=.=.=.V V B M m m m z z z z z N Z W n > : 1 e e b e + . + 1 1 , : 4 4 5 5 5 5 5 5 5 4 4 6 6 6 6 6 5 j 5 5 5 5 5 5 0 0 c x N C -.;.2.3.3.2.2.2.2.2.;.2.2.2.2.<.<.<.<.<.:.:.,.:.<.:.=.:.y.f.f.7.*.&.:.*.*.*.*.&.&.V M =.0.K.P.F.r.w.r.P.r.e.y.d.Q.Q.!.d.A F.rXhXlX} @ @ r 0 c ' fXHXHXDXkXlXlXjXfXpX:X/.!.!.' ` ` ` ` R R R R ` ` ` ` H Y Y ) ) ) ) ) ] ] ` ` R R R L D D 0 0 9 5 j j 2 2 4 > > > 2 4 : : : : > > 2 3 B *.;.7.7.v.M.M.$X$X$X=X=X=X=X=X2X2X=X$Xn.j.4.j.z.n.oX$X=X=X$X#Xy.Z h > @ + + . + + + + . . X X . . . . . . . .                 + > c W W 9.,.,.,.>.9.Z g 3 9 4 > k U A ,.G.@X[.r.z g !.-Xh h x x x x x x j 5 < e s p d d d u L !.s.:.;.h.k.l.m.m.m.m.b.k.k.l.l.l.l.l.k.k.h.4.h.k.k.l.l.l.l.j.z.a.#X*X*XgXkXkXhXhXgXB.x Z U U T T T (.D.I v v v U U T T I Z I U Z v v I e.B.B.e.r.F.K.r.r.r.r.9.9.0.8.p.F.w.B.L.L.(.L.D.C.B.B.r.>.8.r.B.e.A A 0.0.p.p.G.L.(.d.> @ + @ % % X .     - - X X .                     O   . 8 -X;XF F y y + 4 K E E N A >.>.>.0.w.0.8.9.A C C A W n @         . < j z C ,.0.0.y.f.f.d.Z x g g g k x z m M B C ,.<.<.5.u.i.i.a.a.x.a.a.a.a.G.K.K.t.U I 3 2 : @ + + + . . X X X             . O + % % . o o + 3 9.=XoXXXXXXXXXXXXXXXXXXX@X@X{.{.{.{.oXoX@X@XXXXXXXXXXXXX X X X Xm.m.m.m.n.n.n.v.6.:.-.-.:.<.5.5.:.:.*.&.&.&.V V V V V B V V V V V V &.&.V V =.,.=.C M z h 3 3 2 2 2 > > > > > > 2 2 2 3 3 6 6 > ",
"=.=.=.=.=.=.=.=.=.C V B M m m m z z z z z z x v k > > e e e e w + . % e e < < 4 5 5 5 c j c 5 5 5 5 5 5 5 5 5 5 j j 5 5 5 5 5 c c k x N =.:.2.2.3.3.3.3.3.3.3.3.4.4.3.3.:.:.,.>.>.N z z Z N S S ,.,.y.s.<.&.&.-.&.&.&.&.&.&.V V C ,.s.P.K.r.w.r.K.r.9.U e.A.A.A.y.Z B.eXhXlX!.> @ r 9 < D `.HXDXDXkXlXlXfXfX:X`.Z.' Y H H H H L ` } } } ` ` R L ` ` ` L H G G G D y D D c c c c D 0 9 < 4 4 5 3 2 2 2 2 2 > > 2 g g g g h k k z M &.*.-.-.;.3.6.z.v.oX$X=X=X=X=X=X=X=X=X$Xn.z.z.z.b.n.$X$X$X#X#XA h 2 : + . . . . . + + . .         .     . .     X X           . + < v W A >.,.,.,.9.Z 3 > 8 , < j U p.a.{.@XOXp.N g -X-Xh l z x x x v k 5 4 , q w p d d d u J !.9.B &.2.4.h.j.j.z.v.v.z.j.k.k.4.4.k.h.h.4.-.3.4.4.k.k.k.j.v.}.*XgXkXkXhXhXgXrXE.N.I Z U T t.U e.T (.L.T T T U U I I I v x Z U U U U U r.B.e.9.B.F.F.F.r.r.r.w.8.w.w.P.P.r.r.H.H.).(.(.L.B.H.F.w.8.r.F.r.U A w.,.w.w.F.L.~.!.2 + . . . X O       - - O X .   O   o                 . 8  .:XY ' | L @ R !.d.A M q.<.<.q.0.,.>.9.A C C =.1.d.K @           , j l N A >.,.>.>.A A x k 3 2 2 2 3 g l z z m B C ,.<.u.5.u.a.a.a.a.x.x.x.a.a.F.K.K.A.I I v j 2 > : @                       o o o o o * o @ h }.=X XXX X XoXoXXXXXXXXX+X+X.X.XoXoXoX.XXXXXXXXXXXXX X X X X X Xm.m.m.m.m.b.n.v.z.6.3.3.3.5.7.5.5.5.:.*.&.&.&.V V V V V V V V V V &.&.&.=.=.=.=.C C M m x g 2 2 > > > > > > > > 2 2 3 3 3 g 6 > ",
",.,.<.<.:.,.,.,.=.=.V B M M m m z z z z z z x x j > > e e : : + + + 1 u J 9 < 4 5 5 c c c c c 5 5 5 5 5 5 5 5 c j 5 5 5 5 5 j k k x N C =.;.2.3.3.3.3.3.4.4.4.3.4.4.3.2.:.=.A A Z g 2 2 j j K ~ A M m B =.&.&.&.*.*.*.&.&.&.&.&.C >.r.K.F.r.r.r.F.r.9.U 9.t.t.t.U z e.%XgXkX:Xb @ w 8 + < !.lXDXkXkXkXkXlXlXfX:X^.Q.S.' ` ` ` ` L L L L L L P P D y y y 9 7 $ @ @ @ @ , < 4 0 0 : , , 7 6 0 5 3 3 g h h h h l l Z x N Z W W t.d.g.7.3.;.-.-.;.;.3.6.v.n.oX$X$X$X=X=X=X=X=XoXc.j.z.b.m.$X$X$X#Xf.W 6 > 1 .   .   X . + + . .                       O         o   O   + b K Z A y.,.>.t.Z 2 : 8 $ > 2 U P.'..X@XoXP.U h <X<Xx l z x v v v j 5 < 1 = - - w d i i L Q.t.A ,.*.*.3.i.a.a.i.u.i.i.i.6.i.6.6.4.j.3.&.&.*.-.2.5.7.7.q.0.1X2XgXgXfXeXR.C.U l Z e.U I t.t.e.e.(.D.U U T N.e.T T e.e.T U U e.e.e.e.B.B.r.r.r.F.F.F.r.r.r.r.w.r.w.P.*XF.r.B.C._.)._.L.B.H.F.r.e.r.F.B.9.9.w.,.0.8.r.F.A.d.2 + . . .           ; O           o o                 # + G } Y /.sX;X5 E d.9.,.&.5.*.*.<.,.m z C 9.A C =.C W n @         X 1 k n z m C A C N Z v j 6 > : : : < 6 n k x l z N C =.<.,.<.u.a.i.a.x.z.a.a.a.a.F.K.r.K.A.t.I v k g 2 .                               o . : z =XXX X X X XoXoX X X XXX+X+XXXXXXX+X+XXXXXXXXXXXXXXX X X X X Xm.m.m.m.m.m.b.b.b.v.j.6.6.6.6.6.6.5.5.:.*.*.&.&.&.V V V V V V V V &.&.&.&.1.,.=.C V B B N x 5 2 > > : : : : : > > 2 2 3 3 6 k 6 > ",
"q.q.<.<.<.<.<.<.,.,.=.C M m m m z N z z l z x h 3 > > 1 : : : @ + + @ e J 0 4 5 5 c c c c c c b 5 5 5 5 5 5 5 c c c c j j j k k h z M V :.2.3.3.4.4.3.3.2.3.4.4.2.2.7.1.=.B Z W F 2 @ @ < 4 J } U m m =.=.=.*.&.&.&.*.*.*.1.1.1.C C w.r.r.r.F.r.r.r.9.U 9.t.t.t.t.A U L.kXkXfX~ @ + w @ 4 } lXHXkXkXkXkXkXkXlXlXjXfXpXpXpX/.} | { P 8 $ + + + + + + $ # @ + + . . % 1 8 0 b b b e < w w @ @ : 2 l N A y.y.y.y.y.y.y.s.s.s.K.~.~.s.i.u.5.5.:.-.;.3.2.2.6.v.n.$X$X$X=X=X=X=XoXn.c.b.c.v.v.#X#Xs.A j > @ . . o o   X . . . + + X O X X                             o   . @ j Z U 9.9.A W W 2 , 8 + : j Z >.5.].'.}.~.t.v <X<Xl z N x v c k c 4 : + % - d d & , P | Z.T U N B ,.p.p.p.r.r.F.F.p.p.p.F.P.i.6.7.*.&.C A A C C V C C M M C l x v F I I U U U U e.e.E E e.e.A.N.D.T e.U e.N.B.e.N.A.t.U e.e.e.B.B.r.B.H.F.F.F.r.w.w.w.w.w.8.p.p.J.J.F.H.B.C.D.L.L.H.B.B.K.K.H.F.B.9.>.w.w.,.w.r.9.9.y.W +         o         O         X o o               . . u G D 4 ' !.K c W y.A V &.:.*.&.V B m N Z 8.=.B B =.W n @           @ 2 g h l l l l h h j 6 : @ + + + + + > 6 6 3 k l z N A =.,.<.q.u.u.u.u.u.u.u.p.p.p.p.r.r.s.s.y.y.d.t.K 0 @ + . + .                     . 2 r.=XXX XXX Xn.oXoX|.XX X XXXXXXXXXXXXXXXXXXXXXXX X X X X Xm. Xm.m.m.m.m.m.b.b.b.b.b.b.v.v.z.j.6.6.6.3.;.-.*.*.*.&.V V V &.V V V V V &.&.&.:.,.,.=.=.V B m n j 2 > : : : : : : > > 2 3 3 g g k 6 > ",
"q.q.<.<.<.<.<.<.,.,.=.C M m m m z m m z z z l g 2 : : : : : > @ + + , e J 0 4 5 5 c c c c c c c c 0 5 9 5 5 c c c c c j j j k k z M V *.;.2.3.3.4.4.3.3.2.2.;.-.1.1.C M z x ~ -XR 0 , @ : 7 J ~ E A y.f.f.y.1.:.*.*.*.&.&.&.=.V m z C 8.r.F.J.F.r.F.r.9.9.U e.A.t.U e.L.kXkXfX} @ + u 8 D !.lXHXkXkXkXkXkXlXlXlXfX:X/.Q.' Y F D 9 & # . . + + + + + % = = q q q q q 1 : > : : : @ @ : : @ > R Q.&X#X#XP.K.s.p.p.p.s.a.s.s.a.s.a.<.u.a.}.#X}.}.oXc.x.z.z.z.v.n.$X$X$X=X=XoX].z.j.z.v.v.v.s.w.C h 4 $ + . o o o   X     . . . . . X X .                           o     + > k Z W A A E ~ 4 @ & + 6 K W r.p.}.a.p.9.z 3 -X-Xh h z x k k 5 > @ + . - - - & $ , D } Y U U A C 8.r.r.B.B.B.B.B.r.r.F.e.r.<.3.j.3.s.y.A.T Z Z A 9.A N z A Z v v F Y N.e.e.9.U U T E E T U e.e.L.R.B.I T e.B.e.e.N.A.D.B.e.e.B.F.B.r.B.H.J.F.p.w.u.p.p.0.8.p.F.[.[.F.H.B.C.D.L.D.C.B.r.e.r.F.F.r.r.w.y.0.0.w.w.9.9.9.W +                   X X         o o                 + #.sX;X0 4 9 : > Z y.>.=.:.*.&.V B M m z m y.<.&.=.1.W k +           + > 2 3 3 g g g j 3 6 1 % . o O . . . @ @ : > 2 5 k l N N A >.,.<.0.q.<.<.q.q.q.u.u.w.p.p.p.p.p.s.p.s.~.!.!.} ~ K > @ + + . . . . . + . @ x P.@XXX X X X|.oX].].|. XXXXXXXXX X X X X X X X X X X Xm.m.m.m.m.m.m.m.m.m.b.b.b.b.b.b.b.b.v.z.j.j.6.6.3.;.-.:.:.=.*.&.&.V V V V V &.&.&.&.=.=.=.=.=.V B m n j 2 > : : : : : : > > 2 3 3 g g k 6 > ",
"q.q.q.<.<.<.<.<.<.,.=.C M m m m z m N m m z h 3 2 : : : : : > : @ + , e J b 5 c 5 j c c c c c c c c c c 0 0 c c c c c j j j k x m C =.:.;.2.2.3.;.;.;.3.:.:.-.V x k k 3 2 2 J | | L 0 < < 6 b K I A 9.y.1.=.&.&.*.*.&.&.V B B M C m C 8.r.r.r.r.r.r.9.U 9.9.e.A.t.t.e.R.hXkXjX!.@ + w , 9 R ,XlXkXkXkXlXlXlXfXfXpX/.S.R F c 4 4 $ # # # & 8 , 1 % % % = = = = q q 1 : : > 2 2 2 2 > > > > v Q.fX#X}.a.a.a.a.a.x.a.x.x.'.'.x.a.a.<.u.'.$X=X=X=X=X$X$XoXoXv.z.z.v.n.oXoXoX].x.z.6.j.j.z.i.u.A l 2 , + .   o o o o         . + + . X X . .                           o   . + : k W W W ~ ~ < + 8 e b W W U ,.P.s.s.N g 3 -X-Xh l z c c b 4 @ + . O * - ; . $ < F !.Z A 9.w.9.w.r.r.B.B.B.B.F.F.F.J.J.[.i.4.h.j.a.p.B.B.T I Z N M M m U U v v I _ S.U U 9.9.e.e.T T A.N.B.B.).hXE.e.U T e.e.e.e.e.e.B.e.e.H.H.B.r.r.H.F.p.w.,.<.q.q.<.0.p.G.J.OXJ.H.H.H.L.L.D.B.B.e.U 9.r.F.r.r.r.,.0.0.8.9.8.8.9.t.+                                 o             O     ! #.;X} /.| D 2 g N M B &.*.&.V V V M m M s.<.:.1.d.W 6 +           + @ : > > > 2 2 2 4 < % + o o o o o     . . + @ > 6 3 g l z N A A >.,.,.,.,.<.<.0.q.q.u.u.p.p.p.u.p.p.f.f.~.~.~.!.!.d.~ ~ K c 4 > : : > 3 9.*X+XXXXX X|.c.c.x.c.n.n.XX X X X Xm.m.m.n.n.n.n.m.m.m.m.m.m.m.m.m.m.m.m.b.b.b.b.b.b.b.b.b.v.v.z.z.j.6.4.3.:.3.5.:.:.*.&.&.V V V V &.&.*.*.*.=.=.=.=.V B M n j 2 > : : : : : : > > 2 3 3 g g k 6 > ",
"q.q.q.q.<.<.<.<.<.,.=.C B m m m m m M m m m x h 2 : : > : > 2 > : @ : 0 J b c c c j c c c c c c c c c c c c c c c c c j j j k x N C ,.:.-.-.;.:.-.*.=.=.=.V V m > : : : @ @ 9 L | ~ J > > 6 b k W A A >.A V V &.&.&.&.V V B B M M m N 9.p.F.P.P.F.w.A A 9.t.t.Z.t.T e.P.gXkXlX!.: + e $ : c :XlXlXlXgXfXfXfXpX:X:X/.} R K c 9 9 7 8 8 8 8 < 1 1 : : : : : : : : 2 3 g h x Z I U E W v h h U ~.&X#X'.a.i.a.x.x.x.x.x.c.'.].x.x.z.x.'.$X=X=X=X=X=X=X=X=X=X$Xv.6.4.j.c.c.x.z.x.x.6.z.6.6.s.,.N h > + O   o o o o o       . # # % # # X . .                                 . + < 5 K K K b @ @ u ! K W v l l 9.U U x g g -X-Xh l x b b e : + . O * o ; % + , D E t.A 9.w.p.r.A.F.r.B.B.B.H.J.Y.OXOXOX@Xi.4.k.n.oXOXJ.W.W.H.B.p.p.F.w.9.I 3 v Y ` ' Z.t.9.9.U e._ N.T e.e.e.L.kXrX%XH.B.e.U e.N.A.A.e.B.C.H.H.H.B.r.J.J.p.0.,.,.<.<.0.w.G.G.p.[.J.H.H.L.L.L.L.B.B.e.9.9.B.B.0.w.w.=.,.8.>.A 0.r.w.!.@             O                                       # 8 J | sXaX~ > > h N C =.1.=.&.V V V V =.7.5.<.y.W k : +           . + + + + @ @ : : 1 1 + . o o o o o           . + : > 2 3 h l N N A A >.,.,.,.0.0.q.q.u.u.u.i.i.i.i.i.i.i.u.u.s.f.~.<X~.~.!.t.E U I Z Z 9.P.$XXXXXXXXXc.c.c.x.x.c.b. X X X Xm.m.b.b.m.b.n.m.m.m.m.m.m.m.m.m.m.m.m.b.b.b.b.b.b.b.b.b.b.b.b.v.v.z.j.6.6.5.5.5.5.:.-.*.&.&.V &.&.&.*.*.*.&.=.=.=.=.=.V M x j 2 > : : : : : : > 2 3 3 g g g k g > ",
"q.q.q.q.<.<.<.<.<.,.,.C B M M M m M M m m N N n 3 > > > > 6 6 2 : : > 0 b c c j c j c c c c c c c c c c c c c c c j j j k k k x C >.1.<.:.*.*.=.,.A S N l g 3 2 @ + + + + , D | L ~ J 2 > 6 j j E U Z A =.=.&.*.&.&.&.V V B B M m m C y.K.K.P.*XB.w.Z Z 9.t.t.t.T U U F.gXkXlX!.: + w , @ 2 :XlXlXlXfXfXfXpX:X:X!.} R K b 0 5 6 < < : : : : > > 2 2 3 g h l z m S S >.0.r.p.F.K.~.d.9.Z N w.P.#X}.'.a.a.x.x.x.x.c.c.c.c.c.x.x.x.x.].$X=X=X=X=X=X$X=X=X=X$Xn.6.2.4.j.z.z.z.x.x.i.z.5.5.:.M h 2 @ .     o o o . O     X X # = % % % X . . .                                 . + + 0 7 9 < : 7 ! | v I Z x g I 3 > k 3 3 -X-Xg g k b e @ + . O O * * * - + : R Q.U 9.>.0.p.K.P.H.B.H.F.F.F.[.@XtXtX@X@Xj.k.k.$X=XtX9X0XOX[.@XtXtXtX).y.U 2 D R R E E 9.9.9.9.e.T T e.e.U T B.kXhXhXgXrXH.B.e.e.e.e.e.H.E.H.B.H.H.B.E.P.K.p.q.u.s.u.q.p.G.G.w.[.G.H.H.L.L.R.L.C.B.r.t.r.r.r.8.w.w.,.>.0.>.>.w.r.p.~.< .   .       X                                 o       # $ 9 L P 7 + @ 3 k n S S =.=.&.*.*.:.:.6.i.s.y.v > + .                     . + @ @ @ $ .     o o                 . + @ > 2 3 k x N Z A >.>.>.,.0.q.q.u.u.u.u.u.i.i.i.i.z.z.v.z.i.i.s.s.s.f.f.f.P.f.s.s.s.#X=XoXXXXX XXX|.|.oX}.n.c.j.m. X X Xm.m.b.b.m.n.n.n.n.m.b.m.m.m.m.m.m.b.b.b.b.b.b.b.b.b.b.b.b.b.b.b.c.b.b.j.6.6.6.5.3.:.-.*.&.&.&.&.&.&.*.*.*.*.:.=.,.,.=.C N x j 2 > > : : : : > > 2 3 3 g g g k g 2 ",
"q.q.q.q.q.q.q.q.<.,.,.C B M M M M M M m m N S n 3 > > 6 > 6 6 2 > : : 4 b b c c j j c c c v c c c c c c c 0 0 0 5 5 5 j k k x x S >.1.1.=.C C C m l g 2 > : : @ % $ & 8 8 7 0 D K K K 5 > > 4 5 I I Z A >.,.&.&.*.*.&.&.V B M M S S A 9.r.w.r.P.r.A.9.Z Z U U e.I I Z r.gXkXlXQ.: + & 8 < 5 ^.lXlXlXfXfX:X:X<X!.R v 5 2 : : : > > > > > > 2 g h z m N C >.0.y.s.s.s.G.'.{.{.{.}.#X#Xf.,.V <.}.#Xa.a.a.a.x.x.v.v.c.c.c.c.c.v.x.x.z.c.oX$X$X$X$XoX$X$X$X$X$XoXz.4.4.j.c.c.x.x.i.5.3.-.-.&.l g 4 .     o   o o . O X X X # & q 1 1 % # # . . . . X                           .     . . + @ < 0 P L F I F v j K > : 5 2 3 !.-Xg j c 8 @ . .   O * o f * = + : } ~.9.>.A 8.p.F.F.H.F.E.J.G.G.{.@XtXtX=X=Xk.k.b.$X=X=X@X0X{.'.@X0XyXyX&X~.Q.2 c F R ~ E 9.9.9.U I F v U I l Z e.rXhXhXhXhXgXrXR.e.U U B.%X%XH.e.B.H.B.P.P.K.r.u.s.f.s.0.p.G.G.,.J.G.F.H.L.R.(.L.L.B.B.t.t.r.r.r.p.w.0.y.y.8.8.w.w.w.d.c # .   .               o X                     %         . . + . . + + @ : 3 x S 1.1.:.5.6.6.6.z.s.s.W c +         . .           o   . . + + +                             . + 1 > 2 j l x Z Z A =.,.,.,.<.0.q.<.u.u.u.i.i.i.i.i.z.z.z.z.i.i.a.i.i.a.a.a.i.i.i.i.oXoXoX+XXX XXX@X=X=X$X$Xn.j.b. X X Xm.m.b.m.m.m.m.n.b.b.b.b.b.b.b.b.b.b.b.b.b.l.l.b.b.b.b.b.b.b.b.b.b.b.b.z.z.z.6.5.3.:.:.-.*.&.&.&.&.&.*.*.:.:.:.:.<.1.=.=.M l g 2 > > > : : : > > 2 3 g g g h k k 2 ",
"u.q.q.q.q.q.q.q.<.,.,.C B M M M M M M M m N N n g 2 > 6 > 2 5 2 > : : 2 c b c c c c c c v F v c c c c c 0 5 9 9 5 5 5 j k k x x Z A A C B M m z 3 > : @ + % = w 1 , e J J 9 > > K L L J 7 $ , 9 F T t.y.y.<.&.*.*.*.&.V V M M m m N N A 9.r.r.F.r.K.r.A Z A U T T I A w.2XgXkX:Xc + , u ! K `.fXfXfX:X`.!.!.E W k 3 > : : : 1 r g h l l z N A >.y.w.u.i.a.a.x.x.v.'.].|..X.XXX.XoX$X}.5.*.5.].{.'.}.}.'.}.v.v.v.}.}.}.M.v.v.z.i.v.v.M.M.}.oXoX}.oXoXoX|.n.n.n.j.j.j.c.c.x.a.u.<.-.-.5.y.W ~ P .       o o . . . X X X X & , 1 @ % # # # # # % % X X O O .                           . + , 9 c F I v c c 0 ! w e e 4 3 !.-Xj 3 4 @ . .     o * * * f . + c Z.A.9.9.9.r.F.B.B.B.H.Y.J.G.J.@X0X@X+XXXoXh.b.j.$XoX@X@X0X@X]..X0X0XyX*X).`.> 4 F ~ E x N C A r.L._.eX&X&XL.B.B.e.OXOXOXOXOXY.B.T e.B.R.%X%XH.N.B.C.B.L.P.r.,.,.<.s.q.,.p.}.}.,.}.J.F.H.L.(.(.L.L.B.e.t.t.9.w.F.p.q.s.f.y.r.r.w.w.u.y.L 8 .   .               O O                         ;   X   . .         . + > k x S 1.7.6.z.j.j.6.5.>.x :         o . .         o o     . . . .                             . . + @ > 2 g h z N C C C =.,.<.<.<.<.q.u.u.u.u.u.i.a.i.i.i.i.i.a.a.u.u.i.i.i.i.i.z.j.z.n.n. XXXXXXX+X=X$XoX$Xm.4.k.n.n.n.n.n.n.n.m.n.n.b.b.b.b.b.b.b.b.b.b.b.b.l.l.l.l.b.b.b.b.b.b.b.b.b.b.b.b.z.z.z.i.6.5.5.:.-.*.&.&.&.&.&.*.*.:.:.:.<.<.,.=.V M l 3 2 > > > > : > > > 2 3 g g h h h k 3 ",
"u.q.q.q.q.q.q.q.<.,.,.C C B M B M M B M M N m l g 2 > > > 2 3 > : @ @ < 0 J b c c c c c F F D c c c 0 0 0 9 9 4 4 5 5 5 j k n n x x l l h h 3 2 > : @ $ - - - w e e 8 e b c 5 5 K R | L 9 @ $ 9 F E t.9.8.=.&.*.&.&.V V B B M M z m m N w.r.r.r.F.P.r.Z Z 9.t.U T T U 9.*XgXkXfXF + . w ! K Q.`.:X`.!.t.W x h 3 g g g k n n n n m B C 1.1.1.s.s.i.i.x.x.x.c.c.c.].|.|.|.|. XXXXX|.}.v.5.3.x.|.x.a.a.x.x.x.v.}.}.M.}.}.}.M.v.i.6.6.6.6.3.5.i.v.c.c.].|.|.n.|.|.n.b.b.z.x.a.u.u.u.5.u.#X~.!.-X{ #     X o       . X X X # $ 1 1 @ % % # # # # % & & & # X X O X X             o o       . . @ 7 c H c 5 b 0 s % w e 4 2 -X-X4 @ + . . . O O * * * o - . @ ~ !.9.w.w.r.P.E.B.e.B.H.J.F.F.G.@X0X@X.Xm.m.h.b.j.oX'.[.[.{.'.'.@XyX0X0XE.`.`.> > L ` F v U ~.1XgXhXyXrXL.&X%X%XE.U %XtXtXtXrXrX%XU.H.H.%X%XE.H.B.B.B.H.*XP.r.=.V =.<.<.,.p.}.#X0.OXJ.F.L.L.R.(.L.A.N.e.e.e.9.w.G.p.<.s.s.y.r.p.w.p.p.w.E 0 . . .               O O o                   O   o   ;   #           X % @ @ 2 l A 1.<.5.3.-.*.B g : + X       o . .         o o       . . .             .               o . . + @ : 2 3 k x N C A A >.,.<.<.<.<.u.u.5.u.u.u.i.i.i.a.a.a.a.i.x.x.x.x.z.z.z.z.c.j.b.n.c.|.oX|.|.oXoXv.M.v.3.h.b.b.n.n.n.b.b.n.b.b.b.b.b.b.b.b.b.b.b.b.b.l.l.l.l.l.b.b.b.b.b.b.b.b.b.b.b.b.b.z.z.z.6.6.6.5.;.*.*.&.&.&.*.*.*.:.:.:.:.1.,.C B m h 3 2 > > > > > > > 2 3 3 g g h h h k j ",
"s.p.w.q.q.q.q.q.0.0.,.=.C V V B N N M M M M N x g 3 2 2 2 2 > : @ + + 1 e e e b D 0 9 9 0 J u 0 9 7 < , @ @ : : : < > 1 6 4 4 2 : : : > > > > > w 8 8 w w w w w e e e 4 9 4 4 5 R ~ ~ K 4 @ @ @ 0 L W N C *.*.&.&.V B B B B B B m m M s.F.r.P.e.r.F.K.e.A A 9.t.T I I U r.kXkXfX' @ + w ! 5 t.d.t.W S N z l z z m M B B V V =.*.-.:.5.6.7.i.i.i.z.z.x.x.x.x.c.c.'.].].|.|.|.|.|.].x.x.u.<.i.'.x.i.x.x.}.}.}.c.M.oXoXoXoXoXv.z.z.3.2.;.-.-.-.3.5.5.i.x.|.oXoX|.|.c.z.z.x.a.u.u.p.a.#X#XA.`.,X{ .                 X # & & 8 8 1 q = = = q q & $ $ 8 8 8 w - - - % O O o o o o                 X X t 8 < 0 J J 8 1 e 6 2 @.@.+           O * * * * o   . @ !.Q.e.9.r.F.E.*XF.e.B.H.H.F.F.J.OXOX{..XoXb.j.j.z.x.'.[.[.J.F.OX0X0XtXtXE.`.`.' c ` L 9 c /.fXzXzXzX0XY.e.%XgXhXgXZ rXhXhXhXhXzXrXB.OXrX%XJ.B.B.B.B.F.P.*X#XP.q.<.u.p.q.p.p.#XOXF.OXJ.J.F.P.L.~.~.A.A.T e.t.9.r.p.p.p.p.p.p.p.r.r.w.p.r.Q.c @ .     o                   O                                         . . . : : > 2 3 g h k : @ + . .       o o o           o o                         .                       . . + @ @ > h z N N N C >.,.<.<.u.5.5.5.u.i.i.i.i.i.i.z.z.x.x.x.x.x.x.x.x.z.z.z.z.z.6.6.5.5.-.;.2.3.3.3.2.3.4.n. Xb.b.n.n.b.b.b.b.b.b.b.b.b.b.b.b.b.b.l.b.l.b.l.l.b.b.m.m.b.b.b.b.k.j.j.b.v.z.j.j.6.6.5.2.;.:.-.*.*.:.:.=.&.=.=.=.,.C B m l g 3 3 3 2 2 2 2 2 3 3 3 3 g g g h h h g ",
"s.s.w.q.q.w.w.w.0.0.,.,.=.V V V C N M M M M m z h 3 3 2 2 2 > : + . . . $ 8 e u e 9 < < 7 8 8 , @ @ @ @ @ @ @ @ + @ @ @ @ @ @ @ % % % % 1 1 1 1 w w 8 8 8 & & & 1 1 1 $ $ $ , : b K K 0 : @ @ @ $ D v N =.-.-.*.&.V B B B B V V B N N K.K.F.*XF.F.H.K.9.Z Z U U W Z Z Z 9.gXkXfX!.@ . w o.2 Z A m z z z m M C C V &.*.-.;.;.2.3.4.6.j.j.z.z.z.z.z.z.z.x.z.x.v.x.x.'.c.c.].|.|.|.].x.x.u.<.u.x.a.z.x.].}.oX}.oXoXoXoXoXoX$XoX|.c.z.6.5.2.;.-.-.-.:.5.i.c.].].].|.c.c.x.i.i.i.a.a.}.*XL.B.^.!.J .                 X # # & 8 8 8 w q w w w w 8 8 8 8 8 i i w - - - ; ; O o X . O . O O O O         ;   @ 6 K b 1 $ 1 @ @ o.o..           o * * * *     + 0 !.A.w.0.r.F.OXOXF.r.B.F.H.F.F.J.[.OXOX{.n.j.h.z.c.{.OXOX[.[.F.J.tXtXtXF.L.fXkXfX' /.!.c D lXKXzXhXhXOXr.Y.hXkXkXrXZ %XtXhXhXhXhXrXH.rXtX*XF.r.B.H.E.%X*XF.p.p.a.}.}.}.a.r.r.J.J.p.OXG.r.P.*X~.~.L.A.D.N.e.A.U r.G.p.p.p.p.p.p.r.r.p.p.p.L.v : + . o * o o   . .                                                         . . + + + % % @ .               o o         . .                             . .                           . X @ 3 h x x N N C C ,.<.<.<.<.5.u.i.i.i.i.i.i.z.z.z.x.x.x.x.x.x.x.z.z.z.i.6.5.-.&.B &.*.*.*.-.-.;.;.j.n.n.b.b.n.n.b.b.b.b.b.b.b.b.b.b.b.b.l.b.l.l.l.l.l.b.b.b.m.m.m.b.b.b.k.k.b.b.b.z.j.j.6.6.4.2.;.;.-.*.*.:.=.=.&.=.:.=.=.C M z h g 3 3 3 3 3 3 2 3 3 3 g g g g g h h h g ",
"s.p.u.q.q.q.q.q.0.0.<.,.=.=.=.C C C C B B M m z h g 3 2 2 4 > : + . . . + @ < 7 7 , @ @ @ @ + + . + + + + @ $ $ + + + + # # + + & & & - - & & & & & & # # # . . . X O .   . . + $ 8 8 + . . .   + c Z N =.*.-.-.&.V C B B B V V M m m y.K.K.*XP.F.K.r.A N N Z Z Z v v x Z fXkXgX:X@ . p o.2 z z z z m M M V =.=.*.-.;.2.3.7.7.6.j.j.j.j.j.j.j.6.6.z.z.z.z.z.z.x.x.x.c.c.c.c.].].c.x.a.u.<.u.x.x.a.x.].}.}.}.}.oXoXoXoX$X$X$XoXoXoX}.M.v.v.6.3.;.5.i.x.x.c.x.z.z.z.c.c.z.i.a.a.a.}.J.r.N.^.} < +                 X X # # & w w e w w w w w 8 8 8 u i i i i - - - & & # # X # # & w p w - - O         + 5 K b : + .   . o.o.. . .       o * * * O   . , ` !.A.9.r.p.F.OXOXF.r.B.F.L.H.F.F.J.[.[.{.v.h.4.j.].=X@XOXOXOXJ.[.tXtXOXA B.fXDXlXQ.:X/.3 5 jXDXkXhXhXOXY.rXhXkXkXfXh H.gXhXhXtXtXOXB.OXtX*XJ.E.E.B.H.rXgX*XG.w.u.G.G.p.p.r.r.G.[.J.tXOXp.r.F.B.A.B.B.Q.Q.Z.A.U e.P.P.G.p.p.p.p.r.r.p.p.F.(.I 2 + . O * * % X # + . O o o           .                                       . . . . . . . .                 o     . . . . .                           .                               O + > 3 k h l z m M C =.,.<.<.<.u.u.5.i.i.i.i.i.i.i.i.i.a.a.z.z.z.z.x.x.x.i.u.<.:.=.:.=.*.&.*.-.:.3.z.c.n.b.b.n.b.b.b.b.b.b.b.b.b.b.b.b.b.b.b.b.l.l.l.l.b.m.m.m.m.m.b.b.k.k.k.b.j.j.j.j.j.j.6.4.2.;.;.-.*.*.:.=.=.=.:.=.=.=.C M z h g 3 3 3 3 3 3 3 3 3 3 g g g g h l h h g ",
"s.p.u.u.q.q.q.q.0.<.,.,.,.=.=.=.C C C V V B M N h g 3 2 6 4 > : + + + + + + + + @ @ + + . + . . + + + + $ % & $ & & & & & & & & # # X # X # X X . . . . .         o             $ u u + . . O   , F W A =.*.*.*.&.V C C B V V V M z z 9.y.s.~.r.r.r.9.N m N m z x x x l N 1XkXlX:X> + s ! g N m B B V V &.&.*.*.;.;.2.3.4.4.4.4.4.4.4.4.4.4.4.4.6.6.z.z.z.z.z.x.x.x.c.c.c.c.c.c.x.x.a.u.5.u.a.a.i.a.x.}.}.}.}.}.$XoXoXoXoXoXoXoX$X$X$X$X$XM.v.6.v.v.].c.c.z.z.j.z.c.c.c.x.'.a.a.OXF.e.B.:XL @ +                 X X X # & w w u e e e e e u u u u i u i i w - - & & & & & & - t d d d d d p - - # $ + 0 ! 6 @ .     * d d O   .       o o o o o   . 9 /.Z.e.9.p.F.F.[.J.B.r.B.F.H.H.F.F.F.J.J.[.z.h.4.6.x.}.OX[.OXJ.J.OXE.B.8.z B.&XfXfX`.:XE > 2 Z.:XkXkXkXY.B._.rXhXzXgXx e.rXgXtX%X%XF.e.Y.rXOXOXgXgXH.H.gXkXtXOXp.w.p.G.p.F.F.F.[.OX[.tXOXG.F.J.H.K.A.Z.Q.Q.Z.!.t.r.P.P.P.G.p.p.p.r.w.p.p.p.~.T 5 @ . o * * ; # # # # X O O       . X X           X X                       . . . . . . . .                       . . . + + . . .                                                         . : > 3 g h h l m M B C =.,.<.<.<.<.5.5.u.i.i.i.i.i.i.i.a.a.a.a.a.u.u.u.p.u.p.p.p.u.q.q.<.u.i.i.z.n.n.b.b.b.n.b.b.b.b.b.b.b.b.b.b.b.b.b.b.b.b.l.b.b.b.b.m.m.m.m.m.m.b.k.k.k.j.j.j.j.j.j.j.j.6.3.2.-.-.*.*.=.=.=.=.:.=.=.=.C m z h g 3 3 3 3 3 3 3 3 3 g g g g g h l h h g ",
"a.u.u.q.<.<.<.<.<.<.<.,.=.=.=.,.=.=.C =.V V C S h g 2 2 4 > > : @ @ @ @ + + + + + + + + + # % % = = = = & & & # & - & & X X X X                   . . . . . . .   o o           8 ! ! w . . X . : v A A *.*.*.-.*.&.V C V V V V M m m 1.d.y.y.>.A A C m m N z l g h x h l 1XkXkX:Xj + w ! k m B V &.&.*.-.:.:.2.2.2.3.3.4.4.4.4.4.4.4.4.3.3.4.4.3.4.6.z.z.z.z.x.x.x.c.c.c.c.c.c.x.x.i.5.5.u.i.a.i.a.x.}.}.}.}.}.oXoXoXoXoX|.|.oXoXoX$X$X$X$XM.v.v.c.].c.c.c.v.z.z.z.c.}.}.'.G.G.[.F.B.L.Q.c @ @ .               . . . # % q w e s s s s u J P P u u i i w w - - - - - - t t d d t d d d d d d d ! ! 4 e ! , + .     o a a             o o o o   . @ D :Xt.9.8.p.F.G.J.F.r.r.H.L.H.H.F.F.F.F.G.G.j.h.4.6.i.a.F.J.H.F.H.*XF.N z z (.1X~.1X1XQ.v 3 h x U 1XfXfXL.e.H.eXgXfXE.U B.E.rXrXOXY.B.e.Y.%XY.J.rXrXU.U.gXgX*X*XOXJ.[.OXJ.J.J.J.OXOXJ.OX[.F.F.J.H.L.D.V.D.!.} -X!.A.K.K.P.P.p.p.p.r.r.p.p.F.L.N.c @ .   O O O . + + + + X O O . O X O X O         X O O O O                 . . . . . . . .                       . . + + # # + + . .                                                     . + @ > 2 5 g h x m m M C C =.=.=.:.:.<.u.u.u.u.u.u.u.u.u.u.p.p.p.u.u.q.w.w.w.r.p.s.p.p.a.G.}.}.}.oXn.c.c.c.c.b.n.n.n.b.b.b.b.b.b.b.b.b.b.l.l.l.b.b.b.b.m.m.m.m.m.m.b.k.j.j.j.j.j.j.j.j.v.j.j.4.3.;.-.*.*.=.=.=.=.=.=.=.C C M z h g g g g 3 3 3 3 3 3 g g g h h h l l h g ",
"i.i.u.<.:.:.<.<.<.1.,.,.=.>.,.,.=.,.=.=.=.=.C S h g 2 > > : : @ @ % @ + + + @ % @ $ % = - - w w w w - - = # # X X . .               . . . . . . . + + + @ @ @ @ + % + . . . . + < J ! 0 + + . + : h N C :.-.-.;.*.&.V V V V V V M z m S S A C M M m m m m m z l 3 g h h h ~.gXlXfXW @ 1 b k m V &.*.*.-.-.;.2.2.3.3.3.3.4.4.4.4.4.4.4.4.4.4.4.4.3.4.6.6.j.z.z.v.x.x.c.c.c.c.c.c.x.x.u.5.u.u.i.a.i.a.x.v.M.}.}.}.oXoXoXoXoXoXoXoXoX$X$X$X$X$X$XM.v.c.|.c.c.c.c.v.c.z.z.c.x.x.[.OX[.J.L.R.' 2 @ 1 .               . . . # # & q q w w 8 e e e u u e i i i w - - - - - - t t a d d d d d d d d d ! -X-XJ y u . + $ X     o o     X       o o o o   . 9 ` ^.e.A 8.p.G.J.J.F.e.r.H.R.H.H.H.H.H.F.F.a.j.h.6.i.i.p.F.F.B.B.E.&XK.Z Z x (.`.Z.fX1XW 3 h Z l l I U R.R.B.N.R._._.H.e.B.E.E.E.E.H.B.B.H.E.J.H.E.E.C.U.rXrXgXhXrXJ.J.J.[.*X[.J.[.OXG.[.J.F.r.F.B.B.A.Z.Q.} } ;X!.!.A.r.P.J.r.r.r.r.r.p.s.K.K.Z.F : .     o   . . + + + X X % X X X X X O           O O ; ;                                                     . . + # $ % % % % + . .                                                   . . + @ : > 2 j k x z m m M B B B =.=.,.<.<.<.<.q.q.q.w.q.w.w.w.w.8.8.8.8.9.r.r.p.r.r.p.G.[.}.}.}.oXn.c.c.c.c.b.b.n.n.n.b.b.b.b.b.b.b.b.b.l.l.b.b.b.m.m.m.m.m.m.b.m.b.b.j.j.j.j.z.j.j.j.j.j.j.6.4.;.-.*.*.*.=.=.&.=.=.=.V B M z l h g g g g 3 3 3 3 3 g g h h h h l h g g ",
"i.i.i.5.:.:.:.<.1.1.,.=.=.>.>.>.,.,.=.=.=.C A S l 5 > : @ @ @ + @ @ @ + + + % q = & - - - - - - - = % X . . . . . . . . . . . + @ @ @ : : : > > 2 2 2 2 3 3 3 3 3 6 2 2 2 2 2 2 3 k v g 2 > 2 2 g N C =.:.;.-.;.*.&.&.V V V V B m l z m m m z m m m m m m z z z h g h g 3 !.1XlXlX!.@ @ Q ^ m V *.-.-.-.;.;.;.2.3.3.3.4.4.4.4.4.4.4.4.4.4.4.4.4.4.6.6.6.6.j.z.z.z.x.x.c.c.c.c.x.x.a.u.5.u.u.u.i.i.i.a.v.x.v.v.M.}.}.oXoXoXoXoXoXoXoX$X$X$X$X$X$Xc.oXoXc.c.v.v.z.v.v.z.a.a.'.}.*X*XOXE.(.T j : + .   . .         . . . . # # % @ + + + @ @ , 8 8 e w i i i w w - a a a a a a a a a a t - - w s Q 3X<X~ y i ; & 8 8 % O                 o o o   . + D !.Z.U A 0.p.G.J.[.H.r.B.H.L.H.H.H.H.F.F.F.p.j.h.6.i.s.F.F.C.e.e.B.~.e.Z U x } F c ,X:Xg 2 l x U Z U Z A.B.T I U B._.%XH.N.U.R.R.E.E.B.B.H.H.J.OXrXrXU.U.rXhXgXhXtXJ.J.H.Y.tXOXJ.J.OXF.[.J.Y.J.E.L.D.Q.!.!.} @.;X-Xd.t.r.F.F.r.r.r.r.r.r.p.p.F.A.I > + .   o . . + + + + . X % X . . O O               X O ;               X                                     . . + $ % 1 @ @ @ @ # + . .                                           . . . . + + @ @ < 2 j k h l z m m m m B B V C =.=.,.>.,.8.8.8.8.8.>.>.M N N A A 9.9.w.r.r.r.p.G.[.{.{.oXoXc.c.c.c.n.b.n.n.n.n.b.b.b.b.b.b.b.b.b.b.b.b.b.b.m.m.m.m.m.m.b.b.b.b.j.j.j.j.j.j.j.j.j.j.4.4.;.-.*.*.*.=.=.&.=.=.=.V C M m z h h g g g g 3 3 3 3 g g h h l l l l g 3 ",
"z.i.i.5.:.:.:.<.,.=.=.=.C A >.>.,.,.=.=.C C N N k 6 > @ + . + + + % % % % + + + & & & & X O X X X       . . . + + @ @ : : > > 2 3 3 3 g k k k k x x x z x x z z m m z z l l l l z m m m m N Z Z A 9.0.<.7.;.*.-.*.*.&.V V V V B N z m m m m m N M m m z z z z z n k n k 3 d.1XkXlX!.: @ ~ ~ M V *.-.-.;.;.2.3.3.3.3.3.4.4.4.4.4.4.4.4.4.4.4.4.4.6.6.6.6.6.6.j.z.z.z.x.c.c.c.x.x.x.a.u.<.u.u.5.i.5.5.i.i.i.z.v.v.c.oXoXoXoX|.|.|.|.oXoXn.n.n.oX$Xc.oXoXc.c.v.v.z.z.v.x.a.s.}.#XOXY.B.B.D.!.-X~ + . . . . .         . . . + + + + + + + @ $ 8 e u i w u i i p p p a a a a a a t - - & # @ > b ~ 3Xf.2X~ 9 t X 8 y 8 8 w = % X                 . + @ K Q.e.U N r.p.J.[.OXJ.B.B.H.L.H.H.H.H.B.F.F.a.z.h.3.u.s.F.B.B.C.e.r.~.e.Z t.E L @ + >X@.2 g x v t.U U T A.N.N.T T T e.B.L.C.E.%X%XrX&XE.H.H.B.H.%XrXeXR.C.).eXgXkXhXhXgXY.B.Y.tXJ.J.OXF.H.F.J.H.L.N.Z.!.!.-X| @.>X@.~ Z.B.F.r.r.F.p.p.r.w.w.w.F.L.T 2 + .   o X + + + + + . . % X .                         O X             X O X X                               . . # $ 1 1 @ @ @ @ % @ # + .                                         . . . X X . + + @ : 2 5 g g h x x z z m m m M N C A A A A A A A A A A A A 9.9.e.e.e.9.r.r.w.p.G.}.OXoXoXoX].x.c.c.c.c.n.n.n.n.b.b.b.b.b.b.b.b.b.b.b.b.b.b.m.m.m.m.m.m.b.n.m.b.k.j.h.j.j.j.j.j.h.4.4.3.2.-.-.*.*.=.&.&.=.=.&.V C M m z l h h g g g 3 3 3 g g g h l l l l l g 3 ",
"c.c.c.z.5.:.-.*.=.=.=.,.,.,.>.>.>.>.=.C C C Z S k > @ + . .   . + # # + . . . X X . .             . . . + @ @ : > > 3 g h l x x S S S S S S S S S S C C C C =.=.=.V C B C A >.9.8.,.<.<.<.,.,.>.,.<.<.:.:.;.-.-.*.*.&.V V V B M m z z z m m m m m m m m z z z z x k 3 k g z 1XkXkX:X> > b -Xm =.*.-.;.;.;.;.2.2.3.3.3.4.4.4.4.4.4.4.4.h.4.4.4.j.6.j.j.j.6.6.j.z.z.z.v.c.c.c.z.i.a.u.5.5.5.5.i.i.6.6.5.5.3.5.i.v.v.v.c.].}.].].].oX|.c.c.oXoXoX|.n.].c.c.z.6.6.6.u.s.s.s.K.~.P.F.B.C.D.Q./.| J + . . X X               . . . . + + + @ $ 8 8 8 u i u u u w w w w p a - % - i i 7 J L ~ E d.~.~.f.M.;.W y X P | ~ < 8 ! u w i ;   X           . @ c } A.9.A 8.p.P.J.OX*X[.J.B.H.H.C.C.H.H.F.B.r.p.6.j.i.i.p.B.B.B.B.e.e.).A.Z t./.u   + { { 0 2 c W I U T U L.B.B.e.B.R.).E.E.E.E.E.E.%XE.L.H.B.B.B.H.&X_.(.N.D.).&X%XE.&XgXE.B.N.H.B.H.H.r.e.B.L.N.V.Z.' } -X-X@.>X>X| ~ E B.e.J.F.r.F.r.r.r.,.w.p.L.Z.2 + . O   . . + + + + . .   .   .                         X X X         O                                     . + @ 1 1 , 1 , @ @ @ @ + . + . .                                     . O O X X X # + + + @ : 2 3 j k h h l z z z z z m N N Z Z Z Z Z Z Z Z U U A A 9.e.e.9.w.w.w.w.p.G.}.#XoX}.c.c.c.c.c.c.c.n.n.b.b.b.b.b.b.b.b.b.b.b.b.b.b.b.m.m.m.b.b.b.m.n.b.b.b.j.k.j.k.j.j.j.h.4.4.4.2.;.-.-.:.=.&.&.=.=.&.V C M m m z l l h g g g 3 g g g g h h l x l x k 3 ",
"|.|.c.c.z.5.:.:.&.&.=.,.,.>.>.>.A A >.>.A C N x k > + . .       . + + . .   . . . .     . . . . . + @ : > 2 6 k x x N S S 1.1.1.=.=.1.1.1.1.1.*.1.1.:.-.-.-.:.:.<.<.<.0.r.p.F.G.G.a.a.a.s.s.u.w.<.<.:.:.:.-.-.-.*.*.&.&.V B B M m z z z m z m m m z z z z l l l l k 6 k g x <XkXkX1X3 > k -Xm V &.-.-.;.;.;.;.2.2.2.3.3.4.4.4.4.4.4.4.4.4.4.4.j.6.j.j.6.6.j.j.z.z.z.z.x.c.z.z.i.i.5.<.<.<.5.5.i.i.i.6.5.3.5.6.i.v.v.v.v.}.}.}.}.].].}.}.}.x.i.6.x.x.x.i.i.i.5.5.s.0.A 9.d.Q.Z.U N.D.(.Q.} K 1 + . . . . .             . . . . . + + @ $ 8 8 8 i u i u u s s u w , $ 8 J L K K E !.~.~.~.#X#X#Xs.7.*.W 9 : } ,X-X0 $ i i e u i t & & O       . @ F !.~.r.8.r.K.P.J.[.OXJ.J.r.H.H.B.C.H.F.F.B.r.u.6.h.i.p.p.B.B.B.B.B.F.P.y.9.A.} #     s +.J > v I I T e.T L.B.B.N.D.).%X%X_.E.E.H.H.E.H.H.L.H.L.B.B.D.C.(.D.D.V.N.U A U B.F.B.C.B.N.B.H.B.e.B.D.e.S.S.!./.;X#.@.$.>X@.~ E B.e.OXJ.F.F.r.r.r.8.w.r.P.Z.c + . O   . . + + + + . . . .   .                                       O                                   . . + $ 1 1 , : : @ @ @ @ @ + # + .                                     . O O X X X X # + + + @ : > 2 3 g k k x l z z z z x z Z Z Z Z Z Z Z Z A U U U 9.y.9.9.8.0.w.q.q.u.u.a.a.a.x.c.].].c.c.c.c.n.b.b.b.b.b.b.b.b.b.b.b.b.b.b.b.m.m.b.b.b.b.m.b.b.b.b.b.k.k.k.k.j.h.h.4.4.4.2.;.-.:.:.=.&.&.=.=.=.=.V B M m z z l h h g g g g g g g h h l z l x k 3 ",
"|.|.|.].c.z.6.5.*.*.*.=.=.,.,.,.A A >.>.A C N x j : + .         . . + + . . . . . . . + + + @ @ > > 2 5 k n n S S C =.=.:.:.:.7.;.;.:.:.:.:.;.;.2.2.2.2.2.2.3.5.u.p.G.J.E.OX*X*X}.}.'.G.a.p.u.u.<.<.:.:.-.-.-.*.*.*.&.V V B B M m z z z z z z z z z z l l h h h h h g k 3 h ~.kXkXjXv > j d.N M &.*.:.:.;.;.;.2.2.2.2.3.3.3.4.4.4.4.4.4.4.4.4.j.6.6.6.j.6.6.j.z.z.z.z.z.z.z.z.i.i.5.:.:.<.5.i.i.v.z.i.5.5.5.5.i.M.s.s.s.s.s.}.}.'.}.}.}.s.u.<.:.<.q.u.u.q.w.y.y.U Z h k W R F 3 F Z././.R 4 @ + + # + .               . . . . . + + @ $ , 8 8 8 i u e u ! P u 7 > j I !.Q.Q.~.1X#X$X=X$XoXoXc.6.:.M x k Z 1X2X~.P & & i u J i d w s &   X X . @ E Q.K.r.r.F.H.P.J.J.J.F.J.e.H.H.B.B.C.B.B.r.r.u.4.h.i.p.r.B.B.B.e.F.P.K.9.e.Q.F . O . q @.! 4 K I I T N.e.R.B.B.T e.B.H.H.H.C.B.H.B.H.B.e.B.B.B.B.e.N.e.Q.Q.S.I e.U z z Z B.L.C.U.C.U.R.L.D.D.D.D.D.S.' | ;X>X$.$.CX@.R t.e.e.*XOXF.B.r.r.r.9.8.r.L.A.' + .     . . + + + + . . . . . . .                                       X                             X . . . + @ 1 , , , : @ @ : @ @ @ $ # + . .                                 . O O X X X X . . . + + @ @ : > 4 6 6 k x x x x x x x x x x x x x Z Z A A U U 9.y.9.A >.8.0.0.0.<.,.:.*.:.5.i.x.].c.c.c.c.n.n.n.b.b.b.b.b.b.b.b.b.b.b.b.b.b.b.b.b.b.b.b.b.b.b.b.b.b.k.k.k.j.j.h.h.4.4.3.-.-.5.5.:.&.=.=.=.=.=.C C M m m z l l h g g g 3 g g g h h z z x x k 2 ",
"|.n.n.|.oXn.v.v.6.5.:.&.V &.=.,.,.>.A C C N N x j : . .         . + + # + + + @ @ @ @ : : > 2 3 x n x x N S S C =.&.*.-.;.;.2.2.2.2.2.2.2.2.2.2.2.3.3.3.3.5.6.i.G.J.OX*XrXrX*X*XOX[.'.a.a.u.q.<.5.5.:.-.-.*.*.*.*.&.&.&.V B M m m z z z z z z z z l h h g g g g g h g b 3 g Z.lXkXlXW > 3 ~ N m V *.-.:.:.-.;.;.;.2.2.2.3.3.3.4.4.4.4.4.4.4.6.6.6.6.6.6.6.6.z.z.z.z.z.z.z.z.z.i.5.<.:.:.<.5.i.v.v.v.i.6.5.5.7.s.s.s.s.s.y.s.s.s.s.s.s.w.8.>.,.8.y.y.9.>.A Z N x g 2 > : > < : : 2 H /.;X| < @ q & & # . .             . . . . . + + + $ $ & 8 8 8 8 8 8 e e e 5 v t.A.A.r.s.}.}.}.oXoXoX|.n.j.3.B g v Z y.2X2Xf.P & t i u J u d u d i - t # + c Z.K.F.r.p.F.H.J.J.F.F.F.J.r.H.H.B.B.B.F.F.F.p.p.4.j.i.p.B.B.B.B.9.p.#Xp.>.9.t.2 @ % + : ~ ~ c R T T e.B.e.E.B.B.e.N.B.C.H.H.H.H.U.B.B.B.e.e.e.e.U 9.e.T Q.`.`.N.A.e.U A U H.E.C.U.U.U.R.L.L.L.D.`.(.^.S./.;X>X>X$.CX-X} Z.e.9.*X*XP.F.r.r.r.w.w.r.F.Q.!.+ .   o o . . + + . . .   . . . .                           O O X       X                           o O O . + # , , : , , : : : , , : @ % % # + .                                 . . X # # X X . . . . . + + + @ : 1 4 k k k k k x x x x x x x x Z Z Z Z A A A U 9.9.A A 9.0.w.0.,.,.=.*.:.<.5.i.x.c.c.c.c.c.b.b.b.b.b.b.b.b.b.b.b.b.b.b.b.b.b.b.b.b.b.b.b.b.b.b.b.k.k.k.k.k.j.j.j.h.4.3.;.;.7.s.<.=.=.&.=.=.=.=.C M M m m z l h h g g 3 g g h h l z N x x k 2 ",
" Xn.n.n.n.|.].c.x.i.5.:.*.&.&.=.,.A C C C C N Z j > + . .     . + + @ $ 1 , 1 < 2 2 3 g h x x N S C C C C =.=.*.-.-.;.;.2.2.3.3.2.2.2.2.2.2.2.2.3.3.6.5.5.i.z.x.[.OXtXtXtXrXOXOX[.G.a.a.u.u.<.<.5.3.;.-.*.*.*.*.*.&.&.V V B M m z z z z l l l l l h g g 3 2 2 3 g g k b 3 3 U fXkXlX!.2 > ^ x z V *.*.-.-.-.-.:.;.2.2.2.3.3.3.3.4.4.4.4.4.4.6.6.6.6.6.6.6.6.z.z.z.z.z.z.z.z.z.i.5.<.:.:.5.5.i.v.M.v.s.u.5.<.<.<.1.1.>.9.9.U W U W U W Z x Z Z W W I Z x k g 3 > @ + + . . . . + + 0 | | L 8 $ w w 8 # . .             . . . . . + + # # # $ $ & $ 7 8 7 < 9 b K t.K.P.p.<.u.x.c.oXoX|.c.z.z.6.:.h : v E f.M.2X<Xy t i i e J u i u d i d d & 7 } A.K.p.p.G.J.H.H.F.p.F.J.OXr.H.H.B.B.B.F.F.F.F.a.6.j.i.p.r.B.N.B.r.p.#Xu.,.9.U 2 2 2 > 2 v W I I T T e.B.e.E.B.r.B.B.H.H.R.Y.Y.Y.Y.B.H.F.B.B.r.r.U e.N.T Q.`.`.Z.Z.e.e.U e.E.%XH.U.U.C.H.R.).)._.R.R.(.`.pX:X;X@.@.aX-X!.Z.A.9.E.*X).K.K.K.A.r.r.r.F.Q.-X+ .   o o . . . . . . .   . . . .                         O ; ; O                                   o O X . + @ , , , , : , , , , , , , 1 $ $ # . .                               . . . + # + X . . . . . . . + + + @ : 2 3 j j k k c v v v v v Z Z I Z Z Z Z Z Z U 9.9.9.9.w.w.y.1.1.,.q.u.u.u.i.x.c.c.c.c.c.c.b.b.b.b.b.b.b.b.b.b.b.b.b.b.b.b.b.b.b.b.b.b.b.b.b.b.k.k.k.k.j.j.j.j.j.j.3.2.5.s.s.<.=.=.=.&.=.=.=.C B M M m z l h h g g 3 g g h h l z N x k k 2 ",
" X Xm.n.n.n.n.c.x.z.i.i.5.<.:.=.=.=.=.=.=.C N x k > @ + + . . . $ @ @ , < e r b n v x Z Z C A C &.&.*.*.*.-.-.;.;.;.2.2.2.3.3.3.3.3.3.2.2.2.3.3.5.6.i.i.a.a.'.{.@XtXtXyXtX9XOX[.[.'.a.i.i.u.5.5.3.2.;.-.*.*.*.*.&.&.&.V B M m z z l l l l l l l h g g 3 2 2 2 2 g g k 6 3 2 Z 1XkXkX/.3 : n n m B &.*.*.-.-.-.;.;.2.2.2.3.3.3.3.4.4.4.4.4.4.6.6.6.6.6.i.6.i.i.z.z.z.z.z.z.z.i.i.5.<.:.:.5.i.v.M.}.M.s.u.<.,.=.C M N Z Z v v k k j j j 5 3 j j j 2 > > : : < 1 1 #       o o   . + , y J 0 , $ w w 8 $ . .               . . . . . . . # # # # $ $ 8 8 , : 4 K ~ Q.r.p.p.u.5.x.oXoXn.z.6.:.:.&.M K @ 0 d.M.2XM.g.9 & i i e J d d d u d / / 8 D ;XL.F.p.p.J.J.H.H.F.F.F.J.OXr.H.H.B.B.r.F.F.G.G.a.h.j.i.p.B.B.N.B.F.G.$Xu.q.>.U h z l l l z Z T U e.T e.e.9.L.F.B.e.B.L.E.E.Y.H.H.%XE.E.E.E.H.r.B.r.r.B.T Q.`.Q.U e.e.e.U e.L._.W.T.T.U.C.H.R.R.R.C.C.U.R.`.;X-X@.@.;X!.!.A.A.r.P.).P.K.K.K.r.B.B.F.B.Q.-X@ . o o o o . . . . . . . . . . .                       X O ; O X                                     X . . + + @ , < , , , , , , : : , 1 1 $ # + .                               . . . % @ # + . . . . . . . . . + + + > 2 2 5 5 c c c v v v v Z Z Z Z Z Z Z Z I U e.9.r.y.9.9.9.1.1.,.=.u.a.a.a.x.x.x.c.c.c.c.b.b.b.b.b.b.b.b.b.b.b.b.b.b.b.b.b.b.b.b.m.m.b.b.b.b.k.k.k.k.k.j.j.j.j.4.3.3.i.s.s.u.,.,.,.,.=.=.V C M M M m m z h h g g 3 g g h h l z N x k g 2 ",
"m. X X Xn.n.n.c.x.x.x.x.s.7.5.<.=.=.=.=.&.B M z k 2 @ @ + + + @ 1 , @ : 4 0 b n n S S S ,.,.=.:.-.;.;.;.;.;.2.2.;.;.2.2.2.2.3.3.3.3.3.3.5.5.5.5.u.a.a.'.G.[.OX@XtXtXtXtXtXOX[.[.'.x.i.i.6.5.3.3.2.2.;.-.*.*.*.*.&.&.&.V B m z z l l l l l l l h h g 3 3 2 2 2 3 h g k 6 3 2 l ).kXkX:Xc : 3 n Z B &.*.*.*.-.-.;.;.2.2.3.3.3.3.4.4.4.4.4.4.6.6.6.6.6.6.i.i.i.i.z.i.i.z.z.z.6.6.5.5.<.:.<.7.i.v.M.v.s.u.<.,.C M m l h g 3 3 2 > : : @ @ : : : : : : @ + . + % = = -     o * * * o . + $ @ $ $ $ $ 8 & # . . .             . . . . . . . X # # # # $ $ , : < 0 L } A.e.9.w.q.<.5.z.v.7.:.V M m z k ! 1 6 ^ f.M.M.=.J & i s Q ! a / d u i d i u ` :XL.F.p.G.[.Y.H.H.F.F.F.H.J.r.F.H.F.B.r.p.F.p.p.i.4.h.6.p.B.B.B.B.P.}.=X:.q.>.U A =.&.&.V B >.e.9.9.U U 9.U ~.K.K.B.H.%X%X%XE.Y.Y.rX%X%X%X%XP.e.F.r.e.e.T Q.`.(.T N.e.e.e.N.B.R.rX9X9XU.H.U.Y.U.U.W.W.T.W.`./.;X-X@.-X| !.Z.A.r.P.P.P.r.K.B.r.H.H.P.F.(.-Xe . o o o o . . . . .     . . .                           X O X                                         . . + + , , < : , , , , : @ : , : 1 @ @ + . .                             . O X @ @ @ + + . . . . . . . X . . + : > > 4 5 5 c j c v v v x x v v Z I I U U e.e.e.U U A Z C C N B V u.}.'.x.x.c.x.c.c.c.c.b.b.b.b.b.b.b.b.b.b.l.l.b.b.b.b.b.b.b.b.b.b.l.l.k.k.k.k.h.h.h.j.j.4.4.4.2.6.v.v.s.u.<.,.w.q.<.,.C B M M M M m z l h g g 3 g g h h l z m x k g 2 ",
"n.m. X X|.n.n.|.c.c.c.x.z.i.7.7.<.<.*.V B B M N l 3 > : @ @ + @ > : : > 3 k n n Z S >.1.<.:.-.-.;.;.2.2.2.2.2.2.2.2.2.3.3.5.6.6.6.5.5.5.5.i.i.i.a.a.'.[.[.OX@XtXtXtXtXtX@XOX[.[.a.i.6.5.3.2.;.;.;.;.;.-.*.*.&.&.&.V V B M m z l l l h h h h h h h g g 3 3 2 3 g h h k 6 3 2 g ~.kXkX:Xv > 2 n S M V &.&.*.*.-.;.;.2.2.3.3.3.4.4.3.4.4.4.4.6.6.6.6.6.6.i.i.i.i.z.6.6.6.6.6.6.5.5.5.<.:.:.7.7.s.M.s.u.<.>.C N z h 3 2 > @ @ @ + + + . . . @ % % @ @ + . . % - w - - ;   o o o o o     . . + & & + , $ + + + .             . . . . . . . . X X X # # # @ @ > c R Z.T e.r.w.u.s.v.s.5.:.B m z x n Q ! w 7 2 m 7.M.<X~ & t s ! s t / d d u i y ( !.(.F.F.p.G.[.J.H.H.F.F.F.F.H.e.F.H.F.B.r.p.p.p.u.5.4.4.6.u.p.F.F.F.G.#X=X*.5.:.<.<.3.4.6.5.5.u.u.p.8.>.A 9.A ~.L.P.H.E.%X%XE.Y.Y.OXY.OXOXOXrX).r.L.F.B.A.N.Q.D.D.T e.e.U e.B.B.C.rXqXwX9X9XyXhXyXyXyXyXyXyXfXpX:X;X-X-X!.!.e.r.r.F.).).K.L.K.B.).*X#XK.`.-X! .   o o     . . .       . . O                                                                         . . + @ , , < : , , , : : @ @ , , $ % @ + . .                               O X % @ @ + + + . . . . . # + + . + : > < < 4 4 4 5 c j j g h k x x v I T T e.t.e.e.Z N z z m m m m q.}.=X$X].'.].x.x.c.c.c.b.b.b.b.b.b.b.b.b.l.l.l.b.b.b.b.k.b.b.v.k.j.j.h.h.j.h.h.4.4.h.h.4.4.4.3.;.6.v.x.u.u.q.<.s.s.y.,.=.B M m M M m z l h g g g g g g h l z z x k g 2 ",
"$XoXoX|. X X|.n.c.c.c.c.c.v.z.6.i.u.u.<.<.=.B m m h 3 > : 1 1 , 4 > k j g k h Z A A =.:.:.:.;.;.;.;.;.;.;.2.3.3.6.6.6.i.i.i.6.6.i.i.i.i.i.i.i.a.x.'.'.[.{.{.@X@X@X@X@X@X{.'.'.x.i.i.5.:.;.-.-.-.-.-.*.*.*.=.=.C N m z l h h h h k g g h x l l l l l h g g g 3 g g l x g k 3 g !.kXkXfXY > 3 n n x N B B &.:.:.-.-.;.2.2.3.3.3.3.2.3.3.4.6.6.6.6.6.i.i.6.i.i.i.i.z.z.z.6.5.5.5.5.:.;.-.;.5.7.7.7.,.=.C N l j 2 : + . . . + # + + & & # # # # # # # # $ & 8 w i i 8 8 & .                 X & & # : 9 9 @ . # X       . . . .   . X + + + # X X X X & $ @ 2 v W t.9.8.0.w.u.s.s.s.s.1.=.B z l x K 8 8 < 2 z f.<X<X@.# t d d d i d d d d P D ' `.F.F.F.F.G.J.J.J.J.F.B.F.F.F.B.F.J.C.B.r.r.p.i.i.6.5.i.i.u.u.a.x.x.$XoXv.j.h.k.k.k.b.$X$Xb.4.j.v.#Xi.i.p.w.A 9.L.%XtX%X%X%XE.Y.OXOXE.Y.%XH.H.H.A B.r.F.B.e.B.V.N._ N.B.B.N.N.N.V.T.9X9X9XrXrXyXyXyXyXqXqXqX7X`./.-X;X!.!.!.E t.~.y.~.~.L.A.B.A.L.(.*XL.:X:X@.. .                                                                                         X   X . . + + + + @ : < < : : , , , , @ @ 1 % % % O O O O                         . . O O = % % + + + + + . . . . . + # @ , : : : 1 1 1 > r c k k h h x Z U T t.t.t.U Z l l l z z m m m B i.oX$X|.].].a.x.x.i.i.z.v.v.j.b.b.b.b.b.b.b.b.b.b.v.j.j.j.j.j.7.3.:.3.5.3.4.4.4.4.4.4.3.3.4.4.2.2.i.x.a.u.u.p.p.P.s.,.C B M M M m m z l h g g g 3 3 g g g h l h h k g 2 ",
"b.n.oX Xn.n.|.|.|.|.n.c.z.z.z.z.i.i.i.u.u.<.,.A N m h 3 > : 1 < 5 3 n W v x l N C =.,.:.:.2.2.2.2.;.;.;.;.2.5.5.6.6.i.i.i.i.i.i.i.i.i.i.i.a.a.x.'.'.'.{.{.{.{.{.OXOX{.{.'.x.a.i.i.5.5.;.-.-.-.-.-.*.*.*.*.&.V B m l h g g g h h k g g h l l l x l l h h g g g g x n n k k 2 2 ' lXkXfXE 2 2 n k k l z C C V &.*.*.*.-.;.2.2.3.3.3.3.4.4.4.6.6.6.6.j.i.6.i.i.i.i.6.j.6.5.<.<.:.:.-.-.-.;.5.7.g.1.C N z h 3 > @ .         X O . . # # X X . . X # . # # $ & 8 8 8 8 e 8 +                 X & & @ , 9 7 $ . X X       . . .       . + + + # X X O O X # : 3 v Z A A A 8.0.q.u.u.u.<.,.C M z l z K P y k N y.#X<X<X| # t d d d i d d d d P F A.).F.p.p.F.J.J.J.J.J.F.F.F.F.F.B.F.H.C.B.e.r.p.i.6.6.5.i.i.i.i.x.c.c.v.m.m.b.k.l.m.$X$X$Xm.b.k.b.j.3.3.#X2X2XP.B.U.rXgX%XOX%XE.E.OXE.%X%X&XB.e.B.e.r.F.F.F.B.D.V._ _ N.V.V.N.V.N.V.T.T.T.T.W.6X7X6X6X6X6X6X8XI.) } ;X;X| } !.t.A.~.y.).~.~.A.Z.A.A.K.~.K.`.:X-X+ .                                                                                         X O O + + # + @ @ @ , : < : : : : , @ @ @ % % % % O . O O o                       . X X X = % # + + + + + . . . . + # # $ 1 1 1 1 % @ @ @ : > 5 j g x Z T Z.Z.t.T I Z l h z z z m m N m B z.XX+X|.oX.X].].z.i.6.z.v.v.j.k.b.b.b.k.k.k.j.j.v.7.5.:.:.=.=.B m m m M V &.-.:.;.2.2.2.2.2.2.-.5.s.v.a.u.u.a.G.G.w.,.C B M M M m m z l h h g g 3 3 3 g g g h h k k g 2 ",
"j.z.n.|.n.n.n.n.|.|.|.n.c.z.z.z.z.z.i.i.i.u.q.y.>.C z g 2 > : 1 k g n d.W l N m A ,.,.<.5.3.3.3.3.3.3.:.3.5.5.5.i.i.i.i.i.i.i.i.i.i.i.i.a.x.x.'.'.'.].{.[.[.{.{.[.[.'.'.a.a.i.i.5.5.:.;.-.-.-.-.-.*.*.*.*.&.V M z l h h h h h h l h l z z l z z l h h h k g g 6 n n b b 6 > > I lXkXlX!.3 : 6 6 2 2 h Z A B B &.&.*.:.:.:.2.3.3.3.3.3.4.4.4.4.4.6.j.j.6.6.6.6.6.3.5.5.<.,.=.=.&.&.*.*.-.:.:.,.A m z h g 2 : + .             . . . . . . . . . . . . . + # $ & & i i w #         o . . + % q q @ 8 8 w & O           . .         . . . . X X X X O X @ , c v Z Z Z A A 9.>.,.,.=.V V B M m z z v R K 1.M.2X2X<X-X! & s d u d i d d d i D R D.L.F.r.p.J.[.J.J.F.F.F.F.F.r.r.r.F.H.B.B.e.r.u.i.6.6.5.6.i.i.z.x.c.c.c.n.m.m.m.$X$X2X$X$Xm.b.b.c.x.6.i.2XDXKXkX%XH.E.gX%XE.E.E.E.%XE.E.eXrXH.B.).&X).F.F.L.).).V.T _ N.V.B.V.V.N.V.I.I.I.V.V.V.V.I.V.V.[ [ ] G 9 ( >X,X| E E d.~.~.y.~.Q.A.Z.A.N.Z.B.L.K.Q.:X;Xw .                                                                                         X O X % % % @ @ @ @ , : 1 : @ @ @ @ @ @ @ $ @ + + + + + .                       . . X X % % % + + . . + + . + + + + $ $ $ 1 1 1 1 @ @ + + + @ : 2 j I Z.Q.Z.E I Z Z Z N z N N N N N M M B z. XXX|.XXoX|.|.c.z.j.j.j.j.j.j.k.k.k.v.z.6.7.<.,.A N x k 3 > : > > 2 3 g l m B V *.:.-.-.;.;.-.5.s.x.u.5.p.G.}.q.<.=.V B M M M m z z l l h g g 3 3 g g g h h h h k g 2 ",
"j.h.j.z.|. Xn.z.c.c.n.n.|.n.c.z.z.z.i.i.i.u.u.q.1.1.C l 3 > > 6 k h x !.E l N m A ,.<.<.5.5.5.5.5.5.5.5.5.5.5.i.i.i.i.i.i.i.i.i.i.i.i.a.a.x.'.'.'.].{.{.[.'.'.[.[.[.'.G.a.i.u.5.5.:.;.-.-.-.-.-.*.*.*.*.*.&.B m l h h k k h h l l z z z z l l l l h k k g 3 2 > > : e 1 : @ : F pXkXlX/.j @ > 1 : : 2 x Z A 1.=.=.=.=.*.-.-.;.;.;.;.2.2.3.4.4.4.4.6.6.4.4.6.3.;.:.,.>.C N N M C V &.*.*.=.=.C N l h g 3 > : + . O O X   . . . . . . . . . . . . . . . + + + + # & - - X     . . . . + % q q q = = - - - - O   o       . .       . . . . . . X X ; % $ 7 b Z Z Z S W S A C C B B B B B M M Z A W j W f.2X$XM.g.~ u & d s w d d d d d 8 D !.(.K.p.r.F.J.E.J.F.B.B.F.H.F.r.r.B.H.H.B.B.e.r.u.5.6.6.5.5.i.i.i.x.x.x.z.v.m.$X$X$Xm.k.m.m.b.j.z.c.}.x.*XkXkXkXkXeXH.W.rXOXH.H.Y.%X%XE.E.eXeXeX&XgXkXfXP.#X).%X_.D._ N.V.C.B.N.V.N.V.(.T.I.) ) ) ] ] ] ) ) ( G y y  .sX,X!.E E t.Q.~.t.t.e.e.e.A.Z.t.e.K.A.A.:X>XJ .                                                                                           O X # # % $ $ @ @ @ , 1 @ @ @ @ @ @ @ @ @ @ + + + + + +                       . . # # & % # + + . . + + + + + $ $ $ & , , < < 1 @ @ + + + + : c R } !.!.I v v x Z Z Z Z N N N N N M M B i.|.XX|.XXXX X X Xn.z.z.j.j.j.j.6.6.v.v.s.<.A N h 3 > : + +   . + + + @ : > 3 g m B C =.*.-.-.;.i.v.a.u.u.x.}.}.,.=.V B B M M M m z z l l h h g g g g g g h h h h k j 2 ",
"b.j.4.4.c.|.n.c.c.c.c.n.oXoXc.z.z.j.6.6.i.i.5.<.<.1.1.N h 3 2 3 h g l d.E z Z N >.,.<.5.5.6.6.5.5.5.5.5.5.u.i.i.i.i.i.i.i.i.i.i.i.i.i.a.x.x.'.'.'.{.{.{.{.[.[.[.[.'.G.a.a.u.5.5.:.;.;.-.-.-.-.-.*.*.*.*.*.V M m h h h h k h h l z m m z z l l h h k g 3 2 > : @ . . % + + + : j :XlXlX:XF @ @ 1 : : 2 3 N d.f.1.B V V &.*.-.-.-.:.:.:.:.:.3.2.2.3.3.3.3.3.5.:.*.A Z Z x h h z N C =.=.=.C B m z x h 3 2 < 1 = % % X X X . + + + . . . . . . . . + + + + + + + + . # &       o o   . O O = q q = f * f a a *                       . . . . .     - % + < c v Z N S S N m M M B B V V C C A y.y.t.> v f.2XM.7.N 0 & - d s p d d d d i 8 G Q.(.B.r.r.F.P.J.F.F.F.F.H.F.F.r.w.F.P.H.B.B.r.r.u.5.6.6.5.0.w.p.p.a.a.x.c.c.b.k.l.l.l.l.m.b.j.6.i.}.'.p.P.gXkXDXkXrXH.U.%XE.H.F.E.%X*X%XrXrX&XfXfXfXkX%X*X&X&X_.).L.V.N.D.C.N.N.N.N.I.7X7X/.V.) ) ) ) ) ) ) H H )  .dXsX;X!.E E t.A.~.~.t.e.e.Z.A.A.t.r.A.B.Z./.;X| @ .                                                                                           . . . $ $ @ @ @ @ @ @ + + + + @ @ @ @ @ + + + + + + +                 . . . . . + # & # # # + + + + + + @ $ $ , , , , , , , @ + . . + @ 8 ! | | R D 9 j j j v v Z v x N Z Z N N M M M 5.].oX.X|. X XXXXX Xn.z.z.z.z.s.s.s.y.1.Z l 3 : @ + .                 X   . + @ 3 h z M B &.:.5.s.i.i.u.a.#X#Xs.&.V B B B M B B m z z l l h g g g g g g h h l l h k j 2 ",
"oXn.j.4.j.z.n.n.|.c.c.c.n.|.n.c.v.z.j.6.i.i.u.5.5.1.1.N z g 3 3 h g h S t.Z N C >.,.<.u.u.u.i.5.u.u.u.u.u.i.i.i.i.i.i.i.i.i.i.i.i.i.i.a.x.'.'.'.'.[.{.{.{.[.'.[.'.G.a.u.u.u.5.:.-.-.-.-.-.-.*.*.*.*.*.*.*.V M z h h g h k k h l z m z z z x l g g 6 4 > @ @ + . O   & X . + : 5 Q.lXlXpXR @ @ , 1 : > > h !.<XS M B B V 1.1.1.1.1.1.1.1.1.=.=.*.*.*.:.:.:.<.<.C x c 5 2 > 2 g z S S =.C M m z x n b 5 < < 1 w - = % # % + + @ @ + # # $ $ $ $ $ $ $ @ @ @ + @ + . # & . . .   .   . . o * - = * * * * a a ;         . .             . . . .     X . . : 3 k x N N m m m M B C =.=.,.,.>.w.K.f.E > c d.f.g.C g @ & t d p p s d i i i y R ^.(.B.r.p.G.J.J.H.J.J.Y.H.B.B.B.r.F.P.H.B.B.r.r.u.5.6.6.w.9.e.r.B.F.p.a.i.c.m.b.l.l.l.l.k.v.v.z.'.#X*XE.gXkXkXkXkXrXY.E.%X%XL.H.E.%X%X%XfX&X).&XeX&XfX&X&XgXfX).L.D.V.N.D.D.N.N.N.N.I.7XpXpX7XI.I.] _ Y ) ) ) _ I.pXpXpX/.} E E t.A.~.~.Q.A.A.Q.~.A.A.A.r.B.Z.Q./.-X9 .                                                                                             . . + + + + + + + + + + + + + + + + + + + + + + + +                 X . . . . + $ % + + + + + + + + $ $ , 8 < , , , : : @ + + . + $ ! { @.{ J , + @ : : 2 5 c v k h x x N N N m z m ,.a.}.oX|.|. XXX X Xn.c.z.i.s.s.1.S x g 2 : @ + .                     o o o   . + > g l m B =.5.s.i.i.i.}.#X}.s.&.V B V V C C A N m z l l h h g g g g g h h l l l k g 2 ",
"oX Xn.z.j.j.z.n.n.n.n.c.c.n.|.n.c.v.z.z.z.i.i.5.5.<.=.C N l g 3 h h l Z d.y.N >.>.,.q.u.u.u.u.5.u.u.u.u.u.i.i.i.i.u.u.u.i.i.i.i.i.a.a.a.'.'.'.'.'.[.{.[.[.'.'.'.G.a.u.u.u.5.:.-.-.-.-.-.-.-.-.*.*.&.*.*.&.V M z l h g g g h h l z z z l x n n b 6 1 @ + . .     O   ; . . @ : j Q.lXkXjX} @ + & 1 @ : : 3 ~ !.S x x N N S S S S S S S S Z Z N N B B M M C A C N 2 , @ + + @ 2 k S S S N z l v n ~ J 0 , @ $ & - # # % # # $ $ $ & & q 8 8 8 8 8 8 8 , 1 , $ @ @ 9 u u 8 @ + + + # X O o ; ; ; o * o o - - - X   . . . . .       o o . . . .       . . : 2 g x N C C C C =.,.<.<.<.q.<.0.s.~.K.Z < , b ~ W j : # ; t a a a p s u u 9 D ' (.L.B.r.F.G.P.H.F.J.J.Y.Y.B.r.F.p.F.P.H.B.B.r.r.u.5.6.6.r.T T N.B.B.r.p.G.'.c.b.l.l.l.l.j.v.}.x.}.=XhXkXkXkXkXkXhX%XH.H.%X&X%XL.L.H.H.L.L.L.L.L.&X&XfXfXfXgX1X).D.N.N.S.D.D.V.N.N.N.I.7XpXpXpX7X6XT.C.V.C.C.V.C.R.(.W.R./.!.Y E t.t.Q.~.~.Q.Q.~.~.A.t.A.r.r.A.A.!.;XK + .     o                                                                                     . . . . . . . + + + + + + + + + + + + . . . . . . . . . . O X O O O X X . . + + @ $ + + + + + + + + , , 8 8 8 , , , @ @ @ + . $ u ! +.+.! 8 . . . . + + @ : 2 6 6 k k k x x x z l l m 9.s.}.].].|. Xn.|.|.x.a.w.8.A g 2 > @ + + . X   o o o o o O o   O   o o o o o . @ 6 n N N ,.u.i.i.i.x.}.}.}.s.:.V B V 1.1.1.1.S N m l l l h h h h h h h l l l l l g 2 ",
" X XoX|.c.j.j.j.v.n.oXoXn.n.|.|.c.z.z.z.z.i.i.5.5.:.=.C N x g 3 l l z N d.d.M >.>.,.q.u.u.u.u.u.u.u.u.u.u.u.i.u.u.u.u.u.u.u.i.i.a.a.a.x.'.'.'.[.'.[.[.[.'.'.G.G.a.a.u.u.u.5.3.-.-.;.-.-.-.-.-.*.&.&.*.*.=.V M z l h g g g h h l z l h h n ~ ! b % # .                   + : 2 h Q.lXkXlX!.@ @ $ & + , : > v ~ v 3 3 2 2 2 2 3 2 3 3 j k x x x N N N z l z m z g +         . 1 6 n S N z l k v K ~ ! e , + . # # # # # # @ @ , 1 8 w w w w w e w 8 8 8 8 , , , : L ~ ~ K 0 4 < , 7 & & X ; ; ;   + + . + 8 8 $ + + + + + .       o o O . . .       . + q r k x Z y.<.<.<.u.u.u.u.<.u.q.w.~.#Xy.x 7 + , J y + . & ; a f a a p p e 0 9 F !.(.L.B.r.F.J.J.F.F.F.F.F.E.e.r.F.F.G.E.H.F.B.r.p.u.6.j.6.p.e.e.N.B.N.e.r.F.G.x.v.k.k.l.k.z.z.i.u.P.gXkXDXDXDXkXfXB.U B.%X%XrX*XL.C.e.e.e.U e.B.B.(.&X&XfXfXfX&X).D.T T A.Q.Q.D.N.V.N.I.7XpXpXpXpX7X7X6X6XW.R.U.U.C.C.U.W.`.!.E T t.t.d.Q.~.Q.Q.~.Q.t.t.A.e.e.A.A.Z.:X~ @ .     o o                                                               . .             . . . . . . . . . . . . @ @ @ @ + + + + . . .         . X # # % % X ; ; % % X + + + @ $ @ + @ $ @ @ @ @ , 8 w e 8 < : : @ + + + $ u +.$.! i .     . .   . + + + + @ > 6 6 j k k k h h g 3 x U s.s.x.c.c.c.}.#XP.y.U x 3 : @ @ + . .   o   o o o o * % * O O o o o o o o   @ b K W A >.u.u.u.i.'.{.'.x.x.<.&.V &.<.y.y.y.1.S m z l l l h h h h h l l z z l x g 2 ",
" X XoXoXn.c.z.j.j.z.c.n.|.|.n.c.oXc.z.i.i.i.a.a.5.5.,.C N x l g g x l z y.d.>.B =.,.<.q.u.u.u.5.u.u.u.u.5.5.u.u.u.u.u.u.u.i.a.a.a.a.x.'.'.'.[.[.{.{.[.[.'.'.G.a.u.i.u.5.5.:.;.-.;.;.-.-.-.-.-.*.*.*.*.*.&.V M m l h h h h h l l l g g n ! Q w %                     . @ 2 k Z A r.gXkXlX/.> + $ $ + + @ 4 c c 5 : : @ + + + @ : > > 2 2 2 3 g h h l z N A Z N k +       o   . @ 2 k 3 g g 3 b J ~ s $ . . + . . # # % $ $ $ 1 1 8 q q 1 , , , , 8 @ @ , , @ < J ~ E E !.E F v v c 0 < 7 8 8 & . @ : : : : 9 Y !./.;X| < +     o o                   + 1 r b K W w.u.5.5.5.5.5.5.<.<.q.r.w.~.y.k u & + u { @ # ; ; f a f f w p e 9 0 R Z.L.B.9.r.r.p.B.B.B.F.J.H.E.B.B.F.G.P.E.L.B.r.r.w.u.5.4.6.i.0.8.r.r.e.e.e.L.L.8.p.u.5.3.5.M.i.i.a.*XgXlXfX~.e.l l z A P.&X*X).E.B.e.e.e.e.e.e.U U e.L.`.&XfXfX`.(.D.Z.A.T N.D.D.Z.V.V.I./.sXsXdXpXpX7XW.W._.C.E.H.B.N.T.W.`.!.T I U t.9.U Q.~.A.t.t.t.9.t.e.e.r.e.Z.^.} @ +     o o o                                                         . . . . . .   . . . . . . . . . . . . . . + @ @ @ @ , $ & & & - - - - ; ; ; & - w & # = = O   . . . + + @ @ + + + + $ $ @ @ < < 8 8 8 , : @ @ + @ u +.@.! %                   o . . . . @ 1 e e b b 6 3 2 > @ > j Z 9.w.u.u.u.s.y.9.x 2 @ @ @ @ @ + .       o o o o o o o   . . .   o O O O . + > ~ E U y.w.<.u.'.{.'.'.}.x.i.<.&.=.<.w.w.8.1.C z z l l h h l l l l l z z z z l n > ",
" X X XoXoXn.b.z.z.z.c.c.n.n.|.|.c.c.c.x.i.i.i.i.u.u.<.C N N x h g l l z S d.>.C A ,.<.q.u.u.u.u.u.u.u.u.u.u.u.u.u.u.u.u.i.a.a.a.a.a.'.'.'.[.[.[.[.[.'.'.'.G.a.a.u.u.u.5.5.:.;.-.;.;.-.-.-.-.*.*.*.*.*.*.&.V B M z l h h h l l l h g g b e q +                 . $ , < c v U 9.0.P.gXkXkX:X5 @ @ , : : > 2 3 2 > : @ + + + + @ : > 2 3 3 g h l z m m N A A A A x ,       o     . @ > > j j 2 b J ! w . . . + + . . . + + @ @ $ 1 @ @ $ $ $ $ $ $ , @ @ , @ @ w J R W E t.E U U t.t.W v v c c 4 2 2 h v T ' Q.`.:XfXpXsX-X8   ; o o                   . + : 6 n Z <.5.5.u.u.u.u.u.q.0.r.y.y.d.t.x e @ e ~ ~ @ . O ; f f f f w p 8 < D !.Q.L.r.9.r.r.F.B.B.F.F.F.H.L.r.e.B.J.E.E.H.H.B.r.p.i.i.j.v.i.p.p.p.F.B.N.N.R.R.e.r.r.w.0.u.u.5.:.,.0.r.e.U e.U z Z Z A P.*X).F.B.e.e.B.B.C.B.A.B.B.L.`.1X1XfXfX`.(.Q.Z.Z.T e.A.Z.N.V.S.^.pXsXZXZXdXdX/.^.^.(.D._.R.E.U.9XrXpX^.T I U U U U t.A.Z.E t.t.y.A.e.e.r.e.e.Q.!.> +   o o o o                                                 . .     . . . . . . + # # # $ $ $ $ $ $ $ $ & & & 8 < 6 8 8 e w w w w - - - ; ; ; - # $ $ # # # % X     . . + + @ @ @ + + + $ , , , u 0 : : < < > @ : e ! +.! p = . . O o     X   o o o * o     . % + @ : > > > : @ . . @ 2 k x N B C A Z v 2 @ . . . . .     o o o             O = @ @ @ @ @ @ % @ r @ > n d.t.U 9.<.u.'.].'.'.'.a.a.u.<.<.q.q.w.8.A N z z z l l l l l l l z z z z z z n 2 ",
" X X X X X|.n.n.c.c.c.z.c.c.|.|.c.c.x.x.z.a.i.i.i.u.<.=.B N x h h h l z N A 9.C C ,.0.q.q.q.u.u.u.u.u.u.u.u.u.u.u.u.u.p.a.a.a.a.'.'.'.'.[.[.[.[.[.'.'.G.G.a.p.u.u.5.5.5.3.;.;.-.-.;.-.-.-.*.*.*.*.&.*.*.&.V B M m z l l l l l l g g j 6 : .             . + $ , 5 v v E d.K.K.s.}.gXhXkX1Xv @ @ 2 h l z m N N z h h j j 3 3 3 3 h l l z m M C C =.,.1.1.1.,.=.S 6 +     o o     + @ > n K 0 b J e & . . . + . . . . + + @ @ @ @ + # @ $ $ & , , , , $ @ @ , e J ~ W W E U >.w.K.f.s.<.=.C C A 9.Z Z U Z.).&X_._.`.S.!.| , . * o o o             X     . + : 4 k >.<.<.u.u.u.u.q.w.w.y.y.t.U W v 2 : ~ <X3X2 +   ; ; f - w - - # < Y Q.Q.A.r.9.r.r.r.B.F.F.B.B.B.H.e.9.r.J.E.E.H.F.B.r.u.u.6.j.v.i.p.p.F.B.N.N.N.R.R.T e.e.r.r.r.<.<.<.=.C C Z Z U U A 9.9.9.P.*X%XB.e.e.L.).E.).).).).).`.1XfXfX1X1X`.`.Q.Z.N.T T Z.e.e.V.D.`.dXZXIXIXZX$.@.| | /.`.^.^.(.I.rX7XpX/.E I U T U U I t.t.U e.A.y.y.t.e.r.e.e.Q.!.c +   o o o o   .                           . . O X X # # # # # # & & & & , , , , 8 8 8 8 8 8 8 8 8 8 w w w w w w 8 4 8 0 0 w 8 8 w & + . O O O . . + + + + % X O     . + # @ @ @ $ $ + @ , , 8 8 : < 4 < : : : > ! ! ! s 1 . . . .             o * * * o       . . . + @ @ : @ +     . + : 2 3 g g 3 2 : + .     ;                   . + + + + : g h g g g g 6 6 b 2 3 g W t.l Z 0.a.G.'.'.'.a.a.'.a.u.u.u.q.0.,.C m z z z z l l l l l z z z m m m x n 2 ",
" X XXXXX X X|.|.n.c.c.z.z.c.n.|.|.c.i.i.i.x.i.i.i.u.u.,.C Z z h h g h l z N 9.>.C ,.0.q.q.<.q.u.u.u.u.u.u.u.u.u.u.p.p.a.a.a.a.a.'.'.'.'.'.'.'.'.'.'.G.a.a.p.u.q.5.5.5.5.:.;.;.-.-.-.-.-.*.*.*.*.*.*.*.*.&.&.V B M N z l l l l l g 6 6 > @ . . + . . . + @ < c c I U r.K.#X#X#X}.'.=XgXkXfXE > > z A y.y.q.s.s.s.1.1.1.A A C N N C C C C ,.1.1.1.<.1.7.1.:.=.:.1.n 1 .   o o     . @ 4 ~ ~ b J ! w & + . + + . . . . + + # @ % % & & & 1 q 8 8 8 8 8 , @ @ 8 e e J F F I Z A 0.s.s.s.i.5.:.:.g.f.d.U Z A.&XfX).B.D.N.j @ + .   o o o             X       . + @ 2 Z A A 9.8.9.9.9.9.9.t.t.d.v v n 6 > 3X<X3Xh + O ; * = q q - ;   0 ' (.A.r.w.9.r.r.r.A.K.F.r.r.B.r.9.e.F.F.P.P.H.B.r.r.w.5.6.j.z.u.r.r.B.e.e.N.B.R.L.T e.e.e.e.r.w.y.s.r.w.9.y.A.y.y.9.y.9.9.P.&X&XH.C.L.%X&X)._.&X_.).).&X1XfXfX1X1X`.`.Q.Z.Z.Z.e.Z.e.T V.D.`.dXZXIXIXmXmX$.@.#.dX:X/.^.^.^.kXfX^.S.T U T t.U U Z t.t.U U t.e.U e.e.e.9.9.A.Q.K +   o o o                       . . . . X % % % & & & 8 8 8 8 8 w w w e e e e e 8 8 8 8 8 8 e e 8 8 8 8 w w w w , < < 7 < 1 , @ , + + + + + . + + + + + + % % O     X % % $ + + $ $ $ , , , < < < < : @ @ > ! @.@.! w + + + + + . . . .         o o               . . + @ % + . ; o     + @ : : : @ + . .                       $ @ @ @ > 3 j x S C S N N N x x x x x g x W x l >.a.G.G.'.a.a.a.}.'.a.a.u.,.,.=.B m z z z z l l l l l z z z m M M S S 3 ",
" XXXXXXXXX X X X|.n.c.c.c.c.c.n.|.n.z.i.i.i.i.i.i.i.u.<.,.A N h h 3 h x h z A >.C ,.<.q.q.q.q.u.u.u.u.u.u.u.u.p.p.p.a.a.a.G.G.G.'.'.'.'.'.'.'.G.'.G.a.p.p.u.q.<.5.5.5.:.:.;.;.;.-.-.-.-.*.*.*.*.*.*.*.*.*.&.V B M N m x z z z l k j 2 : @ + + + + + : 2 c Z U e.r.p.}.#X#X$X}.'.x.@XtXgXlX!.2 > >.s.#XM.v.z.z.i.s.s.s.s.7.<.<.:.<.<.<.<.<.<.<.7.:.7.7.:.-.*.-.1.n 6 + .   o     . + < ! ~ e e e 8 , $ $ $ $ + + + + + + @ % % % q q q q q 8 8 , , , $ @ $ , , @ + @ < j l N A q.s.s.s.s.<.&.&.1.d.W t.`.fXfX_.C.&XlX:XD ,     * o o                       . + @ 2 g k x v v v v v v v W } j j j b > d.3Xd.k +   ; * = q q %     F Q.Q.e.9.8.w.w.9.e.B.K.K.r.r.B.e.e.B.P.K.F.H.H.F.r.r.q.5.6.h.6.r.N.N.N.N.N.B.C.L.L.U r.r.r.9.9.y.t.r.r.r.r.A.~.e.y.9.U A A K.&XfXE._.%XrX&XR.E.).(.L.(.).`.`.&X1X:X`.(.Q.S.Z.Q.A.A.Z.T Z.S.^.dXIXIXIXIXIXIXZXSXsX;X^.`.I.`.KXfX' Y I U E t.T U Z T t.U U e.e.A U U 9.9.8.B.A.E @ . o o o                       X X X % % % = = 8 8 8 8 8 8 e e 8 8 8 8 8 4 4 4 7 7 7 7 8 7 8 8 8 8 8 8 8 8 8 8 q 8 , 1 , @ @ @ @ @ : > 5 j 3 > : + + + + + . O     X % & $ $ @ , 8 8 8 8 , , : : @ @ > b ~ | ~ < , @ + + . . . . . . . . . .             .     . . . . % % # X o o       . . . + . . .           ; ;       + : : 2 h Z d.d.y.d.C V C V B M m m z N z h h W d.l C s.P.a.a.p.p.'.'.'.'.a.q.=.V C C m z z z z l l l l l z m m M C 1.1.W 3 ",
" XXXXXXXXXXX X X|.|.|.n.c.c.c.c.c.n.|.c.z.i.i.z.i.i.i.<.<.1.N l h 3 g h h l C 9.A ,.,.0.q.q.q.q.u.u.u.u.u.u.p.p.p.p.a.a.G.G.G.'.'.'.'.'.'.G.G.G.G.a.a.p.p.u.u.<.5.5.5.3.;.;.;.;.;.-.-.-.-.*.*.*.*.-.*.*.*.&.V B M M m z z z z z x k 2 : : @ @ @ : > j Z 9.r.K.'.'.].}.oX$XoX].x.'.{.tXgXlXQ.4 > C w.f.v.i.i.6.6.6.6.6.7.7.5.5.5.<.<.<.<.<.<.<.:.:.:.:.:.*.*.*.V N g : +   o       . @ J b : : : @ $ $ $ 1 , 1 % + + + + % % % % % % $ $ # # @ + + + @ $ , $ + .   . , 6 c x N C ,.w.f.f.1.M z l 3 2 j v F F v I I D.`.R +   O o o o                   o X . . . + + @ : : < > > > 2 2 5 | 5 c b r @ n ^ ^ > +   ; * = = = . o X R Q.e.9.9.8.w.8.9.9.r.K.K.r.r.B.e.e.K.P.F.r.J.L.B.r.w.w.5.6.h.6.r.N.N.e.e.N.B.B.R.L.U r.e.e.9.e.e.T T e.e.e.e.r.e.e.9.9.U A L.&X&X)._.%X&X%XL.L.L.D.A.D.R.(.).`.`.`.`.Q.Z.Z.Z.Q.A.Q.Z.e.Z.S.S. .mXNXNXmXNXIXZXaXdX/.7X7XU.R.fXD.I I I U T T E U v I T U U e.e.A U U U A 9.r.A.!.@ . o o o                     . X X X % % % = = $ $ $ , , , , < , , , , < < < < < < < < , , , , , , , , , $ $ $ % # + . + @ @ : > 3 v I T T U I 4 : + + + .         X % % $ $ $ 8 8 8 8 , , : : @ : 0 L ~ K 5 @ @ + + + + + + + + + + @ $ % = = w - w i u u i i & & & - w p w -       o O o                         X . + > k Z d.f.y.0.s.0.V =.V V V V V V B B M M l l l d.,XS m y.s.p.p.u.a.'.'.'.}.P.u.&.B B A M z z z l l l z l l z m m B 1.y.y.d.l ",
" X X XXXXX XXXXX X X|.|.n.c.c.c.c.n.|.|.c.z.z.z.i.i.5.<.<.,.A N k 3 3 g l l m 9.>.>.,.<.q.q.q.<.q.u.u.u.u.u.p.p.p.a.a.G.G.[.'.'.[.'.'.'.'.'.G.G.G.a.p.p.p.p.u.u.5.5.5.:.;.;.;.;.;.;.;.-.-.-.*.*.-.-.-.*.*.&.V V M m N m m m m m x x g > : > > 2 c v U r.G.'.}.{.|.|.|..XoX|.].x.'.{.tXgXlX/.5 > j I e.r.r.q.u.u.u.<.<.<.5.5.5.5.<.0.<.<.<.<.<.<.:.:.:.=.=.=.&.B N h 2 @ +     X   # + 8 < @ @ + @ @ @ @ @ @ @ @ + + + + + . X X . . . + + + + + + . $ w u 8 . . O * w e b c h h l z Z W I k j b r 1 : : : > 3 F N.D.:X!.@ . * o o o                             o o o o     . + + @ @ : @.J ~ ~ .   + , 8 . .   O O * * * o O 8 E A.U U 9.>.0.8.9.9.r.L.K.e.r.B.e.e.B.F.r.r.H.E.B.B.r.p.a.z.b.v.p.F.F.F.F.F.F.r.E.L.U T T _ T T T Y Y T T T e.e.e.e.9.e.U U D.%X&XE.E.L.E._.L.L.L.A.A.L.(.(.(.).Q.(.:XQ.' S.Z.Z.A.A.t.e.Z.S.]  .mXIXNXmXmXZXZX>X/.I.6XW.Y.B.B.U I I I I I U U U Z I T T U 9.9.U U U A A >.w.e.} < + o o o                     . . . . . . % % # $ $ $ $ $ $ , , , < < < > < < < > < < < < : , , , , , $ $ @ + + .   . . + : 5 c I U e.A.K.K.F.r.I b < < @ +         . X % & 8 8 8 8 8 , @ @ : < 0 J ! L b 5 2 > J e 8 e u J u u u u u u s s s s d d s ! ! ! P d 8 8 8 8 i p i w # X X X O O O o o             + @ > 3 n S d.f.f.1.7.<.s.2X#X0.V &.&.&.&.&.&.&.V V M m m l ~ <Xd.z A y.r.w.p.G.'.'.'.}.}.s.=.V V 1.N z z z l l l x l l z m m C g.y.f.~.m ",
" X X X X XXXXXXXXX X|.|.n.n.n.n.|.n.c.c.|.oXz.6.z.i.5.:.:.,.,.S h k 3 g k h z 9.>.=.,.<.q.u.q.<.q.q.u.u.u.p.p.p.p.a.G.G.G.[.[.[.[.[.[.'.'.G.G.G.G.a.p.p.p.p.u.u.u.5.5.3.;.;.;.;.;.;.;.-.-.-.*.*.-.-.-.*.*.&.&.V B M m m m m m m l x h 3 3 g x x t.r.K.}.}.{.|.|.|.|.|.|.|.].].x.'.{.tXgXlX:Xc 4 5 F N.B.r.r.u.u.u.u.q.q.q.q.5.u.q.0.q.q.<.<.<.<.<.:.=.=.,.=.C M z g 2 : +   O O & w $ 8 1 @ : @ @ @ @ + + + . . + + + . . . . . . . . . + + + + # + 8 ! ! e @ .   o = w e e 4 2 2 2 3 j 5 4 J { Q r : : : : 5 F R.(.:X!.@ . ; o o o o           o o             o * * * o o o     # . @ >X| ;X$.  O     #   X     o * * O   = e E A.U U 9.A 8.9.9.9.B.L.A.e.e.B.B.e.e.r.8.r.J.OXY.J.[.{.oXoXoX$X{.OXOXOXOXOX[.F.J.F.Z U I T E ' ' T T T e.T e.e.e.e.U U I Z B.E.eXE.H.B.H._.E.L.L.D.D.).`.`.(.).A.(.:XS.T Z.t.e.Z.Z.T T Z.Z._ ` %.mXmXmX$.%.#.;X' V.W.T.%XB.U T I Y Y I Z Z Z U I I T T U U 9.A 9.U A C >.8.e.E 0 $   o o O .                 .         . . . . $ $ $ $ $ $ , , , , : : : : : : < < < < : : , @ @ @ @ @ + + + + + + @ > c W t.A.B.K.P.}.[.'.'.p.A.Y v c 0 > + + . . . + # $ - 8 8 8 , @ @ @ > 4 L ~ R R W I Y R b J J ! ! u u u u u u u u u u u e e e u u u u 8 8 & # # & & X   X .               . . . + + : 3 S S d.f.3XM.7.;.5.;.&.i.kXkX#X0.=.*.*.*.&.&.V V =.M C m l N ^ <Xz m A y.w.p.[.G.'.'.}.}.s.<.&.=.,.B m m m z z z m l l m m m C y.y.s.f.l ",
" X X X X XXXXXXXXXXXXX X|.|.n.n.c.c.c.c.n.n.n.c.6.6.5.:.:.*.*.=.z k g 3 3 3 l Z A =.=.:.<.u.u.p.w.w.w.u.u.p.p.p.a.a.a.G.[.[.[.[.{.[.[.'.'.G.G.G.G.a.a.p.p.u.u.u.u.5.5.3.2.2.2.;.2.;.;.;.-.-.*.*.*.*.&.&.*.&.&.V B M m m m m z l n n x h l A w.p.G.'.].{..X|.].].].].].].].].].'.'.'.=XgXkXfXI 2 > F t.y.p.u.i.u.u.q.w.0.<.<.<.u.u.q.q.q.5.5.5.<.<.:.=.C C N m l 3 > : @ + + % % X # & & , , , 8 $ $ @ @ + + + + @ @ + + + + + + $ # + + + + + + + . @ u ! u $ + + , 8 $ # # + + @ : > 2 > : e ! K c > : : > c Y R.E.E.N.j @ . o * o o o o o o o o o             o o o o o o * o o     8 @.;X| ! o * o     . . . . o * * *   . | !.e.U U y.y.w.9.e.9.B.H.B.r.e.e.U B.r.9.F.F.[.OXOX0X0X0XtX0X@X@X@XtXtXtX@XtXtX[.[.J.p.r.A Z t.Z T T e.e.e.e.T T U U e.e.U U N.L.OXY.H.H.C.H.H.L.L.A.(.`.(.(.).S.S.`.Q.e.e.Z.Z.S.S.' H Y _ T I I P @.#. .| |  ./.S.V.R._.C.Z.!./.!.E F I U Z Z U U Z U t.U U 9.9.U U A A >.9.e.N.R + . o o O . .                                 + + + + + + + + @ @ @ @ @ @ , , @ @ @ , , $ $ & = X . + + + @ > 3 l S y.K.P.}.}.{.{..X.X{.{.].'.G.G.K.y.t.Z x j > : @ , & & & - , $ + + @ 0 ! } ~ Y v A.&X%X%Xe.v 2 > 4 1 + # X X     . # $ @ @ : : 1 1 r w q % = % .                       . . + @ : > g Z t.f.~.~.f.7.:.;.2.2.;.3.2.i.2XkX#Xw.*.-.-.*.-.-.*.V V V M m z g h ~ S h l A y.P.G.G.'.'.'.'.'.'.a.a.<.,.C M m m m m z m m M M M C 0.p.p.~.g ",
" X X X X X XXXXXXXXXXX X X|.|.|.c.c.c.c.n.n.n.c.v.z.i.5.:.-.-.=.m l g g 3 3 k x C C &.:.<.q.u.p.w.w.w.u.p.p.a.a.G.G.'.[.{.{.{.[.{.[.[.[.G.G.G.G.G.a.a.p.p.p.p.u.u.5.5.5.3.3.2.2.2.;.;.;.-.-.*.*.*.&.&.&.&.&.V B B B M M m x z l k n x N A p.G.'.].|..X|.|.].].c.x.'.].'.'.'.'.'.'.x.=XgXkXfXT 5 < D E y.u.i.i.i.u.u.w.0.0.<.5.u.u.q.q.<.5.5.5.<.:.:.=.C M m l g : @ + + . . . + . . % & & , 8 8 & & & $ $ $ $ $ $ $ $ $ # # + + # + + + + + + + + . + 8 u u 8 @ 2 c u 8 X       . @ > 6 > @ 1 e j 3 > : + @ 0 Y (.%X&XR.Y < . o o o o o * o o o       X # + . . . . .     o o o     . @ ! ~ c : o * X + @ @ @ + + o * * . + 4 } Z.e.U 9.y.y.e.9.r.e.B.H.B.e.e.9.9.F.B.F.tXOX@X@X[.OX@X@X@X@X{.{.{..X@X0X@X0X0XOXOX0X0X*Xr.N A A U U 9.e.e.e.e.e.U T e.T U U N.L.H.Y.J.B.B.H.H.C.D.A.(.`.Q.D.^.S.D.`.(.A.Z.Z.Z.Z.' ) H ) S.D.e.v 5 c H ) _ ] V.V.S._ I.^.D./.:XsX;X} Y I U U U 9.U Z U t.9.9.w.w.U U 9.,.,.0.r.N.' @ . * o O                                     . + + + + + # # # # # @ @ @ @ @ @ @ $ @ $ $ $ % = = + . + : 2 g 9.y.K.}.}.{..X.X+X+X+X+XXX.X.X.X].'.'.a.p.y.E W R D 9 , $ $ + . + @ @ 9 K ~ ~ ~ Q.t.U ).tXOX0XJ.I 2 : : @ .           X w u u e s s e w q = + . . .           X .       . + @ : 3 v U d.y.s.y.<.<.:.;.;.;.2.3.4.4.4.3.3.}.kX&XK.:.;.;.-.-.-.*.&.&.V B M N l x ~ ,X~ h N 9.r.p.'.'.'.'.].{.'.'.'.p.q.=.B M M M M N M M M m M =.w.p.F.~.g ",
" X|.|.|.|. X XXXXXXXXXXX X|.|.|.|.].n.n.n.n.c.z.c.v.z.i.5.:.-.&.M l g g g 3 j h N M V =.<.q.q.w.w.w.w.p.p.p.a.a.'.'.[.{.OXOXOX[.[.[.[.[.G.G.G.G.a.a.a.a.a.p.p.p.u.u.5.5.5.3.2.2.2.;.;.;.-.-.-.*.*.*.&.&.V V V B B B M m z l l h h x x A y.P.}.}.{.].].].].].x.x.x.'.'.'.x.'.'.a.a.a.*XgXkXfXA.j : c W y.s.i.i.i.u.u.q.0.0.<.5.5.u.q.<.<.<.<.<.:.:.=.C M z l g 3 @ + . . . . . . . + % & % $ $ $ 8 & & & & & & & $ $ $ $ $ $ # # + + + + + + $ $ @ + + @ 8 e 8 : > 0 b w X     . . @ 6 e > + + @ @ : % % . . 0 R /.(.`.!.L 8 o o o               . . . + : : : : : : @ @ @ @ @ @ @ : > j W E Z g : : 5 v I I I K b e q @ + @ F ' t.e.U 9.y.y.r.r.r.B.H.H.B.e.e.e.9.K.F.J.hXtX0X@XOX@X@X@X@X@X.X@X@X@X@X0X@X@X0X[.OX0XyXtXF.N Z A U U U T e.e.e.e.U T e.T U U N.L.H.Y.Y.H.H.H.U.L.L.(.1X1X(.Q.Q.D.Q.`.(.A.A.t.T T Y H D D Y `.`.T ;X| ] I.I.I.I._ V.V.V.I.S.!.>XsX,X!.E T T U U e.U Z U t.e.9.r.r.9.9.8.8.0.w.r.B.S.< . * * o                                     . . . . . + + + + + + # # # # # # + $ @ @ # % % . + + + 4 F E e.P.}.OXOX.X.X.XXX+X+X+X+X+X+XoX.X.X.X].[.J.H.N.' R b : @ @ r r > 2 4 c R !.-X!.!.I x N J.*XOXOXJ.E 3 : @ + .           O & - w & - - & X O X           . . . . . + + + @ : 2 k v W S A =.=.:.:.:.-.;.;.;.2.3.4.4.4.3.4.-.5.kXhX*X5.;.;.;.-.*.*.*.*.B M m z l x k <Xd.l l 9.r.F.[.[.{.{.{.{.{.}.}.#X}.a.q.,.C B M M M M C C ,.u.P.P.P.~.g ",
" X X|.|.|.|. XXXXXXXXXXXXXXX X|.|.|.n.n.n.n.c.z.x.x.x.x.s.5.:.&.B l g g 3 3 5 k l m M V ,.<.0.w.w.r.p.p.p.p.a.a.a.G.'.{.OXOX[.[.[.[.[.[.G.G.G.G.a.a.a.a.a.a.p.p.u.u.5.5.5.3.3.2.;.;.;.;.-.-.-.*.*.*.&.V V B B M m m m z l h h h h h z A y.P.}.'.'.'.x.x.x.x.x.x.x.'.'.'.x.'.x.a.a.u.#XgXkXgXR.j : 5 I y.p.i.i.i.u.u.q.q.q.q.5.5.u.<.<.<.<.<.:.:.=.V M z h g 3 > + . . . .     . % % = % @ + + + + + + # # # # # # $ $ $ # # # # + + # # $ $ $ , 8 8 $ + , 8 7 , : 2 r 1 .     . + , 9 9 : + + + + + = = O   8 P | !.' R J q * * X + + . . . + @ @ : > 3 x Z Z Z x x x x x x x x W E d.~.<X<X~.d.d.d.!.~.~.A.t.E K ! 0 > : 2 ' N.e.e.9.e.e.e.r.B.e.r.H.H.B.e.r.t.U A.r.F.tX0X0X0XOXOXOX[.OX@X@X@X@XOXOX0X@X@X0X@XOX@X0X0XJ.A N U U U U T e.e.e.T U U T T U U N.L.E.Y.E.%XW.H.H._.`.1XlXlX:X(.(.D.(.(.Q.Z.e.e.T I I Y Y H _ `.fX`.lXdX7X7X7X6X7XW.W._.7X7X^.' @.;X;X!.' T T U U U U Z U t.r.e.w.r.w.8.,.,.0.w.r.B.Q.4 . O * o                                           . . . . . . . + + + + + + + + + + + + + + . . @ 4 W Q.).#X[.{..X.X+X.X+X+X+X+X+X+X+X+XoXoXoX.X.X{.J.C._ Y 0 : @ : 2 n W W I _ ^.:X:XQ.E A h h N J.*XOXOXJ.Z.n > : + . X   o                                   . + + + + @ > 2 g k n S S S A C &.&.*.-.;.;.3.3.3.4.4.4.4.4.4.3.4.3.<.2XDXhX}.5.*.;.-.&.&.*.&.M M m l l h 2 !.!.x 3 Z F.J.OX=X@X@X@X=X=X=X*X=X=XOX}.P.p.0.A C >.8.w.p.a.}.#XP.P.~.g ",
"|.|.|.|.|.|.|. X.XXXXXXXXXXXXX X|.|.n.n.n.n.c.z.z.i.a.x.s.i.5.:.C m h 3 3 2 3 k h l m M C =.,.0.p.p.p.p.p.p.p.a.p.a.'.{.OXOX[.[.[.[.[.[.G.G.G.a.a.a.s.a.a.p.p.p.p.u.u.5.5.5.2.2.;.;.;.;.-.-.-.*.*.&.&.V B B M N N N z l l l l z l h l N 8.p.a.a.x.x.x.x.x.a.a.a.x.'.'.'.'.'.a.a.a.u.}.gXgXgX`.v : 3 Z 9.p.u.i.i.u.u.u.q.q.u.5.5.5.<.<.:.:.:.=.&.C M z h g 2 > : + . . .     . . % % % % @ + + + + + + + + + + + + + $ $ $ @ + + $ $ $ $ 8 8 8 8 , 8 8 $ 7 0 8 < b j r 1 %     . + , > : @ + + + + + + . . . @ < c c j 2 : + . O + + + @ @ @ : > > g U ~.~.1X2X2X1X1X1X1X*X*X*X*X*X2X2X2X2X2X2X#X2X2X1X#X~.y.U W n b 2 > > v D.B.e.e.e.e.e.e.r.K.r.B.H.H.B.e.A.r.y.K.w.p.tX0X0XOX@X*XOXOXOX@X@X0XOX[.[.OXOXOX@X@X@X@X@X@X*X9.z A U U U T T T U U U U T T U U e.D.E.E.%XrX%XH.L.&X`.:X1XfX:X`.`.(.`.(.D.Z.e.e.T Y F Y D D _ `.fXjXKXjXlXzXyXqXyXrX7XhXzXzXpX` { @. .} ` E T T U U U U U t.K.r.w.w.F.r.0.0.q.w.r.B.Q.c + . * o                                             . . . . . . . . . . + + + + + + X X . . @ @ > I ~.*XOX{.@X+X+X+X+X+X+X+X+X+X+X@X+X@XoXoX X.X{.[.H.N.F 5 @ @ > n W 9.r.P.).&X1X&X~.r.A M N A w.[.OXOXOXH.t.n 5 > + . . X             .                   . + @ @ : 3 g l S S S S S C B B V &.-.;.2.2.2.3.2.3.4.4.4.4.4.4.4.4.2.6.:.p.KXDX=Xi.*.-.-.*.*.&.V M S S z n x 2 h E U Z r.P.*X*X=X=X=X=X=X=X=X=X@X@X@X=X*X*X}.P.K.G.P.J.G.G.G.G.P.P.~.3 ",
".X.X.X|.|.|.|. X XXXXXXXXX.XXX.X|.|.|.n.n.n.c.z.z.i.i.i.a.a.i.u.<.C z g 3 2 2 k g k l z M C >.,.w.r.p.p.p.p.p.a.a.G.[.OX@X@X{.[.[.[.[.[.G.G.G.a.a.a.a.s.p.p.p.p.u.u.u.5.5.5.2.;.;.;.;.;.-.-.-.-.*.*.&.V B M N S E W N l h h h h l h l N 0.s.a.a.'.'.x.x.a.a.i.i.x.'.'.'.'.'.a.a.a.p.G.=XgXlX`.I > 2 x 9.y.u.u.i.u.u.u.q.u.u.5.5.<.<.:.:.:.=.V B N z h 3 2 > : + . . . . . .   . . + # $ @ @ , , @ + + + + + + + $ $ $ @ $ $ $ $ $ & 8 8 8 8 8 8 $ , 8 8 0 u y 0 K b e e w = # + , 4 4 2 : > < 7 : : @ @ @ : : > 2 2 2 2 2 > : : > 5 F K K F Z Z A.~.1X2X=X$X$X$X2X2X=X=X=X=X=X=X=X=X=X=X$X$X$X#XM.f.f.y.8.A Z v 3 6 : : 2 I N.N.e.9.9.e.e.e.r.F.F.F.H.F.e.e.e.e.f.K.8.r.tXtX0XOXtXgXtXtXtXtX@XOXOXOXOXOX[.[.a.a.{.@X@X=X=Xr.z Z U U U U T U U U U U U U U U e.C.H.E.%X%XE.E._._.&X`.`.`.`.:X1XfX`.(.D.B.e.e.N.T I Y Y Y Q.Q.N.' dXdXpXhXqXqXyXhXW.hXzXzXpX( ! { { ` ` ' _ T T U e.e.e.A.~.K.r.p.P.F.u.p.p.r.r.B.D.F @ . * o                                                         . . . . . . . . . . O . . . @ : g A.*X@X.X+X+X+X+X+X+X+X+X+X+X+X+X@X@X+X$XoXXX.X{.G.9.x 2 : : 2 ~ !.~.G.[.{.tX*XJ.F.p.p.p.p.w.p.G.G.[.OXOXJ.U v k 2 @ + .               .               . + : > 3 x W d.1.1.1.1.=.V V &.&.*.-.-.*.-.;.2.3.4.3.4.4.4.4.4.4.4.4.4.2.5.:.,.kXKXhX'.<.<.*.*.*.&.=.B S S z h g 3 2 Z A.&XgXrX*XtX*X*XOX*X=X=X=X=X@X@X@XOXOX*X*X*X*X*XOX[.J.[.[.J.P.L.~.3 ",
".X.X.X.X.X X X X|. X XXXXXXXXX.X|.|.|.|.n.n.c.z.z.i.u.u.a.a.a.a.u.>.C z g 2 > 6 6 g h l z M C A 8.0.w.p.p.p.a.a.a.'.{.OX@X@X{.[.[.[.J.G.G.G.G.G.a.p.p.p.p.p.p.p.u.u.u.u.5.5.:.;.;.;.;.-.-.-.-.*.*.&.&.B M N S W ~ W x g h h l l z z m A 0.s.p.a.a.a.a.a.a.a.u.u.a.'.'.'.G.G.a.p.u.a.p.*XgXkXfXT > 2 x U y.u.u.u.u.u.<.<.5.5.5.<.<.:.:.=.&.V B m x h 3 > : @ + .       . .         . @ $ 1 1 < < , $ $ $ $ $ $ $ $ $ $ $ $ $ $ $ & 8 8 8 8 , , , $ $ 7 0 y 0 y y b b b s s u u P K R R I F I Y Y Z Z v v K W Z Z A A 9.8.e.t.t.Z.!.~.:X:X:X:X1X&X#X#X$X$X$X$X$X=X=X=X=X=X=X=X$X$XoXoX$X$XoXoX$XM.<.,.C N l g 2 1 q % + + c E T T e.9.9.e.e.e.r.F.H.F.H.B.e.e.e.9.~.~.0.w.tX0X0XOX*XrX*X*XtXOXOXOXOXOX*XOXOX[.a.a.].+X=X=X=XP.m Z U U U U T U U U U U U U U U e.B.B.E.%XE.E.%X&X_.&X`.`.`.`.1XfXlX).D.Z.N.e.e.N.T N.Y F c I Q.fXlXCXsXdXpX7X7XrXrXW.hXhXkX7XD u ! L H H Y T T T U e.e.9.e.K.F.p.G.}.G.p.s.a.p.p.F.(.' > + O o o                                                         . . . . . . . . X o o   . @ 2 U #X=X+XXX+XXXXXXXXXXXXXXXXX+X+X+X+X+X+X+X.X.X{.a.0.m g 2 > v E (.%XOX@X@X.X{.[.[.[.[.[.'.'.[.'.[.[.[.OXOX*Xe.I v c 2 > , + . . . . . . . . . + + @ @ > 6 c n x S g.f.f.7.:.*.*.&.*.*.-.;.;.;.2.2.3.3.3.3.3.4.4.4.4.4.4.4.4.h.4.4.2.3.&.*XkXkX=Xa.u.:.*.=.V V B M m l g g x !.(.&XfXfX*X%XtXrXrX*X*X*X*XrXtXtX0XOXOXOXOXOXOX*X*XOXOXOXOXOXOX%X).`.2 ",
"|..X.X XXX X X X|.|. X XXXXXXXXX.X.X|.|.n.c.z.z.i.i.i.a.a.G.a.p.s.u.>.C l 2 > 2 6 6 k h l z N A >.8.0.w.p.p.a.a.G.'.[.OX@X{.{.[.G.J.G.G.G.G.G.G.a.p.p.p.p.p.p.u.u.u.q.q.<.<.:.:.-.-.-.-.-.*.*.*.*.&.V B M N Z W v g 2 2 g x S S m m M >.y.w.u.p.u.u.u.p.a.p.p.u.a.G.'.G.G.G.a.u.u.a.u.#XgXkXfXZ.2 2 x U y.w.q.u.u.5.<.<.<.<.<.<.:.:.=.&.V B m z h 3 > @ + .                     . # % 1 1 : < < 8 8 8 , $ $ $ $ $ $ $ , 8 8 8 8 $ 8 8 , , , $ $ 8 , 7 0 0 7 8 y b b J ! d u P ~ !.Q.~.K.A.K.Q.L.K.K.K.~.~.~.~.~.P.}.}.#X#X*X*X1X1X1X1X1X1X*X2X2X=X=X$X$XoXoX X XoXoXoX+X+X+XXXXXXXXX$X$Xn.m.M.v.V M z h 3 > = = % o . + K !.T e.e.9.9.9.e.r.r.F.H.F.B.r.9.e.B.e.y.f.0.0.@X@X0X@XOXOXE.OX%X9XOXOXOXY.OXJ.J.[.a.x.+X@X=X@XtX#XN Z Z I U U T T U U U U U U U U e.B.E.E.%X%X%X%X%X&X).&X1X&X&X&XfXfXL.N.e.N.e.e.e.T I Y T I v Y ^.;XZXaX;X[ I.7X7XeXrXhXhXfX/.y u ! P G H F I T T U e.9.A 9.r.p.p.G.G.p.p.P.P.p.r.r.).!.5 @ . o *                                                           . . . . . . . o o o   + : Z P.=X@XXXXXXXXXXXXX+XXXXXXX+XXX+X+X+X+X.X.X{.'.s.0.M h h l Z Q.&XrXOX[.@X@X{.{..X@X.X{.].].{..X'.[.{.[.[.[.OXB.e.U I v v c : @ + + + + + @ @ > 2 3 3 k n ^ ~ d.1.V &.:.3.2.-.*.-.-.;.;.;.;.-.2.2.;.2.2.3.3.3.3.3.3.3.3.4.4.4.h.3.h.2.6.:.i.gXkX=X}.s.:.&.=.V M M m z N l Z Q.1XfXgXfXrXrXrXrXtXtXrXrXrXrXrXrXtX@XOXOXOX%X%XOXOX%X%X%X*XrXOXOX*X_.`.2 ",
" X X XXXXXXXXXXXXXXX X X|.|.|. X.X.X|.oXoXn.c.x.z.i.a.'.=X=Xa.u.a.u.q.8.C h 2 > 6 6 6 g h z m N A A >.0.w.p.s.G.G.'.}.{.{.{.{.[.[.[.J.J.J.G.G.G.a.p.p.p.p.p.u.u.q.u.u.u.<.:.:.*.*.*.-.-.-.*.*.*.&.&.V C N N x h 3 2 2 3 h N Z S m M B A ,.q.u.p.u.u.u.u.u.u.s.p.a.a.a.G.G.p.p.p.p.q.p.#XgXhXfX(.j > h S 9.w.<.u.5.5.<.<.<.<.<.:.*.*.&.C M m l k 2 > : + .                       . + % , 1 , < , 8 8 8 8 8 8 , , $ $ , 8 8 8 8 8 8 8 , , $ $ $ $ 7 7 7 7 8 0 0 0 0 y u u i u J D !.`.*X#X#X*X#X#X}.}.*X*X*X*X#X#X$X=X=X=X$X=X=X=X=X=X=X=X=X=X=X$X=X$XoXoXoXXXXXXX XoXXXXXXXXXXXXXXXXX XoXoXn.v.M.C h 2 > : + o o o o . 1 R } T T e.9.9.9.e.B.F.F.H.F.r.r.e.9.e.A.y.y.0.p.OX0X0XtXtXrX%X%XtX9XOX0X0XOXOXr.G.@X{..X+X0X+X@XtXOX0.A Z I I U U U U U U U A Z Z U e.H._.E.%XeX%X%XrX&X&X&X&X&X&X&X%X).e.B.N.e.T e.e.T T T T I v c F } $.$.#.| _ D._._.).kXhXR.[ L u { { L H F I I U U 9.9.N N 9.0.w.G.G.u.p.P.s.p.F.F.).Q.F @ . * o                                                                     # X   O o . + 2 A.*XoXXXXX X XXXXXXXXXXXXXXXXX+XXXXX.X{.].'.G.8.C l g h Z A.E.rXOXOXOX@X{..X@X.X.X.X+X+X.X.X.X{.{.{.[.G.p.J.*XF.e.U A U W E W n j 2 > > > 2 5 x N S S n N S W S 1.V :.2.;.4.2.;.;.;.;.;.2.;.2.2.2.2.2.2.2.2.3.2.2.3.4.4.4.4.4.4.h.h.h.6.;.5.$XkXgX#Xu.<.&.B V m m m m N U (.fXfXfXrXrXrXrXrXrXrXrXrX%X%XeXrXrXtXtXtXrXrXrXrXrX%X%X%XrXrXrX%X%X_.`.`.2 ",
" X X X X X X X X X X XXXXXXXXX.X.X.X|..X|.n.c.c.x.a.'.$XgXgXa.a.a.u.u.w.>.N g 2 2 2 2 6 k l z m N A A 8.w.w.u.u.p.a.'.[.[.[.[.[.[.[.[.[.[.[.G.G.p.p.p.p.p.p.u.u.q.q.q.q.q.<.:.:.:.:.:.*.&.&.V V 1.1.=.C M z l h h g g h z N N N m M B C ,.0.q.u.u.u.u.q.q.w.w.p.a.a.G.G.G.p.p.p.p.q.p.#XgXhXfX(.v 2 h S 9.w.<.q.<.<.<.<.,.,.,.=.&.V B M m l g 5 > : @ . O o o                   . + % , , , < < 7 8 8 8 8 8 , , , , 8 , 8 8 8 8 , 8 , $ $ , , , 8 7 7 7 7 0 0 0 0 y u i i i y c t.~.#X#X#X$X}.#X{.{.oX$X=X=X$X$X$X$X$XoXoXoX@X@X$X$X$X=X=X=X=X$X$XoXoXoXXXXXXXXX X X XXXXXXXXXXX X X XoXoXoXM.M.1.x > @ .     o o   + 0 E Z.e.9.e.9.9.e.r.B.F.F.J.F.r.e.9.9.r.K.s.r.9.8.[.tXtXyXhXhXhXhXhXyX0XwX0X9XOXG.[.tX@X@X+X0X+X0XtX@Xr.A I I I U U U U U U Z Z Z Z Z e.H._.E.%XrX%X%XrXrXfX1X1X&X&X%XE.H.r.B.B.N.e.e.T T U U T E I v c K %.+.+.| R Z.A.N.D.fXC.c D ` @.@.L H Y I I U U U U U N m 9.0.w.G.G.q.w.P.s.r.p.F.E.L.I > + % o o                                                                   X X   o   . @ v P.=XXXXXXX XXX XXXXXXXXXXX+X$XoXoX].}.}.G.q.C l h h x U K.*XtXOXOXOXOX{.{.{.{..X.X.X.X.X.X.X.X.X.X@XOX[.G.G.[.P.w.N N U A.!.d.~ W v k j j k x W 1.S S z l z m M B V 7.s.3.3.2.;.;.;.;.;.2.2.2.2.2.2.;.;.2.2.2.3.2.2.2.2.3.4.4.4.4.2.3.4.4.2.v.gXkX2Xs.,.=.C M M z z U ~.fXgXfXeXrXfXgXgXtXrXrXrXrX%X%X%X%XeXrXrXrXrXrXrXrXrXrX%X%X%X%X%X%X%X&X_.`.:X> ",
"|. X X X X X X XXX X X|.|.|.|.|..X.X.X|.|.|.c.c.i.u.a.=XhXgXa.a.i.a.a.s.s.>.m 3 > > 2 3 k k l l z N A A 8.8.,.,.q.u.p.a.G.G.'.[.[.[.[.[.[.[.[.G.p.p.p.p.p.p.u.q.0.0.q.q.q.<.<.<.&.=.=.=.=.=.=.V g.1.C B m z l l x x l z N N N M M M B C ,.,.q.q.<.<.<.<.0.w.w.q.a.a.G.G.F.p.p.p.p.q.p.}.2XgXfX`.v 2 h Z 9.y.,.<.<.:.:.:.=.=.=.C C B M z l g 3 > @ # X O X                       . + $ , , , < < 7 , , , , , , , , , , , , 8 7 8 $ $ , $ , , , 7 7 7 7 7 9 0 0 0 y y y i i 9 0 5 U P.#XoXoXoXoXoXoX#X*X*X*X*X#X#X#XoX#X}.{.{..XoXoXoXoXoX$X$X$X$XoXoXoXoX.X.X X|.|.|.|.|. X X X X|.|.c.c.M.#X#X#Xf.I 3 : @ +     . + > I e.r.r.9.e.e.e.e.B.F.H.H.F.B.r.e.e.e.B.L.A.r.9.A F.OXtXhXhXzXhXhXhXyX0X0XyXyXtXtXtXtXtXtX0XtX@X=XtXOXr.A U I U U U U U U N Z ~.lXlX&X%XE.).).%X&X%X%XrXrX&X&XrXrXrX*XOXJ.B.B.B.B.N.e.T T U U T E W I R | %.o.s c c v x h g I v 5 D ` | ! ` ` ' T e.e.9.9.U U N m >.8.w.G.p.0.0.s.s.w.r.r.E.L.W 3 @ O o o                                                                   X X   o   + > e.#X=XXXXXXX XXXXXXXXXXX X.XoXoXoX}.x.s.u.,.M h 2 j I D.).OXOXOX[.OXOX[.[.OX*XOX@X+X+X+X+X+X.X.X@X@X@X@XOX[.G.F.F.w.>.9.s.K.y.A A N z x N Z Z W d.y.S m l g g g l z A f.#Xs.-.:.;.-.;.;.;.;.;.;.2.2.;.;.;.;.;.;.3.3.2.;.;.2.3.4.h.k.4.4.h.3.2.5.2X2X#X0.V C C B y.*XgXfXfXfXgXhXeXfXgXgXgXgXrXrXrXrXrXrXrXeXeXrXeXeXeXeXeXeXeXeXeXeX&X%X%X&X&XeX_.7X:X> ",
"|.|. X X X X X X X X|.|.|.|.|..X].|..X|.|.|.|.c.a.<.a.=XgX=Xu.u.i.a.x.a.s.s.>.z 3 2 > 2 3 g h h l z N Z A A =.=.,.0.q.u.p.p.a.G.G.G.G.G.[.}.[.P.p.p.p.p.p.p.u.q.0.0.0.<.<.,.,.=.C V B B C ,.y.f.=.C B M m m N N Z N N N N N N m M M B V =.,.<.<.<.<.<.<.0.0.y.w.p.p.G.F.F.p.p.p.p.q.p.P.*XgXgX`.W 3 h Z t.y.>.,.,.,.:.=.=.C C C M m z l g 3 > 1 + . X                           . + & 8 , , < < 7 , , , , , , , 7 7 , , , , , , $ $ $ $ $ , , 7 7 7 7 7 9 0 0 0 9 y y 8 8 9 9 3 U K.#XoXoXoXoX$X#X#X#X*X*X#X#X#X}.}.}.}.}.}.].{.{.|.oXoXoXoXoXoXoXoXoX.X.X|.|.|.|.|.|.|.|.|.|.].].c.x.v.M.#X#X#X~.E v c u 8 # . + @ j t.r.r.r.8.e.e.e.r.F.H.J.J.F.F.r.r.r.r.B.L.r.r.e.U A w.OXhXhXyXtX9X0X0X0XOXtXhXJ.E.}.P.J.G.G.[.'.a.p.,.N Z U U U U U U U U Z A `.DXkXfX%XJ.E.).%X%X%X%X*X*X*X&X*XtXtXtXOXOXH.B.B.B.B.T T e.e.U U E Y R } -X>Xo.e c c k x l x v I T ) R @.@.!.!.Z.Z.t.e.9.9.U U N m A 8.r.K.p.0.,.w.r.w.r.p.J.L.t.k @ . o o                                                                   . o o o . @ j r.}.oX XXXXXXXXX+XXXXX.X.X|.].'.x.s.s.,.m l z x W E S.D.U.U.H.F.P.P.F.w.p.[.*XOX{..X.X.X.X.X.X.X@X.X{.{.OX[.G.p.w.r.p.s.y.8.A M z z m C S A S A A N m l l h h g h l A y.#X#X:.:.:.;.;.;.;.;.2.2.2.2.2.;.;.;.;.;.;.2.2.3.3.2.2.2.2.4.4.4.3.2.;.3.u.#X#Xs.=.M >.K.).gXkXgX&XrXgXgXrXfXtXgXrXrXrXrXrXrXrXrXrXrXrXrXeXeXeXeXeXeX&XeXeXeXeXeXeX&XeXeX_.7X:X> ",
"|.|. X X X X X X X X.X|.|.].'.'.].].|..X|.|.|.c.x.u.G.=XgX=Xu.u.i.z.z.z.v.v.s.A l g 2 > 2 3 g h l z z m M C C =.,.,.<.0.q.w.w.p.p.p.p.p.G.P.G.G.p.p.u.u.u.w.w.q.0.<.,.,.,.C C C M B C ,.1.1.1.1.m m m m M M N N N N N N C N M m M M B C C ,.,.,.<.<.<.0.0.0.0.w.p.p.p.F.p.p.p.p.p.q.p.G.#XgXgX1Xd.g g Z U 9.A ,.,.,.=.=.C C C N N z l g 3 > , $ .                               . # $ 8 , , < < , , 7 7 7 7 7 7 8 8 7 , , , , , $ $ $ $ , , , 7 7 7 7 7 7 9 0 0 0 0 i 8 8 y 9 2 I K.*X$XoXoXoX$X#X#X#X#XoX}.}.}.}.}.}.}.}.'.'.].].].].{.{.{.|.|.oXoXoX|.|.|.|.|. X X|.|.|.].].].'.'.x.x.M.M.M.f.y.U v K P u $ . @ : v N.r.r.r.8.e.e.r.B.H.J.J.J.F.F.B.r.r.B.B.B.e.e.e.9.m m H.hXhXhX0X9X9X0XyXtXgXgXC N N Z U U A >.A B M m N A U T U U U U U U U Z ~.lXkXgX%XE.E.%X*X*X*X%X*X*XtX=X=XtXtX0X@XOX[.F.B.B.N.T T e.e.U U E W F R @.>X~ c v F I T E t.Z.Z.(.S.' -X;X!.!.Z.e.e.e.9.9.9.U Z N A 8.r.s.p.0.>.>.y.w.r.F.F.H.A.v : . o o                                                                   O o o o . : v K.}..X|. XXXXXXXXX.X.X.X{.'.a.p.0.8.A m h l Z E Z.S.S.D.D.D.A.Z.U U N m A F.OX[.{.{.{.{..X.X.X.X.X{.{.{.OXOXJ.p.w.r.p.w.>.B C C C B C 1.1.C B B m z l l x x k g g h S >.~.#Xu.<.:.;.;.;.;.2.2.2.3.2.2.2.2.2.;.2.2.2.2.2.2.2.2.;.3.4.4.3.4.3.;.*.=.=.C C >.8.K.&XrXgXgXrXrXgXhXgXrXrXrXrXrXrXrXrXeXrXrXrXrXrXrXeXeXeXeX&X&X&X%X%X%XeXeXeXeXeX&X_._.7XpX> ",
"|.|.|.|. X|.|.|.|.|.c.x.'.].{.{.@X].|..X|.|.|.c.x.u.}.gXhX=Xu.u.a.z.z.z.v.v.s.w.A x 3 > > 2 6 g h l l z m M C C C ,.,.,.,.,.,.,.<.<.<.q.q.u.u.u.q.q.0.0.0.<.<.<.,.,.,.=.C C C B M C A 1.1.A N z z m m M M M M M M B B B N M M M M M M C C =.,.,.<.,.<.0.0.0.0.w.p.p.p.p.p.r.r.p.p.u.p.p.#XgXgXfX!.h g v U U A >.,.,.,.,.C C N N z l g 3 > : @ #                                 . # $ 8 , , , , , , 7 7 7 7 7 7 8 7 , , , , , $ $ $ $ $ 1 , , 7 , 7 < 7 7 9 9 9 9 9 e 8 w e 9 2 I ~.*X#XoX}.}.#X#X#X}.}.}.{.{.{.[.OX}.}.}.'.].].{.{.].].].].].].}.}.].].].].].|. X XoXoXoX].].'.'.x.a.s.s.s.i.5.>.N h b e w # + @ 5 I N.r.e.e.e.e.e.r.F.J.J.J.J.F.F.r.r.r.B.B.B.N.T U U N N L.hXzXhXyX9XOXOXtXhXkXkXZ N x Z U U U U Z Z A A W W U U T T U U U U Z Z A.lXKXkXtX%XE.*X%X*XrX*X*XrX*X*X@X@X0X0X0X0XOXJ.B.B.N.N.T e.e.9.U U Z K | >X;X~ F I Y T E t.Z.~.(.`.`./.<X!.!.t.T U 9.9.8.9.9.U A Z A 9.w.r.p.0.>.>.y.y.r.F.p.F.A.I : . o o                                                                   . o o o . > Z P.{..XXXXX+X+XoX.X.X].].x.p.0.,.C N z x Z W E Z.' Z.S.S.S.` F v v x l z 9.K.}.[.[.[.[.{.{.{.{.{.{.{.{.OX=XOX[.p.w.8.8.A C C =.1.1.V V V V B M M M m z z x k g 3 3 h N M y.#XM.7.;.;.;.;.;.2.2.3.3.3.3.3.2.2.2.2.3.3.2.;.;.2.2.3.;.3.6.6.i.v.M.~.B C B C p.*XgXgXgXhXhXgXrXgXfXrXrXrXrXrXrXrXeXeX&X&XeXeXeXeXeXeX&X&X&X&X%X&X%X%X%X%XeXeXeX&X_._._.7X:X> ",
".X.X.X|.|.|.].].x.x.x.].=XtXhXkXtX.X]..X|.|.oX].a.u.}.gXgX#Xu.u.a.i.z.z.z.z.i.p.w.I k 2 > 2 3 3 h h l z z m M M B C =.=.=.C C C =.=.=.,.,.,.,.,.,.,.,.,.,.,.,.=.C C C C C C C A y.S N z z z m N m m m M M M M B B B B B B M M m m M M B C =.,.,.,.,.<.0.0.0.0.0.p.p.r.r.r.r.r.r.r.p.p.p.P.gXhXfX<Xx g x I U A 9.=.=.,.=.C N N x h g 3 > : + .                                     X # & , , , , , , , , 7 7 , , 7 , , , , $ @ @ $ $ @ , , , , , , , < 7 7 9 9 9 6 e e w w e < > W ~.#X#X}.}.}.}.}.}.}.].{.{.{.{.[.[.[.[.'.].].].[.[.'.'.'.'.].}.].].c.x.v.v.c.n.n.n.|.|.].'.x.a.a.s.s.s.s.5.;.&.m g 2 > q % . . + D ' Z.N.e.e.e.e.r.r.F.J.J.J.H.F.F.r.9.e.B.B.B.N.T U U N 9.&XgXhXyXyXwXOXOXtXhXhXkXU Z v Y I I T U I Z I Z Z x I I I I U U U U U Z Z ~.kXhXE.H.H.*X%X*XrXrX*XtX*X@X@X@X0X0X0X0XJ.J.F.B.N.N.N.T e.9.9.U I R ;XSX:X!._ N.N.N.Z.Z.Q.:X`.`.:X:X,X<X!.t.U U 9.8.8.8.>.U A Z Z A 9.8.w.0.A >.d.y.r.F.r.F.K.W : . o                                                                       o o o . 2 U G.].|..XXX+XoX{.}.'.a.u.u.,.C M N Z Z I T T E T Z.E W F c 9 9 9 D F I T r.K.G.G.p.p.p.G.'.'.'.'.{.{.{.{.{.[.G.p.w.9.>.>.>.A C V V B B B B B B B B M M m z l h g h h z B :.f.$Xv.;.;.;.2.2.2.3.3.4.4.4.3.3.3.3.3.4.4.3.3.2.3.6.6.2X2X$XM.<.V M M >.~.2XgXgXgXgXhXtXtXrXrXgXfXeX%X&XrXrXrXrXrXeX&X&X&X&X&X&X&XeX&X&X&X&X*X%X%X%X%XW._.%X%X%X_._._._.`.:X> ",
".X.X|.|.].c.x.x.{.oX=XhXkXkXkXkXhX@X]..X|.|.oX|.x.a.#X=X=X#Xa.a.a.i.z.x.z.i.u.p.r.U v g 3 3 3 3 g h h l l l z z m M B C C C B C C C V C C C C C C C V C C C C B M M M B C A S S m N N N N m z l N N N M M B B B V V V B B M M m m M M B C C ,.,.,.,.,.8.8.8.8.8.p.r.r.r.r.r.r.r.r.p.r.r.P.gXhXgX<Xx 3 x I U A 9.C A =.C N N x l g 3 2 : @ +                                       X # $ $ $ , , , , , , , , , , , , , $ $ $ @ @ $ $ $ , , , , , , , , 7 7 7 9 0 6 e w w w w : : W ~.#X}.}.}.}.}.}.}.].].].{.{.{.'.[.[.[.'.].].].'.[.[.'.'.'.].}.].x.x.z.z.z.v.c.z.c.c.c.x.a.u.q.p.p.s.s.u.<.*.M g > : 1 = .   . @ R !.N.N.N.e.N.e.r.r.F.J.J.J.F.F.B.w.U 9.r.F.B.e.e.t.Z m y.1XgXhXyXyXyXtXtXtXgXkXkXe.Z x T Y T _ T T U I Z W W I I I U U U U U U Z x L.kXkXOXH.B.L.E.%X%X%XOXrXtXtXtXtX0X@XOX[.F.H.H.B.C.C.N.U 9.9.e.t.W ~ ;XCX;X!._ _ T e.N.Z.Z.~.(.`.:X!.!.<XA.t.9.9.8.8.8.9.A A A C N A >.A 8.8.A >.d.y.r.p.w.F.L.E : . o o                                                                     o o o + 5 T G.'.|.XX.XoX}.x.i.5.:.=.,.>.A Z Z I T E Y Y H F v v v k b c c c H Y T e.e.w.q.p.r.p.G.[.{.OX@X@X{.{.{.'.a.a.p.p.s.y.w.,.C V V V =.&.&.*.-.*.&.&.V B M m z l l x l h l C =.7.#Xs.;.2.2.2.2.2.3.3.3.3.4.4.3.3.3.3.3.3.3.3.5.5.5.5.:.*.*.u.#X2XgXgXgXgX2XgXhXhXgXhXtXtXgXgXgXrXfXgXrXrXrXrXrXrXeXeXeXrXeX&X&XeXeXrXrXeX&X%X%X%X%X%XW.W.E.E.E.E._._._.`.:X> ",
"oX|.c.c.c.x.[.*XgXhXkXkXkXhXkXzXzX@X{..Xn. XoX|.].i.G.=X=X*Xu.u.a.i.i.a.i.u.p.G.P.F.9.N z m z g g 2 3 j k k k h h l z z z m N C C C C N M M M M B B B N S S S S W v x x n N z z z z z z m M M M M M M M M B B B B B B B B M M m M M B B C C =.,.,.,.,.8.0.0.0.0.r.r.r.r.r.r.w.w.r.r.r.r.F.*XgXgX`.I 3 x Z Z W Z A A A N N x x v h k v 3 : + .       o o o                         . # $ $ $ , 7 , , , , 8 8 8 8 $ $ $ @ + $ $ $ $ $ $ $ $ $ , , , , , 7 7 7 7 9 4 4 8 e - & , : W ~.#X}.x.x.'.'.'.'.'.'.'.].{.{.'.'.'.'.'.'.'.'.'.'.'.'.].c.c.c.x.z.6.5.5.i.i.i.s.s.i.u.u.p.s.p.s.s.s.s.s.s.=.l > + + O     + + c Z.D.e.e.B.B.e.r.r.B.F.H.J.H.F.H.B.A A r.F.B.B.e.U U A N 8.*XgXtXtXtX0X0X0XtXtXgXgXr.Z Z Z Z E T T T U I I Z I U U U U U U U U I U Z e.fXhXrXH.B.B.R._.E.Y.W.Y.OXOXOXOX[.J.J.J.L.).(.A.B.B.B.e.9.9.e.t.R @.sXCX>X!.' T N.N.B.B.A.L.(.(.~.Q.Q.Q.K.B.r.r.r.9.9.9.9.9.A C N A A >.8.w.9.A y.y.r.p.F.F.P.N.F . o *                                                                     o o   + j U G.'.|. XoX}.a.u.*.*.=.,.>.A U W I I F H H D D D D c c 5 j v v I T U U U A 9.w.r.F.J.*X=X=X=X*X}.#X}.'.a.a.u.u.<.<.:.=.&.&.&.*.-.:.:.3.3.3.3.;.-.*.&.V M m l h j 3 g h z C 1.f.#X7.-.2.;.2.2.-.3.2.3.7.3.2.2.2.2.;.-.-.5.a.}.}.}.G.G.}.*XgXhXhXhXhXhXgXgXgXhXhXgXgXgXgXgXrXrXrXeXrXrXrX&X&X&X&X&XeX&X&X%X%X%X%X%X&X&X&X&X%X%X_.E.E._._._._.E.E.E._.`.`.> ",
"x.c.|.|.oX=XgXkXzXkXhXgX*X&XlXzXkX{.{..X|.XX X|.|.x.'.=XtX=Xu.u.a.i.i.a.u.p.[.=X*X*Xs.A M M M m g 3 2 2 3 3 j k j h h h l l z m m m m m z N Z N Z S S N n n n n c c k h l h h h l l z z m M M M M M M M B B B B B B B B M M M m M B B B C C =.,.,.,.8.8.0.0.0.0.r.r.r.r.r.r.w.w.r.r.r.r.F.*XgXgX1XE g h x v W S N Z N N x x v v v v v c 4 @ .       o o o                         . # # $ $ , 7 , , , 8 8 8 8 8 $ $ $ + # # $ $ $ $ $ $ $ $ , , , , , 7 7 7 7 9 4 9 8 8 & # @ 2 t.~.#Xv.x.c.].'.'.'.'.'.'.'.'.'.'.'.'.a.a.a.a.a.x.x.x.x.c.x.x.x.i.6.5.5.5.u.i.u.s.s.s.s.s.y.y.r.p.s.s.s.f.f.1.l @ . . o     + : F A.F.r.r.F.r.r.r.r.F.F.J.J.J.H.H.B.U U B.L.B.A.t.U U A N 9.#XtX=X=X@X@X0X0X0XtXtXgXr.A U U Z U U I U U U U U U U U U U I I U U t.t.Z Z J.hXgX%XL.^.`.fX_.H.H.U.H.F.F.Y.Y.J.G.P.&X`.Q.A.L.).L.e.e.e.e.Z.} @.CXZX>X-X} E e.B.B.F.F.L.(.(.Q.Q.A.A.A.r.r.r.r.e.9.9.9.9.A A A A A >.8.8.>.A y.s.s.p.G.F.J.V.H +   o                                                 o o o           o o o o   + j U p.x.|.|.oXv.u.<.&.=.>.>.U U W W K K K P J D 0 0 < 4 5 c v Z U U A 9.8.0.r.p.K.P.*X*X=X*X*X*X}.}.a.i.u.<.<.:.:.:.-.-.-.:.:.:.5.5.5.3.3.4.4.4.3.2.*.&.V B m l h j j g h h z C f.M.M.3.2.;.-.-.*.-.;.;.;.2.3.3.2.-.:.q.p.G.#X*X2XgXgXgXgXhXhXhXhXhXhXhXgXgXgXgXgXgXfXgXrXrXrXrXeXeXrXrXrX&XeX&X&X&XrXeX&X%X%X%X_._.%X%X%X%X%X_._._._._._._._._._._._.`.`.> ",
"G.[.oX=XgXkXkXkXhXtXoX}.a.}.gXkXhX{.]..X XXX X X|.].'.=XgXtXp.u.a.i.i.i.u.p.}.gXgXgX*Xs.A M C S N l h g 3 3 g g g g g g g g g h h l h h l x x x x v Z x x h g j 3 3 g h h h h h z z z z m M M B M M M M B B B B B B B M M M M m M B B C C C =.,.>.,.8.8.0.0.w.w.r.r.r.r.r.r.w.w.r.r.r.r.r.*XgXgXfX!.g g k v W W N N z l h h k v W I F F c 9 @ .     o o o                           X # $ $ , , , 8 8 $ $ $ $ $ $ $ $ @ @ $ $ $ $ $ $ $ $ $ $ $ , , , , 7 8 7 7 < 0 8 & & # @ c Z.~.}.x.x.x.'.x.'.'.'.'.'.'.x.x.'.x.a.a.u.u.p.p.a.a.x.x.x.x.a.i.5.5.<.<.<.u.u.u.u.s.s.s.f.s.r.r.p.p.s.s.s.y.A l < % .       . 9 ' D.F.r.F.F.B.r.B.F.F.F.J.P.J.H.F.r.U e.H.L.F.B.e.U U A N 9.#XtXtXtXtXtXtXtXtXtXgXgXr.A A U I T T U U U I U U U U U U I I I U E U U Z l e.gXhXrX).(.fXgXeXU.U.%X%XH.J.rXtX*XOX*X~.A.e.e.L.&X).B.e.9.e.Z.} ;XCXCX>X-X} E Z.B.B.F.F.L.~.(.Q.Z.Z.N.r.e.e.r.r.r.9.9.9.9.>.A A A >.8.8.0.9.>.y.s.s.G.G.J.H.D.' + . o                                                 o o o o o         o o o   + 5 Z w.a.].|.].z.5.,.9.U U U I F F J K J J u e 4 < < : 2 j v I T e.r.w.w.s.K.P.~.#X*X*X*XP.G.p.p.u.<.:.:.*.*.*.*.*.*.:.:.3.5.5.6.i.i.6.6.5.5.7.7.3.3.-.*.V B M z l h h h h l m =.s.M.M.i.;.-.*.*.:.:.&.:.7.<.:.*.:.:.p.}.2XhXkXkXhXhXgXgXhXhXgXtXrXgXgXgXgXgXgXrXrXrXrXrXrXrXrXrXeXeXeXeXeXeXeX&XeXeXeXeX&X&X&X%X%X%X%X%X%X%X%X%X_._.%X_._._._._._._.).`.`.> ",
"%XtXgXhXkXkXhX=XOX'.c.c.x.}.gXkXhX{.]..X X X X X|.].'.=XgXgXG.a.x.x.i.i.u.u.G.#XgXkXgX1Xy.A C N S S S N l g g g g 3 3 3 3 3 3 g h g g 3 3 5 3 3 3 g k h g 3 2 2 2 3 g l z z m m z z z z m M B B M M M M B B B B B B B M M M M M B B B C C C =.,.>.,.8.8.0.w.w.w.r.r.r.r.r.r.w.w.r.w.r.r.r.*XgXgXlX!.h 3 g x W S x z l h g g k k K K W W K c < + .   o o                             X # $ $ $ , , , $ $ $ $ $ $ $ @ $ $ $ $ $ $ $ $ $ $ $ $ $ $ , , , , , 7 < 7 , 0 $ & & . @ I Q.P.'.x.x.x.'.a.a.a.x.'.x.x.a.a.a.a.u.u.q.q.q.w.p.p.a.a.s.s.s.s.u.<.<.<.<.<.,.,.0.0.w.y.y.y.r.r.r.p.p.r.y.U Z k 1 = .   . . + F Q.D.B.F.F.F.r.B.F.F.F.P.P.P.J.H.r.9.9.r.P.L.B.e.9.9.e.9.C 8.*XgXtXtXtXtXtXtXtXtXhXgX8.N Z U U e.E E U U I Z A I U U U I I I U E U T U z A *XhXgX1X`.fXfXeX_.&XrXgXrXrXkXhX*X9.Z Z U U e.A.D.B.r.e.U T E } ;XCXCX>X-X} E Z.B.B.B.K.L.L.Q.A.Z.e.t.e.9.9.9.9.9.9.9.9.9.9.>.A A >.w.w.w.8.8.y.s.p.p.G.[.F.H.S.@ +                                                   o               o o o o   + 4 Z ,.u.].].].a.u.8.T Y I F D D D J J u e 1 : : : : 3 v I E t.A.K.K.K.K.P.P.P.K.s.s.w.0.,.C =.=.:.&.&.*.*.*.:.:.:.:.5.6.6.6.6.i.i.i.i.6.5.5.7.5.5.5.-.*.&.V M m m z l l z z M V :.5.M.s.:.-.*.&.g.&.g.1.V m m =.G.*XgXgXhXhXkXkXhXgXgXgXgXgXgXrXrXrX&X&X&XrXrXrXrXrXrXrXrXeXeXeXeXeX&X&X&XeXeXeXeXrX&XeXrXrXeXrXrXrXeXeX&X&X%X%X%X%XeXeX%X%X_._._.).).`.`.> ",
"gXhXzXhXtX=XOXOX[.'.oXoXc.].gXkXhX{.]..X X X X X|.].'.OXgXhX}.'.x.x.z.i.i.u.q.q.*XgXkXgX#Xy.A M =.,.1.>.N z l h h 3 3 3 3 2 2 g g g 3 2 > < : : : > > 2 2 3 g g g h l z N N N N z z z m m M M M M M M M B B B B C C B M M M M M M B B C C A >.>.,.>.,.8.8.0.0.w.r.r.r.r.r.r.r.w.w.8.w.w.r.P.fXgXlX`.v 3 g k n x x l h g 3 3 3 3 j v W W W v j 4 + . o o     . .                     . # # $ $ $ , , $ $ $ $ @ @ @ @ $ $ $ $ @ @ $ $ $ $ $ $ $ $ $ $ , , , , , , $ 8 & # $ + > E ~.K.a.a.a.a.a.p.a.a.a.a.a.a.u.u.u.q.<.,.,.>.8.8.w.0.0.0.0.y.y.y.0.1.,.>.A A A 9.9.U U U U 9.w.w.w.w.w.9.A x h 3 8 - .   . . < ` Q.B.B.F.p.r.r.B.F.F.F.J.P.P.J.F.e.9.9.F.P.L.B.9.9.e.t.r.A 8.*XhXgXgXgXgXgXgXgXgXgXgX8.A Z U U U T U U U U U U U U U U U I U E t.t.U U Z Z L.gXkXkXlXkXlXgXgXgXfXE.B.B.L.*X#XK.r.U e.A.A.A.N.e.e.e.U U E } >XCXCX;X| E E e.r.r.B.B.L.L.D.A.e.t.t.e.e.9.A 9.9.9.9.9.9.9.9.>.A >.w.p.p.w.8.w.p.p.p.G.G.p.H.Q.> @ .                                                                 O o o o . + 5 v 9.p.'.].'.p.q.9.F G D D y y u u 8 , @ @ @ : > 3 W W t.d.K.K.s.s.p.s.p.u.0.,.C V V C M M &.<.<.<.:.:.:.:.5.7.7.7.7.6.j.z.i.6.6.6.i.i.5.5.5.5.5.5.:.-.&.V V B M m m m m z m m B &.,.<.=.1.g.1.g.S z l z A K.*XrXrXgXgXgXgXtXrXrXrXgXrXrXrXrXrXrXeX&X&X%X%X%XeXrXrXeX&XeXeXeXeX%XrX&X&X&XeXeXeXrXrXeXeXrXrXrXrXrXrXrXrXeX&X&X%X%X%X_.%XeXeXeX_._.E.).`.`.> ",
"hXhXtX@X{.'.[.[.{.{.oX|.x.oXhXkXtX{.].|.|. X XXX|.|.'.{.gXkX*X'.x.x.x.x.x.a.q.,.p.#X2XgX1X~.y.A V =.,.<.>.C N N x h 3 3 3 2 3 k j 3 2 > < , @ + : @ : > g v W E Z Z z z m M M m m m m m m M M M M M M M M B B B V C C B M M M M B B B C C A >.>.>.>.,.,.8.0.0.0.r.r.r.r.r.w.w.w.8.9.w.w.9.K.1XgXfX:XI 3 3 3 k k k g g 3 3 3 2 2 2 c F W W v c b : @ . .     . .                     . X # & $ $ $ $ $ $ @ @ @ @ @ @ @ $ $ $ @ @ $ $ $ $ $ $ @ @ $ $ , , , , , , @ 8 & # $ : j t.K.p.a.a.a.p.p.w.u.u.u.u.u.q.<.<.,.>.A A C A Z A Z Z N N N N Z Z N N N Z Z Z W W U U I Z Z A U 9.w.9.9.U x 3 2 : % = O   . @ D !.Q.B.r.F.r.r.F.F.J.F.J.H.F.F.F.r.e.9.r.E.).P.B.9.9.e.A.r.9.8.#XgXgXgXgXgXgXgXgXgXkXgXp.8.A 9.U U U I I I U U U U U U U U U U U t.A A U A Z 9.L.&XfXfXfXfXfXfX1XL.B.U N z A r.~.~.A.A.Z.t.e.e.e.e.e.T T ' !.;XCXCX;X| E E e.e.r.r.B.A.A.A.t.e.e.e.e.e.9.A A 9.9.9.9.9.9.9.A C A 0.p.G.r.8.w.p.w.u.a.G.p.F.(.j : .                                                               . .       . + 4 v e.F.G.G.p.0.A I D i i i i 8 $ + + + @ : 2 j n W t.y.y.y.y.w.w.q.,.<.<.<.=.V B B V V V V :.s.s.s.5.5.5.5.5.7.7.i.6.6.j.z.z.z.i.i.i.i.5.5.5.u.5.5.:.:.*.&.V V B M M M m z z M ,.y.C A A d.d.S z h l z U ~.&XrXtXrXrXrXgXrXrX%X%X%XrXeX%X%XrXrXrX%XrXrXrXrXrXeXrXrX%X%X%X%XeXeXrXrX&X&X&XeXeXeXrXrXrXrXeX&X%X%X%X%XeXeX&X%X%X%X_._.E._._.eXeX%X_._._.`.:X> ",
"tX@X].x.].].{.[.{.].|.c.x.@XhXhX=X]..X|.|. X X X X|.].{.=XhX=X[.x.x.x.x.x.a.u.<.,.q.P.1XgXfX).r.=.=.=.,.,.8.y.y.W x h h j 3 g n k g 6 1 w q # . @ @ > k E !.~.`.d.W N m M C B m m m m m M M M M M M M M B B B C C C C B B B M B B B B C C A >.>.>.>.>.8.8.8.8.0.r.r.r.r.w.w.8.9.8.8.8.9.9.r.&XgXlXfXE 3 2 2 5 5 g 3 3 3 3 3 2 > 2 3 c v Z v v k > 1 % . . . . .                       X # $ $ $ $ @ @ @ @ @ + + @ @ @ $ $ $ @ @ $ $ $ $ $ $ @ @ $ $ $ $ $ $ , $ + & & @ @ 2 Z t.r.p.u.u.u.w.w.0.w.q.<.,.,.C C B N N N z x x x x g 3 3 3 3 3 g g g g g g g c K R R I I I Z Z A A 9.9.9.W v 2 : @ . o O . . < R Q.D.B.F.F.r.r.F.F.J.J.J.J.F.F.r.r.9.9.F.*X).K.r.9.9.9.r.r.8.8.p.G.*X*X*X*X*X2X2X2X2X1Xr.8.9.e.e.e.U U U U U U U U U U U U U U U U U t.9.U A N z Z 9.U e.e.U U U Z N z z N Z U A A U Z Z Z I I I Z e.T t.Z.!.-X>X>X;X!.E t.t.r.e.e.B.B.B.e.e.U e.e.e.e.9.9.9.9.r.9.9.8.9.9.A M C ,.p.p.w.8.r.p.r.p.G.G.G.F.(.F : +                                                     . . . . . + . . . . + , 0 F E e.r.e.U Z v c u p p - % . . + @ : 2 k v U 9.y.y.w.0.<.<.<.<.<.=.:.:.:.=.&.&.&.&.&.&.&.:.7.s.s.i.u.5.5.5.i.i.i.6.6.6.6.z.z.z.z.i.i.6.6.i.5.5.5.5.:.*.&.&.V B M M M m z z S d.!.t.Z W W x 2 2 3 Z !.fXlXfXrX9X9XrXrXrXrX%XrXrXtXrXrXrXrXrXgXgXrXrXrXrXrXrXrXeXrX%XeX%X%X%X%XrXrX&X&X&X&X&XeXrXrXrXrXrX&X&X%X%X%X&X&X%X%X%X%X%X%X_._._._._._._._._.`.:X> ",
"{.].c.|.|.|.].{.{.{..X].'.tXzXhX[.].oX.X|. X X XXX|.]..X=XhX=X[.a.x.x.x.i.u.u.u.V ,.w.#XgXgXgX*Xq.<.,.,.,.y.f.f.t.Z z x l g k n n n r e w q + . + @ j ~ <X1X1X1X~.y.B M C ,.A B M m m m M M M M M M M M B B B B C C C B B B B B B B C C C A >.>.>.>.>.>.8.8.8.0.r.r.r.r.r.w.8.9.8.9.w.9.U r.*XgXlXjX' j > > 2 6 2 2 2 2 3 3 2 > 2 2 3 k v v x 3 2 1 @ # . . .                         . # & $ # @ @ @ @ @ + + + @ @ @ $ $ $ @ @ $ $ $ $ @ $ @ @ $ $ $ $ $ $ , $ + % , , : j U y.r.u.u.u.u.0.9.9.y.8.>.A N z z l l l h k k 3 3 2 : : : : : : : : : : : : > 4 b K R R R W W I Z Z U W t.E v > + +     . . + 9 ' (.C.B.F.F.r.r.F.F.J.J.F.F.F.r.r.w.9.U F.*X~.r.r.9.9.A 9.r.8.>.>.C B B B M M M B B m A M 9.9.A.e.e.e.T U U U Z Z Z U U U U U U U U U t.U Z U U Z Z Z z N Z l h z z Z N Z Z A A A U U U U E T U U U U U t.Z.!.-X-X@.;X!.} Z.A.r.e.e.B.B.B.e.U U U 9.9.e.r.w.r.r.y.9.9.8.9.8.A M B >.p.p.w.8.r.p.r.p.G.G.[.F.`.Y : +                                                 . . . + + + + $ , , , 7 0 y L ` R Y Y I v c c 6 w = % . . . @ > 2 g x A 9.w.r.p.u.q.<.:.:.:.<.<.*.*.*.*.&.&.&.*.*.*.&.&.:.7.s.M.s.i.5.5.5.i.i.i.i.6.6.6.z.z.z.z.i.i.6.i.i.6.5.5.5.:.*.&.&.V B M m z x x h x n K b : : > : > j !.:XfXfXfXeXrXrXtXrXrXrXrXtXtXrX%XrXrXrXrXrXrXrXrX%XrXrXrXrXrX&X&XeXeX%X%X%XrXrXrX&X&X&X&X&XeXeXrXrXrXrXrXrXrXrXrX&X&X&X&X&XeXeXrXeXeX_.).E.E.E.).).`.:X> ",
"].|. X|.n.XX@X{.]..X.X{.@XhXhXtX[.].|..X X X X X X|.|.].@XtXhX[.a.x.a.i.i.i.a.s.P.#X2XgXgXgXgXgX#Xp.,.,.0.w.s.f.A N m m m z l l x v 3 > : @ + @ : 2 n <XfX1X&X~.f.1.C C =.<.,.M m m m m M M B B B M M M M B B B C C C C C B B C C C C A A =.=.A A >.>.,.8.8.8.0.r.r.r.w.w.8.9.9.9.9.9.9.A e.*XgXlXjX!.5 : > > 6 2 2 2 2 2 2 > > > 2 3 g k x k 3 3 > @ + . . X X . .                 . X # # # # + + @ + @ + @ + @ + @ + @ + @ + + + # # # + + + $ $ $ $ $ $ , $ = # + : 3 v U 9.,.<.<.<.,.>.A A Z Z Z x x l h k k k 3 > > > : @ + . + . + + @ + + + + + + + , 7 0 c c c c n v v W W W n 5 : + . O     + @ ' Q.D.H.F.B.r.r.F.F.P.F.F.B.F.F.B.r.9.A 9.K.P.F.r.w.9.U 9.9.w.w.w.w.r.C C C C B B M M >.A A 9.9.e.e.e.U T U U U U U T U U I Z Z U U U U U U U U U U U U U U U U U U U U U U U U U U U U U U U T T T T T T e.Z.!.!.@.@.-X!.!.t.e.e.e.B.r.A.A.e.T U 9.9.9.r.r.9.9.r.r.r.9.9.,.>.>.>.C C w.r.8.r.K.K.r.r.G.G.J.F.(.Q.5 @                                 O X X X X . # $ & & 8 8 8 8 , , 9 0 D J L L L L R H F D 0 9 , 1 % . + + @ @ 2 v Z t.y.w.s.}.a.i.<.:.:.:.5.u.i.a.u.5.<.:.-.-.-.-.&.*.*.*.*.:.s.M.v.s.i.i.i.i.i.i.6.6.6.i.6.6.z.v.v.z.6.6.6.6.6.3.:.:.*.&.=.=.S S S n n k 6 > : @ + @ @ + @ H /.pXfXeXeXrXrXrXrXtXrXrXrXrXrXrX%XOX%XrXrXrXtXrX%X%X%X%X%X%X%X%X%X%X%X%X%X%X%X%X%X%X%X%XeXrXrXeX%X%X&XrXrXrXeX&X&XrXrXrXrXrXrXeX&X&XeXeX%X_._._._._._.`.`.> ",
"|.|.|.n. X=XtX=X{.{.]..X=XhXhX%X{.|.|.XX XXX X X X|.|.].@XtXhXOXa.x.'.'.x.'.}.#X2XgXgX*X#X#X&XgX2X#Xr.8.,.,.,.,.C B M M M M m m N x g > : @ @ : 3 v W ~.1X*X#XK.y.>.C C ,.q.0.C M m m m M M B B M M M M M B B B B C C C B B B C C C C A A =.A A A >.>.>.,.8.8.8.w.r.w.8.9.9.9.9.9.9.9.9.U e.).gXlXfXQ.j : : > 1 > 2 2 2 2 2 > > > 2 2 3 k x k 3 2 > @ + . X X X X . .                 . . # # # + + + + # # # # # # # # + + + + + + # # # # # + @ @ @ @ @ @ @ @ % @ @ > g x S >.>.>.>.>.A U S Z v v k g 3 3 2 2 4 1 6 6 : @ @ + . o     % % . . . . + . . . . + , < < < < > 2 2 3 j j 6 > @ % = O   . + : Q.L.B.F.F.F.B.B.B.F.F.F.F.F.F.F.r.r.9.r.F.P.*XK.r.r.w.w.e.r.r.r.w.w.w.>.,.,.,.>.>.>.8.0.8.8.w.e.e.e.9.U U U U U U U U U U U I I U U U 9.U U U U U U U U U U U U U U U U U U U U U U U U U U U T T T U T T e.t.Z.!.-X-X!.!.Z.t.e.e.r.B.B.A.A.e.e.U 9.9.9.r.r.w.9.9.r.9.9.>.>.A A 8.,.A 0.w.8.e.K.K.F.F.F.G.G.p.~.Q.v @                                 O X . . . + & 8 8 8 , , , 7 7 0 D F H L L G G D L J 0 7 @ + . + @ @ : 3 j x Z W y.K.P.v.}.M.z.6.3.2.:.5.5.i.a.x.i.u.5.:.:.:.-.-.*.-.-.*.*.:.u.v.v.a.i.i.i.i.i.i.i.i.i.z.z.z.z.v.v.j.6.3.3.2.-.*.*.=.,.,.1.S S S k 6 > @ + + . . # . . $ G /.7XfXeXrXrXrXrXtXgXtXtXrXrXrXrXrXrX%X%XrXrXrXrX*X%X*X%X%X%X%X%X%X%X%X%X%X%X%X_.%X%X%X%X%X&X&X&X&X%X%X&X&XeXeX&X%X%X%X%X%X&X&X&X&XeXeXeXeX%X_._._._._._.`.:X> ",
"{.].].].oXgXkXhXoX].].|.=XtXtXOX].|..X.XXXXX X X X|.|.].@XtXkXtX[.a.a.'.}.=XgX2XgX2X*XG.q.w.P.*X*XP.r.0.0.,.=.=.=.V B V V V V C B Z h 2 > > 2 k v E y.~.~.P.P.s.y.=.V C ,.u.q.=.M m m m m M M B B M M M B B B B B C C B M B B B C C C A A A >.>.A >.>.>.>.8.8.9.r.w.w.9.9.9.9.9.9.9.9.U U 9.~.fXgXfX^.v > : : > > > > 2 2 > > > > 2 2 3 g k j 2 > : @ + # X X . # . .                   . . # # # # # # # # # # # # # # # # # # # # # # # + # # + + + + + @ @ @ @ @ : 6 k x N Z A N N N Z Z n k 3 > > > : : @ @ + @ w e w + + + o o o   O     .                 . + + . + + + @ @ : : : : % = =   O . @ c (.L.F.F.F.F.F.F.F.B.r.r.F.F.F.F.r.r.r.r.F.P.P.P.K.K.K.r.B.B.r.r.w.8.8.w.w.0.8.8.8.8.8.8.8.8.9.e.e.e.e.e.U U U U U U U U U U U U U U U 9.U 9.9.U U U U U U U U 9.9.U U U U U U U U U U U U U U U T U U U U e.e.Z.!.!.-X!.!.Z.e.e.e.e.r.r.B.A.e.9.9.9.9.9.w.9.8.9.8.w.8.8.8.0.8.>.w.w.B 0.w.8.r.K.L.F.F.p.p.G.p.A.~.W : .                         X X X X + + + + + $ 8 8 7 , , 7 0 J J F H Y R H F D 0 0 7 , + + + + @ 3 g x Z W 9.y.s.u.s.v.i.v.j.4.3.3.2.2.5.i.x.x.}.a.i.5.<.:.-.-.-.-.:.-.*.*.-.5.i.i.i.i.i.i.i.i.i.a.i.i.z.v.z.i.z.6.3.;.-.-.-.:.:.<.8.9.9.A x h 3 : @ + . .     .   . # G /.pX7XrXrXrXrXrXgXgXgXgXtXtXrXrXrXrXrXrXrXrXrX*XrX*X*X*XrXrX%X%X%X%X%X%X%X%X%X%X%X%X%X%X%X&X&X%X&X&X&X%XeX&X&X&X&X&X%X%X%X%X%X%X%X&XeXeXeX&X%X_._._._._._.`.:X> ",
"{.].].c..XgXkXkXOX{.|.|.|..X@X.X|. X X.XXXXXXX X X X Xc.{.@XhXtXOXp.a.}.=XgXhX=X}.}.a.q.<.q.q.u.p.w.0.w.p.q.<.,.,.=.=.=.=.=.=.,.>.>.N h h h v E t.~.s.K.K.P.#XP.<.V V =.<.u.u.=.M m m m m M M M B B M M B B B B C C C B B B B C C C C A >.>.>.>.A A A >.>.,.8.9.9.9.8.9.9.9.9.9.9.9.9.U U U A.1XgXfX`.Y 2 @ : : : > > > > > > > > > 2 2 3 j 5 > : @ # % % # X . # + . .                   . # % + + + + + + + + + + + + + + + + + + + + + + + + + + + + + @ @ @ @ $ 1 6 n n x x x l h h g 3 3 > @ + + + + . . + . . q s e @ + .   * o         d d -             . . . .   . . . + + + @ % = = =   . + > T ).J.F.F.B.B.B.B.F.B.B.r.F.F.F.r.r.r.F.r.r.F.K.p.p.K.K.P.P.P.K.F.p.p.r.p.p.w.w.0.0.w.w.w.9.w.r.r.r.r.r.e.9.U U U T U U U U U U U U U 9.U U 9.U U U U U U U U U U 9.U U U U U U U U 9.9.U U U U U T U U U U U e.t.!.!.!.!.!.Z.e.e.e.e.e.e.B.A.e.9.9.9.9.9.9.9.w.8.9.8.8.0.8.y.y.w.K.s.M 0.w.w.r.F.F.F.F.p.p.G.p.r.~.Z.2 .                         X X   . + # + + + + + , 7 9 y D J L L F F F F D c 5 4 @ @ @ @ : > r c Z A 9.9.0.0.<.5.:.3.3.2.3.4.4.3.3.3.3.6.i.x.x.'.i.i.u.5.:.-.;.;.;.:.-.*.*.*.:.5.i.i.i.i.i.z.z.i.v.i.i.6.6.5.3.;.-.:.:.:.:.1.g.y.9.U Z x 3 > : @ + . . % .       . 8 ( ;XpXfXrXrXrXrXrXtXgXhXgXfXtXrXrXrXrXrXrXrXrXrXrX%X*X*X%X%XrXrX%X%X%X%X%X%X%X%X%X%XeXrXeXeXrXeXeX&X&XeXeXrXrXrX&XeXrXeXeX&XeXeX&X&X&X&X&X&X%X%X_._._._._._._.eX:X> ",
"[.{.].x.'.=XkXkXOX].|. Xn.n.|.XX X XXX.X.XXXXX X X XXXc.x.[.hXhX*XOX=XgXgXgXgX}.a.a.a.a.a.u.u.u.q.q.q.p.p.u.<.<.<.<.<.<.<.,.,.<.y.y.9.A A U e.~.~.~.p.p.s.P.*XP.w.=.=.,.u.a.p.,.m m m m m m M M B B M M M B B C A A C C C B C C C C C A A A A A A A A A >.>.9.9.e.e.9.9.9.9.9.9.9.9.9.U U U A.&XgXgXpX' 9 : : : : > > > > > > > 1 > > > 2 5 4 : @ + X X X X X . # # . . .                   . # . . . . . . . . X X . . . . . . . . + + + + + + + + + + @ @ @ @ $ $ 8 e b k k k j j c 4 > @ @ @ .             . . . $ u u 9 @ .   o     O   % +.@.{ p & #       . .     o o     . . . + $ = = O     + c (.E.F.J.F.B.r.B.B.F.F.F.F.F.F.F.r.r.F.P.F.p.F.p.w.w.r.w.9.9.w.r.r.r.w.0.p.p.r.r.y.s.f.K.K.K.s.r.r.r.r.r.e.U U U U T U U U U U U U U 9.9.U U U U U U U I U U U U U U U U U U U U 9.9.9.9.9.9.U U U U U U U U U 9.e.t.!.!.!.Z.N.e.e.e.9.9.e.A.A.e.9.9.w.9.9.9.w.w.r.w.8.w.8.>.0.0.8.s.s.B ,.0.q.r.F.F.F.G.G.G.'.a.w.P.K.j +                       X X X   . + + + . + @ $ 9 0 D K L L L K K D c 5 2 > > : : > 2 j n n W W >.<.<.<.:.:.:.-.;.2.3.3.2.3.4.4.3.3.3.5.6.i.a.x.i.i.u.5.:.-.;.;.-.;.-.-.*.*.:.:.a.a.a.i.i.i.i.i.v.i.5.3.3.3.;.*.:.<.g.g.1.S N x k j 2 : @ + + . .   . + . . . @ 0 | pXfXfXfXfXyXyXrXrXtXgXhXgXrXrXrXrXrXrXrXrXrXtXrXrXrX%XrXrX%X%X%X%X%X%X%X%X%X%X%XrX%XeXeXeXrXrX&X&X%X&X&XeXrXrXeX&X&XeXrX&X%XeXeXeX&X&X%X%X%X%X%X_._._._._._._.eX:X> ",
"'.]..X'.a.OXhXkXOX'.|. X X X X.XXXXXXXXX.X.XXXXX X XXX|.x.[.hXhXgXgXkXkXgX=XOX'.a.'.'.x.a.i.a.x.a.p.u.a.i.u.u.u.u.u.u.u.q.<.<.0.s.s.y.8.r.r.K.#X#XP.u.p.G.}.*X#Xs.<.<.u.a.'.G.w.m m z z m m M M B B M M M M B B A A C C C C C C C C A A A A A A A A C A A >.9.9.w.9.9.9.9.9.U U 9.9.U U 9.U e.&XfXfXfX!.c : @ @ : : > > > > > > 1 1 > > 2 4 < @ + .   X O X . . + + . . O X o o             . . . . . . . . . . . . . . . . . . . . . . + + + + + # + + @ @ @ @ # $ , 1 6 6 6 6 6 e e e @ + + %                 . . + 8 J J < +   o     X     w s u s p &     . . .   o o o o       . . + # % .     @ R &XJ.G.J.F.B.r.e.B.H.L.H.F.F.F.F.r.B.F.P.F.r.p.p.r.r.p.w.9.w.r.F.F.K.K.K.p.r.r.w.r.r.y.y.r.r.r.w.8.9.e.e.r.e.9.e.e.e.e.T U U U U U U U U U U U U U U U U U U U U U U U U e.e.9.9.9.9.9.9.9.9.U U U U U U U U U 9.e.t.t.t.Z.Z.e.e.e.e.e.9.e.B.A.e.9.9.w.8.9.w.w.r.w.w.0.r.r.8.9.A C 0.w.C =.<.u.p.J.J.[.[.{.{.{.'.a.P.P.v +                               . . . . . $ 7 y J G G F G D D D 0 6 4 > > > 2 2 j k n S S S S ,.&.*.*.*.-.;.;.;.2.3.6.6.4.4.4.4.3.3.3.3.5.i.i.a.a.a.a.i.5.:.;.;.-.-.-.-.*.*.*.:.s.s.s.a.i.5.5.5.3.2.;.;.5.i.i.7.<.y.y.S x g 2 2 : @ + + .             . . + , D !.:XfXfXeXfXgXrXgXtXtXtXgXgXfXrXrXrXrXrXtXtXgXgXgXrXrXrX&XrXrXrX%X%X%X%X%X%X%X%X%X%X%X%X%X%X%X%X%X%X%X%X%X%X%X%X&X%X%X%X%X%X%X%X%X%X%X%X%X%X%X%X%X_._._._._._._._.`.:X> ",
"].].|.].x.{.gXkX*X{.]. X XXXXX|.XXXXXXXX.X.XXX XXX X X|.].OXhXhXzXkXhXtX*X[.{.{.'.'.'.x.a.a.v.}.a.a.i.i.i.i.i.s.u.u.u.u.q.<.0.w.p.s.w.w.r.p.p.G.G.a.q.a.G.P.#XP.s.<.<.u.a.}.}.r.m m z z z m m M B B B M M M B B C C C C C C C C A A A A A A A A A C C C A >.9.9.9.9.9.U A A A A A U A A U A 9.).fXfXfX/.c @ @ : : : > > > > > > 1 1 > > > 4 < + .       X O . . + + . X X O O O o                                               . . . . . . . . + + + + + + + + X # $ @ @ : 1 1 1 w w - .   . O                   . + , y L c : + o     . . . . . . $ e w + . .         o o           . . + + .     9 Z.fXJ.[.J.G.F.B.B.B.L.L.H.F.F.F.F.F.F.J.P.F.r.r.F.p.F.F.p.r.r.r.F.F.F.F.p.r.r.r.w.0.8.9.>.9.9.9.9.9.9.9.e.B.r.e.e.e.e.T T U U U U U U U 9.9.9.U U U U U T T U T U T T T e.e.e.e.e.e.U 9.9.9.9.9.U T T T T U U 9.e.e.t.t.t.E T T e.e.r.r.e.e.r.t.e.9.9.w.8.9.9.w.r.r.8.8.r.p.r.8.>.>.w.r.0.<.a.'.[.OXOXOX@X@X@X@XoX{.OX*Xe.+                               . + + $ 7 0 y P P G G D c 0 9 4 : @ : : 2 j k v n S W S C V *.-.*.;.;.:.3.6.6.3.2.3.6.j.4.3.3.3.3.3.3.2.3.5.i.a.a.x.x.a.i.3.;.;.-.;.:.-.*.*.*.*.u.s.s.i.5.;.;.2.;.3.3.5.6.s.s.y.=.N l 3 : @ @ @ . . O O o o     O   . $ < 0 R !.`.eXeXrXrXrXfXrXgXgXtXtXrXrXrXrXrXrXrXrXrXgXgXgXgXrXeXeXeXrXrXeX%X%X%X%X%XeXeXeX%X%X%X%X%X_._._.%X_._._._._.%X%X%X%X%X%X%X%X%X%X_._._._.%X%X%X%X%X_._._._._._._._.`.:X> ",
"|.n.|.|.'.}.gXkXtX@X.X|.|.|..X|.XXXXXX.X.X.XXX XXX|.|.|.oX=XkXkXkXhX=XOXOX{.{..X].].].].}.}.v.z.z.i.i.i.i.5.5.5.i.u.u.u.q.<.q.u.q.u.q.q.p.p.w.p.u.u.<.a.G.a.P.K.u.<.<.u.a.}.}.u.m m z z z m m M B B B B B B B C M B C B C C C C C A A A A A A A A C C C A A 9.9.9.9.U A A A A Z N Z z Z Z Z Z ~.fXfXlX:XD @ @ @ : : > > > > > > 1 1 > : > 7 , + X         O . . + + . X X X O O     X X                                           . . . . . . . . . . . . + + . . . . . . + + % % % & X                           . + @ 0 L F 4 . . + . . + e J < + + 9 J 0 + . .       o o           . . . . .   + D Q.fXJ.OXG.J.F.B.B.H.L.H.F.F.F.H.H.H.J.P.J.F.p.p.F.p.p.p.r.F.F.F.F.F.p.r.0.w.r.r.r.r.w.w.9.r.r.r.w.9.9.9.e.e.e.9.U Z Z Z Z A A U U 9.9.e.e.e.e.9.U U T T T T T T T T e.e.e.e.e.e.e.e.9.9.9.9.9.U U T T T T U e.e.e.e.e.e.T T T T e.r.B.r.r.e.r.r.e.9.9.9.8.9.8.w.r.r.9.9.w.0.w.w.p.G.}.}.}.a.}.=X=XtXtX=X=X=XtX=X=X=X=X=XP.> + .                             # 8 u J P G D y D D D 0 4 > > : : > 2 g x x x N S S C V &.-.;.3.7.7.7.7.v.j.6.3.3.6.j.3.3.4.4.3.3.2.2.2.5.i.x.'.}.}.}.i.5.;.;.;.:.:.:.*.*.&.&.:.5.s.u.<.-.:.<.7.f.f.s.7.<.C m h g 2 > @ + . . + + . .         # $ 7 D H E /.fXfXrXrXgXgXgXgXgXgXgXfXrXrXrXrXrXrXeXeXrXrXrXrXrXrX%X%XeX%XrXrX&XrXrXrXrXrXeXeXeXeXeXeX%X%X%X%X%X%X%X%X_._._.%X%X%X&X&X%X%X%X%X&X%X%X%X%X%X%X%X%X%X_._.).).).)._._.`.:X> ",
" X X|.].'.[.tXkXtX{.].|. X.X.X.X.XXXXXXXXXXXXXXX X X|.@XgXzXzXhX=X@X.X.X.X.X.X|. X|.|.|.|.oX.X|.|.c.x.x.x.x.x.z.x.z.i.i.u.u.u.5.<.<.<.<.<.q.q.q.u.q.q.p.p.p.p.s.q.<.u.x.].}.'.u.M m m x z z m M M B B B B B V C C C C C C C C A A A A A A A C C B C A C C A A U 9.9.>.A C Z N N h x h h x h x !.1XkXlX:XR @ + @ , : > > > > > > > > > > 1 , @ +           . . . . . + . . X X X X X O O O O O X                                                 . . . . . . .                                                       . . : L E F @ + . = + 8 | ;X} c : > R L , + .         o o           X .     . @ K ^.fXrXOXH.J.H.F.B.H.H.F.F.P.H.F.F.J.J.G.F.p.F.F.p.p.F.p.p.r.r.r.r.r.r.r.r.r.r.r.r.r.r.r.r.r.K.K.r.w.w.e.9.e.e.e.U U U A A U U U U 9.9.9.e.9.9.e.e.e.e.e.e.e.e.U U e.e.e.9.e.e.e.e.e.9.9.9.U U U U T T T T T T e.e.e.T T T e.e.9.e.r.B.r.r.r.r.r.w.9.9.8.w.0.0.w.e.e.r.r.w.q.u.x.$X=X=X=X=XtXtX=XgX=X=X=X=X=X=X=X=X$X=X=X2X<Xx : + .     o o o   . . + @ $ i i i J G D D c 0 0 0 4 : : > 2 3 6 k x x N N M M B V &.&.-.:.:.u.a.v.6.5.i.v.z.2.3.j.j.4.4.4.4.3.3.3.3.2.3.i.}.x.}.}.}.x.i.5.-.;.;.-.-.-.*.*.*.&.=.:.<.s.s.s.f.d.d.S m z h h g 3 2 : @ + . . . + @ : : < 4 0 0 L L H F Y Q.`.fXfXfXfXgXgXgXgXgXfXgXgXrXrXrXrXeXrX%X%X%XrXrXrXrXrXrXrXrXrX&X&X&XeXrX%X%X%XeXrXrXrXrX&X%X%X%X%X%X%X%X%X%X%XE.E.E.%X%X%X_.%X_.%X%X%X%X%X%X%X%X_.)._._._._.&X&X_._.`.`.:X> ",
"m. X|.].'.[.tXkXtX{.].|. X.X.X.X.X.X.XXXXXXXXXXX.X.X|..X=XtXtX=X.X.X.X.X.XXXXXXXXXXXXXXXXXXX X X.X.X|.].].].].c.x.x.z.i.x.x.a.a.i.a.a.a.a.p.p.p.u.q.q.p.a.a.a.a.u.u.i.x.].{.}.p.M m z z z z m M M M B B B B C V C V C B B N C C A A A A A A C C B C A C Z Z A U 9.>.A A N N x x g k g 3 h g k d.1XlXlX:X} : + + @ : : : > > > > > > > 1 1 % # .         . . . . + + + + + + . . . X . . . . . .                                                     .                                                                 . @ F ' Y 9 @ + % + < ` /.!.F > 2 R !.H @ .                 . . .         + > j v U B.OXrXJ.J.F.F.F.H.F.F.r.r.r.F.F.J.F.p.F.G.p.p.r.p.p.r.r.r.r.r.r.r.w.w.r.r.r.w.w.w.w.w.r.r.F.r.r.r.r.r.y.y.y.y.9.9.9.9.9.8.8.9.9.9.e.e.9.e.e.e.e.e.e.e.e.e.9.9.9.e.e.e.9.9.9.e.e.e.w.9.9.9.e.e.e.e.e.e.e.B.B.A.A.B.B.B.F.r.r.r.F.F.F.r.w.r.r.w.8.8.8.r.w.w.e.e.e.e.r.w.<.i.].$X=X=X=XtXtXtX=X=X=X=X$X$X$XoXoXoX$X$X$X2X2X~.W > .   ;   o     . + , 0 y i y y D D c c c 5 0 5 4 > > 2 3 g h l z m m M B V V &.*.*.-.:.:.u.a.x.i.5.i.z.z.3.3.j.j.4.4.4.4.4.4.3.3.2.2.6.v.'.}.$X}.x.i.:.*.-.-.-.:.:.1.7.g.=.=.,.,.,.,.,.=.z h g 3 3 3 3 3 > : @ + . . X + < 2 5 5 c K K W W I I Y N.(.eXfXfXfXfXfXfXfXfXfXfXfXfXrXrXrXrXeXrX&X%X%X%XeXrXrXrXrXrXrX&X&X*X%XeXrXrXrXeXrXrXrXrXrXrXeX&X&X&X&XE.%X%X%X%X%XE.E.%X%X%X%X)._.%X%X%X%X%X%X%X_._._._.).).)._._._.).`.`.:X: ",
"m. X|.].'.[.tXkXtX@X].|.|. X.X|..X.X.XXXXXXXXXXXXX.X|.]..X@X@X].].|..XXX.X.X XXXXXXXXXXXXXXX.X.X+X+XXX.X.X.X|.].].|.].x.'.}.'.'.'.'.'.'.'.}.G.a.w.q.p.a.G.a.a.a.a.i.x.].].oX}.s.m z z z z z m M M M M B B C C C C C B N M N N C A A A A C C C C M C C C Z Z A U A A A Z N x x h g k 3 2 3 2 3 W `.gXlX:X| 4 @ @ @ @ : : : : : : > > 1 : @ + + . .   . . . . . . + + + + + + . . . . . . . . . .                                                                                                                       . + c ' } L 8 + + + : D !./.!.j > K ;X| 7 .           . # 8 u 8 $ +     . @ k v x N >.r.}.*X[.G.F.F.F.F.K.r.r.r.F.F.F.p.p.p.p.p.w.w.w.w.w.p.r.r.r.w.w.w.w.8.0.0.0.0.0.8.8.8.0.w.8.8.w.r.w.r.r.r.r.w.9.w.9.0.0.w.w.w.w.w.r.r.r.r.r.e.e.e.9.9.9.9.9.9.e.9.9.9.9.e.r.r.e.9.9.8.8.w.w.r.r.r.r.w.r.r.r.r.r.r.B.F.F.B.B.F.F.B.r.r.r.r.r.r.r.r.B.p.p.r.A.A.A.A.p.u.x.$X=X=X=X=X=X=X=X=X=X$X$XoXoXoXoXoXoX XoX$X$X2X2X<XZ @ . X       # 8 8 y J P G G D c v v v v v v c j 3 3 5 k k x l z m m M B V &.*.-.:.:.:.:.5.i.v.i.6.6.6.6.3.2.4.j.4.3.4.4.4.3.3.3.2.2.5.i.v.}.$X}.x.u.<.:.:.:.-.:.<.1.g.y.V C V C B M M m l g g 3 3 3 3 2 > : : @ @ % & 8 J D K K K K K W K F I _ ^.7XfXfXfXeXeXeXrXfXrXrXrXfXrXrXrXrXrXeXrX&X%X%X%X%XeXrXrXrXrXrX*X*X*X%XeXrXrXrXrXrXrXrXrXrXrXeX&X&X&X&XE.%X%X%X%X%X%X%X%X%X%X_.).).).)._._._._._._._._._._.).)._._._._.`.`.`.: ",
"m. X|.].'.OXtXhXtX@X].|.|.|..X|..X.X.XXXXXXXXXXXXX X.X|.{..X{.]..X.X.X.X|.|.|. X XXXXXXXXXXXXXXXXX+X+X+XXX.X.X.XoX=XoXx.].].'.'.'.'.'.'.}.}.'.a.q.u.p.G.G.a.a.a.a.x.].|.|.oX}.s.z z l l z z m M M M M M M B C C C C B C N N C C A A A A C C C C M N C N N Z Z U U A Z Z x h g g 3 3 2 > 2 > 2 v ~.gXlXpX!.c @ + @ @ @ : : : : : 1 1 : : @ + . . .   . . . . . + + + + + . . . . . . . . .       . .   X . . O O                                                                                                 o     . + < R | @.! @ + : : 5 R ^.`.T > 5 ;X;XP #         . 8 J L { L 0 $ .   . @ n x g z B C w.#X}.P.P.P.P.P.P.K.A.K.K.P.P.F.F.p.p.p.p.p.w.w.0.w.w.w.w.w.w.r.p.0.w.w.w.w.w.0.0.8.0.0.8.,.,.8.8.w.w.0.0.8.8.8.8.0.0.w.w.w.r.r.r.r.r.r.r.r.r.r.e.e.e.e.e.e.e.e.e.r.r.A.A.r.e.9.9.w.w.w.w.0.0.0.0.8.0.w.0.0.0.w.r.r.r.r.r.r.r.e.9.r.r.r.r.r.r.r.r.p.p.r.r.r.r.r.p.a.}.$X=X$XoXoX$X$X$X$X$X$Xm.m.m.n. X X X|.|.oX$X=X2X2X~.I : + . # 8 u P P J y D c c v v Z U W W W W W n k g k k x l l z m M B V &.*.-.:.;.;.2.3.5.i.v.v.i.5.5.6.6.2.4.j.4.3.3.3.3.3.3.2.;.;.3.5.a.}.#X#Xs.u.<.:.7.1.1.=.=.C C C m m m m m z z l l h g g g 3 2 > r 6 1 w w w e u L K K K K K K F v v I S.`.7XfXfXeX&X_.%XeXrXrXeXeXrXrXrXrXrXrXeXrX%X%X%X%X%XrXrXrXrXrXrX*X%X%X*X%XrXrXrXrXrXeX%X&X&X%X%X%X%X%X%XE.%X%X%X%X%X%X%X%X%X%X).).E.E.E._.).).).)._._._.&X_._._._._._._.(.`.`.: ",
"n. X|.'.'.OXtXhXtX@X].|.|.|..X|..X.XXXXXXXXXXXXX XXX X.X.X.X.X.X.X.X.X.X|.|. XXXXXXXXX.X.X.XXXXXXX+X+X+X+XXX.X.X=XtX=X'.'.'.a.'.'.'.G.'.}.}.G.p.q.u.a.a.a.a.a.a.x.c..XoXoX$X}.0.l l l l z z m M m m m M N N B C C C C C C C A A C C C C C C B B M N N N N Z Z U W W Z v k g 3 2 2 2 > > > > 2 v L.fXlXfX;XK @ + @ @ @ @ 1 1 1 : : : : @ + . .   . . . . . . . + + + + + + . . . . . . . . . . . . O O O X X X X O O O . . .                                                                                     o     . . @ D | ! p + + 7 2 2 v Z.`.Q.j > | ;X| #       . + 9 J | /.| L u 8 % % > ~ W x W 9.A 9.y.r.~.~.).).~.~.~.~.L.K.K.F.p.p.P.P.}.P.P.s.w.w.r.r.w.w.r.p.p.p.p.p.p.p.p.p.r.r.r.r.r.w.w.0.0.w.>.,.>.=.A A C =.0.0.0.w.w.w.w.0.r.r.r.r.r.r.r.r.r.r.r.r.B.B.B.B.r.A.K.K.K.r.r.w.r.r.u.w.w.w.w.w.p.p.p.p.p.r.r.r.w.r.w.w.w.y.w.9.9.9.U A A A A A C A A A U 9.0.q.i.x.oXoX X X XoXm.m.m.m.m.b.v.b.m.m. X Xn.n.|.oX$X$X=X2X~.v > 9 y J J J J y 0 c x Z A A 8.y.f.y.A S Z v k k h h l l l z m M V &.*.*.-.;.;.2.3.3.3.6.v.v.i.5.5.5.6.2.3.6.4.3.3.3.3.3.3.2.;.-.:.:.i.s.}.f.s.<.:.<.1.1.=.B M m z z l l l l l l l h g 3 3 g j b e e e e e e e e u J b c D K K K K F j v T Q.`.`._.eX7X_._._.eXeXeXeXeXrXrXeXrXrXrXrXeX%X%XrXrXrXrXrXrXrXrXrX%X%X%X%X%X%XrXrXeXrX%X%X%X%X%X%X_._._._.E.E.%X%X%X%X%X%X%X%X%X_._.).E.E.).).).).)._.)._._._._._._._._._.(.`.`.: ",
"n. X].x.G.OXgXhXtXoX].|. X X.X.X.X.XXXXXXXXXXXXX XXXXX.X.X.X.X.X.X.X X|.|. XXXXXXXXX.X.X.X.X.XXXXX+X+X+X+X+X+X.X@XtXtX[.'.'.'.'.[.'.'.G.G.a.p.u.q.i.a.x.a.a.x.x.c.].XXoX$X$X}.=.l h h k l z m M m m m m N N B B C C A C C A A A C C C B B M M M M N N N N N Z Z W W v c 3 2 > > > > : : : : 4 c A.fXlXfX:XR @ + @ + % % % % @ % @ @ @ + + . .   . . . . . . + + + + + + + X X X X X X . . . . . X X X X X X X X X X X O . .                                                                                         o X . + 9 e = % . + < 5 g g I (.).I : < P s       . . . : 0 F R F 4 @ +   . < ~ -X-X<Xd.Z x g g g k k k k h k x x Z U e.A.K.K.K.P.~.~.P.K.K.G.G.G.G.G.F.G.G.F.F.G.G.F.F.F.p.p.r.r.r.w.w.w.w.p.p.p.p.p.r.u.u.0.8.0.0.w.w.w.w.0.w.w.w.w.w.w.0.e.e.r.r.r.r.r.r.r.r.K.K.F.r.r.r.r.p.p.p.p.p.K.F.F.K.K.K.F.p.p.p.r.y.y.y.y.y.y.y.f.f.s.y.y.y.y.y.0.0.8.>.A C C =.x.].oX Xm.m.b.b.l.l.k.j.j.j.j.j.b.m.m. X X|.].|.oX$X=X=X*XA.I F K K c c c c c F U 8.w.q.u.s.f.s.M m z l h g h h l l z m M B V &.*.-.-.;.;.2.3.3.3.5.i.v.z.6.3.6.6.2.3.4.3.3.3.3.;.2.2.2.;.:.5.<.u.u.u.q.<.V V V B M m z l l l h h h h h h h h g g 3 3 5 b e e e w w q 1 , < 8 6 c c c b K F v v c F ' Q.(.(.(._._._._.eXeXeXeXeXeXfXrXrXeXrXrXrX%X%X%XeXrXrXrXeXeX%X%X%X%X%X%X%X%X%X%XrX%X%X%X%X%X%X%X%X%X%X%X%XE.E.E.E.E.E.E.E.%X%X%X)._.).E.).).).).).)._._._.)._._._.).)._._.(.`.`.: ",
"n.|.].x.G.OXgXkXtX.X|..X XXX.X.X.X.XXXXXXXXXXXXXXXXXXX X X|.|.|..X X|.|. X X X XXX|.|..X+X@X@X@X+XXXXXXX+X+X.X.X.XtXgX@X'.'.[.G.G.G.G.a.a.u.q.<.u.a.'.x.x.x.x.x.].|.XXXX@X=XP.M h g k n l z m m m m m m m M N B C C C C A C C A C C B B M M M M M N N z z x Z Z K b c 2 > > : : : : : @ @ : > 5 e.&XlXfX:X} : + + . . . . + + + + + + + . .         . . . . . . . + + + + + + X + + + X X X X X % # # + # X X . + + X . . . .   .   .   .     . . .                                                             o o o o   . $ + * o . . @ 5 n g v e.(.S.5 @ + .       .   . @ 4 R R c : + +     & u ! ! b 5 > > 4 > : @ @ @ : > 2 3 3 3 g h l z A A 9.w.y.y.y.s.F.F.F.F.J.P.J.P.J.J.G.G.F.F.F.F.p.r.w.r.r.w.w.r.w.w.w.w.0.0.0.0.0.0.0.0.w.r.r.r.w.w.w.w.w.w.w.0.9.9.e.e.w.9.9.w.w.r.p.F.r.r.r.r.r.y.r.r.y.r.r.A.r.A.K.K.F.r.r.r.p.p.p.p.p.r.r.r.r.w.r.r.w.9.9.8.>.,.w.p.p.G.{..XoX$XoX Xm.m.b.k.k.h.4.3.:.:.;.3.h.l.m.m.oXoXn.c.n.oX$X}.#XK.U I Z v v v x Z I U w.s.u.<.<.5.5.<.M m l h h g h h l z z m M B V &.*.-.-.;.;.2.2.3.3.2.6.v.v.6.3.6.6.2.2.3.3.3.3.2.2.3.5.3.:.7.7.<.,.C C C B M m m z l l h h h h h j g g 5 6 5 6 5 k j 6 6 r w q = % % + + + @ @ : 9 c c c c c c c I E Z.S.D.(.`._.7XeXeXeXeXeXeXeXeXfXfXeXeXrXrXeXeX_.E.%XeXeX%X%X%X%X%X%X%X%X%X%X%X%X%X%X%X%X%X%X%X%X%X%X&X%X%X%X_.E._.E.E.E.E._.).%X%X%X)._._.).(.).).)._._._._.)._._._.).(.).).(.`.`.: ",
"n.|.].a.G.OXgXkX=X.X|. XXXXX.X.X.XXXXXXXXXXXXXXXXXXX XXXXX X.X.X X X X X X X|.c.].].]..X=XtXtXtX+XXX.X.X.X.X.X{.{.tXhX=X'.[.[.G.a.a.a.p.u.q.<.<.u.x.].x.z.x.x.c.|.|.XX.XoX$Xs.m h g g n l z m m m m m m m M M B B B B B B B C C C C B M M M m m N N x x l x x v b 0 4 : : @ : , @ @ @ @ + @ > 2 T &XlXfX:X!.> @ . .   o   . . . + . . . .             . . . . . . . X X + + + + % % # # # # # # % % % # + X . . + # + . . . . . . . . . . . . . . .                                                             o o o     . + . * * . . + 5 K g l I L.`.) : + .           . @ c ;X/.R : + .     X   . . + + @ + + . . + + + . + : > 2 2 3 g h l x l l z m m m C A 9.9.r.r.r.K.K.P.L.K.K.K.K.K.K.~.~.K.K.K.y.y.y.K.s.s.r.r.w.w.w.w.w.w.w.r.r.p.p.r.r.r.r.r.r.w.w.w.r.r.r.r.r.r.r.w.r.p.r.w.8.8.8.9.9.9.9.9.9.9.9.r.r.A.K.A.r.r.r.r.p.r.r.r.r.r.r.p.r.r.r.r.r.r.r.u.p.a.'.}.oX=X=X=X=X$XoX Xm.b.k.h.4.2.-.&.V V -.2.h.l.m.$X$X].x.x.c.v.'.P.w.N N N Z A U 9.9.9.y.s.s.u.-.*.:.:.&.V M z l h h h h z z m M M B V V *.*.-.;.;.2.2.2.3.;.3.v.v.6.5.6.6.2.2.2.2.7.7.;.s.s.f.7.<.1.=.V B m z z z l l z l h h g g j 3 3 2 4 6 6 6 6 6 6 > : @ @ + .     o     . . + @ @ : > 2 5 c c c c E ' Z.N.D.(._._.eXeXfXfXeXeXeXeXfXfXfXeXeXrXrXrXeX_.E.%X%X%X%X%X%X%X%X%X%X%X%X%X%X%X%X%X%X%X&X&X%X%X%X%X%X%X%X%X&X%X%X%X%X%X%X%X).%X%X%X)._._.).(.).)._._._._.)._._._._._._._._.(.`.`.: ",
"n.n.x.u.a.=XhXhX{..X.X X X X.X.X.X.X.XXXXXXXXXXXXXXXXXXX X X XXXXX|.|. X X|.|.|.|..X].x..XtXtXtX=XXX.X|..X].].'.{.oXgX=X'.G.a.a.p.p.u.u.u.u.<.5.x.x.x.x.x.x.c.c.|.XXXXXXoXoXa.A h 3 g n h l m m m m m M M M M M C C C B B B M M M B M M m m z z l l l h h h k j 4 < < , @ @ @ @ @ @ % % @ + : 5 T L.gXlXfX^.c @ +   o o o   . . . .                     . . . . . . . . . . . . . X X X # % % % # # # + + + + . . . + + + . . . + + X . . . . . X X O                                     . .           .       o o o o     . . o * % + @ 0 v x h x D.(.D.H + + o * * o X . @ c ;X!.L < + .         . . + + + + + X X . . + + + @ : : > > 2 3 3 g g h h h h h h l l l l z z z z t.t.y.t.t.y.t.t.!.!.!.~.~.~.~.~.~.~.~.K.K.s.s.s.r.r.s.K.K.K.K.K.K.K.K.K.K.p.p.p.r.r.r.r.r.r.r.p.r.p.F.F.p.r.w.8.e.e.e.9.9.9.9.9.e.9.9.9.9.w.w.r.0.w.w.w.p.p.r.r.p.w.w.r.r.r.r.p.a.}.$X=X=X=X=X@XoX XoXoXm.m.m.b.h.3.-.&.B m M &.-.3.h.v.$X$X}.a.u.p.u.0.,.C C C A >.0.y.s.u.<.<.q.<.<.=.*.*.*.&.B M z l h h h h z z m M M B V &.*.-.-.;.;.;.2.2.2.2.3.3.6.i.6.3.2.;.;.2.5.7.7.7.f.s.g.,.V M m z z l l l l l l h k j j 3 3 2 2 < < 1 1 1 1 @ @ @ @ + . . .             . . + + @ : 4 4 5 c 5 j I ' Y Y S.(.(.`._.7XeXeXeXeXeXeXeXfXfXfXfXrXrXeXeXeXeX_._.%X%X_.E.%X%XE.E.%X%X%XE.%X%X%X%X%X%XeXrX%X%X&X%X%X%X%X&X%X%X&X&X%X%X%X_.%X%X%X_._._._._.).).).).).)._._._.`._._._._.).(.`.`.`.> ",
"n.n.z.u.G.tXhXhX{..X|.|. X X.X.X.X.XXXXXXXXXXXXXXXXXXXXX X X X X X|.|.|. X|.|.|.+X=XtX@X{.{.{..XoXoX|.].].].].'.'.{.gX=Xa.p.p.p.q.u.q.<.q.5.u.a.x.x.v.x.x.c.c.].|.XXXXXXXXoXa.0.h 3 g n k h z z m m m m M M M M B B B B M M M M M M M m m z l l h h h g j j j 5 < , @ @ @ @ @ @ # @ % % + + : 0 Y L.gXlXfX`.v @ +   o o o                                   . . . . . . . X . . + + # % % % % % + + + + + . . . . . + . . . . . + + . . . . . O X X O X                                     . .         . . .   o o o o o   . . o o o # u ~ R v x l U L.R._ < + o * o o     . , L K 0 @ .   o   . . + + + @ % % = % X X + + @ @ @ % @ : : > 2 3 3 g g g g g g g h h h h h h l l h h h h h h h h h h h h h l h l l z N Z U t.t.d.~.~.~.~.~.~.~.~.~.~.~.~.K.K.s.r.K.F.A.r.r.r.r.r.w.r.p.F.F.F.F.F.r.r.r.r.r.r.r.r.r.r.r.r.r.r.r.p.r.w.w.w.q.w.p.p.p.p.p.G.G.p.p.p.}.oX$X=X=X$XXX Xn.n. XoXoXoXoXm.m.j.;.V M m m M =.3.6.i.v.M.p.8.A A B M M C >.,.y.y.y.q.u.5.3.:.C C C V V &.&.V B m z l h h h h z m m M M B V &.*.*.*.-.-.-.;.;.;.;.;.5.6.i.6.7.:.:.:.:.:.:.:.:.V C M m z l h h h h h h h g g g 3 2 2 > : , , @ + + + + + . . . . . O o     X ;       . + , 7 9 | ~ K c 5 5 c Y I I _ D.`.`.`._.eXeXeXeXeXeXeXeXeXeXeXeXeXeXrXrXeX%X_._.%X%XE.E.E.E.E.E.E.%X%X%XE.%X%XE.E.E._.%X%X%X&X%X%X%X%X%X%X%X%X%X%X%X%X).%X%X_._._._._._.).).).).).).).).).)._._._._.).).(.`.`.: ",
"n.c.i.u.[.hXhXhX{.].|.|.|. X.X.X.X.XXXXXXXXXXXXXXXXXXXXX X X X|..X|.|. X|.|.|.]..X=XgXgX=X{.].{.].].c.].].].'.'.a.}.=X}.p.u.q.u.0.u.q.<.<.5.i.v.x.v.c.c.c.c.].|.XXXX+XXX X|.}.s.z g 3 k k h l l z z z m m m M M M M M M M M M m m m m z z l h h k g 3 2 2 2 2 4 @ + + + + + % % # # % % @ + 1 4 I (.lXlXfX:XI : +   o o o                           X   X X X O . . O X X X + + % % % % % % % % + + + + + . . . + + . . . + + + + + + X . X X X X X X                                   . . . . o o . . . . . . . o o o o X . .     o = P | } K W l l B._.D.F +   o o o o X   . @ @ @ + .   o   + @ @ : : : 1 = = % % % @ @ : : % = % @ 1 > > 2 3 3 3 g g g g g g g g g g g g g k h h h g g h h g 3 g 3 3 3 3 3 g g g h h l l x l z z z N N N N U U U t.t.A.A.A.~.L.~.K.K.A.K.K.K.L.~.K.K.A.r.r.r.r.r.p.p.p.p.p.G.G.F.p.p.p.w.w.p.r.w.0.,.,.0.0.s.p.s.p.p.w.0.q.{.oX=X$XoX Xn.b.j.j.b.n.m.oX$X$X$Xm.6.-.V M m M y.y.q.<.,.A Z x x N N N C ,.y.f.f.s.y.<.:.:.:.&.m x z m M B B B M m z l h h h h z m m M M B V V &.*.*.*.-.-.:.:.7.5.5.s.s.<.:.*.:.=.&.V V B B M l l h h g g g g 3 3 3 3 6 6 6 6 : : : @ + + + . . .     . . .     * O           X   . + 0 L | @.~ K D c 5 c R Y F T S.(.`.7XeX7XeXfXfXeXeXeXeXeXeXeXeXeXeXeXeXeXeX%X_._.%X%X_.E.H.E.E.E.E.%X%X%XE.E.E.E.E.E.E.E.).%X%X%X_.)._._._.%X%X%X%X%X_._._._._._.).).).).).).).).).).).).(.(.).).).).).).).(.`.> ",
"c.z.i.a.=XhXhXtX{.].|.|.|. X.X.X|..X XXX XXXXXXXXXXXXX X X|.|.|.XX.X.XXX.X|.|.].|..X=XgXgX=XoX}.x.x.x.x.'.'.x.a.x.#X*XG.u.q.0.q.p.s.p.u.u.u.i.v.x.c.c.c.c.|.|.XXXX@X@XXX|.|.}.P.C g 3 6 6 g h h l l z z m m m m M M M M M m m m z z z z l h k g 5 2 > > : : > : + + + + . + # % # + @ @ @ + : 4 F Q.fXlXfX:XE : +   o o o                           X       X X O X X X X # + + % # + + # + + + . . . . . . . . + + . . . + + # + + + + % % % % X O O                           . . . . . . . . o o . . + + + . . o o O O o O .   O * O & u K K K x g U R.(.!.> . o     o ; O   . + + + . . o . @ : > > > > 1 1 1 = = @ 1 : > : = = % = 1 : > 2 3 3 3 3 3 g g g g g g g g g g g h h h h h g h g k k g g g g g g g g g 3 3 3 3 3 g h h h h h h h g g h k x x x x Z I I U U U U T e.t.t.t.t.t.t.A.r.B.F.F.F.F.F.G.P.J.G.G.G.G.p.p.K.K.f.y.y.w.w.w.w.8.>.,.,.,.0.u..XXXoX Xm.b.k.j.4.3.3.4.j.b.m.m.oXoXm.z.:.V C A y.y.9.Z z x x k Z U 9.y.y.s.f.f.y.1.>.C V V V M k j k l z m M M m m z l l h h h z m m M M B V V &.&.&.*.*.*.=.:.7.<.q.f.f.<.C V B M m z z l h g h g g 3 3 3 3 2 > < < < : : 1 @ + + + . .                 . .   o o o       . . . , G | -X;X .| D c c 5 5 F R v I S.`.`.`.7XeXeXfXfXeX`.`.eXeXeX&XeXeXeXeXeXeXeX%X%X%X%X%X%X_.E.H.E.E.E.E.E.%X%X_._.E.E.E.E.E.E.E.E.).).).E.E.E._.E._._._._._._.).).).).).).).).).).).).).).).).(.(.(.(.(.(.(.(.(.(./.: ",
"v.z.z.}.gXkXhX@X{..X.X X|.|. X X.X.X.X.X X XXXXXXXXX XXX.X X X X|..X|.|.|.|.|.].oXc.x.oX=XoX'.a.x.x.x.x.x.x.a.a.}.=X#Xa.u.0.<.q.G.P.a.u.i.a.i.z.x.c.].].|.|.XXoX+X@X+X Xn.c.].}.8.l 2 2 2 3 5 g h l l l z z m m m m m m m m m m z z l l h k g 6 4 > : @ @ @ @ @ + + + . . . + + # # @ @ @ @ : 4 D S.fXlXfX1X!.> .   o o o                                       O . O O X X # + X + + + . . . . . . . . . + + + + + + + + + # % + + % % % % % % X O .                           . . . . . . . . o o . + + + + + . O O o O O X .   X O o . + 9 c v v h Z e.`.`.F +       o O * X # + + @ + . . . : > > > > > : : @ @ @ @ : : > > = % % @ : : > 2 3 5 3 3 g g g g g g g g g g g g 3 3 3 3 3 3 3 3 g 3 3 3 3 3 3 3 3 3 3 3 3 3 g g 3 g 3 3 3 3 3 3 3 3 3 3 2 2 > > 2 2 2 3 3 3 g g g g h k v v I U A.A.A.A.A.K.K.K.K.K.K.K.K.K.K.K.K.A.K.A.A.B.B.B.K.r.r.r.r.w.r.p..XXXoXn.b.k.h.4.3.;.-.-.-.;.6.z.b. X$X$Xv.<.=.C A A Z x x x Z Z T e.y.s.f.s.<.1.A A N x z z z h 2 < 2 3 h z m m m z z z l l l l z m m M M B B V V &.&.&.=.=.=.=.y.1.y.d.d.A m m l l h g g g 3 3 3 2 2 > : : : @ @ + + + + + + . . . . .                   . . o * o     . . @ 0 H ` /.pX:X!.L D c 5 5 5 c R E F Y ^.pX`.`.7XfXeXeXfXeX`.`.eXeXeXeXeXeXeXeX_._._._._.%X%X%X%X_.E.E.E.%X%XE.E.E.E._._._._._.E.).E.E.E.E.E.).).).E.E.E.E.)._._._._.).).)._.).).).).(.).).).).).).).).).(.(.(.(.R.(.(.^./.: ",
"v.z.}.=XhXkXtXOX.X.X.XXX X X X X.X.X.X.X X|.|.|. X.X.X.X.X.X|.|.|.|.|.].|.|.|.].c.i.5.i.i.i.a.a.x.x.x.x.a.a.a.a.}.=X#Xp.u.q.q.p.G.}.a.u.a.x.z.z.c.].].|.|..XXX+X@X@XXXn.c.c.].}.f.N 2 2 > > 2 2 g h h l l l z z m m m m z z z z l l l h g g 3 4 : @ @ + + + @ @ + + + . . . + + @ + @ @ @ @ : > c _ `.lXfXfX^.5 .   o o o                                         . . . . . . X . . . . . . . . + + + + + + + + + + # # # # # # + + % % % % + X . .                             . . . . . . . . o o . . + + + + + . O O O O . . . . . o O % , 4 j v x z Z ~.&XZ.: .         O O % + + + + . . + , : > > > : : @ @ + + @ @ : : : = % @ @ : > > 2 3 3 3 3 g g g g g g g g g g g g g g g h g g g g g g g g k g k k 3 3 3 3 3 3 2 2 3 3 3 3 3 3 2 2 2 > 2 2 2 2 > 2 > 2 2 2 > > > 2 3 3 2 2 > > 2 2 3 3 3 g g g h h g h x Z U t.A.Q.Z.A.A.L.L.L.(.L.~.L.P.P.P.P.K.G.{.|. Xb.k.k.4.3.;.-.&.&.&.V *.5.n.XX=X=X$Xv.<.M z Z Z Z A 9.y.y.K.r.p.p.u.5.:.=.C x k j 5 3 2 > . . + : 3 h z N z z z z z l l l z z m m M M B B V V V V V V V B d.S S Z z h g h g g 3 3 3 3 2 2 > > : : @ % + # . . . .         . .                             o o   . . @ H /.`.`.`.^.' H D c 4 2 5 c F R Y F _ ^.fXfXfXfXfX7X`.7X7X_.7XeXeXeX&XeXeX_.&X_._._._._.%X_._._._.E.E._.%X%XE.E.E.E.%X_._._.%X%X_._.).).E.).).).)._.E.E.E.E.E.).).).).).).).).).).).).).).).).).).).).).(.(.R.L.L.L.(.^./.> ",
"v.v.oXgXkXgX=X{.{..X.X X X X.X.XXXXX.X X|.|.|.|.|.|.|.|..X.X.X.X+XoX.X].].].].c.z.z.z.i.i.i.a.'.x.x.a.a.a.a.a.a.'.=XG.q.u.q.u.s.}.OX'.p.a.x.x.x.].].|.|..XXX+X@X@XoXn.z.z.n.|.'.#XA 2 > > > > > 3 3 g g h h l l l l z l l l l l l l h g 3 2 > : @ + + + + + # $ + + + . . + + + @ + @ @ @ @ : > c ) `.lXgXfX:XF +   o o o                                               . . . . . . . . . . + + + + + + + + + + + $ % & & $ @ + + % % % % + . . .                               . . . . . . . . O o . . + @ + + + . . O O X . . . .     * = % < 5 v I N z y.E.R.D @ . .       O X . + + + + . + $ $ $ @ @ @ + # . X . . + + @ @ @ @ @ @ : > 2 2 3 3 g g g g g g g g g g g g g g g g g k k k k g g g g g g g 3 3 2 2 2 2 3 3 5 5 k 6 6 6 6 2 2 2 > > > > > : : : : > > : : @ : : > > > > : : > > : : : : : > > > 2 2 3 2 2 2 2 3 j g k x x Z Z Z Z A 9.y.K.f.f.K.x.c.n.n.b.k.h.4.;.*.&.V V B V 5..X+X@X=X=X#Xu.B M A U 9.y.s.f.s.P.p.u.5.3.:.*.V z h 2 : @ + + .     . + > 3 l x z z z z z z z l z z m m M M M B B B B B M M M m z l h g g g k k 3 2 > > 1 1 1 : , @ @ % % % X X                                                 o o     $ H /.`.D.D.C.V.T I c c c c c F R F v c Q.`.fXfXfXfX7X7X_.`.`._.7XeXeX7X_._.&X_.&X_._._.%X_._._._._._._._._.E.E.%XE.E.E.E.E.E._._.%X_.E.).).E.E.).).)._.E.R.E.E.E.E.).).).).).).).).).).).).).).).).).).`.).).(.(.(.(.(.(.^./.> ",
"v.z.oXgXhX=X{.{.{.].|. X X X XXXXXXX.X.X|.|.|.|.|.|.|.|..X.X.X.XtX=X=X{.].].'.x.].oX=X=X}.}.x.a.a.a.i.i.i.u.a.a.a.*Xp.,.u.<.u.a.*X=X#Xa.i.x.x.].].].|.|. XXX+X+XoXoXc.j.z.|.|.c.=X,.3 > @ @ : : > 2 2 2 3 3 g g h h h h h h g g g g 3 3 2 > @ @ . . . + # # % % # + + + + + + # $ + + @ @ @ @ < c Y (.lXgXfX:XH +   o o o                                                     . . . . + + + + + + + + + @ @ @ $ @ $ , q , $ @ + + % % % % . . . . .                           . . . . . . . . . o o . . + + + + + . . . . . . . # X     . . 1 c j g U Z l U F.).' 4 + @ +       X . . $ @ + . . # & $ # # # # X X X     . . + + + + @ @ @ : : > 2 2 2 2 3 3 3 3 3 3 3 3 g g 6 g 6 6 g g g g 6 6 k g g g g 3 3 3 k k g g 3 3 2 2 6 6 6 2 2 > > > > > > > : : : : : : 1 > : : : > @ : : : : : : : @ % @ @ @ 1 1 : @ @ : : : > > 2 > 2 > > 2 2 3 g h g g h h h h z q.z.c.n.m.m.v.7.:.1.C B C B :.x..X+X@X@X=XoXx.:.,.w.s.s.f.s.v.i.i.u.5.;.-.*.B z g : .           o     . @ 2 k x z m m m m m m z z z z z m m N N m m m z z l l h 3 3 6 3 2 2 > > 1 : @ @ % % + + + + . .                                                         o *   . 0 !.`.D.R.C._ T I I F c c c 5 c R R Y S.:XpXfXfX7X7X7X_.`._.`.`.7XeXeX`._._._._.eX_._._.%X_._._.E.E.E._.%XE.E.E._._.E.E.E.E.E.E._._.E.R.).E.L.L.L.E.).E.E.R.R.E.E.E.).).).).).).).).).).).).).).).).).).`.).).(.(.(.(.(.(.^./.> ",
"z.c.oX$X=XoX{.c.].|.|.|. X X X X X X X|.|.|..X|.|.|.XX|.|.|.].oXgXhX*XG.G.[.OX[.=XgXhXhX}.].x.z.a.a.a.u.u.u.u.u.u.u.u.<.<.a.}.}.=X=X}.x.x.c.].c.].].]..X+X@XXXXXoXv.6.6.c.oXc.z.$Xi.N 2 .   # + @ @ @ : : > > > 6 6 6 6 6 6 6 6 6 > : : @ + . . . . . . + + @ % + @ @ @ + . + + + + + + + + @ @ c R S.fXlXfXfX' 4 + X o o o                                                 . . . . . . . + + + @ @ @ $ $ $ $ $ , 1 $ @ @ @ $ $ + % % % + X . . . . .                 .   . . . X . X . X X + + % X + . . + + + + . . . . . . .   O   + @ : ~ t.t.h l A l z Z.`.`.H > @ @ + . .   % = % . . . + . . . . . . . .           . . . . . . . . . . . + + + + @ @ @ : > > > > 2 2 2 2 6 6 6 6 6 6 6 6 2 2 3 3 5 3 5 g 3 3 3 3 3 3 2 2 3 6 6 6 6 2 2 2 2 2 > > > > > > > > 2 > > > > > > > > > : : : : : : : : : : : : : : : : : : : : : : : : : : : : : : : : @ + + : m u.v.c.c.n.v.i.s.y.W S A =.<.oXXXXX+X@XoXoXn.z.5.u.f.s.s.i.i.i.5.:.;.2.4.;.M 3 :     * * o . .     X   + @ 2 h N m M M M M m z z z z l l l l l k k k g 3 2 2 > : 1 1 @ @ @ @ @ + + + . . . . .                                                                 o O   @ ` /.S.V.N._ Y I F F c c D c c F I E Q.`.pX7X7X7XeXfXeX_.`.`.7X7X`._.`.`.7X7XeXeX_._._._._._._.E.E.E.E.E.E.E._._._.E._._.).).).).E.R.E.R.E.E.E.R.L.L.L.L.E.E.E.R.R.E.E.E.)._._._._.).).).(.).).).(.(.).).).).).`._._.(.(.(.^./.: ",
"z.z.c.c.c.].].c.|.|.|.|.|. X X X X X|.|..X.X.X|.|.|.XX X|.|.].{.tXhX*XJ.[.OXtXtXhXhXhXhX[.'.x.x.i.x.i.i.u.i.a.p.u.,.=.<.a.}.}.}.}.].c.x.x.c.].].].].|..X+X+XXX.Xv.v.6.6.].oXv.z.$Xc.>.2 . o X . + + + + + @ @ @ : : : : 1 1 > 1 : @ @ + . .         . . + + @ @ @ @ @ @ + + + + + + + + + + + @ c Y Z.fXlXfXfXZ.5 + +   o o o o                                           X . . . . . . . . . + @ @ @ @ $ $ , , , , $ @ @ @ $ $ & % % X O .     . .     . . . .       .   . . . . . . . . X + + + + + + . + + + . . . . . . . X       $ : v :X1XK.A z A Z x I Q.(._ c : < J u . . . . . . . . + . . . . . . . . . .                                 . . . . . + @ : : : : : : : > > > > > > > > > > > > 2 2 2 3 3 3 3 3 3 2 2 2 2 2 2 2 2 2 2 2 > > > > > > > > > 2 2 2 > > > > > > > > > : : : : : : : : : : : : : : : : : : : : : @ @ @ @ @ @ @ : @ @ + .   + l 0.M.}.c.].x.a.y.t.W Z N B :.$XoXXX+X$XoXoXn.z.3.6.7.5.5.5.5.5.<.5.6.v.v.z.=.g @   * * o o . .         . + > g x m M B V B M z z l l h h g g 5 2 6 > 1 : : @ @ # % % . . . . . . . . . . . . .                                                                 o   . y  .^.V.D.V._ Y H F F F F c c c F Y ' ^.`.7X7X7X7XeXfXeX7X_.`.`.7X`.`.`.`.eXeXeXeX&X_._._._._._.E.).).E.E.E.E.E.E.E.E.E.).).).).(.(.R.(.R.E.(.(.(.R.L.L.R.E.E.E.E.E.E.(.).).)._._._.).).).(.).).).(.(.(._.).).(.).`.).(.(.(.^./.: ",
"c.c.z.z.c.c.].|.|.|.|.|. X X X X X X.X.X.X{..X|..X|.|. X|.|.].{.tXhXtX=XtXgXhXhXhXtXtXgX[.a.a.x.a.a.a.i.u.i.a.a.u.<.<.a.}.}.}.'.z.x.x.x.c.].].|.|.|. XXX+X+X Xn.j.j.6.z.|.oXz.j.$X$X0.> . o   . + + + + + . + + + + @ @ @ @ @ @ @ + + . .         . . . + + @ @ @ @ @ + + + + + + + + + + + + @ c Y Z.fXlXfXfXQ.c + +   o o o o                                           X     . . . . . . . + $ $ $ $ $ $ $ $ , , $ @ @ $ , 8 = % % O         . .         . .       .   . . . . . . . . . + + + + + + + + + + . . . . . . . . ; X   @ : F :X:XZ.U l Z U x k Z.`.`._ 2 5 -X>X! . . . . . . . . . . . . . . . . . . . .                                       . + + + + + + + + @ @ @ @ @ @ @ @ @ @ @ : : : > > 2 2 2 > > > > 2 > > > > > > > > > > > > > > > > > > > > > > > > > > > > > > > > : : : : : : : : : : > > : : : : : : : @ @ @ @ : : : : @ + . . + 2 S s.}.x.x.i.q.8.U W N M M :.=X$X+X+XoXXXoXm.z.2.3.5.:.:.:.5.5.i.z.c.oXoX}.s.9.2 +   o o     X           + : 3 h z M C C S N l l k k g 3 2 > > : : @ @ + + + . . . . . .   .   . . .   .   .                                                                   O . $ ` /.S.V.V.N._ Y F F F F F c c F Y E Z.^.`.`.7X7X7XeXfXfX7X7X`._._.`.7X7X7XeXeXeXeXeX_._._._._._.E.).).)._.E.E.E.E.E.E.E.E.).).).(.(.R.R.R.L.).).).(.R.(.(.E.E.E.E.(.).).).).).)._._.).).).(.).).).(.(.)._.).).(.(.(.).(.(.(.^./.: ",
"c.c.c.c.].].|.|.|.|.|.|.|.|. X X XXX.X.X.X.X.X|..X|.|.|..X|.x.{.tXkXhXhXkXhXhXtX=XOX=XgX}.G.a.a.a.x.a.u.u.u.a.a.u.p.'.#X#X'.a.x.x.c.].].].].].].|.|.XX@X@XoXc.z.6.j.j.c.oX].z.j.oX=Xr.2 . O   . . . . . . . . . . . . . + + + + + . . . .         . . . + + @ 1 @ @ @ + + + + + + + + + + + + @ 5 I Z.`.gXgXfX^.D @ .   o o o o                                           X     . . . . . . . + $ $ $ $ $ $ $ $ $ $ @ @ $ , 8 w & % X .         . .         . .       .   . . . . . . . X X + + + + + + + + + + . . . . . . . . X     + @ 2 R W Z Z h h W I v I Q.`.Q.3 >  .,X@.+ . . . . . + . . . . . . . . . . .   .                                         . . . . . . . . . + + + + + + + . . + + + @ @ @ : : : : : : > < : : : : : : : : : : : : : : : : : : > : > : > : > > > > > > : > : : : : : : : : > > > > > > > > > : : : @ @ : : > > : : @ + . + @ h t.K.a.u.<.,.>.A Z Z C C <.=X=X+X+XoXXXoXoXv.2.3.5.:.:.5.i.x.}.}.].].|.}.#X#XE 5 + . X                 . @ > g l N S S S z h 3 2 2 > : : @ @ + + + . . .                                                                                                       . y  ./.S.N._ _ _ Y Y F F F F D F H R ' ' D.(.`.7XeX7XeXfXfXeXfX7X_._.7XeXeX7XeX7XeXeX&X&X_._._._._.E.).).)._.E._._._.E.E.E._.).).).).(.R.R.R.L.R.(.).(.(.(.(.E.E.E.(.(.).).).).).).).).).).).).).).).(.(.)._._._.).).).).).(.(.^./.: ",
"z.c.c.c.c.c.c.].].|.|.|.|.|.|. X X X.X.X.X.X|.|.XX|.|. X X|.x.{.gXzXzXkXkXgX=X{.[.'.OXgX}.G.a.a.a.a.a.u.u.p.p.p.a.}.=X#X}.'.'.x.c.].|.|.|.].].|.|.XX@X=X$X|.z.4.6.j.z.n.oXc.6.4. X=Xp.3 .     . . . . . . . . . . . . . . . . . . . . . . .     . . . + + @ @ 1 @ + + + + + + . . . + + + + + @ 5 I _ `.fXgXfX`.H : .     o o o                                                 . . . . . . . + $ $ $ $ $ $ $ $ @ @ @ $ $ , 8 w % X O       . O               .       . . . . . X X X X . X X . + + + + + + + + . . . . . . . .       + + : 0 4 5 c j j v R F j E `.^.v > K -X#.0 + . + . . + . . . . . . . . . . . . .                         . . .           .       . . . . . . . . . . . .       . . . + + + @ @ @ @ @ @ : : : : @ @ @ @ @ : @ @ @ @ @ @ @ : : : : : : : : : : : : : : : : > > > > > > > > > > > > > > > > > > : : : @ : : > > > : : @ + + + 4 W A.F.q.,.,.>.C Z A 9.>.q.=X=XoXoXoXoXoXoXb.3.6.6.5.5.i.x.}.].].].|.|.].}.#X~.t.j @ + .                 + @ 2 j x n n k g 2 : @ @ @ + + . . . .                                                                                                             . $ ` /.D.D.C._ N._ _ _ Y I F F D F Y R ' ' S.D.`.&XeXeXeXfXfXeXfX7X_.`.7XeXeXeXeXeX_._._._._._._._.).).).).)._.)._._._.E.E.E.).).).).).(.).).).L.L.(.(.R.R.R.R.(.).(.(.).).).).).).).).).).).).).).).).).).).`._.`.`.`.`._.`.`.(.^.`.: ",
"x.c.c.c.c.c.c.].].].|.|.|.|.|.|. X X|..X.X|.|.|. X|. X|..Xc.z.{.gXzXhXhXtX{.[.'.[.'.OXtX[.G.a.G.a.a.a.u.p.G.G.G.=X=XoX'.x.'.].x.c.c.|.|.|.].|.|..XXX@X$XoXc.j.4.j.z.c.|.oXx.4.4. X$XG.k .   . + . . . . X X X # . . .   . . . . . . . . . . . . . . . + + @ : 1 % + + . + . . . . . + + + + + @ 2 F T (.fXgXfX`.R : +     o o o                                                 . . . . . . + + + $ @ $ $ $ $ $ + + @ $ , 8 q & .         . O O                       . . . . . X X X X X . . . + + + + + + + + . . . . . . . . X .   . . + @ : < 0 b 5 5 L L 2 I E !.F : > | sXP @ + + . . % . . . . . . . . . . . .                           . . . . . . .                                             . . + + @ @ , @ @ @ @ @ @ @ @ @ @ @ @ @ @ @ @ @ @ @ @ @ @ @ @ @ @ @ @ @ @ @ @ @ @ @ : : > > > > > > : > : > : > : > > > : : : @ @ @ : > > > > : @ + + + @ c t.r.,.=.,.8.A U 9.y.>.0.=X=X$X$XoXoXoX Xb.6.z.z.i.i.i.x.c.c.c.].].].].].].}.#Xy.3 @ . X               . + > 2 j k j 3 > : + . . .                                                                                                                         . D  ./.D.I.C._ N.V.V.S.' ) I F c D H Y ' ' S.^.`.`.eXeXeXeXeX7XeX7X7X7X7XeXeXeXfXfXeX_._.).(.R.).E.E.E.E.E.E.).E.E.).E.R.R.R.E.).).).(.(.).).(.L.L.R.R.L.L.R.E.).).(.(.).).(.(.).).).).).).).).).).).).).).)._.`.`._.`._._.`.`.(.^./.: ",
"c.c.c.c.c.c.].].c.].].|.|.|.|..X|.|.|.|.|.|.|.|.|.|. X|.|.c.i.@XhXhXtXOX{.'.].'.{.{.=XtX[.G.a.G.a.p.p.p.[.*X*XOX=X=X{.'.x.'.].c.].c.|.|.|.].|.XXXX+XoXoXc.z.6.4.j.z.n.|.oXz.4.j.oX$X}.Z +   . + . . . . . . . . . . .   .       . . . . .       . . . + @ @ : 1 % + + . . . . . . + + # # # + @ > v T D.fXgXfX7X' < + .   o o o                                           X     . . . . . + + . # + # + # + # $ + # & & q & $ +         . . . .                       . . . . . . . . . . . . . . + + + + + + + . . . . . . . . # + .   . . . . $ 8 9 , : D L c 3 g v F > : D ;X` , + + . . = . . . . . . . . . .                                           .   X           X                             . . + + @ 1 1 1 @ @ @ @ @ @ @ @ @ @ @ @ @ @ @ @ @ @ @ @ @ + + + + + + + + + + + + + @ @ : : : : : : : : : : : : : : : : : : @ @ @ @ @ : : : : : @ @ + + @ k t.p.0.<.u.p.w.y.y.9.C >.=X$X$X$X$XoXoX Xz.z.c.}.v.x.z.z.z.c.c.x.x.x.c.c.].c.#Xf.C 2 @ .           o     . + : > > : @ @ + .                           o                                                                                                   @ L /.^.V.C.C.N.N.V.S.S.' _ Y F c D F R ' ' S.^.`.`.eXeXeXeX7X_.`.7XeXeXeXeXfXfXfXfXeX&X_.(.R.R.E.E.E.E.E.E.E.).E.E.).E.R.R.R.E.).(.).(.(.E.(.(.R.R.R.R.L.L.E.).E.(.(.(.(.).R.R.).).).(.).).).).).).).).).)._._.`.).).)._.).).(.(.^./.: ",
"z.x.c.c.c.c.c.c.c.c.].|.|.|.|..X|.|.|.|.|.|.|.|.|.|. X|.|.x.i.=XkXhXY.G.[.{.{.'.'.{.=XtX'.G.p.a.a.p.u.a.}.=XtX=X}.'.'.'.].].]..X|.|.|. X|.|.|.XX+X+XoXn.z.j.j.j.z.c.n. XoXz.4.j.oXoX}.U +   + . + + . . . . . . . . . .                         . . . + @ @ : 1 % + . . . . . . . # # % % # + @ > c T D.fXgXeXfXZ.4 + .   o   o                                           X     . . . . . + + + + + # + # # # # # & & - q # .       . O .                             . . . . . . . . . . . + . . + + # + + + . . . . . . . . . . + # X X O       . + . + 7 J R > 2 W !.F : : D ` < + + . . = . . . . . . . . .                                                                                           . . + + 1 w e 1 , @ @ @ @ @ @ @ @ @ @ @ @ @ @ @ @ : @ + + + + + + + + + + + + + + + + + @ @ @ @ @ @ @ @ @ @ @ @ @ @ @ : @ @ @ # # # @ @ : : : : : @ @ > 2 Z ~.#Xa.a.}.G.s.s.y.>.z B *X=X$X$X$XoXoX Xz.c.|.oX}.c.x.x.z.c.x.x.x.c.c.c.c.n.z.i.y.Z : .           o o     . . + + + . + .                             o                                                                                                   , R /.^.V.N.V.V.N._ _ ' ' Y Y I D F Y ' ' ' S.^.`.`.fXfXeXeX7X`.`.eXfXfXfXeXfXfXfXfXeX&X_._.).).E.E.E.E.R.E.E.E.)._._._.).E.E.).).(.(.(.(.E.).R.).(.(.R.L.L.(.).E.(.(.(.(.R.L.L.).(.(.(.(.).).)._.).).).)._._._.(.(.(.(.(.(.(.R.(.^./.: ",
"z.x.c.c.c.].].].].c.c.c.].|.|.|.|.|.|.|.|.|.|.|.|.oX|.|..Xz.x.gXhXgXJ.J.{.'.'.'.'.{.=X=X[.a.a.a.a.p.p.[.=XgXtX=XG.'.'.].].].].|.XX|.|.|. X XXX+XXX Xn.z.6.4.6.j.z.c.|.oX|.z.4.j.oX+X}.T @   % + + + + + + + + + . . . . . . . . . . . . . . . . . . + + @ @ @ @ + . . . . . . . . . X + + # + @ > c I S.eXgXfXfXQ.D + . X                                                       . . . X . . . . . . + + # % % % w - = # + . . .                                           . . . . . X X . . + + + + + + + + + + + + . . X X X . + + . .           X     . + y L b : c ,X-X5 : : L D @ . . . O O . . . . . . . .                                             . .                             .           . . + + @ @ 1 : : : : @ : @ @ @ @ @ : : : : : : : : : : @ @ + + + + + + . . . . . . . . + + + + + . + . + + + + . . . + + + . . . . + + @ : @ : > > > 5 g x 9.P.}.'.].oX}.s.0.C m z A s.$X$X$XoXoX Xn.z.c.].oXoX].].c.c.c.c.c.x.x.c.c.b.b.b.v.s.1.k @ .                   . . . . .                                                                                                                                     J ` ' S.V.N.N.N.N._ Y Y Y E Y F F 0 D ` ' S.^.(.`.7XeXfXfXeX7X_.7X`.`.`.`.eXeXeXfXfXeXeX_.)._._.).).).).E.E.E.E.R.E._._._.E.R.R.).).(.(.(.(.(.(.L.R.L.L.L.L.R.).R.R.).).).(.(.(.).(.(.(.(.(.(.(.(.(.(.(.(.(.(.(.(.(.R.D.D.D.D.^.^.^./.: ",
"x.x.x.x.c.c.c.c.].c.c.c.].].].|.|.|.|.|.|.|.|.|.|.|.|.c.x.a.{.hXhXgXJ.G.'.a.a.a.a.[.@X}.p.u.p.a.a.a.'.=XgXgX=X'.'.'.'.].].].|.|.|.|.|. X X X XXX|.c.j.6.6.6.z.v.z.c.n.|.].6.4.b.XX+XOXT @ . % + @ @ + + + + + + + + . . . . . . . . . . . . . . . . + + @ @ @ @ + . . . . . . . . . . X + + + @ : j I S._.fXfXfX^.F @ . +                                                       . . . . . . . . . . . X # & & & = & # . . . .   .                                         . . . . . X X . . + + + + + + . . . . + + . . . X X . + + .       o o           . 8 u < : : | sX!.> : D D 9 . . X * o   . . . . . .                                               . .                 . . . . . . . .       . . + + @ @ : : : : : : : : : : @ @ : : : : : > > > > > > : @ @ @ + + + + + . . . . . . . . . . . . . . . . . . . . . . . + .       . . . + : : > 3 g k v Z A u.}.}.x.c.}.v.u.,.C m l m 1.#XoXoXoX X Xn.c.z.c.].c.c.c.c.c.c.c.c.].c.c.c.b.b.b.z.i.y.Z 3 + . .         o                                                                                                                                                   L ' ' ' V.N.N.N.T Y Y I Y F F v 0 0 H !.S.Q.(.`.`.7XfXfXfXeX7X7X7X7X`.`.7X7XeXeXfXeXeX_._.(.(._.).).).).E.E.E.E.E.).).).E.E.R.R.).).(.(.E.E.(.(.L.R.).(.(.R.(.(.R.R.R.E.(.(.(.R.(.(.(.(.(.(.).).(.(.(.(.(.(.(.(.(.(.R.D.D.D.D.^.^.^./.: ",
"v.x.x.x.c.c.c.c.].c.c.c.].].].].|.|.|.|.|.].|.|.].|.|.c.a.'.=XkXhX*XG.G.a.a.a.a.a.{.{.a.u.u.i.a.a.a.'.=XgXtX{.a.'.'.].].|.|.|.|.|. X X|.oXoXoX|.c.6.2.2.6.z.v.v.c.c.c.c.c.3.3.n.oX+XOXT @ . % % @ @ @ + + + + + + + + . . . . . . . . . . . . . . . + + + @ @ + . . . . .         . O X X + + + : 2 v Z.`.fXfXfX`.Y < + # .         . .   .                                     . . . . + . . . . . . X # # & % X . .                                                     . . . . . . . . . + + + + + + . . . . + + . . . . . . . . .     o o o o o         . + + : @ 6 sXsXK : 4 D u @     O     . . . . . . .                                                         . . . . . . . . . . . .   . . . + + @ @ @ : : : > : : : : : : : : : : > > > > 2 2 2 > > : : : : @ @ + + + . . . . . . O     .                           .             . + : > 3 x Z W t.8.q.u.v.x.i.i.v.u.<.=.B m l z B s.v.c.c.n.|.|.n.c.c.x.x.x.c.c.c.c.c.].].c.c.c.b.b.b.z.i.s.y.Z > + . . X                                                                                                                                                         L } ' ' N.N._ N.Y Y Y H F c j j > 5 Y /.^.^.(.`.pXpXfXfXeXeX7X7X7X`.`.`.7X7XeXeXeXeX_._._.(.R.R._._.).).).).E.E.).).).E.E.E.E.).).(.(.E.E.R.E.E.L.R.(._._._.).R.R.R.R.R.(.(.(.(.R.R.(.(.(.).).).(.(.(.(.(.(.(.(.(.(.R.D.D.D.D.R.^.^./.: ",
"x.z.z.x.x.].].].].].].].].].].].|.|.|.|.].].].].].].|.].a.OXhXkXtX[.G.{.{.{.@X{.{.=XOXG.'.a.i.a.'.a.'.oX=X{.'.a.'.'.].].|.|.|. X|. X X|.oX$XoXoXz.3.;.2.6.v.v.z.c.c.c.c.v.2.2.m.oX+XOXU @   + % @ @ + + + + + + + + + + . . . . . . . . . . . . . . + + + + + + . . . .             . O X X + + : 2 v E (.fXfXfX`.` 9 , @ .   . . . . . . . .                                   . . . . + . . . . . . O X X X X                                                           . . . . . . . . . . . . . . . . . . . + + . . . . . . . .       o o o o o             . . . @ ! ;X| c < 0 0 $     o                                                                   . . . . . . . . . . . . . . . . . . . . + + @ @ : : : : : : : : : : : : : : : > > > 2 2 2 2 2 2 > > > : : @ @ @ + + . . .   . O                                               . @ 2 g l S A 1.y.<.<.<.5.5.:.:.<.*.V M M m z z M <.5.i.v.c.oXoX|.].c.z.i.z.c.n.c.|.c.c.c.c.x.c.c.b.b.z.i.i.f.8.l : + . .                                                                                                                                                         L } ' _ _ _ T N.) ) ` Y D 5 3 j 5 c Y !.^.Q.^.(.`.`.`.eXeX7X7X`.`.`.`.`.7XeXeXeXeX_._.)._._.).R._._._.).).).E.E.).).).E.E.E.E.).(.(.E.E.R.R.R.R.R.R.(.)._._.).R.R.R.R.R.).).).).(.(.(.(.(.(.).).(.(.(.(.R.R.R.R.(.R.R.D.D.D.R.R.^.^./.: ",
"i.i.i.z.x.x.c.c.].].].].].].].].|.|.|.|.].].].].].].].x.a.=XkXkX=XG.'.=XtXgXtXtXtXtX=X=XoXx.i.x.'.x.x.'.'.a.x.'.].].].|.|..X X.X|.XXoXoXoXoX|.z.3.3.3.6.z.v.x.x.x.c.c.c.v.;.2.oX X+X[.I +   . = + + + + + + + + + + + . . . . . . . . . . . . . + + + + + + + + . . . .               . . X % % 1 > b E Q.eXfXfX:X} c , @ . . X . . . . . . . .                                   . . . . . . . X X O O O                                                             . . . . . . . . . . . . . + . . . . . + + + X X X . . . . .         X X X O X                 . + + J | L 9 < , +       o                                                                 . .       . . . . . . . . . . . . . . + + @ @ @ : : : : : : @ @ : : : @ @ : : > > > 2 2 2 2 2 2 2 2 2 > > : : @ + + . . . .   X                                             . + : h N N 1.1.<.<.=.&.&.V V B B V B M M M M m m m B *.5.i.c.oXoXoXoXoXx.i.6.z.c.n.|.].c.c.c.x.x.x.z.c.c.z.x.v.s.9.3 @ + .                                                                                                                                                       . L ' ' _ _ _ T _ T ) ' R F c v F ' ` ' S.S.Q.Q.^.`.`.`.`.`.`.`.`._.`.`.`.7X7XeXfX_._.).(._._._._._._.).).).).).).E.).).).).).(.R.(.(.(.E.(.R.R.R.(.R.L.R.)._.).(.R.R.R.R.).).).).(.(.(.(.(.(.(.(.(.(.(.R.R.R.R.R.R.R.R.R.R.R.^.R.^.Q./.: ",
"5.i.x.x.z.i.z.x.c.c.].].].].].].|.|.|.].].].].].].x.x.u.G.tXkXhX*X'.{.=XtXtXtXtXtXtXtXtXoXa.i.].].x.x.'.x.a.x.{.].].|.|.|. X.XXX XXXoXoXoXv.6.3.2.3.6.z.v.c.c.x.x.c.].].i.-.4.oXXX+XG.v +   O = + + + + + + + + + + . . . . . . . . . . . . . . + + + + + + + + . . .                   . X % % q 1 b ~ Q.&XfXfX:X!.D < @ + . . . . . . . .   .                                   . . . . . . . O X X                                                                 . . . . . . . . . . . . . + + + + + + + + + + X X . . . X X               .           o o         . @ e J 0 : + . .     o                                                                           . . . . . . . . . . . . . . + + @ @ @ @ @ @ : : @ @ @ : @ @ @ @ : : : > > > > 2 2 2 2 2 2 2 2 > > > : @ + + . .     X   . . .                           . .       + @ 2 S S =.<.:.;.:.V B M M m m m M M M M m m m m m M &.:.5.z.].oXoX$XoX].z.z.z.n.n.|.|.].c.c.c.x.x.z.].].c.x.}.}.P.v < + .                                                                                                                                                       . L ` ] ) _ T T _ Y Y Y ` Y F Y S.:X;X/.Q.^.^.D.^.(.(._.`.`.`.`.`.7X7X7X`.`.7XeXeX_._.R.R.(._._._._.).).).).).).).R.E.).).).).(.R.(.(.(.(.(.(.(.R.(.R.L.L.R.R.(.).R.).R.R.R.R.(.).(.(.(.(.R.R.(.(.(.(.(.R.R.R.R.R.R.D.D.D.D.D.D.^.Q.Q./.: ",
"5.x.$X#Xx.6.6.z.z.x.c.].].].].].|.|.].].].].].].].x.i.a.*XhXkXgXOX'.'.{.{.{.[.tX*XOX*X*X'.x.c.|.].].].].].].].].].].|.|.|.|..XXX X XoX|.c.6.2.2.3.6.6.v.c.c.c.x.x.x.].].5.-.j.$XoX+XF.k .   O = + . . . . . . . . . . . . . . . . + + + + + + + + + + + + . . . . . .                   . . % % = 1 J } Q.1XgXfX:X!.K < @ . . . . . . . . . .                                       . . . . . .                       X X                                             . . . . . . . . . . . . . + + + + + + + + . . X X . . X O               .             o o         . + @ , , @ . .                                                                                         . . . . . . . . . . + + + @ @ @ @ @ @ @ @ @ @ @ @ @ @ @ @ @ : : > > > > > > 2 2 2 3 2 2 2 > > > @ + + . .     X . . . . . . . . . . . . . . . . . .       . @ > k W 1.=.;.2.;.-.B m m z z z m m S N N m m m N B =.,.:.<.5.z.].oXoXoXoX|.c.c.n.|.|.|.|.|.].c.c.'.'.'.'.'.c.c.n.#X!.b @ . .                                                                                                                                                       G ) ) ) _ _ Y Y Y H Y Y Y I _ Q.;XpX:X`.`.`.^.(.(.(.(.).(.`.`.7XfXeXeX7X`.`._._.(.(.R.R.R.R.R.).).).).).).).).).).).).).).).).).(.(.).).).(.(.(.L.L.L.L.L.L.R.).R.R.R.R.R.R.R.R.R.R.L.L.L.R.(.(.(.(.R.R.R.R.R.(.D.D.D.D.D.D.D.D.^.Q./.: ",
"p.#X2X=Xx.5.5.i.i.z.c.c.c.c.].].].].].].].].].].x.x.a.'.gXzXkXtX'.a.x.i.u.q.w.*X=X[.G.G.'.{.oX].|.].c.x.].].].].].|.|.|.|..X.X.XXX|.c.x.6.;.2.6.6.6.i.z.c.c.x.x.].x.].v.;.-.v.$X+X@Xr.3 .   % = + . . . . . . . . . . . . . . . + + + + + + + + + + + + + + . . . . .                     O X % = @ J } Q.fXlXfXfX!.F < @ . . . + . . . . . . .                                     . . . . .                                                                         .   . . . . . . . . . . . + + + + % + + + X X X X X . X O                     . O         o     O   . + + + + +                                                                       . . .       . . . . . . . . . . . . . + + + @ @ @ @ @ @ @ @ @ @ @ @ @ @ @ + + @ @ : , : : : > > > > 2 2 2 2 > > > : @ + + . . .   . . . .       . . . . . . . .     . .     . + > g S y.<.-.;.;.-.*.B M m z z m N N m m m z z m S S y.y.<.=.:.i.c.|.].oX$XoX|.|. X X|.|.|.oX}.}.].'.'.'.a.x.x.c.c.}.~.W > + . o                                                                                                                                                     G ) ) ) ) Y Y Y Y H H Y I F Y S.' /.pXpXpX`.(.`.`.(.(.(.(.`.fXfXfXfXfXeX`.`.`._.(.(.R.R.L.D.R.R.).).).E.).).).).).).).R.R.).).).(.).).).).(.(.E.L.R.).R.L.L.R.(.R.R.L.L.L.L.L.L.L.L.L.L.L.(.(.(.(.(.(.(.R.(.(.(.D.D.D.D.D.D.D.D.^.Q./.: ",
"p.*XkXhX=XG.a.x.x.c.c.c.c.].].].].].x.x.].x.i.c.x.x.'.=XkXkXgXOX}.x.x.x.u.p.{.tX=X{.{.{..X.X|.].].].].].].|.|.|.|.|..X.X.X|.|.|.].].x.5.;.3.6.i.6.6.z.].|.c.z.x.x.v.v.5.-.3.n.@X+X=Xe.: . . + = + + + + + + + + + + + + . . . . + + + + + + + + @ @ @ # # # + + . . .                         X + : b R !.:XfXfX1X:X' 4 @ + . = % @ + + + . . . . .                                                                                                                             . .             O O X X X X X O       . . .                                           o O X . . . .           o                                                           . + + + . . . . . . . + + + + + + + + @ @ @ @ : : @ @ @ @ @ @ @ @ @ @ @ : @ + . . . + @ @ @ @ @ @ @ @ 1 1 1 1 1 1 1 1 @ # + . . . . .               . . . .                 X @ > z 1.1.<.5.3.2.-.&.V V &.V V B B V C S S m l h h x S y.s.u.<.=.:.i.v.}.oXoXoXoXoX XXXoXoXoXoXoX}.}.}.{.'.'.'.x.x.c.'.}.K.I > .   * o o     . + + + +                         O * * O X X         X O                                                                                 D R Y Y ) Y I Y I I Y Y Y F Y S.' S.^.`.pXpXfXfX`.`.`.`.`.`.`.fXfXfXfXfX`.`.`._.R.R.R.R.R.R.R.R.).).(.).).).(.)._.).).).(.).).).).).).).).).).).R.R.R.R.R.R.(.).R.R.R.R.R.L.L.L.(.(.(.(.(.R.R.R.(.(.(.(.(.(.(.(.).(.(.R.R.D.D.D.D.S.^.: ",
"r.*XkXkXgX}.G.x.x.c.c.c.c.c.c.].'.].'.].oX{.x.x.x.x.'.oXtXgX*X'.c.z.x.'.G.'.=XgX=X@X.X.X.X.X.X.X].].].].].|.|.|.|.|.|..X.X.X.X{.].x.i.5.2.5.6.i.i.z.c.].c.c.z.v.v.M.v.3.;.6.n.+X@XOXY @ . . + 1 @ + + + + + + + + + + + + + . + + + + + + + @ + @ @ @ # + + + + .                             . + : b R } :XfXfX1X:X' 5 @ + . = % @ + + + + . . . .                                                                                                                             X   X           O O O O O O O O                                                       o O .   .                                                                         . . + @ + + + + + + + + + + + + + + + + @ @ @ : : : : : @ : : : : @ @ @ : : @ + . . . . @ @ @ @ @ + + @ @ @ @ @ @ @ @ @ + + . . . . . . .           . + @ @ + + .               : g B :.:.:.3.2.2.-.V V *.-.-.*.&.&.V C S N z h g g n n d.s.y.<.=.:.u.x.}.oXoXoXoXXXXXXX$X$X$XoXoXoX}.}.}.].'.'.'.'.'.'.'.}.y.g +   o o o     . + + + +                 . . . . O * * * o X         X X X                                                                               D R R Y Y Y Y Y I I I I I I Y _ _ S.S.^.`.`.pXpXpXpX`.`.`.`.`.fXfXeXfXfXfXfX`.R.(.R.R.R.R.R.R.R.R.R.R.R.).).)._.).).).).).).).).).).).).).).).).R.R.R.R.R.R.E.).R.(.(.(.(.L.L.L.(.(.(.(.(.(.(.(.(.(.(.(.(.(.(.(.(.R.D.D.D.C.V.N.S.S.^.: ",
"r.*XkXkXhX*X'.'.x.c.c.c.c.c.c.].x.'.'.oX=X=X].a.x.x.x.'.}.'.a.a.x.z.x.].'.OXtXhX=X@X.X.X.X.X|.|.].].].].].|.|.|.|.|.|.|..X.X.X].x.i.:.:.5.6.i.i.x.c.].].c.z.z.v.v.v.6.-.;.z. X+X@XP.v + .   . 1 @ @ @ @ @ + + + + + + + + + + + + + + + + + + + + + # # # + + . .                             . + @ 0 K E `.fXfXfX:X!.c : @ + = @ @ + + + + . . .                                                                                                                                                   . . . .                                                         O . . . + + . . .                                                                   . + @ @ @ + + + + + + + + + + + + + + @ @ : @ : : : : : @ @ : : : : @ @ : : @ + . . . . @ @ @ @ + + + + + + + + + + + + + . . . . . . . . .       . @ : > > > : @ + .         . > l &.:.:.:.-.;.2.;.*.&.*.-.:.=.=.C B N N x k 3 > > > 3 t.y.s.w.,.=.<.i.x.].|.|. X X X XoX$X$X$X$XoXoX}.{.{.].].'.x.x.x.x.}.K.x @   o o                                 . . . O * * * * o           X X X X                                                                             9 L ` Y Y Y Y Y I I I F I Y _ _ _ _ _ N.S.^.`.`.pXpXpXpXpXpXpXpX`.`.7XfXfXfX`.D.R.R.R.R.R.(.(.(.R.R.R.R.).(.).).).).)._._.).).).E.).).).).E.R.R.R.R.R.R.R.R.E.(.R.R.(.(.(.(.R.L.R.(.(.(.(.(.(.(.(.(.(.(.(.(.(.(.(.(.R.D.D.D.C.V.S.S./.: ",
"r.}.gXkXgX*XG.'.'.c.c.c.c.c.c.'.x.a.'.=XgX=X].a.x.x.x.a.a.a.a.a.x.x.'.'.'.OXgXhX@X.X].|.|.|.].].].].].].|.|.|.|.|.|.].|..X{.].x.i.<.:.5.i.i.i.z.c.].|.].c.z.v.v.v.z.2.*.3.n.XX+XoXp.g + .   . % @ @ @ @ @ @ @ + + + + + + + + + + + + + + + + + + + + + + + . .                           .     + @ < c E Q.fXlXfXfX^.F < @ % % + @ + + + + + . .                                                                                                                                                                                                                 . . . + , 4 e < : + . .                                                               . + @ @ @ @ @ @ @ @ @ @ @ @ @ @ @ @ @ @ : : @ @ @ @ : : : @ : : : : @ @ : : @ + . . . . @ @ @ @ + + . . + + + + . . . . . . . . . . . . . . . + @ : 2 g g h g 3 2 : @ .       . 2 m 1.1.=.=.&.-.;.;.-.*.*.*.=.V B m l g g 2 > : @ + + : v U d.y.8.,.q.u.x.x.c.|.n.n.n. XoXoX$X$X$X$XoXoXoX{.{.].'.'.'.x.x.}.P.U 3 +   O               o                 . . . . * * * *               X X X                                                                           . , F ` Y H Y Y I I I F F Y Z.S.S.S.S._ _ _ Z.S.Q.`.`.`.:XpXpXpXpXfXfX`.`.`.`.(.(.R.R.R.R.(.(.(.).(.(.(.(.(.(.(.R.).).(.(.).).(.).R.E.).).).R.R.L.R.R.R.R.R.R.R.(.L.L.L.(.(.(.(.(.R.R.R.R.R.R.R.(.Q.Q.Q.(.(.(.(.(.(.(.R.D.D.D.C.V.S.S./.: ",
"w.J.gXkXhX*XG.G.'.x.c.c.x.x.'.'.'.p.'.gXgX=Xx.x.x.x.x.a.a.a.a.a.x.x.'.a.p.{.gXhX@X{.].].|.].].].].].].].|.|.|.|.|.|.|.|.].].z.i.:.;.5.i.i.i.z.x.c.].].c.c.z.v.v.z.6.-.-.z.oX+XXX{.w.g @ .   . $ + @ @ @ @ @ @ @ + + + + + + + + + + + + + + + + + . . + . . .                         . X X . . . @ < c Y Q.1XlXfXfX/.R < @ % % + @ + + + + + . .                                                                                                                                                                                                                 . + + @ 0 K ~ K c : + . .                                                             . + @ : @ @ @ @ @ @ @ @ @ @ @ @ @ @ @ @ : : : : @ @ @ : : : : : : : : : : : @ + .   . . $ @ @ @ + + + . . . . . . . . . . . . . . . . . . . + : 2 g l z N N m z h g 2 : . X . @ g C 1.:.=.C V &.;.2.:.*.*.=.V M z h 3 > : @ + . . . . + 3 x W t.y.9.0.q.a.x.c.].n.n.n.n.|.oXoXoXoXoXoXoXoXoXoX{.].'.'.'.c.].#X~.W > + .               o o                     . O O * o                 X                                                                             . @ D R Y H Y Y I I I I F _ Q.^.D.^.S.S.N._ _ _ _ S.D.^.`.`.:X:X`.fXfX`.`.(.(.(.(.R.R.R.R.R.(.(.).).).(.(.(.(.R.R._.).R.R.R.R.).).R.(.).).).R.R.L.R.R.R.R.R.R.R.R.R.L.R.R.(.(.(.(.R.R.R.L.D.D.D.D.D.D.Q.(.(.(.(.(.R.D.D.V.V.V.V.N.D.S./.@ ",
"w.G.2XkXkX*XG.a.x.x.x.x.x.x.'.'.G.p.{.gXgX{.a.x.x.x.x.a.x.a.a.i.a.a.a.u.p.*XgXgX{.{.].|.|.].].].].].].].|.|..X.X|.|.|.].v.i.5.5.;.3.6.z.z.i.z.c.c.].].c.x.c.v.v.6.2.;.5.c.+X+XXX}.0.g @ .   . # + @ @ @ @ @ @ @ @ + + + @ @ + + + + + + + . . . . . . . . .                           . % % + . . @ : 0 Y Q.`.lXfXfX:XE 4 @ % + + @ + + + + + . .                                                                                                                                                                                                                 . . + : b ~ } R D 4 @ .     o                                                         . @ : : : : : : : : @ @ : : : : : : : : : : : : @ @ @ @ : : : : : : : : : : @ + .   . . $ @ @ @ + + + . . . . . . . . . . . . . . . . . . + : 3 h z N C C V V B m z k 6 + . . : l C :.*.C N M V :.3.;.*.=.C m l g 3 > , $ # X X X X X + @ 3 v W E U 9.8.u.a.x.c.c.n.n.|.|.].|.|.oXoXoXoXoXoXoX{.].'.'.'.].].#X*X~.v : @ + .             o o                   . o O * o                 X                                                     .     . . . . . . . . . . + 9 K R H Y Y I I I I Y S.^.`.^.^.^.^.S.S._ _ _ _ Z.S.D.(.`.`.`.`.`.7X`.(.(.R.(.(.(.R.(.(.(.(.).R.R.R.(.).).).)._.).R.L.L.R.(.).(.(.).).).(.R.R.R.R.R.R.R.L.R.L.R.L.L.L.L.R.(.(.(.R.R.L.D.D.D.D.D.D.L.(.(.(.(.(.R.D.D.V.D.D.V.V.S.S./.@ ",
"w.p.*XgXgX#Xp.p.i.a.z.x.x.x.x.G.p.G.=XgX=X'.a.x.x.a.a.a.a.a.a.i.a.a.a.p.[.tXgX=X{.].].].].].].].].].].].|.|..X.X.X.X].x.i.5.:.:.3.6.z.z.i.z.x.c.].].c.x.z.v.v.z.3.;.2.z. X+XXX|.'.0.l : + . X X + @ @ @ @ @ @ @ @ @ @ @ @ @ @ # + + . . . . . . . . . . .                             % = = % + . @ , 0 Y Z.`.fXfXfX:X} 4 @ @ + + + + + @ + + . .                                                                                                                                                                                                               o . . + > b W R v c 4 @ .   o o                                                         . @ : : : : : : : : : : : : : : : : : : : : : : : : : : : : : : : : : : @ @ @ + .   . . @ @ @ @ + + + + . . . . . . . . . . . . . . . . . + 2 h m B V V =.*.&.&.B M z n = . + 2 m =.*.&.N z z M *.3.:.*.C m h 3 2 > 8 8 & & X ; ; # # + + @ > 5 v I I A 9.0.u.a.x.c.c.c.c.x.x.c.'.].].}.oXoXoX{.}.'.'.].].].{.#X#XQ.I 2 > @ .                                   O O O o                 X                                               . . . . . . . . . . . . . . . . + , D ` L H Y F I F I _ S.^.^.^.^.^.^.^.Q.S.S.' N.Z.S.S.D.^.(.(.(.(.`.`.`.`.(.R.(.(.(.(.(.(.(.(.R.R.(.).).)._._._._.).R.R.R.(.).(.(.(.(.(.(.(.(.R.R.R.R.R.L.L.L.R.L.L.L.L.L.R.R.(.R.R.R.D.D.D.D.D.L.Q.(.(.(.(.(.R.D.D.D.D.D.D.D.S.S./.@ ",
"q.0.K.2X2XP.q.u.u.u.i.a.x.a.a.a.p.J.tXgX}.a.a.a.a.a.a.a.a.a.a.a.a.a.a.a.OXhXgX{.].'.c.].c.c.c.c.].|.].].|..X.X.X.X.X].i.5.:.:.3.6.z.z.i.i.x.].].].].c.z.z.v.z.6.3.;.3.c.XXXX|.].x.0.z 2 + . X   + @ @ @ @ @ @ @ @ @ @ @ @ @ @ # + . . . . . .       . .                             . % - w = % . @ , 0 R Z.`.fXfXfX:X} 4 @ , + + + + + @ + + . . .                                                                                                                                                                                                             o * . + : b v v j 5 > @ .   o o                                                         + @ : > > > > : > : : : > : > : > : > : : : : : : : : : : : : : : : : : @ @ # +     . . @ @ @ @ @ + + + . . . . . . . . . . + + . . . . . + 3 z B &.&.&.:.*.*.&.V V N n q % @ 3 N &.&.&.m h h m *.:.:.=.m g > : @ $ 8 w - - ; X # # + + + . + @ 4 b v v x C ,.q.u.a.x.x.x.x.x.x.x.x.}.}.oXoXoXoX}.'.'.]..X{.].'.#X*X~.I 3 > : + .                             o O O O o                 X                                               . . . . . . . . . . . . . . . . + + y ` R H H F I F I ' S.^.^.^.^.^.^.^.^.Q.S.S.S.S.S.S.S.S.Q.^.^.^.^.(.`.`.`.(.(.(.(.(.(.(.(.(.).).).).).).).)._._._.).).(.(.(.).(.(.R.R.(.).).R.R.R.R.R.L.L.L.R.L.L.L.L.L.L.R.(.(.(.(.R.R.R.R.D.L.(.(.(.(.R.D.D.S.V.V.S.D.D.D.S.S./.@ ",
"s.,.<.~.#X~.s.,.<.u.a.i.u.a.p.w.p.OX=XOXG.p.p.a.a.a.a.a.a.a.a.a.a.u.p.*XgXhX=Xa.x.x.x.c.c.c.].].|.|.|.|.|..XoXoX{.x.5.:.:.5.5.5.i.6.5.6.x.].].].].|.c.z.z.z.6.2.2.3.z.oX+X Xc.x.a.~.1.3 @ .     + @ @ @ @ @ @ @ @ @ @ + + + + + . . . . . . .                                       . X = w w % % . @ c R Z.(.fXfXfXfX!.c : @ @ @ @ + + + + + + . . . .                                                                                                                                                                                                         o o . . @ 4 5 2 : @ @ .   o o o                                                         + @ > > > > > > > > > > : : : : > : > : : : : : : : : : : : : : : : : : : @ + .     . . $ @ @ @ @ @ + + + + X . . . . . . . . . . + . .   + g S =.&.&.&.u.M.5.&.&.&.m n r 1 : k A =.&.=.m 3 g m V 1.:.B 3 : @ + . . . X       . + + + + .     . . @ : 2 j l N C >.<.<.q.u.u.a.a.x.x.x.x.}.}.}.{.].].].].{..X.X{.{.OX*X*X~.E g 2 c < @ + . .                                                                                                 . . . . . . . . . . . . + . . . 7 { ` H F I F I _ S.^.^.^.^.^.^.^.^.^.^.^.^.^.^.Q.S.S.S.Q.^.D.^.^.D.D.(.`.`.(.(.(.(.(.(.(.)._._.).).).).).).).)._._._.).).).).(.(.R.R.R.(.(.(.(.(.R.R.R.R.(.L.R.L.L.L.L.L.D.R.R.R.R.R.R.R.(.(.(.(.(.(.R.R.D.D.V.V.N.V.S.D.D.S.S./.@ ",
"<.=.w.1X2X1XK.,.w.<.<.5.u.q.0.0.P.*X*X}.p.p.p.a.a.a.a.a.a.a.a.a.u.a.#XgXgX=X}.i.x.x.x.c.c.c.].].|.|.|.|..X.X{.].x.i.:.:.:.5.7.7.6.6.z.z.c.].].].].c.x.z.z.z.6.;.;.6.n.oXXX|.c.x.a.~.d.x : +   X + @ @ @ @ @ @ @ @ + + + + + + + . .   . . .                                         . X = w - % + . @ c R Z.(.fXfXfXfX/.F < @ @ + + + + + + + + + + . . . . . .                                                                                                                                                                                                 o o o   + 1 > : @ @ + .   o o o                                                       . + : > > > > > > > > > > : : > > > > > : : : : : : : : : : : : : : : : : : @ + .     . . $ @ @ @ @ @ @ + # + . . . . + + . . . . . . + .   @ x C *.*.&.&.s.#X7.*.*.&.M x Q 1 > c A =.&.=.m g g m V =.C z > @ + . . . X     . . + + @ @ @ . o o     . + @ > 2 g l N C A >.,.0.q.u.p.a.x.'.x.'.].].].].].].{..X.X.X.X{.}.#X#X~.d.!.:X<XK > @ + .                                                                                               . . . . . . . . . . + + + . . . , J L H F F F Y Z.D.^.^.^.^.^.^.^.^.^.^.^.^.^.^.^.Q.Q.Q.Q.^.D.^.^.D.D.(.(.(.(.(.(.R.R.R.(.).).)._._._.).).(.).).).).).).).(.(.(.(.R.R.R.(.(.(.(.(.R.R.R.R.R.R.R.R.L.R.R.L.D.R.R.R.R.R.R.R.^.R.(.(.(.(.(.D.D.V.V.V.V.S.S.D.D.S.S./.@ ",
":.&.q.#X2X1Xf.A 0.,.:.<.<.,.>.8.*X*X#XG.u.u.p.a.a.a.a.a.a.a.a.a.i.#XgXhXgX}.a.a.x.x.c.c.c.c.].].].c.].|.oXoX'.z.i.5.:.:.5.5.i.i.6.z.c.].|.|.].].].z.z.z.z.6.2.;.2.v.$X$X Xc.c.x.i.s.~.U 2 @   O + @ @ @ @ @ @ % + + + + + + + . . . . . . .                                         . . % - % . . . $ 0 L ' (.fXfXfXfX:XR 4 @ @ + + @ @ @ @ + + + + + + + + + + .   .                                                                                                                                                                                           o o o   . + @ @ + + + .   o o o                                                       . + : > > > > > > > > > > > > > > > > > > : : : : : : : : : : : : : : : : : @ + .     . . % @ @ @ @ @ @ @ @ # + + + + + + + . . . . + + .   < n 1.*.*.&.B s.~.s.-.*.&.M z Q 6 > k S A &.=.m h l M B B z 3 @ .     . . . . . + + @ @ : : @ o o o o     . . + @ : 2 g h x N A A >.,.0.u.a.x.i.z.x.].].].].{..X.X.X.X.X.X.X}.*X~.~.1XlXjX<XZ 2 @ + +                                                                                               . . . . . . . . . + + + .     + 7 D H H F I T Z.Q.Q.^.^.^.^.^.^.^.^.^.^.^.^.^.^.^.^.^.^.^.D.^.D.D.D.R.(.(.(.(.(.R.R.R.R.(.).)._._._.).(.R.).).).).(.(.).).(.(.(.(.(.(.(.(.(.(.(.(.(.(.R.R.R.(.R.R.R.R.R.L.D.R.R.R.R.R.R.R.D.R.(.(.(.R.D.D.N.N.V.S.S.D.D.D.S.S./.@ ",
":.&.=.s.~.~.y.C C ,.q.q.,.C 8.s.*X#XK.w.0.u.u.u.p.p.a.a.a.a.a.i.i.#X2X2X#Xa.a.x.x.x.c.c.c.c.c.c.c.c.].|.oX}.z.i.5.:.:.:.5.6.i.i.z.c.c.|.|.|.|.].c.z.6.z.6.3.;.2.i.oX=XoX|.c.x.x.u.a.#Xp.h @   o % + + @ @ @ % % + + + + + . . . . . . . . . .                                       .   O % % .   . $ 0 F ' (.fXfXfXfX:X} 5 @ @ + + @ @ + + + + @ @ @ @ @ @ @ @ + + . . . .                                                                                                                                                                                     o o o     . . . . . + .   o o o                                                       . @ : > > > > > > > > > > > > > > > > > > : : : : : : : : : : : : : : : : : @ .       . + $ @ @ @ @ @ @ @ @ + + + + + + + + + + + + + + +   9 S 1.-.-.V M y.f.7.*.*.&.M x n 3 : 3 Z C =.=.M m m B C m 3 @ .       X X X . + + @ @ : : : @ . o o o o       . . + @ : 2 3 k x Z A A ,.,.<.5.u.i.x.c.].]..X.X@X@X+X+X+X+X.XoX$Xu.y.1X2X2X2X1XW > @ +                                                                                                   . . . . . . . + + + .     . + 0 H H F Y _ S.^.^.D.D.^.^.^.^.^.^.^.^.^.^.^.^.^.^.^.Q.Q.D.D.D.D.D.D.D.D.(.(.(.(.(.(.R.R.).).).).).).(.R.).).(.).).(.(.R.(.(.(.(.(.(.(.(.(.(.(.(.(.R.L.L.(.(.R.R.R.R.R.R.D.R.R.R.R.R.R.R.D.R.(.(.(.R.D.D._ N.V.S.D.D.D.S.S.' !.@ ",
":.&.B ,.K.~.K.8.A 0.w.,.,.w.K.#X~.K.r.0.0.u.u.u.u.u.p.a.a.p.p.u.i.x.}.'.a.u.a.x.c.c.c.c.c.c.x.x.x.c.].}.x.i.5.5.;.;.:.5.6.i.z.z.].].|.|.|.|.|.c.v.z.6.z.4.;.;.6.|.oXoX Xn.c.v.a.u.a.}.P.Z :   o X + + + % # + # + + . . . . . . . . . . .   .                                             X O     . @ 9 D E Q.`.fXfXfX:X!.c @ @ + + + + + + + + @ @ : @ : : : : @ @ + + + . .                                                                                                                                                                                   o             . . . . .                                                               . @ > > > > > > > > > > > > > > > : > > > > : : : : : : : : : : : : : : : : + .       . + $ @ @ @ @ @ @ @ @ @ @ @ @ @ + + + + + + + + + + . 5 S :.;.-.V m A 1.=.&.&.&.M z x 3 : > k N C =.V V V C C l : .         X % + + @ @ @ @ @ @ @ + . . .             . . + + @ : > g k x Z A C :.:.5.i.x.c.]..X.X@X@X@X@X+X+X+X+XoX#Xu.s.1X2X2X2X2X<XK : + .                                                     X                                               . . . . . + + + . O o   . 7 H Y F _ Z.Q.^.^.D.D.^././.^.^.^.^.^.^.^.^.^.^.^.^.Q.Q.D.D.D.D.D.D.D.D.D.(.(.`.`.(.R.R._.).(.(.(.(.).(.).).).(.(.R.R.R.R.R.(.R.(.(.(.(.(.(.(.(.(.R.R.R.(.R.R.R.R.R.R.R.D.D.R.R.R.R.R.R.D.R.(.(.(.R.D.V._ N.S.D.D.D.S.S.S.' !.@ ",
"&.&.B ,.#X2X1X~.0.0.,.>.0.P.*X#Xs.r.w.0.q.u.u.u.u.u.u.p.p.p.u.u.5.6.i.i.i.a.x.x.c.c.c.c.c.c.x.x.c.].c.x.5.;.:.;.-.:.5.6.i.x.c.].oX|.|.|.|.|.c.c.z.j.6.6.2.;.5.c.$XoX Xn.b.c.v.i.i.x.{.[.9.2   o . + + + % # + + + . . . . . . . . . . . . . . . .                                         X O   o   + < c Y D.).fXfXfX:X!.D @ @ . . . + + @ , , : : : : > > > > , , @ @ @ + . . .                                                                                                                                                                                             o . O O % % . .                                                         + @ > > > > > > > > > > > > > > > > > > > > : : : : : : : : : : : > > > : : + .       . # @ @ @ : @ @ @ : @ : @ @ @ @ @ + + + + + + + + + . 5 1.7.3.;.V m x N V V &.&.M m z 3 : : 3 l M =.1.,.=.&.M g .           . % + @ @ @ @ @ @ + + + + + . . .         . . . + + @ @ > 3 k x N C =.:.i.i.x.c.|..XXX@X@X@X+X+X+X+X+XoX=X#X~.~.#X2X2X2XjX!.5 @ + .                                                 X O X                                               . . . . . + + . * O   . $ D H Y Z.S.Q.^.^.^.^.^././.^.^.^.^.^.^.^.^.^.^.^.^.Q.Q.D.D.D.D.D.S.V.D.D.D.(.`._._.(.R._.).).R.R.(.)._.).).).).(.(.R.R.R.R.R.(.(.(.(.R.R.R.R.R.(.R.R.R.R.R.R.R.R.R.D.D.D.D.D.R.R.R.^.R.D.R.(.(.(.D.S.N.N.Z.S.D.D.D.S.S.S.' !.@ ",
"&.=.=.w.1XkXgX1Xw.8.,.w.K.).P.K.8.0.,.<.<.<.<.<.<.<.<.q.q.q.q.u.5.5.5.5.i.a.x.x.x.c.c.c.c.c.x.x.c.x.i.5.;.-.;.:.3.5.i.z.x.c.].|..X|.|.|.|.c.c.z.z.6.4.3.2.2.z.oX$X.Xn.b.b.v.v.s.x.'.].{.F.c . o . + + + + + + . . X . . . . . . . . . . . . . . . . .                                     X O o o   + , c Y D.R.eXfXfX:X;XR > @ @ + + + + @ , : : : > > > > 2 > < , , , @ @ + + . .                                                                                                                                                                                           O - - = = 1 % + .                                                     . + @ > > 2 > > > > > > > > > > : : > > > > > : : : : : : : : : : : > > > : @ + .       . # @ @ : : : : : : : 1 1 1 : @ @ @ + + + + + + + + + 3 V 7.7.2.V m x z V V &.&.B m m h > : > g m V 1.7.:.&.m 2   o       . + + @ @ @ @ @ + + . . . @ @ + + . . . X X % = - - w q q 1 6 j h z B =.<.i.i.x.c.|.|..XXX@X@X+X+X+X+XXXoX=X2X#Xf.f.#X2X2X1X:XK > @ .   X X X % % X X X   X                           X O O X                                             . . . . . + + . o * . . + 9 H _ S.Q.Q.^.(.^.^.^././.^.^.^.^.^.^.^./././.^.^.^.^.D.S.S.D.D.V.V.S.V.D.R.(.(.`._._.).).).(.(.).)._._.).).).(.).(.(.R.(.(.(.(.(.L.L.L.L.(.(.(.(.(.R.R.R.L.L.D.D.D.D.D.D.D.R.R.R.R.D.R.R.R.R.D.D.V.N.V.S.S.D.D.D.S.S.Z.' !.@ ",
":.<.,.w.2XkXgX*X9.>.w.P.#XP.r.8.,.,.<.,.=.=.=.:.:.<.<.<.<.q.q.<.3.3.3.:.3.5.i.i.z.z.z.x.c.c.c.c.x.i.3.-.-.;.5.7.7.i.v.v.c.c.].|.|. X.X|.].x.z.z.6.6.3.;.2.6.c.oXoX|.c.z.z.z.v.x.x.].].{.P.I + . . . X X % X . . + . . . . . . . . . . . . . . . .                                   X     X X O o o . @ 0 Y A.D._.fXfX:X:X} 2 : 9 8 1 @ + @ @ : : > > > 2 2 2 2 > < < 1 : , @ @ + . . . .                                                                                               . . . .         . . . .                                                               * d p - q w , @ .                                                     . + , > > > > > > > > > > > : : : : : : > > > : : : : : : > > > > > > > > : @ + .     . + $ @ @ : : : : : : @ : : : : @ @ @ + + + + + + + + + 2 B 7.7.2.V B N N C &.&.V B m N z 3 > > 2 l N g.y.,.M l :   ; o       + @ @ @ : @ @ + + . X . @ @ @ + + + + % - - w p s s s p p e r g h m C <.i.z.c.c.|.|..X.XoX+X+X+XXXXX.XoX=X2X2X#X~.s.#X2X1X1Xd.k 5 @ + $ 8 w w w - - - - O .                         O O O O X                                           . . . . . + + . o o O . + , F ' Q.Q.Q.^.(.^.^.^././.^.^.^.^.^.^.^.^.^.^.^.^.^.^.D.S.S.D.D.V.V.S.N.V.D.^.(.(._._.(.).(.(.).).).)._._.).).).).(.).R.R.(.(.(.R.L.L.L.R.R.(.(.(.R.R.R.R.D.D.D.D.D.D.D.D.D.D.D.D.D.D.R.R.R.R.D.S.V.N.S.S.D.D.D.D.S.S.' '  .@ ",
":.:.<.q.#XgXrX*X9.r.P.#X~.s.=.V &.&.&.&.&.&.&.&.&.=.:.<.<.<.<.<.:.;.;.-.:.3.5.i.z.z.c.c.v.z.z.z.6.2.-.*.;.5.z.v.z.x.c.c.].|.|..X|.|.|.].c.z.j.6.4.4.3.2.6.c.XX+X Xc.z.x.'.'.x.a.]..X].'.#Xy.3 @ .     X O     . . . . . . . o o o O O O . . . .                                       X X X X X o * . + 9 R Z.A._.fXfX1X:XZ.k 3 R L e + . + 1 1 1 1 2 2 2 2 2 2 > > > > > : : : : : @ @ + + + .                                                             . . . . . + + + + + + + @ @ @ @ @ @ @ @ @ @ @ @ : @ : 1 1 .     X X . . . X X X X X . .                         o   p p - 1 e P 7 .               o                                   . + @ : > > 2 > > > > > > > > > > > > > > > : : : > > > > : > > > > > > > > : @ . . . . . @ w @ : : @ : : , , @ @ @ @ : @ @ @ + + + + . + + @ @ : l 1.f.7.;.*.&.V V V V V B B V C N h 2 2 g n ~ ~ K 3 : @ .           . + : : : : : @ @ + + + + + @ + + % q e w w w e w p p p p p s e 6 k N C u.z.v.n.n.|..X.XXX+X+XXX.X@X=X=X2X2X2X2X2X#Xs.a.}.}.P.r.U v 3 : @ , e s d d d d s s w q % .                     - = O .                             X O X       . . . . + + + + o * . . @ @ c !.Q.^.^.`.^.^.^.^.^.^.^.^./.^.^.^.^.^.^.^.^.^.^.^.D.D.D.D.D.D.D.D.N.V.V.C.C.D.(.`._._._._._.(.(.(._._._.).).).(.(.R.R.R.L.L.R.R.R.R.R.D.D.R.R.R.R.R.R.R.R.D.D.D.D.R.R.I.C.D.D.R.R.R.R.D.D.D.V.N.N.S.D.^.^.S.S.S.' ' ' ` : ",
"<.<.,.<.p.*X*XP.B.K.P.K.y.=.=.1.*.*.*.&.&.&.&.&.&.&.:.:.:.<.<.5.-.;.;.-.-.;.5.5.i.i.z.z.i.6.6.6.3.;.-.;.6.z.x.x.z.x.c.c.|.|.|.|..X|.|.c.v.j.6.7.7.2.2.4.z.|.XXXX|.c.x.x.'.'.'.x.]..X].].#XK.z > +     X o X O # . + + . .   o o o O O O . . . . .                                         X X X o * . + 9 H Z.A._.fXfX1X`.e.h g } } P , + + q 1 1 > 2 2 2 2 > > > > > > > > > > > : : : : @ @ @ + . . . . .                                     . . . . . . + + + + @ @ : : > > 1 6 6 6 6 6 6 6 5 5 5 j j j j 5 5 0 7 @ .   X X . . . . + + . . . . . .                     o   . X . + e J y $ .             o o                                 . + @ : > > > > > > > > > > > > > > > > > > : : : > > > > > > > > > > > > > : % .   . . . @ 8 , , : : : : , @ + @ @ @ : @ @ + + + + . . + + @ + @ 3 S f.f.6.2.;.-.&.V V &.&.&.*.*.=.M l 3 2 2 b ! e : + + +           . + @ : : : : @ : @ @ + + @ % q q q w w w w w e e e p p p s s p e 6 x B <.6.v.c.n.|..X.X.X.X.X.XoX=X=X2X2X2X2X2X2X2X#Xa.u.a.'.#X*X).Z.v 2 @ @ s d d d d ! ! ! ! s s s s - - = O         O % . .               o O ; O O               . . . . . + + % + O * + . + : F !.Q.^.^.`.^.^.^.^.^.^.^.^.^.^.^.^.^.^.^.^.^.^.^.^.D.D.D.D.S.D.D.D.V.V.V.V.V.D.R.(._._.).)._._.).R.(.(.).).).(.(.(.(.R.R.L.L.L.R.R.D.D.D.D.R.R.R.R.L.D.D.D.D.D.C.D.C.C.C.C.D.D.D.D.D.D.D.D.D.V.N._ S.S.S.S.S.] ' ] ' ] ' : ",
"s.<.:.=.0.K.P.P.P.K.p.,.V B V =.*.*.&.&.&.&.&.&.=.=.:.:.:.:.:.<.-.-.;.-.-.;.;.3.6.6.i.i.6.5.3.3.;.;.2.6.v.v.x.z.z.x.c.].|.|.|.|.|.].c.z.z.6.4.3.4.;.2.z.oXXX.XXXn.c.x.x.'.'.'.]..X.X].].#X#XU > + . .       O # . + + . .   o o o o o . . . . . . .                             O o o       X o o O . + 9 H _ N.).fXgXfX`.e.x v !./.| 9 + @ 1 1 : > > 2 > > > > > > > > > > > > > > > > : : : , @ $ @ + + + + + . . . . . . . . . . . . + + + + @ @ @ @ @ @ @ : : : < 4 4 6 0 0 b b c k c c k k k k k k k k k k b b 7 @ .       . . . + . . . . . . . . . .                           . 8 P J e $ +                                               . + @ : > > > > > > > > > > > > > > > > > > : : : : > > > > > > > > > > > > > % . . . . + @ 8 , , : , , , , @ + @ @ : : @ @ + + + . . . + @ @ + @ 2 m g.f.v.6.2.;.-.*.*.*.*.-.-.;.<.1.A x 2 : 2 6 1 + + . .           . + @ : : : : @ @ @ @ + + % w e p e w w w w w w e p p p s s s s e r h m =.<.i.v.c.].]..X.X.X.XoX=X=X2X2X2X2X2X2XgXgX=X}.{.].'.}.*X&X1X`.I 5 : 9 s s p s ! ! ! ! ! ! o.o.d d s p w & X . . . . . . .                                     . . . . + + + % * * . . + 9 ` !./.^./.^.^.^.^.^.^.^.^.^.^.^.^.^.^.^.^.^.^.^.Q.Q.D.D.D.S.V.S.D.D.D.D.V.V.N.V.C.D.`._._._._._._.).R.(.(.(.(.(.(.R.).).R.R.L.L.L.L.L.L.D.D.D.D.D.D.D.D.D.D.D.C.C.C.C.C.C.C.D.D.D.D.C.D.D.D.V.N._ _ V.S.S.V._ _ _ _ ' ' ` , ",
"7.<.,.V =.w.s.K.p.0.>.C V &.&.V &.&.&.&.=.&.=.&.1.:.:.:.*.*.*.:.-.;.2.2.:.:.2.3.6.i.z.i.6.3.;.-.;.5.i.v.v.x.z.z.x.c.].|.|.|.|.|.c.x.z.z.6.6.4.2.2.2.6.n.$X@XXX|.c.c.x.'.'.'.'.{..X.X.X].}.*XK.h @ . .       X   . . . . . . o o         . . . . . . . . .                     o o o     o   o O O + + , 0 F _ N._.fXgXfX1XD.T I :X:X!.c @ @ : : 1 > > > > > > > > > > > > > > > > > > > > < > 1 1 1 1 1 @ , , , : : @ @ @ @ @ @ @ @ @ , , : , < < > > > > 2 2 4 4 4 5 5 c c c c k k k k k k k k k k k k k k k k b 0 : + .       . . . + . . . . . . . . .                             . 8 u J u 8 # .     .                                       . + @ : > > > > > > > > > > > > > > > > > > : : : : > > > > > > > > > > > > > + O . . . + , 8 < < , : , , : @ + @ @ : : @ @ + + + . . . + @ @ + @ > h C f.M.v.6.5.3.2.;.2.2.2.2.3.5.s.y.W j > @ @ @ . . . .         . . + @ @ : : : @ @ @ @ @ % q e s s e w w e w w e e p p p p s s s p r k x M &.5.z.c.c.].]..X.XoX$X=X2X2X2X2X2X2X2X2X2X2X=X=X@XoX{.}.*X*X&X(.Z.F 4 4 u ! ! s s ! ! ! ! ! ! ! ! ! ! s s u u w w w = % .                     X X             . . . . . . + + * o . . + D  .!./.Q.^.^.^.^.^.^.^.^.^.^.^.^.^.^.Q.^.Q.Q.Q.Q.Q.Q.D.D.S.S.V.V.C.D.D.D.V.V.N.N.V.V.D.(._.`._.)._._.(.).(.).(.(.R.R.(.R.R.R.L.L.L.L.R.L.D.D.D.D.D.D.R.D.D.D.D.C.C.C.C.C.C.D.D.D.D.C.D.D.D.D.N._ _ N.S.V.N._ _ _ _ _ ' ] ' , ",
"<.<.:.V V ,.0.y.>.C B B =.=.&.V &.&.&.=.=.=.,.=.<.:.:.:.-.-.;.3.5.6.i.i.i.6.6.6.v.v.i.7.3.;.;.;.5.i.v.v.x.i.z.x.c.].|.|..X|.].c.z.z.i.6.6.6.3.2.2.6.v.oX$X+X Xc.c.c.c.].'.'.]..X.XXXXX.X'.#X~.U : + .     o O   . . . . . . o           . . . . . . . . . . .                 o o o o o o o % = 1 : : 4 c I _ N._.rXgXgXfX`.Q.D.:X:X/.F > : > : > > > > > : : : > > > > > > > > > > > > > > > > 1 1 > 1 1 1 1 6 6 4 2 2 4 2 2 4 4 4 4 5 5 0 5 5 5 5 5 j j j j j j j c c c c v x k k x x x l h h x x x x v v v c b 6 @ . .   X O . . . . . . . . . . . .                         o . . . $ 8 u u 8 $ . .                                           . + @ : > > > > > > > > > > > > > > > > > > > > > > > : : > > > > > > > > > > + O . . . + 1 8 < < < , , , @ @ + @ @ : : @ @ + + + . . . + @ 1 @ 1 2 3 z 1.f.M.v.v.z.i.6.4.h.h.4.h.i.s.y.U v > @ + + . . . o         . . + @ @ : : @ @ @ @ @ @ % q w e e e e p p p p p p p p p p p s s p p b n x B :.i.x.x.].{.oX$X$X=X2X2X2X2X2X2X2X2X2X2X2X=X@X@X@XoX{.{.OX*X&X&XQ.I c c b J J ! ! ! ! ! ! ! ! ! ! ! ! ! ! ! ! ! ! s p = + .             . O                 . . . . . . . . * o . . + L /.!././.^.^.^.^.^.^.^.^.^.^.^.^.^.^.^.^.^.Q.Q.Q.Q.D.D.D.S.S.S.D.D.D.D.D.V.V.V.V.V.V.N.D._._._.).`._._.)._.).).(.R.R.R.R.R.L.L.L.L.L.R.R.R.D.D.D.D.D.R.D.D.D.D.D.C.C.C.C.D.D.D.D.D.D.R.R.D.N._ T N.V.S.S.N._ _ _ _ ' ' ' ' , ",
":.:.=.&.B B V C C V V V V V &.=.&.&.=.=.,.<.<.<.:.:.:.:.3.5.6.i.x.x.c.c.v.v.v.v.M.i.5.;.-.;.3.6.i.x.}.x.i.i.z.c.].].|.|.|.].c.x.z.z.i.6.6.3.2.2.4.v.oXoXoXXX|.c.c.c.].].].'.]..XXXXXXX.X'.}.#XA.j @ + . . X O O . . . . . . o             . . . . . . . . . .                 . . . + + + = q e e 6 5 j F Y N.B._.rXfXgXgXfX_.`.fX1XQ.I 3 > > > 2 2 2 > > : 1 1 > > > > > > > > > : > : > > > > > > > > 6 6 6 6 6 5 5 j j j j j c c c c c c k k k c k k v v v v x x v v v x x x x x x x x l l l l x x x x v v c b 4 @ + . X ; & . . . . . . . . . . .                                 . . $ 8 8 e 8 + . . .                                       . + @ : > > > > > > > > > > > > > > > > > > > > > > > : : > > > > > > > > > : . . . . . @ , 8 < < < , , , @ @ + @ @ : : @ @ + + + . . . + @ 1 1 1 6 3 h M ,.s.M.v.v.v.v.z.j.b.k.j.i.u.y.Z j : + . . . . O o o       . . + @ @ , : @ @ @ @ % % q q w w w w e p p p p p p s p p p p s s s s p Q n m C q.i.a.x.].oX$X=X2X2X2X2X2X2X2X2X2X=X2X=X=X=X@X.X{..X.X{.{.*XOX*X`.Z.v 5 c J s s ! ! ! ! ! s ! ! ! ! ! ! ! ! ! ! ! ! ! d s = & % + X                               . . . . o o   . 7 ` /././.^.^.^.^.^.^.^.^.^.^.^.^.^.^.^.^.^.^.^.Q.Q.Q.D.D.D.D.S.D.D.D.D.D.C.V.C.C.C.V.V.N.V.C.R.)._.).(._._._._.).R.R.L.L.L.L.L.L.L.L.L.R.R.D.D.D.D.D.D.D.D.D.D.D.D.D.C.C.C.D.D.D.D.D.D.^.D.S.N.T _ V.S.S.S.V._ _ _ ' ' ' ' ' , ",
"&.&.&.&.V B B V V &.=.&.&.&.*.:.:.:.:.<.<.<.<.<.:.5.5.5.6.i.v.v.c.].c.c.v.v.v.v.6.5.2.;.;.3.i.v.x.x.x.a.i.i.x.].].].|.].c.c.z.z.i.i.6.5.3.2.3.4.z.|.oX$X|.n.c.c.c.c.].].}.].{..XXXXXXX.X].{.#X~.E 5 @ + + .   O   . . . . . . . . . . .           .         .             . . + @ : > 2 2 5 n K n v x v U T N.C.E.%XrXgXfXeX&X&XfX&XQ.U v 3 3 3 2 2 2 2 > : 1 1 > > > > > > > > > > > > > > > > > > 2 2 2 2 2 3 3 3 j j j j j k k k k k k k k k k k x x x x x x x x x x x x x x x x x x x l l l l l l l l k k k b > + + # X X X . . . . . . .                                         . . + $ 8 u e 8 @ . .                                       . + @ : > > > > > > > > > > > > > > > > > > > > > > : : : > > > > > > > > > : . . . . . $ 8 e , 1 : , : : @ @ + @ @ : : @ @ @ + + . . . + @ 1 1 r 2 3 g h m C y.s.s.x.v.z.v.v.6.6.5.,.Z k > @ + .   . O O o o o   . . . + + @ , @ @ @ @ @ % % q w w w w w p s p p s s s s s p s s s s s s s Q Q n m >.q.u.x.}.#X$X2X2X2X2X2X2X2X2X=X=X=X=X=X=X=X@X@X@X+X.X.X{..X{.OX*X_.t.I v e e u s s s s s s s ! ! J ! ! ! ! ! ! ! ! ! +.+.! ! ! d s w = & % + . . . .   .                 o o   . J | !././.^.^.^.^.(.^.^.^.^.^.^.^.^.^.^.^.^.^.^.Q.Q.Q.Q.D.D.D.D.D.D.D.D.V.V.V.V.C.C.V.N.V.N.N.V.D.(.(.R.).).).).(.R.R.L.L.L.L.D.D.D.D.D.D.D.D.D.D.D.D.D.D.D.D.D.C.V.V.V.V.V.V.S.D.D.D.D.D.V.N.T T _ V.S.S.S.V._ _ _ _ _ ' ' ' : ",
"&.&.&.&.&.&.&.=.&.&.&.:.:.<.:.:.<.<.<.<.5.5.5.5.5.5.6.i.z.v.v.n.c.c.c.v.z.6.6.6.;.2.2.3.5.i.x.}.].x.a.i.i.x.'.].{.].].c.c.z.z.6.6.7.6.3.2.2.6.z.oXoXoXoX|.c.z.c.c.c.].{.{.].{..XXXXX.X.X.X.X{.}.`.I : @ + .         . . . . . . . . . . .   X X o o                     . + @ : > 3 h l l z N A A Z Z A 9.e.B.H.E.*XtXtX%X%X%X*XrX*XK.e.Z h g h 3 3 3 2 2 1 : : > > > > > > > > > > > > > > > > 2 2 2 2 2 2 2 2 2 3 3 3 g g h k k k k k k k k k k k x x x x x x x x x x x x x x l l l l l l l l z l z l x x k b 0 : + . . .   . . . . . . .                                     X X . . . . $ 8 P J e , + .                                       . + @ : > > > > > > > > > > > > > > > > > > : > : > : : : > > > > > > > > > : . . .   . $ e e , , : : : : @ @ + @ @ : : @ @ @ + + . . . + @ : r > 2 3 g 3 g h U 9.y.s.s.i.i.s.;.:.,.C k 2 @ + .     . . O . . . . . . . + + @ @ @ @ @ @ @ % % % q w p p e p p s s s s s s s s s s s p s s p p Q k x Z >.q.a.}.#X#X2X2X2X=X2X2X2X=X=X=X=XoX$X=X@X@X+X+XXX.XXX+XXX.X{.}.*X*XK.E c e u s s s s s d d ! ! ! ! ! ! ! ! ! ! ! ! ! ! ! ! ! ! ! ! s s w w w % % . .                     . . + L |  ././.^.^.^.^.(.^.^.^.^.^.^.^.^.^.^.^.^.^.^.^.Q.Q.Q.D.D.D.D.D.D.D.D.V.V.V.V.C.C.V.N.V.N.N.N.N.V.D.(.(.(.(.(.(.R.R.L.R.L.D.D.D.D.D.C.D.D.D.D.C.C.C.C.V.V.V.V.V.V.V.V.V.V.V.S.S.D.D.Q.N._ T Y _ N.S.S.S.S._ _ _ _ _ _ ' ' ' : ",
"*.*.*.*.&.&.*.*.-.:.:.5.7.5.5.5.5.5.5.5.5.5.6.i.z.z.z.z.v.c.n.m.n.M.v.z.6.2.2.;.;.2.5.i.z.x.].].x.a.a.a.x.'.].].|.].c.x.z.i.z.z.6.7.6.;.;.6.c.n.oXoXoX|.c.z.z.x.c.].].].].{..X.XXXXX.X.X.X.X.XOX*XQ.v : @ +     X X . . . . . . . . . . . . o o o o o o o O O O     . + @ : 2 g l N C B C ,.<.<.>.>.8.0.0.w.p.G.*X*X*X*X*X*X*X*X*X*XK.9.U Z l x x h g g 2 > : : > > > > > > > > 2 > > > > > > > 2 > 2 2 2 2 2 3 5 j j j j j h k g j k k k k k k k k x x x x x x x x x x x x x x x x l l l l l l l l l x x k k 0 @ @ + + . .     X X X X . .                                         .   . . + $ u u u w $ .                                       . @ , : > > 2 > > > > > > > > > > > > > > > : > : : > > > > > > > > > > > > : .   . . . @ w , 1 , : : @ @ @ @ @ @ @ @ @ @ @ @ + . . . . + @ 1 6 6 2 2 2 2 2 2 k x x Z A A 9.y.B M z g > @ +   . . . . . + + . . . . . + + @ @ @ @ @ @ @ @ 1 1 q w w w p p p p s s s s s s s s e u p s p p p p s Q n n Z 8.s.#X*X2X2X2X2X2X=X=X=X=X=X@X+X+X+X+X+X+X+X+X+XXXXXXXXX.X.X{.{.*X*X`.E J 9 0 s s s s d s s s Q ! ! ! ! ! ! ! ! ! ! ! ! ! ! ! ! ! ! ! ! ! d s p w % # X .             . + . , | /.} /.^.^.^.^.^.^.^.^.(.^.^.^.^.^.^.^.^.^.(.(.^.^.Q.D.D.D.S.S.S.D.D.D.D.D.D.C.V.V.V.V.V.N.N.N.N.V.D.D.R.(.).).(.(.R.R.D.D.L.D.D.D.D.D.A.D.D.D.D.D.V.V.V.V.V.V.V.N.N.N.N._ _ N.S.S.S.S._ Y T N.D.D.S._ N._ _ _ _ _ _ _ ' ] ' : ",
"*.*.-.*.*.*.-.:.-.:.3.5.5.6.5.5.6.6.i.i.i.z.z.z.v.z.z.z.b.b.b.n.v.v.j.6.2.2.;.2.3.6.i.x.c.].].].x.x.a.a.x.'.].].].x.x.i.i.i.i.i.6.3.2.2.6.z.|.oX X X|.|.c.z.x.x.c.].].].]..X.X.XXX.X.X.X.X.X.X{.*X~.t.k @ + .   X X   . . . . . + + + . . o o o o o o o         . . @ : 2 g x Z 8.q.p.u.i.x.c.x.s.s.P.G.G.'.}.}.OX*X*X*X*XOX*X*XOX}.p.8.A A Z S Z z h h g 2 > > > > > > > > > > > 2 2 2 2 2 2 2 2 > 2 2 2 2 2 2 5 3 3 j j j g j j j j k k k k k k k k x x x x x x x x x x x x x x x k x l l l l l l x x k k 2 > @ + + + . . . . X X X O .                                                 . + $ u u u e & .                                       . @ , : > > 2 > > > > > > > > > > > > > > > : : : : > > > > > > > > > > > > : .   . . . $ w , 1 : , : @ @ @ @ @ @ @ @ @ @ @ @ + + . . . + @ : 2 3 2 2 > > : : 2 3 3 g k x v v h h 3 > @ + .   O . . + + + + + . . . . + + @ @ @ @ @ @ @ % % 1 q w w w p p p p p p p p s s p s u u s p s p p d d s e b W d.~.#X#X1X2X2X2X2X=X=X$X$XoXXXXXXXXX+X+X+X+X+X+XXXXXXXXXXXXX.X{.{.}.#X!.~ F 5 < w p ! s d s ! s s s p Q ! ! ! ! ! ! ! ! ! ! ! ! ! ! ! ! ! ! ! ! d s s w w - % X       . . + y  ./.S.Q.^.^.^.^.^.^.^.^.(.^.^.^.^.^.^.^.^.^.(.(.^.Q.Q.D.D.D.S.S.D.D.D.D.D.D.C.C.V.V.V.V.V.N.N.N.N.N.V.V.D.(.(.`.(.R.R.(.D.D.L.D.D.D.D.D.V.V.C.D.C.V.V.V.N.V.V.V.Z.Z.N.N._ _ _ S.S.S.Z.S._ _ _ S.Q.^.S.N._ _ _ _ _ _ _ _ _ ' ` : ",
"-.-.;.;.;.;.;.:.3.3.5.6.6.6.6.6.j.z.v.v.v.c.c.c.c.v.z.z.v.b.b.z.6.4.2.;.2.2.2.3.6.i.x.].].].].].x.x.a.a.x.'.].].z.i.i.6.i.i.i.i.5.2.;.6.v.|.oXoX X|.|.c.x.x.x.c.].].].].]..X.X.X.X.X.X.X.X.X.X.X=X}.~.U > @ +     X   . . . . . + + + . O o o o o o           . : > 3 k v A y.s.}.}.$XoXoX$X$X$X$X$X=X$X$X$X$X=XoX@X=X=XoXoXoXoXoX}.G.p.8.>.C C A N z z h 3 2 6 > > > > > > > > 2 2 2 2 2 2 2 2 2 2 4 4 2 2 3 3 3 3 3 3 3 j j j j k k k k k k k k x x x x x x x x x x x k k h h h h h k k k h h x x n n k 2 : + + + + . . . . . . . . .                                                     + $ w u u u & .                                       . @ , : > > > > > > > > > > > > > > > > > > : > : > > > > > > > > > > > > > : .   . . . $ e , : , , : : : @ @ @ @ @ @ @ @ @ @ + + . . . + @ : 3 3 2 > < , , , : : : > : : : : > > : + . . o o O . + + + + + + + . . . + + @ @ @ @ @ @ @ % 1 1 w w w p p p p p p p p p s p p p u u s p p p p p d p p b ~ !.~.~.#X1X1X2X2X=X$X$XoXoX.X.XXXXXXXXX+X+X+X+X+X+X+X+XXXXXXX.X.X.X{.OX&XQ.E v 5 > 8 s p s d d s s s s s ! ! ! ! s s s ! ! s s s s ! ! s s s ! ! ! ! ! ! s s w w = # + . + < R /./.S.S.Q.^.^.^.^.^.^.^.^.`.^.^.^.^.^.^.^.^.(.(.Q.Q.Q.D.D.D.D.S.D.D.D.D.D.C.C.V.V.V.V.V.V.V.V.N.N.N.N.N.N.D.(.`.(.(.(.(.D.D.D.D.D.D.D.D.V.V.V.V.V.V.N.N.N.N.N.V.S.S.S.Z._ _ Z.Z.S.Z.' _ Y Y ' S.S.S.S.S._ _ _ _ _ _ _ _ _ ' ` : ",
";.;.2.3.3.3.3.3.6.6.z.z.v.z.z.j.j.z.v.v.v.v.c.c.c.v.z.z.j.j.j.4.3.;.;.;.2.5.6.6.z.z.c.].].].c.x.x.x.x.x.x.x.x.x.i.6.5.6.i.i.6.6.3.2.3.z.oXoX|.|.|.|.n.c.x.x.x.].].].].].]..X.X.X.X.X.X.X.X.XXXXX@X}.#XK.v @ . .         . . . . + + . O o o o o o   . . + + @ > k x Z 9.y.s.}.#X$X$X$X=X=X=X=X=X=X=X=X=X=X$X=X=XoXoXoXoXoXoXoXoXoXoX#X}.K.y.>.C >.C N N x h 3 3 2 > > > 2 2 2 > 2 2 2 2 2 2 2 2 2 2 2 2 2 3 3 3 3 3 3 3 j j j j j k k k k k k k x x x x x x x x x x x x k k h k g h k x x x k h n n n j 2 : + + . . . . . . . . . .                                                         . # 8 w w w % .                                       . @ , : > > > > > > > > > > > > > > > > > > : > : > > > > > > > > > > > > > : .     . . & e , , , : : : @ @ @ @ + @ @ @ @ @ @ + + . . . + @ : 3 g 3 > < , , @ : : : : @ + + + + + + . . o O O . + + @ + + + + + . . . + + + @ @ @ @ @ @ % 1 1 w w w p p p p p p p p p p p p p u e p p s p p p p p p s ! ~ <X<X~.#X1X*X#X#X}.}.{.|..X.XXXXXXXXXXXXXXXXX+XXX+X+X+X+XXXXX.X.X.X{.*X#XL.Z.I c 4 7 e s s d s d s ! s s s s s s s s s s s s s s ! ! p s s s s s s s ! ! s s s p w w , @ D | /.S.D.D.D.Q.^.^.^.^.^.^.^.`.(.^.^.^.^.^.^.^.^.^.Q.Q.D.D.D.D.D.D.D.D.C.C.D.D.C.V.V.V.V.V.N.V.V.N.N.N._ _ N.N.D.(.(.(.(.(.D.D.D.D.D.V.V.V.N.N.N.N.V.V.N.N._ N.V.S.S.S.' _ _ ' Z.Z.Z._ T Y Y Y _ S.Z.' ' _ _ _ _ _ _ _ _ _ _ ] ` : ",
"2.3.5.6.6.6.6.6.v.v.v.v.v.z.j.j.j.j.z.v.v.v.v.v.v.z.z.6.6.4.3.2.2.;.2.3.6.z.z.i.c.c.c.|.].c.x.x.a.a.x.'.x.a.i.i.5.5.i.i.i.i.5.3.3.3.z.n.oX|.n.n.|.|.c.x.x.x.x.].].].].].|..X.X.X.X.X{.{..X.XXXXXXX.X'.P.Q.5 + +         . . . . . . o o o o o     . + @ : 2 j x A 0.s.s.}.oX$X$X$X$X$X=X=X=X$X=X=X=X=X=X=X$X$X$X$XoXoXoXoXoXoXoX.X{.*X*X#X#Xf.f.0.,.1.1.S z h 3 2 > > > 2 2 2 2 2 2 2 2 3 3 3 3 3 3 3 3 3 3 3 3 5 g j j k k k k k k k j k k k k k k k x l l l l l l x x x x x x x x x v v n x x n b 6 > : @ + . . . . . . . . . .                                                           . + & % # + .     o                                   + @ , : : > > > > > > > > > > > > > > > > > > > : > > > > > > > > > > > > > : +     . . , e 1 , , : : @ : @ @ + + @ @ @ @ @ + + + . . . + @ : 3 3 3 > < , , : 1 1 1 > @ @ + . + + . . O O X + % % @ @ @ + + + + + + + + + + + + @ @ @ @ % % 1 w w w p p p p p p p p p p p p p p p p p p p s p p p p w e L !.<X<X~.#X#X#X#X}.'.].|.|. XXXXXXX XXXXXXXXXXXXX+X+X+X+XXXXXXXXX.X.X{.{.OXP.K.T c > e e s s s s p s s s s s s s s s s s s s Q Q Q ! ! ! ! ! ! s s s s s ! ! ! s s u 0 9 R /.S.S.D.D.D.D.^.^.^.^.^.^.^.`.(.^.^.^.^.^.^.^.Q.Q.Q.Q.D.D.D.D.D.D.D.S.V.V.S.S.V.V.C.V.V.V.N.N.V.V.N.N.N._ _ _ N.D.(.`.(.D.D.D.D.D.D.A.V.N.N.N.N.N.N.N.N.N.N.N.V.V._ ' _ T ' ' Z.Z.' _ T Y Y ) ' ' ' _ _ ) _ _ _ _ _ _ _ _ _ ] ` : ",
"3.6.6.6.6.6.j.z.v.v.v.v.z.j.j.h.j.j.z.v.v.v.v.z.z.6.5.3.3.2.;.;.2.3.6.i.v.v.v.x.].].].].c.c.c.x.i.a.x.x.a.i.u.5.6.i.i.i.i.6.3.2.3.6.c.oXoXn.n.n.|.n.c.x.x.x.'.].].].].].]..X.X.X.X{.{.{..X.XXXXXXX.Xx.G.`.R + +         . . . .               . . @ : 2 g l A 8.u.i.x.}.oXoX$X$X$X$X$X=X=X$X=X=X$X=X=X=X=X$X$X$X$X$XoXoXoXoXoXoXoX}.#X#X#X#X#X#Xf.s.s.y.y.S z k 2 2 > > 2 2 2 2 2 2 2 3 3 3 3 3 3 3 3 3 j j g g g g g g j k k k k g g g g k k k h h h h h h h h l l l x x x x x Z Z Z S Z v x n j 6 1 @ + . . .     O O . . + .                                                             . . X . .         o                                 . + @ , : : > > > > > > > > > > > > > > > > > > > : > > > > > > > > > > > > > : +   . . . , e 1 , : : : @ : @ @ + + @ @ @ @ @ + + + . . . + @ : 3 3 2 > : : : 1 > 6 2 > : @ # # + + + + . . + + @ @ : @ @ + + . + + + + + + + + @ @ @ $ @ % 1 1 w w w p p p p p p p p p p p p p p p p p p p p p p p w w 8 e ~ -X~.~.f.f.P.}.}.'.].|.|.|. X X X X X XXXXXXXXXXXXX+X+XXXXX+XXXXXXX.X.X.X{.}.L.T v 4 < w p s s p p s s p s s s s s s s s s Q Q Q Q s Q Q Q Q ! s s s s Q Q ! ! s u D F ' ^.S.V.D.D.D.D.^.^.^.^.^.^.`.`.`.^.^.^.^.^.^.^.Q.Q.Q.D.D.D.D.D.D.D.D.S.V.V.S.S.V.V.C.V.V.V.N.N.V.V.V.V.N.N.N.T T N.D.(.(.D.R.D.D.D.D.A.V.N.N.N.N.N._ N.N._ N._ _ _ _ _ T Y ' ' Z.' ' T Y Y ' ' ' ' ' _ _ _ _ _ _ _ _ _ _ _ _ ] ` : ",
"6.6.6.6.6.j.z.z.b.b.z.b.j.j.h.h.j.j.j.z.v.z.i.6.5.5.;.-.-.;.:.2.5.6.z.x.v.c.c.c.|.].c.c.c.v.v.v.x.a.a.a.i.u.i.u.i.i.i.i.5.5.3.3.z.c.|.|.n.n.n.n.n.c.c.x.x.x.'.].].].].].]..X.X.X.X{.{.{..X.X.XXXXXXXx.a.~.!.9 .           . . .               . @ 2 k x C ,.s.a.c.n. X XXXXXoX$X$X$X$X=X=X$X=X=X=X=X$X$X$X$X$X$X$XoXoX.XoXoX.X.XoX{.}.#X}.#X#X#X#Xf.f.f.y.1.S n 3 2 2 > 2 2 2 2 2 2 3 3 3 3 g g g g g g k k k k g g 3 3 g g g g j g g g h h k k x x x l l l l l x x x x x x x x v x x x x l l h 2 > @ + . . . o   X O O . . . .                                                                 .             o                                 . + @ , : : > > > > > > > > > > > > > > > > > > : : : : > > > > > > > > > > > : %   . . . , e , : : @ @ @ @ @ @ + + @ @ @ @ @ + + + . . . + @ : 3 3 2 > : : 1 > 6 3 3 2 > : + # + + + # + + + @ : : : @ @ + . . + + + + + + + + # # @ $ % % % q w w w p p p p p p p p p p p p p p p p p s s p p p p w - w e Q ~ d.y.1.<.q.p.a.x.c.c.|.|.|.|.|.|. X X X XXX.XXXXX+X+X+X+X+X+XXXXXXXXXXX.X{.#XL.Z.c 9 1 1 p s s s s p p p p s s s s s s s s s s s s p p s s s s s s s Q s s s s e K E !.Q.D.C.R.D.L.R.^.^.^.^.^.^.^.`.`.^.^.^.^.^.^.^.Q.Q.Q.D.D.D.D.D.D.D.D.D.V.V.V.S.C.C.C.C.V.V.V.S.V.V.V.V.V.V.N._ _ _ N.S.D.^.(.D.D.D.A.A.V.N.N.N.N._ _ _ _ _ _ _ _ _ Y Y Y Y ' ' ' ' T Y Y T S.' ' _ _ ' _ _ _ _ _ _ _ _ _ _ _ ' ` : ",
"6.6.6.6.6.j.z.c.z.z.v.v.z.j.j.j.4.4.6.6.6.6.6.5.:.;.-.*.-.;.3.5.6.z.z.v.x.c.c.].].c.x.z.z.z.z.x.v.a.a.u.u.u.i.i.i.i.i.6.3.:.3.6.oXoXoXn.c.n.|.n.c.c.x.x.x.x.].].].].].].]..X.X.X.X{.{.{..X.X.X.XXXXX].a.K.~.R + .           . .           . + : 5 v A 8.q.s.v.}.oX XXXXXXXXX$X=X=X$X=X=X=X$X=X=X$X$XoXoX$X$X$X$XoXoX}.{..X.X|.].].'.}.}.x.}.#X#X#X#Xf.s.y.A S S 3 2 > > > > 2 2 2 2 3 3 3 5 g g g g g g g k k k 3 3 3 3 g g 3 3 j g g g h h k k v v x x x x x x x x x x x x x x x h h g 3 3 3 2 : @ @ + . .         O X X . . .                                                                         o                                       . + @ : : : > > > > > > > > > > > > > > > > > > > : : : : > > > > > > > > > > : %   . . . , w , : : @ @ @ @ @ @ @ @ @ @ @ @ @ + + # + . . . + : 2 3 2 > > : > 2 3 3 3 2 > : @ @ + + + + + @ @ @ : : : : @ + . . + + + + + + + + $ @ @ $ % % % q w w w p p p p p p p p p p p p p p p p p p p p p p p p w w e e b W Z m M A <.u.a.x.c.c.c.|.|.|.|.|.|.|.|. X X.X.XXX+X+X+X+X+X+XXXXXXXXX.X{.OX*X(.!.R 5 : 1 p s s s s p p p p s s p p p p p p p p s s Q s Q Q Q Q s s s s s s s b v ' Q.D.D.D.D.D.R.R.^.^.^.^.^.^.`.`.`.`.^.^.^.^.^.^.Q.Q.D.D.D.D.D.D.D.D.D.D.V.V.V.V.V.C.C.C.V.V.S.S.S.Z.V.N.N.V.N.N.N._ T _ D.^.^.D.D.D.D.S.N.N.N.N.N._ _ _ _ _ _ _ ) Y Y Y Y E ' ' ' ' T Y T _ S.' T Y ) _ _ _ _ _ _ _ _ _ _ _ ) ' ` @ ",
"j.j.j.j.6.j.z.v.v.v.v.z.j.6.6.6.4.3.3.3.:.;.:.:.:.-.-.;.3.7.7.i.z.z.v.c.c.c.c.c.x.x.x.x.x.x.z.a.a.a.u.u.u.i.i.s.7.6.6.3.;.3.z.|.|.|.|.|.].c.c.c.x.x.x.x.x.c.].].].].].].|..X.X.X].].].]..X.X.X.X+X.X].x.a.#X~.c +     o o o o * O     . @ : 3 x N >.q.a.'.].].].XX XXX+X+XoXoX$X$X$X=X=X=X=X$X=X$X$X$X$X$X$X$XoX{.{.].].].].].].x.'.x.x.x.x.v.}.#X#X#Xf.y.1.S S g 2 > > < > : > 2 2 3 3 3 3 3 3 j g k g k k k k k k k k k k k k k k k k k k k k k k h h h h h h h h h h h h h h h g 3 2 2 > > : @ @ @ + . . . X % X . . . .                                                                                                   . . .             + @ : : > > > > > > > > > > > > : : : > > > : > > > > > : > > > > > > 2 > > : @ .   . . $ 8 7 : : : : : @ @ @ @ @ @ @ @ @ @ @ @ @ + + . . . + @ > > > > > > > 2 2 2 2 > > : : : @ @ @ @ @ @ @ @ @ @ @ @ @ @ + + + + + + + + @ % % @ @ @ % 1 1 q q q w w e e p p p p p p p p p p p p p p p p p w w w p p p p p e b e 6 h Z A q.u.i.i.z.c.c.c.c.].|.n.c.|.|. X X XXXXXXXXXXXXXXXXXXXXXXX.X.X.X{.[.#XL.t.K 4 1 w s p s s s p w p s p s p s s Q Q Q s s s s Q b s s p s s s p s e 9 Y ' Q.D.S.D.D.D.^.^.^.^.^.^.^.^.^.^.(.(.(.(.^.^.Q.Q.D.D.D.D.S.S.S.S.D.D.D.D.D.D.V.V.S.V.V.C.V.S.V.V.V.V.V.N.N.N._ N.N._ _ _ N.Z.Q.Q.D.D.D.V.N._ _ _ _ _ _ _ _ T _ ) Y Y Y Y Y Y ' ' Y Y T T ) Y _ _ T ) ) _ _ _ _ _ _ _ _ _ _ ) ) ] ` @ ",
"j.j.j.j.j.z.z.v.v.v.v.v.i.6.6.5.3.3.;.;.-.-.-.-.-.-.:.5.6.z.v.v.z.z.c.c.c.c.c.c.x.x.x.x.x.a.a.a.u.u.u.u.u.i.7.7.i.5.;.2.6.z.c.|.].|.|.|.].c.c.x.x.x.x.x.c.c.].].c.c.c.].].|.|.|.|.].].|..X.X.X.X.X{.{.x.a.}.~.Y @       o o o . . . @ 4 c x Z A q.p.x.].{..X.X|.XX.X XXX+XoXoX=X=X$X$X=X$X=X=X=X=X$X$X$X$X$XoXoXoX].].].].].].'.a.x.x.x.x.x.v.M.#X#X~.f.y.y.W W g 2 > > < < < 4 6 6 g g 6 5 6 5 3 3 j j j j j j j j g j j j k j k g g g g g g g g g g g g g g g g g g g g h h g g g 2 2 > : @ @ + + + + . . + % % X . . O .                                                                                                 . . . .             + @ : > > > > > > > > > > > > > : : > > > > : > > > > > : : > > > > > > 1 > @ + .   . . $ 8 7 : : : : : : @ @ @ @ @ @ @ @ @ @ + @ + + . . . + + : > > > > > 2 2 > > > > > > : : @ @ @ @ @ @ @ @ @ @ @ @ @ @ @ @ + + + + + + % % % % % % % 1 q q q q w w e e p p p p p p p p p p p p p p p p p p p p p p p p p p s p e r n Z >.q.u.i.z.x.c.c.c.].|.].n.|.|. X X|.XXXXXXXXXXXXXXXXXXXXXXXX.X.X.X{.[.P.K.Z.W b 1 1 p p p p p w s s s s p p p p Q Q s s s s s e e s w p s s s e e 9 Y N.D.D.S.D.D.D.^.^.^.^.^.^.^.^.^.^.(.(.(.(.^.Q.^.Q.D.D.D.D.S.S.S.S.S.D.D.D.D.D.S.S.S.V.D.D.S.S.V.V.N.N.V.N.N.N.N.N._ _ _ _ _ N.S.D.Q.D.V.N.N.N._ _ _ _ _ _ T T ) ) Y Y Y Y Y Y Y Y Y _ _ _ _ Y T T T ) ) _ _ _ _ _ _ _ _ _ _ ) ` ` | @ ",
"j.6.6.6.6.6.6.6.6.6.6.5.3.2.;.;.;.;.-.-.-.*.*.*.-.:.5.i.i.z.z.v.v.c.c.c.c.c.x.x.z.x.z.a.a.i.i.i.u.u.u.i.i.i.5.5.5.2.;.6.c.oX|.n.c.c.].].c.c.x.x.x.x.x.c.].].].].c.c.].].|..X.X].].].].].].].{.{.{.'.].'.a.G.~.!.9 +         . + @ : 5 K W 9.r.p.}.}.{..X.X.X.X.X.XXXXXXXXXoXoX=X$X=X$X$X$X=X=X=X=X=X$X$X$XoXoX].c.x.x.x.x.x.x.a.i.a.a.a.i.i.i.v.#X#X~.s.y.y.1.S g 2 > < < , < 4 6 6 6 6 6 6 6 6 2 3 3 3 3 3 3 3 3 3 3 3 3 3 3 3 3 3 3 3 3 3 3 3 3 3 3 3 g g g 3 3 3 3 g g g g g 3 3 2 > : @ @ + + + + . . . % = % X .                                                                                                     . . X . .             + @ : > > > > > : : : : : : > > : : > > > > : > > > > > : : > > > > > > 1 > @ + .   . . $ 8 7 : : : : @ @ @ @ @ @ @ @ @ @ @ @ + @ + + + . . . + , > > > > > 2 > > > > > > : : : @ @ @ @ @ @ @ @ @ @ @ @ @ @ @ @ + + + + + + @ % % % % % % 1 q q q q w w w e p p e e p p p p p p p p p p p p p p p p p p p p p p s p e e k N A ,.5.i.i.z.x.c.c.c.|.|.|.|.|.|.|.|. XXXXXXXXXXXXXXXXXXXXXXXXXXX.X.X{.[.#X~.Q.W j : % - p p p p p p p p p p p p p p s p s p e e e e e p s s s e e 0 ' S.^.D.D.D.D.D.^.^.^.^.^.^.`.`.^.^.(.(.(.(.^.Q.^.D.D.D.D.S.S.S.D.D.S.S.S.S.D.D.S.V.V.S.S.V.S.S.V.V.V.V.N.V.Z.V.N._ _ _ _ _ _ _ _ S.Q.D.S.N._ N._ _ _ _ _ _ T Y Y Y Y Y I Y Y Y Y Y Y _ _ _ _ Y Y Y Y _ _ _ _ _ _ _ _ _ _ _ _ ] ` ` ` @ ",
"6.6.6.6.6.6.3.2.2.2.;.;.-.-.-.-.-.-.-.-.-.-.:.;.5.5.i.z.z.z.z.z.c.c.c.c.c.x.z.z.z.z.a.a.i.i.i.i.i.i.i.i.i.5.5.3.-.3.i.c.oXoX|.c.c.c.c.c.c.c.x.x.x.x.x.'.'.'.].].].].'.].{..X.X{.].].'.'.'.'.'.'.'.a.'.'.a.a.~.~.D @ .   . + @ : 3 k Z U r.K.P.}.}..X.X|..XXX.XXXXX.XXXXXXXXXoXoXoX$X$X$X=X=X=X=X=X=X$X$X$X$XoXoXx.x.x.x.x.x.x.a.a.x.x.a.i.i.i.i.M.f.s.y.y.y.U S 3 > : : : @ @ : < > 2 2 2 2 > > > 2 2 2 2 2 2 2 2 2 2 2 2 2 2 2 2 2 2 2 2 2 2 2 3 3 3 3 3 3 3 3 3 2 3 3 3 3 3 3 2 2 > : @ @ + + + + . . . + = w % .                                                                                                     . . X + . .           . + @ : > > > > : : : : : : : > > : : : > > > : > > > > : : : > > > > > > > : @ + .   . . $ 8 7 : : : : @ @ @ @ @ @ @ @ @ @ @ + + + + + . . . . + , > > > > > 2 > > > > > > : : : @ @ @ @ @ @ @ @ @ @ @ @ @ @ @ @ + + + + + + + @ % % % % % 1 q q q q w w w w e e w w p p p p p p p p p p p p p p p p p p p p p p p p p e k x N A ,.u.i.i.z.x.c.c.|.|.|.|.|.|. X|. X XXXXXXXXXXXXXXXXXXXXXXXXXXX.X.X{.[.}.P.A.T F @ % % q p s p r p e e e w e w w p p p e e e e e w p p p e e e L !.D.^.D.D.D.D.D.D.^.^.^.^.`.`.`.^.^.^.(.(.^.^.^.^.D.D.S.S.S.S.D.D.D.S.V.V.V.V.D.V.V.V.V.V.V.V.V.V.V.V.V.N.N.Z.Z.N._ _ _ _ Y Y Y T _ S.S.S.V._ _ _ _ _ _ ) T Y Y Y Y H F F F H I Y Y Y Y Y Y Y Y Y Y Y _ _ _ _ _ _ _ _ _ _ _ _ ) ` ` ` @ ",
"5.3.2.2.3.2.-.*.-.-.-.-.-.-.;.;.;.;.;.2.3.5.5.5.i.z.x.z.z.z.c.c.c.c.c.c.x.z.i.i.z.i.i.i.i.i.i.i.u.u.5.5.5.3.;.;.2.6.c.oXoX].c.c.c.c.c.c.c.x.x.x.x.x.x.'.'.'.'.'.x.'.'.'.}.}.}.'.'.'.'.'.a.a.a.a.a.u.u.a.a.s.~.~.W > @ + : > j x Z 9.r.p.G.}.}.{..X.X.X XXXXXXXXXXXXX.XXXXXXXXXoXoXoX$X$X=X=X=X=X=X=X$X$X$X$X$X$X$X$XoXoX$XoXoX}.}.}.}.}.x.z.x.a.M.s.s.y.y.y.W Z g > @ @ @ + + @ : : : > : : : : : : > > > > > > > > > > 2 2 2 2 2 2 2 2 2 2 2 2 3 3 3 3 3 3 3 2 2 2 2 2 2 2 2 2 > > : @ @ + + + + + . . . + = w X .                                                                                                 . . . . + % . .           . + @ : > > > > : > > > > : > > > > > > > : : : > > > : : : : > > > > > > > : @ . . . . . $ 8 < : @ @ @ @ @ @ @ @ @ @ @ @ @ @ + + + + + . . . . + , > > > > > > > 2 > > > > : : : : @ @ @ @ @ @ @ @ @ @ @ + + @ @ + + + + + + + + % % % % 1 1 1 1 q q q q w w w w w w p p p p p p w p p p p p p p w p p p p p p p p p p e r k x Z A ,.u.i.i.z.z.c.c.c.n.|.|. X X X X X XXXXXXXXXXXXXXXXXXXXXXX XXX.X.X{.{.OX[.F.Z.D 8 + @ w p p r e e e w w w w w e w w e e e e e s s w w e w J | !.Q.Q.D.D.D.D.D.D.D.^.^.(.(.^.^.Q.^.^.^.^.^.^.^.^.D.D.S.V.S.S.D.D.D.V.V.V.V.V.S.V.V.V.V.V.V.V.V.N.N.N.N.V.V.V.V.N._ _ _ _ _ Y Y T T _ Z.S.S.N._ _ _ Y Y Y Y Y Y Y H F F F F F F Y Y I H I I Y Y Y Y Y ) _ _ _ _ _ _ _ _ _ ) ) ) ( ` ` + ",
";.;.-.;.;.;.-.-.-.-.-.-.;.;.:.2.3.3.3.6.6.i.z.z.v.x.c.c.c.c.].|.c.x.x.z.z.i.i.i.i.i.i.i.i.u.5.5.5.5.3.;.;.;.;.2.z.v.c.c.c.c.c.c.c.c.c.x.x.x.x.x.x.x.x.'.'.'.x.x.a.a.a.a.x.'.a.a.a.a.a.a.a.a.a.p.p.0.q.u.p.p.K.~.t.3 : 5 j k Z 9.w.p.G.}.}.{.].]..XXXXXXXXXXXXXXXXXXXXXXX X|. XXXoXoX$X=X=X=X=X=X=X=X$X$X=X=X=X$X=X=X=X=X=X=X=X$X$X$XoX}.}.}.}.v.s.s.u.0.y.y.y.Z k 1 : @ + + + @ @ : : : : : : @ @ @ : : : : : : : > > > > > > > > > > > 2 2 2 2 2 2 2 2 2 2 2 2 > < > > > > > > : : @ + + . . . . . . . . + = w .                                                                                               . . . + + + + + .             . @ @ : > > > : : > > > > > > > > > > > > : : : : > > : : : : > > > > > > > : + . . . . . $ 8 8 , @ @ @ @ @ @ + + @ @ @ @ @ + + + + + + . . . . + , > > > > > > > 2 > > > > : : : : : @ @ @ @ @ @ @ @ @ @ @ + @ + + + + + + + + + @ @ % % = = 1 1 q q q q q q w w w w p p w w w w w p p p p p p p w w p p p p p p p p p p e b k x Z A <.u.i.z.z.z.c.c.c.c.n.|. X X X X XXXXXXXXXXXXXXX XXX XXXXXXXXX.X.X.X.X{.[.P.Z.K 4 : : 1 w w w w w w w w w w w w w e e e e e w s w w e < J -X/.^.D.D.D.D.D.D.D.D.D.R.^.^.^.^.Q.^.^.^.^.^.^.^.D.D.D.S.S.S.S.S.V.V.V.V.S.V.V.V.V.V.V.V.N.N.N.N.V.N.N.N.N.N.N._ N._ _ _ _ _ Y Y T Y T _ S.S.N._ _ _ Y Y Y Y Y F H F F F D F F F F F F F F I Y _ Y ) _ _ _ _ _ _ _ _ _ ) ) ) ) ` L ` ` + ",
"-.;.;.;.-.;.;.;.;.;.;.;.:.3.5.5.6.6.6.z.z.v.v.v.c.c.c.c.c.c.c.c.x.z.i.i.i.i.i.i.i.i.i.u.5.5.5.5.2.;.;.-.2.3.6.z.].c.c.c.v.v.v.v.c.c.x.x.x.x.x.a.a.a.a.a.a.a.a.a.a.a.p.p.p.p.p.p.p.p.a.p.p.p.p.p.r.w.q.u.p.p.s.K.t.h g Z Z Z w.p.a.].{.{.|..X|.|.XXXXXXXXXXXXXXXXXX X|. X X XXXoXoXoX$X=X=X=X$X$X=X=X$X$X$X=X=X$X=X=X$X$X$X$XoX}.}.}.}.}.#X#X}.}.a.u.<.,.8.y.W v r 1 @ + + . + # @ @ : : : @ @ @ @ @ @ @ @ @ : : : : : : : : > > : : : > > > > > > > > > > > > > : : : : : : : : @ @ + + . .   . . . . . . + = w .                                                                                               . . + + + + + + .             . @ : : > > : : : : > : : : : : : : : : : : : : : : > : : : : > > > > > > > : + . . . . . $ 8 8 , @ @ @ @ @ + + + @ @ @ @ + + + + + + + . . . . . , : > > > > > > > > > > > : : : : : : @ @ @ @ @ @ @ + @ @ + + + + + + + + + + + + # % % % % % % q 1 q q q q w w w w w p w w w w p p p p p p p p w p p p p p p p p p p p p e 0 j v Z >.<.5.6.z.z.c.c.c.c.n.n.n. X|. X X XXXXXXXXXXXXXXXXXXXXXXXXXXXXXXX.X.X.X|.'.~.K.E v 2 : $ & - - - - w q w e q w w e e e e e w p w w e < c -X`.^.D.D.D.D.D.D.D.D.D.D.Q.Q.Q.Q.^.^.Q.Q.^.^.^.^.D.D.D.S.S.V.V.V.V.V.V.S.S.S.V.V.V.V.V.V.V.V.N.N.N.N.N._ _ _ _ _ N._ _ _ _ _ Y Y Y Y Y Y _ _ _ _ _ T Y Y Y Y Y F F F D c c c D D F F F I I Y Y ) ) _ _ _ _ _ _ _ _ ) ) ) ) ) ) ` L ` ` + ",
";.2.2.;.-.-.;.2.5.5.5.5.6.6.i.i.z.z.z.z.x.v.v.c.c.c.c.c.c.c.z.6.i.i.i.i.i.i.i.i.i.i.5.5.5.:.:.;.;.;.;.;.3.6.c.].c.|.|.c.z.z.z.v.z.c.x.x.x.x.a.a.a.a.a.a.a.a.a.a.a.p.p.u.p.p.p.u.p.p.p.p.p.p.p.p.w.p.p.p.u.u.p.K.s.z z 9.8.,.p.a.{..X.X|.|..XXXXXXXXXXX+X+XXX.X X X|.|.|. X XXX+XXX+X$X=X=X=X=X$X=X=X$X$X$X$X$X$X=X=X$X}.}.}.}.}.'.x.a.x.}.#X#X'.u.<.,.C A U A l 6 @ . . .   . + + + @ @ @ + + + + + + + @ @ @ @ @ : : : : : : : @ @ : : : : : : : : : : : : : : @ @ @ @ @ @ @ @ @ + + . .       . . . . . + & w .                                                                                             . . + + + + + + + .             . @ : > > > : : : : > : : : > : : : : : : : : : : : : : : : : > > 2 2 > > > @ + . . . . . $ q 8 $ @ @ @ @ + # + + + + + + + + + + + . . . . . . . , : > > > > > > > > > > > : : : : : : @ @ @ @ @ @ @ + + + + + + + + + + + + + + + + @ % % % % % q 1 1 % q q q w w w w w w w w w w w p p p p w p w w w p p p p p p p p p p p e 4 k v A ,.5.6.j.z.v.c.c.c.c.c.n.n.|. X X X XXXXXXXXXXXXXXXXXXXXXXXXX X X X X X X.X}.#X#Xy.x : + . & ; - - - w e e q q w 8 e e w w q w w e e : 5 !.`.^.D.D.D.D.C.D.D.D.D.D.D.Q.Q.Q.^.Q.Q.Q.^.^.^.^.D.D.D.D.S.V.V.V.N.V.V.S.D.S.V.V.Z.V.V.V.V.N.N.N.N._ _ _ _ _ _ _ N._ _ _ _ _ Y Y I I I I Y Y ' ' _ Y Y Y Y Y F F D F c c c c c D F F Y Y Y Y Y Y _ _ _ _ _ _ _ ) ) ) ) ) Y Y R R L ` ` + ",
";.;.3.5.6.6.6.6.i.i.i.i.i.i.i.i.z.z.x.x.x.x.x.z.c.v.v.z.z.z.6.6.5.5.5.i.i.i.i.i.i.7.:.;.-.-.-.-.;.;.;.3.v.v.c.c.c.c.c.c.z.z.z.v.v.c.c.x.z.i.a.x.a.a.a.a.a.p.a.p.p.p.p.p.p.p.p.s.p.p.p.p.p.p.p.p.p.p.p.p.p.p.p.p.0.>.A 0.p.a.'.].].|.|.|..XXXXXXXXXXXXXXXXXXX.X.X|.|.|.|. XXXXXXX+XoXoX$X$XoXoXoXoXoXoXoX{.oXoXoXoX{.].}.}.'.x.'.a.a.x.x.x.x.}.}.s.s.w.8.9.9.A h 4 + . .     X . + + % @ % @ % + + + + + + + @ @ @ @ % @ @ @ @ @ @ @ , 1 1 1 w e e e e e 6 > : @ + + + + + + + @ + + . . .       . . . + . + # %                                                                                             . + + @ @ @ # + + . .             . @ : : : : : : : : : : : : : : : : : : : : : : : : : : : : : > > 2 2 2 > : @ + . . . . + $ $ $ @ + + + + + + + + + + + + + + + + . . . . . . . + , > > > > > > > > > > > > > > > : : : : @ @ @ @ @ @ @ + + + + + + + + + . + + + # + + % % % % q q 1 = % % q q w w w q q w w p p w w p p p p p p p p p p p p p p p p p p p p e e 0 n Z A ,.5.6.6.z.z.x.c.c.c.n.n.n.n.|. X X X XXXXXXXXXXXXXXXXXXXXXXX X X X X X X X|.].P.B.I 9 +     - - - = q w w q 8 8 e w w q w w e , @ > R !.(.(.D.V.V.D.D.C.C.C.D.D.D.D.Q.^.Q.^.^.^.^.D.D.D.S.S.V.V.N.V.V.V.V.V.V.V.V.V.V.V.V.V.N.N._ _ _ _ _ _ _ _ _ _ _ _ Y Y Y Y _ _ _ _ Y Y I I I F Y _ _ _ R Y F F F F D c c 5 c c F F Y Y Y Y Y Y Y Y ) ) _ _ _ _ ) ) ) ) ) ) Y R R H L L L + ",
"3.5.6.6.i.i.i.i.i.i.i.i.z.z.z.z.i.z.z.x.x.x.x.x.z.z.z.i.6.6.6.5.5.5.i.u.u.u.5.5.5.:.;.;.;.;.;.;.2.2.3.6.v.c.c.c.c.c.z.z.z.z.z.v.v.v.v.z.z.a.a.a.a.a.a.p.a.p.a.p.p.p.p.p.p.p.p.p.p.p.p.p.r.r.r.r.p.p.p.p.p.p.p.p.p.q.u.a.x.'.]..X|.|. XXX.XXXXXXXXXXXXXXX.X.X|.].|.|.|.|. X XXXXXXXoXoXoXoXoXoX.X|.{.].].].].].].].'.].'.'.x.x.x.x.a.x.x.x.x.x.x.s.s.w.0.9.9.A x 6 . . .     O . + + % % + + + + + + + + + + + + + + + + + + + + + @ @ @ @ 1 1 1 1 , w e e e w w @ + + + + + + + + . . . O       . . . . . X # X                                                                                           . + + @ @ @ @ + + + . .             . @ : : : : : : : : : : : : : : : : : : : : : : : : : : : : : > > 2 2 2 4 1 1 + . . . . . # $ @ + + + + + + + + + + + + + + + + . . . . . . . . . , > > > > > > > > > > > > > > > > : : : : @ @ @ @ @ + + + + + + + + + + . + + + # + + % % # % = % % % % 1 q q q w w q q q w p p w w p p p p p p p p p p p p p p p p p p p p p w e c v Z >.<.5.6.i.z.x.x.c.c.n.n.n.n.|. X X X XXXXXXXXXXXXXXXXXXXXXXX X X X X X X X X|.].[.A.T F : + . . % w - = q 1 1 , 8 w w w w w w , @ c } Q.^.R.D.D.V.C.D.D.D.D.D.D.D.D.D.D.D.D.^.^.^.D.D.D.D.S.V.V.N.N.V.V.V.V.V.V.V.V.V.V.V.N.N._ _ _ _ _ _ _ _ _ _ _ _ _ Y Y Y Y _ _ _ _ Y Y I I I F I Y Y Y R R H F D c c c 5 5 c c F F R Y Y Y Y Y Y Y ) ) ) _ ) ) ) ) ) ) ) Y R R R L H L L + ",
"6.6.i.i.i.i.z.z.i.i.z.z.x.x.v.x.x.x.x.x.x.x.z.z.6.6.6.5.5.5.5.5.5.5.u.u.u.5.5.:.-.-.;.;.;.;.;.2.3.6.j.v.M.c.c.c.z.z.z.z.z.z.z.z.v.v.z.z.z.a.a.a.a.a.a.a.a.a.a.p.a.p.p.p.p.p.p.p.p.p.r.w.w.w.w.r.s.p.p.p.p.p.p.a.a.i.a.].{.].]..X.X.X.X.XXXXXXX+XXXXXXX.X.X.X].].|.|.|.|. X|..X.X.XoXoXoXoX|.|.].].].c.x.'.'.].].].x.x.x.x.a.a.a.x.a.a.a.a.a.a.a.u.u.w.8.9.9.A v 6 + . .     O   . + + + + + + . + + + + . . . . + + + + + + + + + + + + + + + + + @ 1 8 w w w w = % % # + + + + . . . . .       . . . . . . X X                                                                                         . . + @ @ @ @ @ + + + .             . + @ : : : : : : : : : : : : : : : : : : : : : : : : : : : : : > > 2 2 2 6 e w # . . . . . # # + + . . . . . . . . + + + + + + . . . . . . . . . . , > > > > > 2 2 > > > > > > > > > : : : : @ @ @ @ @ + + + + + + + + . + . . + + + + + % % # + % % % % 1 q q q q w w q q q w w p w w w p w p p p p p w w w w w p p p p p p p p p e b n Z A ,.<.5.i.i.z.x.x.c.c.c.n.n.n.|. X X X XXXXXXXXXXXXXXXXXXXXX X X X X X X X X X.X.X}.P.s.Z j : @ + % = X - q q 1 1 1 q w q w 8 , < Y ^.`.D.D.R.D.D.V.V.C.D.D.D.D.D.D.D.D.D.D.D.D.D.D.D.D.S.V.V.V.N.N.N.N.N.V._ _ N.N.N.N.N.N._ _ _ _ _ _ _ _ _ _ _ _ _ T Y _ Y Y _ _ ) ) Y Y Y Y F F F F Y R R R F F c c c 5 5 5 c D F H Y Y Y Y Y Y Y Y Y Y ) ) ) Y Y Y Y Y Y Y Y R H L L L L + ",
"5.5.5.u.i.i.i.i.i.i.i.z.x.x.x.x.x.x.a.a.i.i.5.5.5.5.3.2.2.3.5.5.5.5.5.5.5.:.:.-.-.;.;.;.-.;.2.3.6.z.v.v.v.v.v.z.z.z.z.z.z.z.v.v.z.z.i.i.z.x.x.a.a.a.a.a.a.a.a.a.G.G.G.G.G.p.p.p.p.r.w.w.w.r.r.p.s.s.p.p.p.a.a.a.x.x.x.].|.].|..X.X.XXXXXXXXX+X+XXXXXXX.X.X.X.X|.|.|.|.|.|.|.|.|..XoXoXoX.X|.].].].].].c.'.'.].'.'.x.x.x.x.a.a.a.x.a.a.i.a.a.a.u.q.u.w.w.9.U A v r + . O     O   . + + + + + . . . + + + . . . . . . . . . . . . . . . . . . . . . + + + @ @ @ @ % % # # + + + . . . . . . . . . . . . . . . . .                                                                                       . . + @ % @ @ @ @ + + + .             . + @ : > > : : : @ : : : : : : : : : : : : : : : : : : @ : : : > > 2 2 2 6 e w % . . . . . + + + . . . . . . . . . + + + + + . . . . . .         . , > > > > > 2 2 > > > > > > > > > > : : : : @ @ @ + + + + + + + + + . . . . + + + + + % % + + # % % 1 q q q q q q q q q q w w w w w w w w w w p p w w w w w w w p p p p p p p p w e b v Z A >.,.u.u.a.a.x.x.c.c.c.n.n.n.|. X X XXX.X.XXXXXXXXXXXXXXXXXXXoXoXoXXXXXXXXXXX.X|.].'.P.y.Z 3 @ + . # = w w w q q q q w w , @ c } `.`.D.D.D.R.D.V.V.C.D.D.D.D.D.D.D.D.D.D.D.D.D.D.D.D.V.V.V.V.N.N.N.N.N.V._ _ _ _ _ _ _ _ _ _ _ _ _ _ _ _ _ _ _ T Y Y _ _ Y _ _ Y Y Y Y Y Y I F F F D F H R R K F c 5 0 5 c c c F H R Y Y Y ) ) Y Y Y Y Y Y Y Y Y Y Y Y Y Y Y H H H H H G L + ",
":.:.:.:.<.<.<.<.5.5.5.5.5.5.5.u.u.u.u.5.5.:.;.:.;.;.;.:.:.5.5.7.5.5.5.:.:.:.-.-.-.;.;.;.;.2.5.6.v.v.v.v.z.z.z.z.z.z.z.z.z.z.v.v.z.i.i.i.x.x.'.'.'.a.a.a.a.a.a.a.G.G.G.G.G.a.p.p.w.w.w.w.w.r.p.p.s.a.p.p.p.a.a.x.x.x.c.c.].]..X.X.X.X.X.XXXXXXXXXXX.X.X.X.X.X|.|.|.|.|.|.|.|.|.|.|.|..X|.].].c.c.].].'.'.'.'.'.x.'.x.x.x.a.a.a.a.x.a.a.i.a.a.i.u.q.u.s.w.9.A Z v r + . .     X   . . + + + + . . + + + + + . . . . .                 . . . . . . . . . . . . . . + + + + . . . . . . . . . . . . . . . . . .   .                                                                                       . + # % @ @ @ @ @ + + . .             . + @ : > > : : : @ : : : : : : : : : : : : : : : : : @ @ : : : > > 2 2 > > 1 1 +   . . . . . + . . . . . . . . . . + + + + . . . . . . .         . , : > > > > 2 2 > > > > > > : : > > > : : : @ @ @ + + + + + + + . . . . . + + + + . + % % + . + % % 1 q q q q q q q q q q w w w w w w w w p p p p p p w w p w w w w p p p p p p p p b b v Z Z A q.u.u.a.i.z.x.c.c.c.n.n.|.|.|. X X XXXXXXXXXXXXXXXXXXXXXXXXX XXXXXXXXX X X|.|.].}.}.s.U k > @ @ + % % q q q q q = q @ : F Q.`.(.R.C.C.R.R.C.V.V.V.C.C.D.D.D.D.D.S.S.D.D.D.D.S.S.N.N.N.N.V.V.V.V.V.N._ _ _ _ _ _ _ _ _ _ _ _ _ _ _ _ _ _ _ Y _ Y _ _ _ _ Y Y Y Y Y Y Y H F F D c c F K L K D c c c c c c D F H L Y Y Y Y Y Y Y Y Y Y Y Y Y Y H H H H H H H H H H G G L + ",
"V V &.&.&.&.&.&.*.*.*.*.*.*.*.*.=.&.*.*.*.*.*.*.-.-.:.:.<.<.5.5.<.<.:.-.*.-.-.-.-.-.;.2.3.6.z.v.v.c.z.z.6.6.6.z.z.z.z.z.z.z.z.z.i.i.i.z.x.'.'.'.'.'.'.'.'.'.'.'.G.G.G.G.a.p.p.p.q.w.w.w.p.p.p.p.p.a.a.a.a.a.a.x.c.c.c.|.|.|..X+X.X.X.X.X.X.X.X.X.X.X.X|.|.|.|.|.|.|.|.|.].].].].].].].].c.c.x.x.'.'.'.'.'.x.x.x.x.x.a.a.a.i.i.a.x.a.i.u.i.i.i.u.u.u.w.8.A A Z x 6 .   .     X   . + + @ # + + . + + % % + + . . .                     . . . . + . . . . . . . . . + . . . . . . . . . . . . . . . . . . . .                                                                                         . . # @ @ @ @ @ @ @ + + . .             . + : : > > : : @ @ : : : : : : : : : : : : : : : @ @ @ @ : : : > > 2 2 > > : @ .   . . . . + + . . . . . . . . . . . + + . . . . . . . .         . , : > > > > 2 2 > > > > > > : : > > : : : : @ @ + + + + + + . . . . . . . . + + . . + % % + . + % % % 1 q q q q q q q q q q q q w w w w w w w p w w w w w w w w w w w w p p p p p p e b c v Z A 8.q.u.i.i.i.x.x.c.c.c.n.|.|.|.|. X X X XXXXXXXXXXXXXXXXXXXXXXXXXXXXXXXXXXXXX X|.].].}.K.y.A h > + . . + % q q q & $ + 9 ` ^.(.R.R.C.V.C.R.R.C.V.N.V.V.D.D.D.D.D.Z.S.S.D.S.S.V.V._ N.N.N.N.V.V.V.V.N._ _ _ _ _ _ _ _ _ _ _ _ _ _ _ _ _ _ Y Y Y Y _ _ Y Y Y Y Y Y Y Y Y H F F F c c c F F F c c c c c c c D F H H Y Y Y Y Y Y Y Y Y I Y H H H H H H H H H H H F F D G P + ",
"B B B B V V V V V V V V V V V V V V V &.&.&.*.*.-.-.:.:.<.<.<.<.:.-.-.-.*.-.-.-.-.;.2.6.z.v.v.v.z.z.i.6.6.6.6.6.z.z.z.z.z.z.z.z.i.i.z.x.x.'.'.'.'.'.'.'.'.'.'.'.G.G.a.p.p.u.w.q.q.q.u.p.p.p.p.p.a.a.a.a.a.G.a.x.c.].|.|.|..X.X.X.X.X.X.X.X.X.X.X.X.X|.|.|.|.|.|.|.|.].].].].].].].].c.x.x.x.x.x.].].].].'.x.x.x.z.i.i.i.i.u.i.i.a.u.5.5.i.i.i.u.u.u.w.9.A A Z x < . . .     X   . + # @ $ # + + + @ % % % + . . . .                     . . . . X X . . . . + + + + + . . . . . . . . . . . . . + + . . . .                                                                                         . + + @ @ @ @ @ @ @ + . .               . + : : > > : : @ @ : : : : : : : : : : : : : : : @ @ @ @ : : : > > 2 2 2 > @ + .   . . . . + + . . . . . . X X X . . + . . . . . . . . .           , : > > > > > > > > > > > > : : > > > : : : @ @ + + + + + + + . . . . . . . . . . . + = = + . + # @ @ @ % % = = = = q q q q q q w w w w w p w p p w p p w w w w w e w w p p p p p p e e c c v I ,.<.u.u.i.i.z.x.c.c.c.n.n.|.|. X X X X X X XXXXXXXXXXXXXXXXXXXXX XXXXXXXXXXX.X.X].].'.}.}.s.0.Z r = . . % = = = % + + y !.`.R.R.R.D.C.V.C.R.R.C.N.V.C.C.D.D.A.S.V.S.S.S.S.V.V.N.N.N.N.N.N.N.N.N._ _ _ _ _ _ _ _ _ _ _ _ _ _ _ _ _ _ _ Y Y Y Y Y Y Y Y Y Y Y Y Y Y Y Y F H H F c c c D D c c 0 0 0 0 c c D F H H Y Y Y Y Y Y H H H H H H F H H H F F H H H F F F D D P + ",
"B B B B B V V V V V V V V &.&.&.&.&.&.*.*.*.-.-.-.:.:.<.:.:.:.:.&.*.*.-.-.-.-.-.;.2.5.i.v.v.v.z.i.i.6.6.6.i.z.6.z.z.z.z.z.z.z.z.i.z.x.x.x.x.'.}.'.'.'.'.'.x.x.x.a.p.p.w.w.q.q.q.u.p.p.p.p.p.p.p.a.a.a.a.a.a.x.x.c.].|.|. X|..X.XXXXX.X.X.X.X.X.X.X.X.X|.|.|..X.X].].].].].].].].].].].x.x.].].].].].].].].].x.x.i.i.i.i.i.5.5.i.u.u.<.<.5.u.u.u.u.u.0.A A A Z x < . .       .   . + @ % $ # + . # % % % % + + . . .                             X X O .   . . . + + + + . . . . . . . . . . . . + + . . .                                                                                         . . + # + @ @ @ @ @ # + . .               . + : : : > : : : : : : : : : : : : : : : : : : : @ @ @ @ : : > > > 2 2 4 > + .     . . . . + # . . . . . . . X X . . . . . . . . . . .             @ : : > > > > > > > > > > > > > > > > : : : @ @ + + + + + + . . + . . . . . . . . . + = = # + + + + + + + + % % = = q q w w q q w w w w w w p p p p p p w w w w w w w w p p p p p p p e e b J I A <.q.u.u.i.i.x.c.c.c.c.|.|.|. X X X X X X X X XXXXXXXXXXXXXXXXX X XXXXXXXXX.X.X.X.X].].].}.}.P.W b > @ @ % = % % . + D /.`.R.E.L.R.D.V.V.D.R.D.V.V.C.C.V.V.V.V.V.V.V.V.V.V.N.N.N.N.N.N.N._ _ _ _ _ _ _ _ _ _ _ _ _ _ _ _ _ _ _ _ _ _ Y Y Y Y Y Y Y Y Y Y Y Y Y H Y Y F H Y H D c c c c c 9 9 0 9 9 0 c D F H H H H Y H H H H H H H F F F F H H F F H F F F F G D D P + ",
"&.&.&.&.&.&.&.&.&.&.&.&.&.&.&.*.*.*.-.:.:.:.:.:.5.<.:.:.<.:.:.*.:.-.*.*.-.:.-.*.5.i.v.v.v.i.6.6.5.5.5.i.i.i.i.i.z.z.i.i.i.i.i.i.i.i.z.z.x.x.x.x.}.'.x.a.a.a.i.u.0.0.0.0.0.q.q.u.p.p.p.p.a.p.p.u.a.a.a.x.x.x.].].|.|..X.XXX.X.X.X.X.X.X@X.X.X].].].].].].].|.|.]..X].].].].].].].{.].].].].].{..X].oX.X].'.].].a.i.i.i.i.u.i.a.a.i.u.u.5.5.5.5.u.p.u.0.A A Z Z v : + .         . + + @ @ @ + . . . . + % % % X X . .                 .   .       O O O O O O . . X . . . . . . . . . . . . . . . X X . . .                                                                                       . . . . . . . . + + . . . . .             . + @ : : : : > : : : : : : : @ @ @ : @ @ @ @ : : @ @ @ @ : : > > 2 2 2 > > @ + .       . . . . . . . . . . . . . O X . . . . . . .   . .           . + @ : > > > 2 2 > > > > > > > > > > > > : @ @ + + + + + + . + . . . . . . . . . . . . + = = % . + + + + + % % % + % % = q q w w w w w w w w w w w q q q q q q q w w p p p p p p p p p p e e e b W >.8.0.u.u.a.a.z.x.c.c.c.c.n.n.|.|.|. X X X XXX X X X XXXXXXXXXXXXXXX XXXXXXXXX X X.X|.|.].].'.}.K.9.x > @ + = o   8 L /.`.(.R.).D.V.C.C.C.R.).(.D.N.N.V.V.V.N.V.V.V.N.N.N.N.V.N.V.V.V.N.N._ _ _ _ _ _ _ _ _ _ _ _ _ _ _ _ _ _ _ _ Y Y Y Y Y Y Y Y Y Y Y Y Y H H H H H H H F D 0 5 5 4 4 4 9 0 0 0 0 c D D F F F F H H H H F F F F F F D D D D D D D D D D D D D D J @ ",
"&.&.&.&.&.&.&.&.&.&.&.&.*.*.*.*.-.:.:.:.:.:.:.<.:.:.:.:.:.*.&.&.*.*.-.*.*.:.5.i.i.a.v.x.i.5.5.5.5.u.u.u.i.i.i.i.i.i.i.i.i.i.i.i.i.i.i.i.a.a.i.u.u.u.u.u.u.u.u.u.0.0.0.0.0.w.q.u.u.u.p.p.a.a.a.a.x.x.x.x.x.c.c.c.|.|..X.X.X.X.X.X.X.X.X.X|.].].].].].].].].].].].{.].].].].].].{.].].].].].].{..X.X.X.X].]..X{.'.}.].}.}.}.}.}.#X#X#X#X#X}.'.a.u.q.q.8.>.A S N k > @ + .       . + + + @ + + . . . . X X % X X . . .         . .                 . . . . O . O . O O O O . .     . . . .     . . X X . .                                                                                         . . . . . . . . . . . . . . .             . + @ : : : : > > : : : : : : @ @ @ : @ @ @ @ : @ @ @ : : : : > > 2 2 2 > : @ .           . . . . . . . . . . . . . . . . . . . .     . .             + @ : > > > 2 2 > : : : : > > > > > > > : @ @ + + + . . . . + . . . . . . . . . . . . + % = + . # + + + + % % % % % % % = = w w w w w w w w w w w w q q q q w w w w w p p p p p p p p p p p p e n Z A 9.w.u.u.i.i.x.c.c.c.c.n.n.|.|.|.|. X X X X X X X XXX XXXXXXXXXXX X X XXX XXXXXXX X|.|.].].].'.s.w.v 2 + .     , | /.(.L.E.).R.D.V.V.V.D.D.(.(.D.V.N.N.V.V.V.V.V.V.N.N.N.V.N.N._ _ _ _ _ _ _ _ _ _ _ _ _ _ _ _ _ _ Y Y _ _ _ _ Y Y Y Y Y Y Y Y Y Y Y H H H H H H H H F D c 4 4 4 4 9 9 9 9 0 0 0 0 c D D F F F F F F F F F D D D D D D D D D D D D D D D D D D G + ",
"&.&.&.&.&.&.&.&.&.&.&.*.*.*.*.*.:.:.:.:.:.:.:.:.:.:.*.&.&.&.*.*.*.-.-.*.*.:.i.v.v.a.i.i.5.5.5.<.u.u.u.u.u.i.i.i.i.i.i.i.i.i.u.u.u.u.i.u.u.q.<.<.,.,.,.<.<.<.0.0.0.0.0.0.q.w.u.u.u.u.u.p.a.a.a.a.x.x.x.x.].].].].|..X.X.X.X.X.X.X].].].].c.].].].].].].].].].].].].].].].].].].{.x.].].].]..X.X.X.X.X.XoX.X.X{.{.oXoXoX$X$X=X=X=X#X#X$X#X#X'.a.u.q.0.,.A Z Z Z x 2 1 : + .     . . + + + + . . . . . X X X X . . . . . .       .                 O . X X O X O . . . . . . .     . . . .     . . X O . .                                                                                         . . . . . . . . . . . . . . .             . + @ : : : : : : : : : : : : @ @ : : @ @ : @ : : @ @ : : : : > > > > > > : @ .           . . . . . . . . . . . . . . . . . . . .                     + @ : > > > 2 2 > : : : : > > > > > > > : @ @ + + . . . . . . . . . . . . . . . . . . . % % + . # # + + + % % % % % % % % = = = w w w w w w w w w w w w w w q w w w w w p p p p p p p p p p e e k N Z 9.8.q.u.u.i.z.c.c.c.c.c.n.n.|.|.|.|. X X X X X X X XXXXXXXXXXXXXXX XXXXXXXXXXXXXXX|.|.|.|.c.].}.P.t.F > + + . 9 | /.D.H.E.).(.R.V.N.V.V.N.(.(.(.D.N.N.N.C.N.V.V.V.V.N.N.N._ _ _ _ _ _ _ _ _ _ _ _ _ _ _ _ _ _ _ _ Y ) Y Y ) ) Y Y Y Y Y Y Y Y Y Y H H H H H H H H F D c 0 < 4 4 4 4 4 9 9 9 9 0 0 0 c c D D D F F D D D D c D D D D D D D D D D D D D D D D D J + ",
"*.*.*.*.*.*.*.*.&.*.*.*.*.:.:.:.:.:.:.=.:.:.=.:.*.*.*.*.*.*.*.*.-.*.*.:.5.s.s.i.i.u.5.<.5.5.u.u.u.q.u.u.p.u.u.u.u.u.u.u.u.u.u.u.q.u.u.q.q.<.,.,.<.<.<.<.<.<.0.0.0.0.0.0.w.q.u.p.p.p.p.p.a.a.a.a.x.x.].].].|..X.X.X.X.X.X].].].].].].x.x.x.].].].].].].].].].].].].'.].].'.x.x.].x.x.].]..X.X.X.X.X.X.XoXoX{.].oXoX}.}.oX$X$X$X#X#X#X#X#X}.}.}.a.p.q.>.M m N N N k 6 1 @ .     . . . . . . . . . . . . . O . . .                                                 . . . .         . . . .         O O . .                                                                                         . . . . . . . . . . . . . . .             . + @ @ : : : : : : : : : : : @ @ : : @ @ : : : : @ @ @ : : : > > > > > > : @ .           . . . . . . . . . . . . . . . . . . . .     .               + @ : > > > 2 2 > : : : : > > > > > > > : @ @ + + + . . . . . . . . . . . . . . . . . . # % + . % # + + + % % % % % % % % % % = w w w w w w w w w w w w w w w w q w w w p p p w p p e p e p w e j x Z A 9.w.u.u.i.z.x.c.c.c.c.c.|.|.n.|.|. X X X X X X X XXXXXXXXXXXXXXXXXXXXXXXXXXXXXXX X X|.|.|.].].}.K.t.v 4 : < H /.`.L.H.R.R.).(.D.V.V.V.N.D.R.(.(.D.V.N.N.N.N.V.V.V.N.N.N._ _ _ _ _ _ _ _ _ _ _ _ _ _ _ _ _ _ _ _ Y Y Y Y ) ) Y Y Y Y Y Y I I H H H H F H F F F F D c 9 4 < > > < 4 4 9 0 9 9 9 9 0 0 c c c c c c c c c c 0 0 c c c c D D D D D D D D D D D D J + ",
"*.*.*.*.*.*.*.*.*.*.*.*.*.:.:.:.=.=.=.=.=.=.=.=.&.&.*.*.*.&.&.&.*.-.:.7.f.M.s.u.5.<.<.<.u.u.u.u.w.w.p.p.p.u.u.p.p.p.p.r.r.r.w.w.w.0.0.8.8.8.8.8.w.w.w.0.0.0.0.0.w.w.w.w.q.u.u.p.a.a.a.a.a.a.x.'.].].].{..X.XoXoX.X|.].].'.x.x.x.x.x.x.'.].].].].].].].].].].].].'.x.x.c.x.z.z.x.x.c.].|..XoXoX.X.X{.].oXoX].}.oXoX}.}.}.#X#X}.'.#X#X}.'.'.}.}.}.s.p.0.C N A A S x n 6 > +       X X   . . . . . . . . .                                                                                         . . .                                                                                             . . . . . . . . . . . . . .             . + + @ @ : : : : : : : @ @ @ : : : : @ : : : @ @ @ @ @ : : : > > > > > > , + .         . . . . . . . . . . . . . . . . . . . . .                     + @ : > > > 2 2 > > : : : > > > > > > > : @ @ + + + + . + + + + . . . . . . . . . . . . + + X . % % % + + + + % % % % % % % % % = = w w w q w w w w w w w w w w w w w w w w w w e e e e e e w e 4 j v Z U 9.q.u.i.i.z.x.x.c.c.c.n.|.|.|. X X X X X X X X X X XXXXXXXXXXXXXXXXXXXXXXXXXXXXX X X X X|.].'.P.A.T F j Y Q.(.(.R.H.H.R.).).R.D.D.D.V.N.V.D.(.(.D.V._ N.N.V.V.V.V.N._ _ _ _ _ _ _ _ _ _ _ _ _ _ _ _ ) _ ) ) ) Y Y Y Y ) ) Y Y Y Y Y H H H H H H H F F F F F D D 0 4 < 4 4 < > < < 9 0 6 6 0 0 0 0 5 5 5 5 5 5 5 c c 0 0 0 0 0 0 0 c D c D D D D D D D D D P + ",
"*.&.&.&.*.*.*.*.&.&.*.*.*.*.*.*.=.=.=.&.=.&.&.&.&.&.*.&.&.&.&.&.7.7.M.M.f.i.5.<.<.<.<.0.q.u.q.w.w.w.r.r.w.r.w.r.r.r.r.r.w.w.w.w.8.9.8.9.8.8.w.w.0.0.0.0.w.w.w.w.w.w.q.u.u.u.p.p.a.a.a.a.x.'.'.].{.{.{..X{.{.].].].'.x.x.x.x.x.x.x.x.'.].].].].'.].].].].'.'.'.'.x.x.x.x.x.i.i.x.c.].].|..XoXoX.XoX{.{..X{.}.}.}.}.'.'.'.'.x.a.u.a.a.a.a.p.p.u.p.s.s.s.y.y.y.t.W S n n 6 +                   . .                                                                                                 . . .                                                                                             . . . . . . . . . . . . . .             . . + @ @ : : : : : : : @ @ @ : : : : @ : : : : : @ @ @ : : : > > > > > : : + .         . . . . . . . . . . . . . . . . . . . . .                     + @ : > > 2 > > > : : : : > > > > > > > : @ @ + + + + + . + + + . . . . . . . . . . . . X X X + % % % + + + + + + + + % % % % % = = = = q q w w w w w w w w q q w w w w w w w w w w w w w w w w 8 0 c v Z A 8.q.u.i.i.z.x.x.x.c.n.n.|.|. X X X X X X X X X X X X X X XXXXXXXXXXXXXXXXXXXXXXXXXXX X|.|.].[.F.e.I I D.`.(.R.R.U.C.L.(.(.(.D.D.D.D.N.N.V.R.(.(.D._ V.N.N.N.V.V.N.N._ _ _ _ _ _ _ _ _ _ _ _ _ ) ) ) Y Y Y Y Y Y Y Y Y Y Y Y Y Y Y Y H H H F F F F F F F F D 0 4 4 > 4 4 < < < < 9 0 6 0 0 0 0 0 0 0 4 5 5 5 5 5 c 0 0 0 0 0 0 0 c c c c c D D D D D D D J + ",
"*.*.*.*.*.*.*.*.*.*.&.&.*.&.*.&.&.&.&.&.&.&.&.&.*.*.*.&.&.*.:.5.f.M.M.s.5.:.:.:.<.0.0.0.w.w.w.0.w.r.w.w.w.w.w.r.w.w.w.w.9.9.9.9.9.9.9.9.8.w.w.w.8.0.0.0.w.w.w.w.w.q.u.u.u.p.p.p.a.a.a.x.x.].{.{.{.{.{.{.].].].].x.x.a.a.a.a.x.'.'.'.'.'.'.'.'.'.].].].'.'.'.'.x.x.x.x.x.x.z.x.x.].].].].|.|..X.X{.{.].].].'.'.'.'.a.a.a.i.u.u.u.p.p.p.a.p.p.u.u.p.p.s.y.y.y.y.U S ^ n 6 @                                                                                                                       . . .                                                                                                     . . . . . . . . . .             . . + @ @ @ @ : : : : : : : : @ : @ @ @ @ : : : : : : : : : : : > > > > : , + . .   . . . . . . . . . . . . . . . . . . . . . . .                     + @ : 1 2 2 > > > : : : : > > > > > > > : : @ + + + . . . . + + . . . . . . . . . . . . . . + + % % % + + + + + + + + # % % % % % % = = q w w w q q q q q q q q w w w w w w w w w w q q q w w w 8 7 9 j x Z >.<.u.u.i.i.i.z.x.x.c.c.n.|.|. X Xm. X X X X X X X X X XXXXXXXXXXXXXXXXXXXXXXXXXXXXX X X|.].[.G.r.9.N.D._.(.R.R.U.C.D.D.R.(.D.D.D.R.D.V.V.D.R.(.R.D.V.V.N.N.V.V.V.N._ _ _ _ _ _ _ _ _ _ _ _ ) ) ) ) Y Y Y Y Y Y Y Y Y Y Y Y Y Y Y Y H H H F F F F F F F D c 9 4 4 4 4 4 4 4 4 4 < 4 6 6 0 e b b b c 0 0 c 5 5 c c 0 c c c c c c c c c D c D D D D D D y J . ",
"*.*.*.&.*.*.*.*.*.&.*.&.*.&.&.&.&.&.&.&.&.&.*.*.*.*.*.*.-.5.s.M.f.7.:.*.*.:.:.<.<.0.0.0.8.w.r.w.w.w.w.w.w.w.w.w.w.w.w.9.9.9.9.9.9.w.w.r.w.w.8.0.w.w.w.w.w.w.q.q.q.u.u.u.u.p.p.a.a.a.x.x.'.].].].].].].].].].].'.'.x.a.a.a.a.a.x.'.'.'.'.x.x.'.'.}.].'.'.'.'.a.a.a.z.x.c.x.x.x.].].].].].].].|.{.].].'.'.x.x.x.a.'.'.G.a.a.u.p.a.u.u.u.u.u.u.u.u.u.r.w.9.w.y.y.t.W ^ ^ j @                   o                                                                                                   . . .                                                                                                       . . . . . . . . .               . + # @ @ @ : : : : : : : : @ @ @ : @ @ : : : : : : : : : : : > > > : : @ + . .   . . . . . . . . . . . . . . . . . . . . . . .                     + @ : 1 6 2 > > > : : : : > > > > > > > : : @ + + . . . . . + + . . . . . . . . . . . . . . + % % % % + + + + + + + + + % % % % + % % = = q q q q q q q q q q q w w w w w w w w w w q q q q w w w 8 < 4 j x A >.q.u.u.i.i.a.a.x.c.c.c.n.n.n.n.n.m. X X X X X X X X XXXXXXXXXXXXXXXXXXXXXXXXXXXXXXX X|.].].G.F.r.B.C.R.R.D.C.C.R.V.V.D.R.D.V.C.R.(.D.N.N.V.D.(.(.V.V.N.N.N.V.V.N._ _ _ _ _ _ _ _ _ _ _ _ ) ) ) ) Y Y Y Y Y Y Y Y Y Y Y Y Y Y Y Y H H H F F F F F F F D c 4 < 4 4 4 4 0 0 0 4 < < 6 0 0 b b b b c c c c c c c c c c c c c c c c D c c c D D D D D D y J . ",
"*.*.*.*.*.*.*.*.*.*.*.*.*.&.&.&.&.&.&.*.*.*.*.*.&.*.:.7.f.s.i.5.-.*.*.*.:.<.<.q.0.0.8.8.9.9.9.w.w.w.w.w.w.w.0.0.8.8.8.8.8.8.8.8.w.w.w.w.0.0.0.0.0.0.0.0.q.q.u.u.u.u.u.u.u.a.a.a.x.a.a.x.'.'.'.x.'.'.'.'.'.x.a.a.a.a.a.a.a.a.'.'.'.'.x.x.x.'.'.'.'.'.'.a.a.a.a.a.x.x.x.x.x.x.x.].].].].].].c.c.x.'.x.a.a.'.'.'.a.a.a.a.u.u.u.p.u.<.q.q.<.q.u.q.0.8.,.>.9.9.9.9.t.1.^ ^ 5 + .                                                                                                                                                                                                                                                                   . + + @ @ @ @ @ @ @ @ @ : : : : : : : : : : @ @ @ : : : : : : : : : @ @ + + . O O . . . . + X . X . . . . . . . . X X . . .                       + @ 1 > > 2 2 > > : : : : > > > > > > : : @ @ + + . . . . . . . . . . . . . . . . . . . + + + X % % % % % % # # + + + + + % % % % % % = = = = = w w w q q q q q w w w w w w w w q q q q 1 1 1 & w w , , > g x A 1.0.u.u.u.a.a.a.z.x.c.c.n.n.n.n.n.m. X X X X X X XXX X X XXXXXXXXXXXXXXXXXXXXXXXXXXXXX].].[.F.r.B.R._.(.I.D.I.R.D.C.V.C.D.D.D.C.D.D.D.V.N.N.D.R.(.D.N._ N.V.V.N.V.N._ Y Y Y _ _ Y Y ) ) ) ) ) Y Y Y Y Y Y Y Y Y Y Y Y Y H H H H F F F F F F F F D D 0 0 4 < > < 4 4 9 0 0 0 9 9 4 4 4 4 c J L L K K K K D c 5 4 9 0 c c 0 0 c D D D D c c c D D D y u . ",
"&.&.&.&.&.&.&.&.*.*.*.*.*.*.*.*.-.*.*.*.*.*.&.*.5.7.s.s.5.<.:.:.*.=.=.=.,.<.0.0.0.8.9.9.9.9.9.w.w.q.q.q.w.0.0.0.8.8.8.8.8.9.8.8.0.w.w.w.w.0.0.q.q.q.q.q.u.u.u.u.u.u.p.u.u.a.a.a.a.a.a.x.x.'.'.'.x.x.'.'.x.a.a.a.a.a.a.a.a.a.G.'.'.'.'.'.'.'.'.'.'.'.'.G.a.G.G.'.x.x.x.x.'.x.'.].].].].].].].].x.].'.x.x.x.x.a.a.u.u.u.u.u.u.q.q.s.s.p.q.q.q.8.>.8.>.>.U 9.U U U S S n 6 +     O                                                                                                                                                                                                                                                                 . + + @ @ @ @ @ @ : @ @ : : : : : : : : @ @ @ @ : : : : : : : : : @ @ + . .     . . . X X . . . . . . . . . . . X X . . . .                     + @ 1 > > 2 2 > > : : : : > > > > > > : : @ @ + + . . . . . . . . . . . . . . . . . . . . + + + % % % % % % % % + + + + + + % % % % % = = = = = w w w q q q q q w w w w w w w w q q q q 1 1 , & - - & @ : 2 k N A >.0.w.u.p.a.i.z.x.x.c.c.n.n.n.n.n.n. X X X X X X X X X XXXXXXXXXXXXXXXXXXXXXXXXXXXXX.X{.[.F.r.B.L._.`.^.D.D.D.D.D.D.D.D.D.D.D.D.D.D.D.V.N.N.V.D.C.V.N.N.N.N.V.V.N._ _ Y _ _ _ Y Y ) ) ) ) Y Y Y Y Y Y Y Y Y Y Y Y Y Y H H H H F F F F F F F D D c 0 9 4 4 > > < 4 9 0 0 0 9 9 4 4 4 4 0 c K K ` ~ ~ R R L K K D D D 0 0 9 9 0 0 9 0 0 0 0 c 0 y y u . ",
"-.-.-.-.-.-.-.-.*.*.-.*.*.*.*.-.-.-.-.-.-.:.<.5.i.s.u.5.:.&.&.&.,.,.,.,.,.,.0.0.8.9.9.9.9.9.9.9.0.q.q.0.0.0.0.0.8.0.0.8.8.8.8.0.w.w.w.w.w.w.q.q.q.q.u.u.u.u.u.u.p.p.p.p.a.a.a.a.a.a.a.x.x.x.x.'.a.x.'.'.a.u.u.a.a.a.a.a.a.a.x.a.'.'.'.'.'.'.'.'.G.G.G.G.G.G.'.'.x.x.x.'.'.'.'.].].].].].].].].'.'.'.'.a.a.a.a.p.u.u.u.u.p.u.q.<.u.u.w.0.0.8.>.C >.A A U U U U W S n 5 : +           o o o o                                                                                                                                                                                                                                                     . + + + @ @ @ @ @ @ @ @ @ @ : @ @ : @ @ @ @ @ @ : : : : : : : : , @ + + . .     . . . . + . . . . . . . . . . . . . . . . .                     . @ 1 > > 2 2 > > : : : : > > > > > > : : @ @ + + . . . . . . . . . . . . . . . . . . . . + + + % % % % = % % % + + + + + + + + % % % = = = = = w q q q = q q q w w w w w w w q q q q q 1 , 1 = = % % @ @ > 2 j v Z A 8.w.u.u.u.a.z.x.c.c.c.n.n.n.n.n. X X X X X X X X X X X X X X XXXXXXXXXXXXXXXXXXX.X{.[.F.B.B.C.(.`.`.^.D.D.D.D.D.D.D.D.D.D.D.D.D.D.D.V._ _ V.V.V.V.N._ N.V.N.N._ _ _ _ _ _ ) ) ) ) ) ) ) ) ) ) Y Y Y Y Y Y Y Y Y H H H H H F F F F F F D D c c 0 9 4 4 4 4 < 4 9 9 0 0 0 0 0 9 9 9 9 0 c c R R ~ ~ } ` R R L L K D D D D D D D D D c c c y y y u + ",
"-.-.*.-.-.-.-.-.-.-.-.-.;.:.:.;.-.;.;.2.5.7.i.7.5.:.*.&.=.=.=.=.,.,.,.,.0.8.8.8.9.9.9.9.9.9.9.9.0.0.0.0.0.0.8.8.0.0.0.0.0.0.0.0.0.q.q.q.q.q.u.u.u.u.u.u.i.i.u.u.p.p.p.p.a.a.a.a.a.a.a.a.a.a.a.'.a.x.a.a.u.u.u.p.p.a.a.a.a.G.x.a.'.'.G.'.'.G.'.G.G.G.a.a.a.G.G.G.x.x.'.'.'.'.'.'.'.'.].].].'.'.'.a.a.a.a.a.a.a.a.u.p.u.u.u.u.q.q.0.<.<.,.,.>.A A A A A U U U Z Z K b 4 @ .               o                                                                                                                                                                                                                                                       . . + + + @ @ @ @ @ @ @ @ @ @ @ @ @ @ @ @ @ @ @ : : : : : : : : , @ + + .       . . . . . . . . . . . . . . . . . . . . . .                     . @ : > > 2 2 > > : : : : > > > > > > : : @ @ + + . . . . . . . . . . . . . . . . . . . . . + + % % % % = = = = % % + + + + + + % % % % % % % % q = q q = q q q w w w w w w w q q q q 1 1 , 1 = % % % % @ , : > k v Z U y.w.u.u.i.i.z.x.c.c.n.n.n.n.n. X X X X X X X X X X X X X X XXXXXXXXXXXXXXXXXXX.X{.[.F.B.B.N.D.`.7X`.^.D.D.D.D.D.D.D.D.D.D.D.D.D.D.D.V.N.N.N.N.V.N.N.N._ N.N._ _ _ _ _ _ ) ) ) ) ) ) ) Y Y Y Y Y Y Y Y Y H H H H H H H H F F F F F F D D 0 0 0 9 4 4 4 4 < < 9 9 0 0 0 0 0 0 0 9 4 4 9 9 c D K ~ } } ` R } ` ` ` R L L L H L H H F F D D D D P + ",
":.:.2.3.3.3.5.5.5.5.5.5.5.3.3.3.7.7.7.7.7.5.:.:.&.V B V ,.,.,.>.>.9.9.8.8.9.9.9.9.9.9.9.9.9.9.9.8.0.0.8.8.8.8.8.8.0.0.0.0.0.0.0.0.q.q.q.q.u.u.u.u.u.u.u.i.a.i.i.a.a.a.a.a.a.a.a.a.a.a.a.a.a.a.a.'.a.u.u.u.p.p.p.p.a.a.a.G.G.'.G.G.G.G.G.G.G.G.a.a.a.a.p.a.p.a.a.a.'.'.'.'.'.'.'.'.'.x.x.x.x.x.x.a.a.a.a.p.u.u.p.u.q.<.<.<.<.<.<.w.0.0.,.,.A C N A Z Z Z Z Z v v b 0 $ .                                                                                                                                                                                                                                                                           . . . + @ @ @ @ @ @ @ @ @ @ @ @ @ @ @ @ @ @ @ : : : : : : : @ , @ + + . .     . . + + + + + . + + + + . . . . . . . . . . . .                 . @ : > > 2 2 > > : : : : > > > > > > : : @ @ + + + . . . . . . . . . . . . . . . . . . . . . + % % % % = = = = % % % + + + + + % % % % % % % % = = = = = q w w q q q w w w w q q q q , & % $ % 1 1 % = % % @ @ 4 c v I 9.y.w.u.i.i.i.z.x.c.c.c.n.n.|.|. X X X|. X X X X X X X X X X X XXXXXXXXXXXXXXX.X{.[.F.B.C.N.S.(.`.`.(.L.D.D.D.D.D.V.D.D.D.D.V.V.D.D.D.D.N.N._ N.V.V.N._ _ _ _ _ _ _ _ _ _ ) ) ) ) Y Y Y Y Y Y Y Y Y Y Y H H H H F F H H F F F D F D D D 0 0 9 9 9 9 9 9 4 9 9 9 0 0 y y c 0 0 0 9 4 4 4 4 5 c K L ~ } } | | | | } ` R H L L L L L L L L L L L + ",
"i.i.i.i.z.z.v.v.i.i.i.6.6.6.6.5.7.7.7.5.:.-.&.V V =.,.>.A A A 9.9.9.9.9.9.9.9.9.9.9.9.9.9.9.9.9.8.8.8.8.8.8.8.8.8.8.8.0.0.0.0.0.q.q.q.q.q.u.u.u.u.u.u.u.a.a.a.a.a.a.a.a.a.a.a.a.a.a.a.a.a.a.a.a.a.p.u.q.u.s.s.p.p.p.a.a.a.G.'.'.a.a.a.a.a.a.a.a.p.p.p.p.p.p.p.p.a.a.'.x.'.'.'.a.a.a.a.a.a.a.x.a.a.a.a.a.p.p.u.u.<.,.,.=.=.=.,.,.<.,.,.,.>.C M m Z Z Z Z Z v k 3 < $ .   X X O O                                                                                                                                                                                                                                                                   . . . + + @ @ @ @ @ @ @ @ @ @ @ @ @ @ @ @ @ @ : : : : : : @ @ , @ + + . .     . . + + + + + . . . . . . . . . . . . . . . . .                 . @ : > > 2 2 > > > : : : > > > > > > : : @ @ + + + . . . . . . . . . . . . . . . . . . . . . + % % % % % % = = % % % % + + + + % % % % % % % % = = = = = q w w q q q w w w w q q q q , = % $ % 1 1 q = = = % + , 4 j v U 9.w.u.u.i.i.i.z.x.c.c.c.n.n.|. X X|.|. X X X X X X X X X X X X X XXXXXXXXXXX.X{.G.F.C.D.V.V.D.`.`.).(.D.D.D.D.D.V.D.D.(.R.D.V.V.D.D.D.V.N._ N.V.V.N._ _ _ _ _ _ _ _ _ _ ) ) ) Y Y Y Y Y Y Y Y Y Y H H H H H H F F F F F D D D D D D c 9 9 9 9 9 0 0 0 9 9 9 9 0 0 y y c c c c 0 0 9 4 4 4 2 2 5 c K R R ` } | | | | | } } } ` ` ` ` R ` | { @ ",
"i.i.i.i.i.i.i.i.i.i.6.6.6.5.3.3.;.;.-.-.*.*.&.&.=.1.1.9.A A A U U U U U U U 9.9.9.9.9.9.9.9.9.9.8.8.8.8.8.9.9.9.9.9.8.8.0.0.<.<.q.q.q.q.q.q.q.u.u.u.u.u.p.p.a.a.a.a.a.a.a.a.a.a.a.p.p.p.a.a.p.p.u.u.u.u.p.s.s.s.p.p.a.a.a.G.'.'.a.a.a.a.a.p.p.p.u.u.u.u.p.p.p.p.u.a.a.a.a.a.a.u.u.i.i.i.a.a.s.a.a.a.a.a.a.a.a.p.u.u.q.q.q.w.w.w.<.,.,.>.>.C m N Z Z v v v k g > @ . . X X ; ; ; O O X O O                                                                                                                                                                                                                                                           . . + + @ @ @ @ @ @ : : : : : : : : : : @ @ : : : : : : @ @ @ @ + + . . . . . + + + + + . . . . . . . . . . . . . . . . .                   . @ : > > 2 2 > > : : : : > > > > > > : : @ @ + + + . . . . . . . . . . . . . . . . . . . . . + # % % % % % % % = % % % % % + + . X X % % % % % % % = = = q w w q q q w w q q q q q 1 , & $ $ 1 1 1 % = = - % X + , 4 v Z A 0.q.u.u.u.i.i.x.x.c.c.c.c.n.|.|.|.|.|. X X X X X X X X X X X X X X X X XXX.X{.G.F.H.R.D.N.N.D.)._.).L.D.D.D.D.D.C.V.R.D.D.D.D.C.V.V.V.V.N._ N.N.N.N._ _ _ _ _ _ _ _ _ ) ) Y Y Y Y Y Y Y Y Y H H H H H H H F F F F F F D D D D D D 0 9 9 9 0 0 0 0 0 0 0 0 0 0 0 y y c c D D D c c 0 5 4 2 > 2 4 5 0 D D D H ` | |  .!. . .| } ` ` ` | | | @ ",
"i.i.i.i.i.i.i.i.6.5.5.5.:.;.-.-.-.*.&.&.&.&.=.,.>.A A A U W U A U U U U U U U 9.9.9.9.9.9.9.9.9.9.9.9.9.9.9.9.9.9.9.8.8.0.0.<.<.q.q.q.q.q.q.u.u.p.u.u.u.u.p.a.a.a.a.a.a.a.a.a.p.a.p.u.p.p.s.p.p.,.q.p.s.s.s.s.s.p.p.p.a.a.a.'.'.a.a.a.a.p.p.u.w.q.w.u.p.p.p.p.p.u.p.a.p.p.a.u.u.u.u.u.i.a.a.s.s.a.a.p.a.'.}.}.s.P.P.#X#X#X#X~.P.P.s.s.r.0.A N N Z Z Z v v j 2 @ . X X X X X X O ; ; O X O X                                                                                                                                                                                                                                                           . . + @ @ @ @ : : : : : : : : : : : @ @ @ @ @ : @ @ @ @ @ @ @ + + + . . . . + + + + + . . . . . . . . . . . . . . . . .                   . @ 1 : > 2 2 > > : : : > > > > > > > : : @ @ + + + . . . . . . . . . . . . . . . . . . . . . + % % % % % % % % = = % % % % % % . . X % % % % % % % % = = q w w q q q w w q q q q q 1 1 1 % % 1 1 1 % % = = % X . + < 5 x Z U 8.q.u.u.u.i.i.x.x.x.c.c.c.n.n.n.n.|. X X X X X X X X X X X X X X XXXXXXXXX{.J.F.L.R.D.N.T C.).&X_.(.L.D.D.D.D.D.V.V.C.D.D.D.C.V.N.C.V.V._ _ _ N.V._ _ _ _ _ _ _ _ _ _ ) Y Y Y Y Y Y Y Y Y H H H H H H H F F F F F F D D D D D c 0 9 9 0 0 0 0 0 0 D 0 0 0 0 0 y y D D D D D D D c c c c c c 5 > > 4 < 4 4 0 D F F R ` ` } } } } | | | | @ ",
"u.7.7.5.<.<.:.:.&.&.&.&.V V V V V V C C C =.A A A A A A A A U U A >.>.>.9.9.9.9.9.9.9.9.9.9.9.9.9.9.9.9.9.8.8.0.0.0.0.0.w.0.<.<.q.q.q.q.q.q.u.u.u.u.u.u.u.a.a.a.a.a.a.a.p.p.p.p.p.p.p.s.p.u.q.0.0.p.p.G.p.p.p.p.p.p.a.a.a.a.G.G.a.a.p.p.u.u.p.p.w.w.w.w.p.p.p.p.p.p.p.p.p.p.u.u.u.p.p.a.a.a.p.p.u.p.a.s.G.}.#X#X#X#X#X#X#X#X*X*X}.P.G.F.r.r.9.A U Z Z Z v c > + . X X X O O X X O O O O X O O X ; ; O O X                                                                                                                                                                                                                                               . . + + @ : : : : : @ @ @ @ @ @ @ @ @ @ @ @ @ @ @ @ @ @ @ @ @ @ % @ + + + + + # # # + + . . . + + + + + . + . . . . . .                 . + @ : > > > > > > : > > > > 2 > > > > > : @ @ + + . . . . . . . . . . . . . . . . . . . . . . @ @ @ @ % % % % = = % = = % % % . X X % % % % % % % % % = = q q q q q q q q q q w q q 1 1 1 1 1 % % % % = % % % % $ 1 < 2 j K W 8.q.q.u.u.i.a.x.x.x.c.c.c.n.|.|.n.n.n. X X X X X X X X X X X X X X X X.X{.G.F.L.).).C.T N.R._.).(.(.(.D.D.D.D.D.S.V.A.A.D.A.A.D.V.V.N._ _ _ _ _ _ _ _ _ _ _ _ _ _ _ ) ) ) Y Y Y H H H H H H H H H H H H F F F D D D D D c 0 0 0 9 9 0 0 0 0 0 0 0 D D D D D y D D D D D D D F H H H H H H F F F 9 4 2 > > > > < 0 c K L L L R | ` | | @ ",
"=.=.=.=.=.=.V V V V B B B B B B C C C C A A A A A A A A A A A U >.>.>.>.>.9.9.9.9.9.9.9.9.9.9.9.9.9.9.9.9.8.0.0.0.0.0.q.q.q.q.<.q.q.u.u.u.u.u.u.u.u.u.u.u.i.a.a.p.p.a.p.u.p.u.u.u.u.u.u.u.q.w.w.w.p.G.G.G.p.p.p.p.p.p.p.p.p.p.p.p.u.u.u.q.w.w.r.r.r.r.r.p.p.p.p.p.p.p.p.p.p.p.p.p.p.u.p.p.p.p.p.u.p.p.a.s.P.}.#X#X#X#X#X#X}.}.}.}.P.G.F.F.r.r.9.9.A Z Z v 5 : + . O O X O X X X O O O O O O O X ; X O O X                                                                                                                                                                                                                                               . . + + @ : : : : @ @ @ @ @ @ @ @ @ @ @ @ @ @ @ @ @ @ @ @ @ @ @ @ @ + + + + + # # + + + . . . . . . . . + + + + . . . . .                 + @ : > > > > > > : > > > 2 2 > > > > : : @ @ + + + . . . . . . . . . . . . . . . . . . . . + @ @ @ @ % % % = 1 1 = = = = = % . X X % % % % % % % % % = = q q q q q q q q q q w q q q 1 1 1 % % % = % = % % % % % 1 : < 4 b K 9.<.0.q.u.u.a.a.a.z.x.c.c.c.n.n.n.n.n. X X X X X X X X X X X X X X X X.X{.G.H.H._._.R.e.T D.).(.`.`.(.(.D.D.D.A.V.V.V.V.D.D.D.D.V.V.V.N._ _ _ _ _ _ _ _ _ _ _ _ _ _ _ ) ) Y Y Y H H H H H H H H H H H H F F D D D D D D c 0 0 9 9 9 9 0 0 0 0 y y D D D D D D D D D D D D F H H R ` ` ` ` R R L R R K D c 0 5 4 > > > > 4 9 c D D P L + ",
"M B B B B M M M M B M B B B B B A A A A A A A A A A A A A A A A A >.A >.9.U 9.9.A A 9.9.9.9.9.9.9.9.9.9.9.8.8.0.0.0.q.q.q.q.q.q.u.u.u.u.u.u.u.u.u.u.u.u.u.u.u.u.u.u.u.u.u.u.u.u.u.q.q.0.q.w.r.p.p.F.P.P.K.p.p.r.p.p.p.p.u.u.u.u.u.q.w.q.w.w.w.w.r.r.r.r.r.p.p.p.p.p.p.p.p.p.p.p.p.p.u.u.u.u.u.u.u.u.u.p.a.p.s.G.}.}.#X#X}.G.s.p.G.G.F.F.F.B.r.r.e.U Z Z v 5 : + X O O X O X X X O O O O O O X X X X O O X X X X                                                                                                                                                                                                                                         . . + + @ : : @ @ @ @ @ @ @ @ @ @ @ @ @ @ @ @ @ @ @ @ @ + + + + + + + + + + # # # + + . . . . . . . . . + + . . . . . . . .               + @ , > > > > > > : > > > > > > > > > : : @ @ + + . . . . . . . . . . . . . . . . . . . . . + + @ @ @ % % % % % % = = = = = % = % X . . X % % % % % = = = = = q q q q q w w w q q q q q 1 1 % % = % % = % % % % % 1 1 < < 0 c A >.,.0.q.u.u.i.i.i.z.x.c.c.c.n.n.n.n.n. X X X X X X X X X X X X X X X|.{.G.H.H._.&X).N.T N.R.(.`.`.`.`.^.D.A.A.V.V.V.V.V.V.D.C.V.V.V.N._ _ _ _ _ _ _ _ _ _ _ _ _ _ ) ) ) ) Y Y Y H H H H H H H H H H F F D D D D D D D 0 0 9 9 9 9 0 0 0 0 y y y D D D D D D D D D D H H H H H ` ` ` ` ` ` ` ` } } } } ` R L K D c 0 4 2 > > < < 0 D + ",
"m m m M M M m m M M M M M N B B A A A A A A A A A A A A A A A A U U A U U U 9.9.A A 9.9.9.9.9.9.9.8.8.8.8.8.0.0.0.0.q.q.q.q.q.q.q.q.q.q.u.u.u.u.u.u.u.u.u.u.u.u.u.u.u.u.<.<.<.q.q.q.q.0.w.w.p.p.p.K.K.F.p.r.w.w.r.r.u.w.q.q.q.q.w.q.0.0.0.w.w.r.w.w.w.w.w.w.w.w.p.u.u.u.u.u.u.u.p.p.u.u.u.u.u.u.u.u.u.u.u.p.p.p.p.s.s.K.s.p.p.p.w.w.w.w.r.r.e.e.y.U Z v c 4 : + X X X X X X X X X O O O X X X X X X O O O O O O X                                                   o                                                                                                                                                                                   . . + + @ @ @ @ @ @ @ @ @ @ @ @ @ @ @ @ @ @ @ @ @ @ @ + + + + + + + + + + + % % # + + + . . . . . . . . + . . . . . . . . .               . @ , > > > > > : : : > > > > > > > > : : @ @ + + . . . . . . . . . . . . . . . . . . . . . + + + @ @ % % % % % % = % = = = % = % X . . . % % % % % = = = = % = q q w q w w w q q q q 1 1 1 % % % % % % % % % % , , 1 : < < 5 Z Z A 9.0.q.u.u.i.i.z.z.c.c.c.c.n.n.n.n.n. X X X X X X X X X X X Xm. X|.'.G.H.H._.&X_.C.T N.D.D.`.`.`.`.(.D.D.C.V.V.V.V.V.V.V.V.V.V.V.N._ _ _ _ _ _ _ _ _ _ _ _ _ ) ) ) ) Y Y Y Y Y H H H F H F F F F F D D D D D D D 0 0 0 9 9 0 0 0 0 0 0 y y y D D D D D D D D D H H H H L R ` ` ` ` ` ` ` ` ` } } } } } } } } } R R L F c 9 9 0 D + ",
"m m m m m m m m m m M M N C C C A A A A A A A A A A A A A U U A U U U U U U U 9.U 9.9.9.9.8.9.8.8.8.8.8.8.0.0.0.0.0.q.q.q.u.q.u.q.q.q.q.u.q.u.u.u.u.u.u.u.u.u.u.5.<.<.<.<.<.<.<.q.q.w.w.r.p.p.p.K.F.p.r.w.w.w.w.w.w.w.w.q.q.q.w.w.0.0.0.w.w.w.r.w.w.w.w.w.w.w.w.p.p.u.u.u.u.u.u.u.u.u.u.w.q.q.q.q.q.q.q.q.q.q.q.q.q.w.w.0.0.w.w.8.8.8.9.U U U U E W v v 5 < @ + X X X X X X X X X X O O O O X X X X X X X X X X X O X                                             o o o o o o o o                                                                                                                                                                       . . + + @ @ @ @ @ @ @ @ @ @ @ @ @ @ @ @ @ @ @ @ @ @ + + + . . . . . . . . # & & $ + + + . . . . . . . . + + . . . . . . . .               . @ , : : : : : : : : > > > > > > > > : : @ @ + + . . . . . . . . . . . . . . . . . . . . . + + + + + % % % % % % % % = = = % = % X . . . % % % % % % = = % % = = q q w q q q q q q q q 1 1 % % % % % % % % % % 1 1 , 1 , : > c x Z A 9.w.u.u.i.i.z.z.z.c.c.c.n.n.n.n.n.n. X X X X X X X X X X Xm.|.|.'.G.H.L._._.).D.N.Z.S.V.D.(.`.`.`.(.D.D.V.V.V.V.N.V.V.V.V.V.V.N._ _ _ _ _ _ _ _ ) ) ) ) ) ) ) ) Y Y Y Y Y Y H H H F F F F F D D D D D D D D D 0 9 9 9 9 0 9 0 0 0 0 y y y D D D D D D G D F H H L L R ` R ` ` ` ` ` ` ` } } ` ` ` ` } } } } ` } } } ` R L G L @ ",
"m m z m m m m m N N N N C C A A A A A A A A A A A A A U U U U U U U U U U U 9.9.9.9.9.9.8.8.8.8.8.8.8.8.0.0.0.0.0.q.q.q.u.u.u.q.q.q.q.q.q.q.u.u.u.u.u.u.u.u.u.5.5.5.<.<.<.<.<.<.0.0.w.r.p.p.p.p.p.p.r.0.8.8.0.w.w.w.w.w.w.w.q.w.0.0.0.0.w.w.e.e.r.r.r.r.r.r.r.r.p.p.p.p.w.w.q.q.q.q.0.0.0.<.<.<.<.<.,.<.<.,.,.>.8.>.>.A A A A 9.A A A A Z Z Z Z Z v k j 4 @ + . X X X O X O X X X X X X O O X X X X X X X X X X O X X O X X X X                                   o o o o o o o         o   o                                                                                                                                                           . . + + @ @ @ @ @ @ @ @ @ @ @ + @ + + @ @ @ @ @ @ + + + . . . . . .   . . # = = $ + + + + + + + + + + + + + . . . . . . . .               . @ , : : : : : : : : : > > > > > > > : : @ @ + + . . . . . . . . . . . . . . . . . . . . . + + + + + @ % % % % % % % = = = % = % X . . . . . . + % % = = = % = = = = q w q q 1 q q q q 1 % % 1 % % % % % % % q q 1 1 , 1 , : 4 j v Z A 9.0.u.i.i.i.z.z.z.z.c.c.b.n.n.n.n.n.n.n.n.n.|. X X X X Xm.|.].'.G.H.R.)._.).D.V.N.S.Z.V.D.(.`.`.`.(.R.C.C.V.V.N.N.V.V.V.V.V.N._ _ _ _ _ _ _ Y Y Y Y Y Y Y Y Y Y Y Y Y Y H H H H F F F D D D D D D D D D D 0 0 9 9 9 9 9 9 0 0 0 0 y y y D D D D D G H F H H L L R ` ` ` ` ` ` ` ` ` ` ' ` ` ` ` ` ` ' } ' ` ` ` } } } } ` ` @ ",
"z z z m m N N N N C C A A A A A A A A A A A A U A U U U U U U U U U U U U 9.9.9.9.9.9.8.9.8.8.8.8.8.0.0.0.0.w.0.q.q.q.q.u.u.u.q.q.q.q.q.q.q.q.q.u.u.<.<.<.<.u.5.5.5.<.<.<.<.<.0.0.0.w.r.r.r.r.r.r.r.0.8.8.0.0.w.0.0.w.w.w.w.w.w.0.8.8.8.8.w.w.9.9.9.w.r.r.r.w.w.w.w.w.w.0.0.8.8.8.8.>.,.>.>.A A >.=.A A A A A C A Z Z N z x Z Z Z Z Z x x k v v c j 3 4 : + . . X X X X X O O O X X X X O X X X ; ; X X X X X X O O O O O O O O X X X                                                                                                                                                                                                                   . . + + @ @ @ @ @ @ @ @ @ + + + + + + + @ @ @ @ @ + + + . .           . . $ & & $ + + + + + + + + + + + + + . . . . . . .                 . # @ : : : : : : : : : > > > > > > > : : @ @ + + . . . . . . . . . . . . . . . . . . . . . . + + + + % % % % % % % % = = = % = % % X . . . . . . % % = = = = % % = = = q w q % % 1 q q % % % 1 % 1 % = % % % q q q 8 8 8 8 , < 4 5 k x A ,.<.5.5.6.6.i.z.z.z.z.c.c.c.n.n.n.n.n.n.n.|. X X X X Xn.|.].'.G.H.E.)._.).D.N._ Z.D.N.S.D.(.`.`.`.(.D.D.V.V.N.N.N.V.V.V.V.Z._ _ _ _ _ _ ) Y Y Y Y Y Y Y Y Y Y Y Y Y H H H H H F F F F D D D D D D D 0 0 0 9 9 9 9 9 9 9 9 0 0 0 0 0 0 y D D D D G H H H L R ` ` ` ` ` ` ` ` ` ` ` ` ` ` ` ` ` ' ' ' } } ' ' ` ` ' ' } | | @ ",
"m m m m N Z A A A C A A A A A A A A A A A U U U U U U U U U U U U U U 9.U 9.9.9.9.w.8.8.8.8.8.8.0.0.0.0.w.w.w.q.q.q.q.q.u.u.q.q.q.q.q.q.q.q.q.q.u.u.<.<.<.<.5.5.5.5.<.<.<.<.q.0.0.0.0.w.r.r.r.r.8.8.0.w.w.w.0.8.0.0.0.0.0.0.8.8.8.8.8.8.8.9.9.9.9.9.8.9.9.8.8.8.9.9.9.9.>.A A A 9.9.A A C N N N C Z N Z Z Z N x x x x h h h k v k x k j 3 2 5 5 2 > < , $ .   O X X O X X X O O X X X X O O X X ; ; ; X O O O O O O X X ; ; X X O X O X                           . . .                                                                                                                                                                                 . . + + + @ @ @ @ + + + + + + + + + + + @ @ @ @ + + + + .             X . $ q q $ + + + + + + + + + + + + + . . . . . . . .               . + @ : : : : : : : : : : > > : > > > : : @ @ + + . . . .   . . . . . . . . . . . . . . . . . + + + + % % % % % % % % = = = = % % % % . . . . . . % % = = = = % % % % = = q w % % 1 q q 1 % % 1 1 1 1 1 % % % q q q q q 8 8 8 , , < 5 k N C =.<.5.5.6.6.i.i.z.z.z.c.c.c.n.n.n.n.n.n.|. X X X X X|.|.].'.J.H.R.)._.`.D.T T Z.^.S.V.S.^.`.`.`.`.D.D.C.V.N.N.N.V.V.V.V.V.N._ _ _ _ _ Y Y Y Y Y Y Y Y Y Y Y Y Y H H H H H H F F D D D D D D D D D 0 0 9 9 9 9 9 9 9 9 9 9 0 0 0 0 0 y D D D D D H H H L ` ` ` ` ` ` ` ` ` ` ` ` ` ` ` ` ' ' ` ` ` Y ` ' ' ' ` ` ` ` ` | + ",
"N N N N C C A A A A >.>.>.>.>.>.>.U U U U U U U U U U U U U U U U 9.9.9.9.9.9.9.9.9.9.8.9.8.8.8.0.0.0.0.0.0.q.q.q.q.q.u.u.u.u.q.q.q.q.q.q.q.q.q.<.q.u.u.<.<.<.<.<.<.:.<.<.<.<.,.8.0.w.r.w.w.e.r.9.9.8.8.8.8.9.9.8.8.9.9.9.9.9.9.8.8.8.8.8.8.>.9.9.9.>.A A U U 9.U U U U A A A A S N z z z x x x x x x x k k g j 3 3 3 2 2 2 > 2 2 > > > , @ @ @ @ @ + + X X O O X O X X X O O O O O X X X X O O O X ; ; ; ; X O O O O O O O O O X X X X X X X X                 . . . + + + . .     . X       X                     X           X                                                                                                                         . . + + + + + + + + + + + + + + + + + + + + + + + + . .               . % q $ + + + + + + + + + + + + + + . . . . . . . . . .             + @ : : : : : @ @ @ : : : : : : > : : @ @ @ + . . . . .     . . . . . . . . . . . . . . . . + + + + + + + + % % = = = = = % = % % % % . . . X . . . % = = = % % % % % = = = % % % % % % 1 1 % 1 % % = = % % q q q q w 8 8 8 w 8 < 4 5 x N C C =.<.5.u.i.i.i.z.z.v.z.c.c.n.n.n.n.n.|.|.|.|. X|.|.].'.G.J.L.R.R.(.(.D._ Y _ ^.(.S._ N.D.`.`.pX`.(.D.N.V.V.N._ N.N.N.N._ _ _ _ _ _ _ Y Y Y Y Y Y Y Y H H H H H H H H F F D D D D D D D D D D D 9 9 9 7 < < 9 9 9 9 9 9 0 0 0 0 0 y D D D D H H L L R ` ` ` ` ` ` ` ` ` ` ` ` ` ` ) ) ) ` ` ` ` ` ` ` ) ) ` ) ` ` ` ` @ ",
"C C C C A A A A >.>.>.,.>.>.,.>.>.U 9.9.9.9.U U 9.9.9.9.9.9.9.9.9.9.9.9.9.9.9.9.w.8.8.8.8.8.8.0.0.0.0.0.0.0.0.q.<.0.q.q.q.q.q.q.<.<.<.<.q.<.q.q.<.<.u.<.<.<.<.<.<.:.:.<.<.<.<.,.8.0.w.w.w.9.9.9.9.9.9.9.8.9.9.9.9.>.>.A 9.9.9.9.>.9.8.8.8.8.9.9.9.U A U A U U U Z Z Z Z Z Z v v v x h h h k h g k j 5 3 2 2 > > : : : @ @ @ @ @ : : @ @ + . . . + + . . X O ; ; O X X X X X X X O X X X X X X O O X ; ; ; ; X O O O O O O O O O X X X X X X X X X O     X X - w $ @ @ + @ $ 8 w 8 + . . .                           X X                     X X X X X X X X X X                                                                                           . + + + + + + + + + + + + + + + . + + + + + + + . . .                 . % q $ + + + + + + + + + + + + + + . . . . . . . . . .             . @ : : : : : @ @ @ : : : : : : : : : @ @ @ + . . . .       . . . . . . . . . . . . . . . . + + + + + + + + % % % % = = = % = % % % % . . . X . . . % = = % % % % % % % % = % % % % % % % % % % % % @ = = % q q q q q w w w w w q 1 r k x x M C ,.<.<.u.u.u.i.i.z.z.z.z.c.n.c.n.n.|.|.|.|.|.|.].].'.G.H.L.L.).(.(.Q.N.Y T Q.^.Q.S.N.N.D.`.pX:X`.D.V.N.N.V.V.N.N.N.N._ _ _ _ _ ) _ Y Y Y Y Y Y Y H H H H H H H H H F F D D D D D D D D D D 0 9 9 7 7 < < 7 7 9 9 9 9 0 0 0 0 0 0 D D G G H H L L R ` ` ` ` ` ` ` ` ` ` ` ` ` ) ) ) ) ` ` ` ` ` ` ) ) Y Y ` ` ` ` ` @ ",
"A A A A ,.,.>.>.,.,.,.,.,.,.,.,.9.9.9.9.9.9.9.9.9.9.9.9.9.9.9.9.9.9.9.9.9.9.w.w.w.0.0.0.0.0.0.0.0.0.0.0.0.0.w.q.<.<.0.q.q.q.0.<.<.<.<.<.<.<.<.<.<.<.<.<.<.:.<.<.,.<.<.<.<.<.<.0.0.0.0.w.8.9.9.9.9.9.9.9.9.9.9.U A A A A A A U U A >.>.9.9.9.9.9.A A U U I I Z Z v v v k k k j j k 3 3 2 3 3 2 > > : : : @ @ + + + + + . . .   . + + . .         . . . X   ; ; ; O O X X O O O O O O X X X X O O X X X O O X X X ; ; X X X X X X X X X X X X X X X X X X X - d d ! ! ! ! P ! ! { ! 8 . .   . .         X X           X X               X O O O O O O O O o o o o                                                                                         . . + + + + + + + + + + . . . . . . . . . + . . . . . .                 . % 1 @ + + + + + + + + + + + + + + + . . . . . . . . .             . + @ : : : @ @ @ @ : : : : : : : : : @ @ @ + . . . .       . . . . . . . . . . . . . . . . + + + + + + + + % % = = = = = % = % % % % X . . . .   . O X % % % % % % % % % % % % % % % % % % % $ % % % = = = q q q w q w w w w w w w r r 6 g l m C A ,.,.<.q.u.i.i.i.z.z.z.c.c.c.n.n.n.n.|.|.].].'.G.F.H.C.D.(.(.(.Q.Z.T T Z.Q.^.^.S.T T D.`.pX`.`.D.N._ V.S.N.N.S.S.' ' _ _ _ ) Y Y Y Y Y Y Y H H H H H H H F H F F D D D D D D D D D D 0 0 4 7 < < < < 7 7 9 9 9 9 9 0 0 0 0 0 D D G H H H L L R ` ` ` ` ` ` ` ` ` ` ` ` ` ` ) ) ) ) ` ) ` ` ) Y Y H H H H ( ` ` @ ",
"A >.>.>.,.>.,.>.>.>.>.>.,.,.,.,.9.9.9.9.8.9.9.8.9.9.9.9.9.9.9.e.w.w.w.w.w.w.w.w.0.0.0.0.0.0.0.0.0.0.0.0.0.0.w.w.0.0.0.0.0.0.0.0.<.<.0.0.q.q.<.<.<.<.<.<.:.:.:.<.,.<.<.<.,.,.,.0.0.8.0.8.9.8.9.9.9.9.9.9.9.U U A A A A A A A A A A A A A A A U U Z Z Z Z Z v v c 5 5 3 2 2 > > > > : : : : : @ + + + + + . . . . X X O O O o o o . .               X   O   ; ; ; O X X X X O X X O O X X X X O O ; ; X X X X X X X X X X X X X X X X X X X X X X   X X X   ; w d { | @.@.@.@.@.@.P 8 .     . .                   X X X X               X O O O X                                                                                                         . . + + + + + + + . . . . . . . . . . . . . . . . . .                   + % , @ + + + + + + + + + + + + + + + . . . . . . . .               . + @ : : : @ @ @ @ : : : : : : : : : @ @ @ + . . . .       . . . . . . . . . . . . . . . . + + + + + + + + % % % % = = % % % % % % % % . . .       X O O X % % % % % % % % % % % % % % % % % $ % % % % % = q q q q w w w w w w w w w r 6 6 3 h x N C A >.<.<.u.u.i.i.i.z.z.z.c.c.n.n.c.c.c.'.'.G.G.H.H.C.C.(.(.(.Q.Z.T E E Z.Q.`.Q._ T _ Q.`.`.`.(.D.N.N.Z.N.N.Z.Z._ ' _ _ _ ) Y Y Y Y Y Y Y H H H H F F F F F F D D D D D D D D D D c 9 9 < < < < < 7 7 7 7 7 9 9 9 0 0 0 0 y D D D H H H H H L ` R ` R R R R R R L R R ` ` ` ` ` ` ` ` ` ` R Y Y H H H H H ( ` @ ",
">.>.>.>.>.>.>.>.>.>.>.>.>.8.8.9.9.9.8.8.8.8.8.9.9.9.9.9.w.e.e.e.w.w.w.w.w.w.w.w.w.w.w.w.0.0.0.0.0.0.0.0.0.0.w.w.0.0.0.0.w.0.0.0.q.0.q.q.q.q.q.<.q.<.<.<.:.=.:.,.<.<.0.<.,.,.,.0.8.8.8.8.9.9.9.9.9.9.9.9.A A A A A A A A A A A A A A Z Z Z Z Z Z x v v n c c 5 4 < : : : @ @ @ + + + + + + + . . . . . . O O X X O O O O O O o O X   X   O O       O O O   O O O X X O O X       O O O X X X O X X X X X X X ; X X X X X X X X X X X X X X X X X   X X X     X & 8 u ! { { { { { 8 + .       . X O X         X X X X X                   X                                                                                                               . . + + + . . . . . . . . . . . . . . . . . . . . .                     + % % @ + @ + + @ @ + + @ @ @ @ + + + . . . . . . .                 . + @ @ : @ @ @ @ @ @ : : : : : : : : @ @ @ + . . . .       . . . . . . . . . . . . . . . . + + . + + + + + + + % % % % % % % % % % % % . .             X O % % % % % % % + + % % % % % % # $ # % % % % % = q q q q w q - w q w w w w w w 1 > 6 k x N Z A >.<.q.u.u.u.i.z.z.z.c.c.c.c.c.c.c.x.G.G.H.H.H.R.R.(.(.(.Q.Z.' E T ' Q.`.^.S._ T Y Q.`.:X:X`.S.N._ _ _ _ _ ' ' _ _ ) T Y Y Y Y Y Y H H H H F F F F F D D D D D D D D D D D y 9 9 < < < < < < 7 7 7 7 7 9 9 9 0 0 0 D D D D D H H H H L L R L L L L H L L R R R R R R R R R Y Y Y R R Y ` Y R Y Y H L L L @ ",
">.>.>.>.>.>.>.>.9.9.9.9.9.9.9.9.9.8.8.8.8.8.0.8.w.w.w.w.w.e.w.r.w.w.w.w.w.w.w.0.w.w.w.0.0.0.0.8.8.0.0.0.0.0.0.0.0.0.0.0.0.0.0.0.0.0.q.q.0.<.<.<.<.<.<.:.=.*.=.,.<.<.<.,.,.>.,.8.8.8.8.9.w.w.9.9.9.9.A A A A A A A A A A A Z Z Z Z Z x x x x x k h j 5 4 4 < , , @ @ + + + . . . .               O O O O O O O O                 X X     O O O O   O O O X O     X X X X       X O O O X X X O X ; X X X X X ; ; X X X X X X X X O X X X X X X X X X & X         . @ , 8 8 8 8 w .           X - - ; X X O ; ; ; X X                                                                                                                                     . . . + . . . . . . . . . . . . .                                       # % $ + + @ @ + + + + + + + @ @ + + + . . . . . . .                 . + @ @ @ @ @ @ @ @ @ : : : : : : : : @ @ @ + . . .         . . . . . . . . . . . . . . . . + . . + + + + + + + % % % % % + % % % % % % X .     .       X o % % % % % + + + % % % % % % % % # # # % % % = = q q q q q w - w q q w w w w w w 1 7 5 k x x S A >.,.q.u.u.i.i.z.z.z.z.c.z.z.z.x.a.G.F.H.H.R.R.R.R.(.(.Q.Z.' ' ' ' Z.Q.^.^.Q._ I T S.`.:X`.^.S._ _ _ ' ' _ _ _ _ ) T Y Y Y Y Y Y H H H F F F D D D D D D D D D D D D D c 0 9 < < < < < < < 7 7 7 7 7 7 9 9 0 0 0 y D D D D H H H H H L L L L H H H H L L L L L L R R R R Y Y Y R R R R R R Y Y L H L L @ ",
">.>.>.>.>.>.9.9.9.9.9.9.9.9.9.9.8.8.8.8.0.0.0.w.w.w.w.w.w.r.r.w.w.w.w.w.w.w.0.0.0.w.0.0.0.0.8.8.8.8.8.0.0.0.8.8.0.0.0.8.8.8.8.0.<.<.<.<.<.<.<.<.=.=.=.=.&.=.=.<.<.,.,.>.>.,.,.,.8.8.8.8.w.w.8.9.>.A A A A A A A Z Z Z Z Z Z Z x x x l h h g g g 2 2 > : @ + + + . . . . . . .           o o o O o                                               O O O X X X   O   X         X X X X O X X X X X ; ; X O O X ; ; O O O O O O O X O X X X X X X X X X X X X X   . + + + + . . .         X o   ; - - ; O = - - - O X                                                                                                                                         . . + . . . . . . . . . . .                                           # % $ @ + @ @ + @ @ @ + @ @ @ @ + + . . . . . . . .                 . . + @ @ @ @ @ @ @ @ @ : : : : : : @ @ @ + + . . .         . . . . . . . . . . . . . . . . + + . + + + + + + + % % % % % + % % % % % % X X . O O X       O % % % % % % + + % % % % % % % % # # # % % % = = q q q q = - = q w w w w w w w w & , 7 6 j l x N A >.,.<.<.5.6.6.z.z.z.z.z.z.z.z.a.F.F.H.C.D.I.I.D.(.(.Q.Z.Z.Z.Z.Z.' Z.Q.`.^.Z.T I T S.`.:X`.^.S._ _ _ _ _ _ _ _ T T Y Y Y Y Y I H H H F F D D D D D D D D D D D D D D 0 9 < < < < < < < 7 7 7 < 7 7 7 9 9 0 0 0 y D D G D G H H H H H H H H H H H H H H L H L L H H H H L L L L L L L R R L L L L L L @ ",
">.>.>.9.9.9.9.9.9.9.9.9.9.9.9.9.8.8.8.0.0.w.w.w.0.0.0.w.w.w.w.w.w.w.w.w.w.0.0.0.0.0.0.0.0.8.8.8.,.8.8.8.8.8.8.8.8.8.8.8.8.8.8.,.,.<.<.,.,.,.,.,.&.=.&.&.&.=.,.<.,.A C C >.,.,.,.8.8.>.8.8.8.>.A >.A A A A A Z Z Z Z v v v x x k k g 5 3 2 2 2 > : : @ + . .     . . . . o o o o o o o o o o O O                     O       O O                 X O O X X X O O             X X O X X X X X X X ; ; X O O X ; ; O O O O O O O O X X X X X X X X X X X X X X X X . . . . + . .   .     X O O ; - O O O = - - O   X                             X                                                                                                           . . . . . . . . . . .   .                                             % % @ + + @ @ + @ + + + + + @ + + . . . . . . . . . . . .             . + @ @ @ @ @ @ @ @ @ : : : : : : @ @ @ + + . . . .       . . . . . . . . . . . . . . . . + + . + + + + + . + + + + + + + % % % % % % X X   O O X       O X X X X X X + + % % % + + % % % # # # % % % = = q q q q q w w q e e w q w w w w & % 1 > 2 3 k x Z A >.,.<.<.5.6.6.z.z.z.z.i.i.a.p.F.F.C.D.D.D.D.D.(.`.Q.Z.' Z.!.Z.' ' S./.`.Q.Z.I I T Q.`.:X`.^._ T T T T _ _ _ T T Y Y Y Y Y Y H H F F F D D D D D D D D D D D D D 0 9 < , < < : , < < 7 7 7 < < 7 7 9 9 0 0 0 y D D G G G H H H H H H H H H H H H L L L L L L H H L H H H H H H H H H R Y H H H L L @ ",
">.>.>.>.8.8.8.8.9.>.9.9.9.9.9.8.8.0.8.0.0.0.w.w.w.w.w.w.w.w.w.w.w.0.0.0.0.0.0.0.8.8.8.8.8.8.8.8.8.8.8.8.8.8.0.0.8.8.8.8.8.8.8.,.0.0.<.<.,.=.=.=.V V V =.,.1.1.=.B C A A A >.>.>.>.>.>.>.8.8.>.>.>.A A A Z Z x k j 5 5 4 2 2 > > > : : : @ @ @ @ + + . .                                     X X O O                         X   O O O           X X X X X X X         X X X O X X X X X O O X O O X O X O O X X X X O O O O O O ; X ; X X X X O O O O O X X X X X X X X X X X X X X O O . O O O %     .       . O . O X % X                                                                                                                                                                                                     + @ @ @ @ @ + + + + + + + + + + + . . . . . . . . . . .             . . + + @ @ @ @ @ @ @ @ @ @ @ @ @ @ @ @ @ + + . . . . .   . + + + + + + + . . . . . . . . . . . + + + + + + + + + + + + + + . X X X . . . X . O O           . O X X X X X X % % % % # % % % = = % % % % % % = q q q q q q q q w p w q w w w % % q w r r r 6 x Z A >.,.<.<.5.5.5.6.i.i.i.p.p.B.B.D.D.L.D.D.D.Q.Q.Q.Q.Z._ _ S._ ' _ _ S.^.^.!.Z.Y F F ' /.:X:X^.Q.Z.T Y Y Y _ Y Y Y Y Y H Y H H F F D D D D D D D D D D D D y 0 0 0 7 , @ : : , , , < < < < < 8 7 7 7 9 9 0 0 D D D G D G G H H H H H H H G P L L L J P J J J L L L L L H H H H H H H H H H H H F L : ",
">.>.,.,.8.8.8.8.>.>.8.8.8.8.8.8.0.0.0.0.0.0.0.0.w.w.w.q.q.q.q.w.w.0.0.0.0.0.0.0.8.8.8.8.8.8.8.8.8.8.8.8.8.8.8.8.8.8.8.8.8.8.8.>.,.,.,.,.,.,.=.=.V V =.=.=.=.C B M N C A A A A A A A A A >.>.A C C C N N x j 5 2 < : , @ @ @ @ + @ + + + + . . X . .                                                                       X X X X O X           X X X X X X X X       X X X X X X X O X X X X X O O O X O O X X X X O O O O X X X X X X X X X X O O O O X X X X X X X X O O X X % X X X . . X X X .   . .       # X . . . X .     X X X                                                                                                                                                                                         + @ @ @ + + + + + + + + + + + + + . . . . . . . . . . .             . . + + @ @ @ @ @ @ @ @ @ @ @ @ @ @ @ @ @ + + . . . . . . . + + + + + + + . . . . . . .   . . + + + + + + + + + + + + + + + X X X X . . X X . . O             O X X X X X X % % % % % % % % % % % % % % % % % = = = q q q q q w w q q w p w % = q w w w w r k x Z Z A ,.:.<.5.5.5.u.u.p.p.r.N.N.A.D.D.Q.Q.Q.Q.Q.Q.D.Z._ _ S._ ' _ T ' Q.Q.!.' ' R I F T Q.:X:X`.Q._ T T Y Y Y Y Y Y Y Y H F H F F D D D D D D D D D D D D 0 0 0 0 7 , , , , , , , < < < < 7 8 8 7 7 9 9 0 0 D D D G D G H H H H F F H H G J P J J u 0 0 0 0 D D D D D F F F H H H H H H I H R F L < ",
"8.8.,.8.8.8.8.8.>.8.8.8.8.8.8.8.w.w.w.w.w.0.0.0.w.q.q.q.q.q.w.w.0.0.0.0.0.0.8.8.8.8.8.8.8.8.8.8.8.8.8.8.,.,.,.,.,.,.8.8.8.8.>.>.>.>.>.>.,.=.C V C =.,.1.C B M m M B C A >.A A C A A A A A A C N N x l g 3 2 > : @ + + + . . . . + . . . . .   .                                                                           X X X O O           X X X         X X       X X X X X X X X X O X O O X O X X O O O X X X X O X X X X X X X X X X X X X X O O O O O O X X X X O O X X % # # + X X X X   . . . . X X . .         . .         X X X X                                                                                                                                                                                   + + + + + + + + + + + + + + + + + . . . . . . . . .                 . . + + @ @ @ @ @ @ @ @ @ @ @ @ @ @ @ @ @ + + . . . . . . . + + + + + + + + . . . . . . . . . + + + + + + + + + + + + + + + X X X X X X X X . .                 O X X X O X % % % % % + % % % % = = = % % % % % % = q q q q q w w q q w w w % = w w w w w w 6 j k x N A =.,.<.<.<.0.w.w.r.r.N.N.Z.D.D.D.D.D.Q.Q.Q.D.Z._ _ V.S.' _ Y Y ' !.!.!.!.Z.Y v v Y Q.:X:X`.^.S._ Y I I Y Y Y Y Y H H F F F D D D D D D D D D D D y 0 0 9 7 7 7 < , , , : , , < < 7 7 7 7 7 9 9 9 0 0 D D D G D G G H F F D D G G J D J y 9 < , @ @ : < > 4 9 0 c c D F F F F F F F F H F L < ",
"8.8.8.8.8.8.8.8.8.8.8.8.8.8.0.0.w.w.w.w.w.w.0.0.w.q.q.0.q.q.q.w.0.0.0.8.8.8.8.8.8.8.8.8.8.8.,.,.8.8.8.,.,.,.,.,.,.,.,.,.,.>.,.,.>.>.A A C C C B =.,.1.A B m m m N C A >.>.C N m N N N N Z N N z x k g 2 > : @ + + . . . . . . . . . .                                                                                   X X X X O           X O X           X O X X X X X X X X       X O X O O O O X X O O O O X X X X X X X X X X X X X X X X X X X X O O O O X X X X X X X X # % % % # + # #   X X   . & - &         . . . .             X                                                                                                                                                                                   . + + + + + # + + + + + + + + + . . . . . . . . . .                 . . + + @ @ @ @ @ @ @ @ @ @ @ @ @ @ @ @ @ + . . . . . .   . + + + + + . + + . . . . . . . . . + + + + + + + + + + + + + + + X X X X X X X X . .                   O O O O O X X % % + + % % + % = = = = % % % % % = q q q q q w w w q w w w % q w w w w w w 6 6 5 j x N C A >.,.,.,.9.w.e.e.N.N.N.A.A.D.D.Q.Q.D.Q.D.Z._ _ N.Z.' ' T Y ' ' !./.!.!.E F F F I Z.^.:XpX`.Q._ Y I Y Y Y Y H F F F F D D D D D D c c D D c 0 0 0 9 7 < 7 9 9 7 , , , , , < < 7 7 7 < < 9 9 9 0 0 D D D D D D D D D D D D G G D y 7 7 @ + + + + @ @ : > > 4 0 c c c c c c c c c c D c D : ",
"8.8.,.8.8.8.8.8.8.8.8.8.0.0.0.w.w.w.w.w.w.w.w.w.w.0.q.0.0.q.q.q.0.0.8.8.8.8.8.8.8.8.8.8.,.,.,.,.,.,.,.,.,.>.,.>.,.,.,.,.,.,.,.,.A A A C B C C C ,.,.A N m z z m A A A A A C m z N N z x x x l h k 6 1 : @ + + X O X X X X X o o                                                                                       X X X X X X           X O           X O ; X X X X X X X X       X X X X O O O O O O O O O X X X X X X X O X X X X X X X X X X O O X X X O X X X X X X X X # % % % % # + + . # O   . - p w X . .   . # - w =           X                                                                                                                                                                                   . . . . + + + + + + + + + + + + . . . . . . . . . . .               . . + + + @ @ @ @ @ @ @ @ @ @ @ @ @ @ + + + . . . . . .   . . + + + + . . . . . . . . . . . . + + + . + + + + + + + + + + . + X X X X X X X O O O                     . . . X X + + + + % % + % % = = = % % % % % = = q q q q w w q w w w q = q w w w w w w w 1 6 6 j x Z S A A A A U e.e.e.N.N.N.A.S.D.Q.Q.Q.D.D.D.Z._ _ N._ ' ' ' ) ' ' ' /./.!.S.' Y F v v Y !.:X:X:X^.S.T Y Y H F F F H F D D D D D D D c D c c 0 0 0 9 7 < , < 9 9 7 < < < , , < < 7 7 < < 7 9 9 9 0 0 D D D D D D G G D D G D J D y 0 @ + . . + + @ : : > > 4 0 c D D D c c c c c c D c 0 J @ ",
"8.8.8.8.8.8.8.8.8.8.8.8.0.0.0.w.w.w.w.w.w.w.w.w.w.0.q.0.0.q.q.q.0.8.8.8.8.8.8.8.8.8.8.8.,.,.,.,.,.,.,.,.>.>.,.,.,.,.,.,.,.=.=.C C N N N C C A >.A C M m z z N N S A S C N m z l l l h h k g 3 2 > @ @ + . . X X                   X                                                                               X X O X X X X O X           X           X O X X X X X X             X X O X X O O X X X X X O X X X X X X O O X O X X X X X X X X O O X X X X X X X X X X # # X % % % % # + X # X .   . - w p w - X   . - d d d O   O                                               O O       O                                                                                                                                 . . . . . + + + + + + + + @ + . . . . . . .   . . .               . . + + + @ @ @ @ @ @ @ @ @ @ @ @ @ @ + + + . . . . .     . . . + . . . . . . . . . . . . . . . . + . + + + + + + . + . . . % X X . X X X X O O O                       . . . . X + + % % % + % % = = = = = % % % q q q q q q w w q w w w q = q w w w w w w w w w r r k k x x Z Z Z U T T T N.N.Z.Z.Z.D.Q.Q.Q.D.D.D.Z._ _ S.' ' ' ' ' ' E ' !.!.^./.!.) I F v v F ' /.:X`./.S.' Y H F F F H D D D D D D D D D c c 0 0 9 9 9 , , : , < 7 7 7 7 < < < < < 7 7 < < 7 9 9 9 0 0 D D D D D D D D D D D G D y 7 , . . . . . @ , 8 0 0 0 e b b J J J J J J J J J J J y P : ",
"8.8.8.8.8.8.8.8.8.8.8.8.8.0.0.0.0.0.0.0.w.w.w.w.0.0.0.0.0.0.0.0.8.8.8.8.8.8.8.8.8.8.8.,.,.>.>.>.,.,.,.>.>.,.,.>.,.,.,.,.=.=.V V N N C A A A A A N m z z z N Z S S S N z l l h h g 3 3 2 2 > : @ + + . .       o                                                                                                 X X X O X X X X X X X                 X X O X X X X X X X             X X X X X O X O X X X X X X X X X O O O O     X X X X X X X X X O X X X X X X X X X X # # X X % % % # X X # . . . X X % - - & % X X - d d o.;   o     X                                         # % .     O O                                                                                                                                     . . . . + + + + + + + + . . . . . . .   . . .                 . . + + @ @ @ @ @ @ @ @ @ @ @ @ @ @ + + + . . . . .       . . . . . . . . . . . . . . . . . . . . . + + + + . . . + + + . % X . . . . X X O O O                       . . . . . . . + % % + % % % % = = q = = q q q q q q q w w q w p w q q q w w w w w w w w w q w 6 6 k x x v I I T T T _ _ _ N.Z.S.!.Q.D.D.Q.Q.Z._ _ S.Z.' _ ' Z.' ) E E ' !.!.!.' Y Y F v c v Y Z./././.!.' ` Y H F F D D D D D D D D c D 0 0 0 9 9 < : , , , , < 7 9 9 9 7 7 < < 7 7 7 7 7 9 9 9 0 0 D D D D D D D D D D D D y 7 $ + . . . . + , w e e e e e w 8 8 8 4 4 9 0 0 0 e e e e P @ ",
"8.8.8.8.8.8.8.8.8.8.8.8.8.8.8.8.0.0.0.0.w.w.w.w.0.0.0.0.0.0.0.0.8.8.8.8.8.8.8.8.8.8.,.,.>.>.>.>.,.,.,.,.,.>.,.>.,.,.,.,.=.V V B C A A >.>.A C N m z l l z N S S S n x h g g j j 2 > > : : @ + . . .   o o O O ; ; ;                                                                                         X X X X O O X X X X O X X                 X O X X X X X X X X       X X X X X       X O X X   X X X O X X X O O O O       X O O X X X X O O X X X X X X X X X X # # X X % % % # X X #     # #     X     X & & - w p d X         O                                       . & = O     ; O                                                                                                                                       . . . . + + + + + + + . . . . . .     . . .                 . . + + @ + @ @ @ @ @ @ @ @ @ @ @ + + + + . . . .         . . . . . . . . . . . . . . . . . . . . . + + + + + . . + + + . % X . . . . X X O O O                         .   . . . . + % % % % % % % = = w q q q q q q q q q w w q w p w q q q w w w w w w - - w w q 1 6 2 k c v I I E E T Y T T T ' Z.S.Z.D.S.Q.Q.S.' ' Z.S.' T ' Z.' _ ' Y _ ' !.!.!.' Y I I F c j c R !././.!.} ` H F D D D D D D D D D D y 0 0 0 9 < < @ : , , @ , 7 0 0 0 7 7 < < 7 7 7 7 7 9 9 9 0 0 D D D D D D D D D y y y 0 , + . . . . + % q w e w w 1 @ + + + + + + + + + + @ @ , $ u . ",
"8.8.8.8.8.8.8.8.9.0.0.0.0.0.0.0.0.0.0.w.w.0.0.0.w.0.0.0.0.0.0.0.8.8.8.8.8.8.8.8.,.,.,.>.>.>.>.>.>.>.>.>.,.,.>.=.=.=.C V C V C C A A >.A A B M m z z z N Z S v n j j 3 2 2 > : : @ + + . . . .         X O O X                                                                                               X X         X X X X X X               X X ; & ; O X                 X X X X X X                     O O X O X X X X X X X X X X O X X X X X X X X X X X X X X X X X X X % % % % % % # # % X X O . .     . X . .                                                       . = - % O         X X                                                                                                                                         + + + + + + + + . . . .                                 . . + + + + @ @ @ + + + + + + + + + + + . . . .             . . . . . . . . . . . . . . . . . . . . + + . . X X + + + + % % % % X X X X O O O O X O X                   . O X X X % % % % % % % % % % % w q q q q q q q w q w w q w p = = q w w w q q w - - - w q r r 5 5 j v K R E E E ' ' ' ' ' Z.Z.S.Z.S.S.Z._ ' ' ' ' _ T _ S.^.Z.I ' ) E ' !.!.!.' Y F F F c 5 5 c } !./././.} R F D D D D D D D D c 0 9 9 < < < < : : , , , , , , 0 0 0 0 7 < 7 7 7 7 9 0 0 0 0 0 D D D D D D D D y D y 0 7 + . . . . + % = = = % . . . . . . . . . . . . . . . . . . + $ ",
"8.8.8.8.8.8.8.8.9.9.0.0.0.0.w.0.0.0.0.0.w.w.w.w.0.0.0.0.0.0.0.0.8.8.8.8.8.8.8.8.,.,.,.>.>.>.>.>.,.,.,.>.=.C C C C C C C C C C C A A A C B M m z z z x x x k g 3 2 > > : @ @ + + . . .                 X X X X                                                                                                 X         X X O O X X                 X O O X X X                 X X X X                         O O O O X X X O X X X X X X O O X X X X X X X X X X X X X X X X X X % % % % % % # # % X X O . .     . . . .                                                       # - w = O                   O X         X & -                                                                                                                 X X . . + + + + . . . . .                               . . + + + + @ + @ + + + + + + + + + + + . . . .               . . . . . . . . . . . . . . . . . . . + + + . X X + + + . X X X . X X O X O O X X X O                     O O X X X X % % % % % % % % % = w q q q q q q q w q w w q w p % = q w w w q q w - - = q q 1 6 6 b K K R R E E E ` R E E ' ' Z.Z.Z.Z.Z.Z._ _ ' ' ' ' _ _ S.Q.S.' E Y R ' Z.!.Z.' R I F F c 5 5 c 9 D R | /.!.} } G D D D D c c D 0 0 9 < < < < < < < , , , , , , 7 9 0 0 0 9 7 7 < < 7 9 0 0 0 y D D D D D D D D y y y 8 , + . . . . + % % % % % .                               . . . & ",
"8.8.8.8.8.8.8.8.8.8.8.0.0.0.0.0.0.0.0.0.0.0.0.0.0.0.0.8.8.8.0.0.8.8.8.8.8.8.,.,.,.,.,.>.,.>.>.>.,.,.>.A C C C C M B B C C A A A C B N M m z z l x x x k 3 2 > : @ @ + + + . .                           X X X X             .                                                                                               X X                                                                                 X X X X X X O O X X X X X X X O X X X X X X X X X X X X X X X X X X % % # # # # % % # X X X O X . . .   .                                                       . % w p w - % .       X X                   X &   X X                                                                                                           O . . . . . . . X O O . .                               . . + + + + @ + + + + + + + + + + + + + . . . .                 . . . . . . . . . . . . . . . . . . + + . . X X . . X . . . . . . . O O O O O O X X                     . . . . X X X + % + % % % % % % = q q q q q q q w q w w q w w % = q w w w q q q w - w q 1 1 1 6 J K ~ ~ R R E ` R Y Y Y E ' Z.Z.Z.Z.Z.N.' _ ' ' ' Z.' _ ' Z.S.S.Y Y Y R ' ' ' ' ' Y F F F c c c 4 9 c D L ` | | L L D D 0 0 0 0 9 9 7 < < < < < 7 7 7 < , , , , , < 9 0 y 0 9 < , , < < 9 0 y D D D D D D D D y y 0 0 , @ + . . + + % % % # + .                                     . & ",
"8.8.8.8.8.8.8.8.8.8.8.8.8.8.8.0.9.9.9.9.0.9.0.0.0.0.8.8.,.,.8.8.,.8.8.8.8.8.,.,.>.>.>.>.,.,.>.>.,.>.A C B B B B N B C A A A C C N m m z z l l l h k g 3 > : @ + + . . .                                 X X X X           . . .                                                                                                                             X X                                                   X X X X X O O X X X X X X O O X X O O O O X X O X X X X X X X X X % % % # # # % % # X X X O X X . .       .                                                     % - p p w w w & & w d d &           . .       O O X                                                                           .                                   . . . . . . O O O .                                 . . + + + + @ + + + + + + + + + + + + + . . . .                     . . . . . . . . . . . . . . . . + + . . . . . . X X . . . . . . . . O O O O O X                         . . . . X X + + % % % % % = % = q w w w q q w q w q q w w % q q w w w q q w w w w q 1 1 1 1 e J ~ } ~ R R R R H F F Y ' ' _ ' _ _ _ _ _ _ _ ' ' Z.' T _ Z.S.Y Y I I Y ' ' Z.' Y H F F c c c c c 9 4 0 D F L L L J D c 0 0 0 7 < < < < < < < 7 7 7 7 < < < < , , < 0 y y 0 9 < < < < 7 9 0 D D D D D D D D 0 y e 7 @ + + + + = % % % + + . .                                       % ",
"8.8.8.8.8.8.8.8.8.8.8.8.8.8.8.8.8.8.8.8.8.8.8.8.8.8.,.,.8.8.8.8.,.8.,.,.,.,.,.,.>.,.>.>.>.>.>.,.=.C C C B B B C A A A S A Z N N m z z l l h h g 3 2 > : @ + . . .                                       X X X               .                                                                                                                   X X         X O                                                       X X X X O X X X X X X X X X O O O X X X X . O X X X X X X # # % % % % % % % % % X X X X X X X .                                                             . % = - - w w w w d +.+.s # .   . + & = % X . ; ; X                                                                   . . . O X . .                                       O O . . .                                   . . + + + + + + + + + + + + + + + + + . . . .                           . . . . . . . . . . . . . . + + . . . . . . . . . . . . . . . . . . O O O                           . . . . . . + + % % % = = = % = q q w w q q w q w q = w w % q q w w w q w w w q q q q q q 1 1 e ! ~ L L L R H F F F Y ' ' _ _ _ _ _ _ _ _ T Y _ ' ' _ Y _ S._ T Y I I Y ' S.S._ Y H H F c c 0 0 0 0 0 0 0 0 D J J D D 0 9 9 < < < < < < < < 7 7 7 7 7 7 7 9 , , , 7 0 y u 0 9 9 7 < 7 7 0 0 D D D D D D D 0 D 0 , @ + + + # = = % # + . . . .                                     = ",
"8.8.8.8.8.8.8.8.8.8.8.8.8.8.8.8.8.8.8.8.8.8.8.8.8.8.,.,.,.,.,.8.,.,.,.,.,.,.>.>.>.,.>.>.,.>.>.>.C C C B C C A A A S A A Z Z z z z l l h h g 3 3 4 > , @ .                                               X O                                                                                                                                     X X       X X O                                                       X X X O X X   X X   X X X X X X X X X X X O X X X X X X X # X % % % % % % X X X X X X X X X X .                                                                     . + % % # w s s w # . . . . + # & = - = ; X                                                                   . X X X X X .                                                                                   . . + + + + + + + + + + + + + + + + + . . . .                           . . . . . . . . . . . . . . + + . . X . . . . . . . . . . . . . . O O O X                             . . . . . . + % % % = = = = = q q q w q q w q w q = w w % q q w w q q w w q q w w q q q q @ 1 e J J J J D D D D F Y E E T T T T T ) T Y Y I Y ' Z.' Y Y _ ' _ Y F F I E ' ' ' ` Y H F D c c c c 0 0 0 9 9 0 0 b b 0 0 9 < < < < < < < < 7 7 7 7 7 9 9 0 0 7 7 , , 7 0 u u y 0 9 7 7 7 9 0 D D D D D D D 0 D 0 : @ + + @ % = & # + . . . . . . . . .                             ; ",
"8.8.8.8.8.8.8.8.8.8.8.8.8.8.8.8.8.8.8.8.8.8.8.8.8.,.,.,.,.,.,.,.,.,.,.,.,.,.>.>.>.>.>.>.>.A A A C C C C C C A A S S S Z Z z l l h h h g g 3 2 > : @ + .                                                   O     X X   o                                                                         X                                                       X X X X                                                       X X X X X           X X X X X X X X X     X X X X X X . O X X # # % % % % X X X X X X X X X X X .                                                     . . O .           . . . . . + + . . . . . + # & % = = O                                                                   . O X % % X X .                                                                                   . . + + + + + + + + + + + + + + + + + . . . .                           . . . . . . + . . . . . . . X + . X X X . . . . . . . . . . . . . .     X                               . . . . . + % % % % = = w q q q q q w w w w w q = w w = q q w w q q w w q q q w q q q q 1 q q e 6 0 9 9 0 c D F F Y Y Y T T Y Y Y Y Y Y I I E ' Z._ Y Y _ _ Y I F F I Y ' ] ' ` Y F D c K J c 9 9 9 0 c 0 0 0 0 9 < < : < < < < 7 7 7 7 9 9 9 9 9 9 0 0 9 7 7 , , 7 e u y y 0 0 9 9 0 0 D D D D D D D D D 0 : @ @ @ $ & % % + + + . + + . . . . . . . .                 o     ; ",
"8.8.8.8.8.8.8.8.8.8.8.8.8.8.8.8.8.8.8.8.8.8.8.8.8.,.,.,.,.,.,.,.8.,.,.,.,.,.>.>.,.,.,.>.=.C C C B B C C C C C Z S Z Z N x x h g 3 3 3 3 2 > : @ . .         O ;                                           o     X o o o                                                                         X X                                                                                         X X                 X X X X X               X X X X X X X X X X   X X X X X X X   . X X X X X X X X X X X X X X X X X X X .                                                         O O . . . . .   . . . . . + . . + @ , w e 8 1 @ - O                                                                 . . X % % % % + . .                                                                                 . . + + + + + + + + + + + + + + + + . . . . .                           . . . . . . . . . . . . . . X + . X X X . . . . . O O O O . O O .       X                                     . . . % % % = = = w w q = = q w w p w w q = w w = q q w w q q w w q q q w w q q q w q % @ @ , , , < 9 c F F F I I Y Y Y Y Y Y Y I Y Y Y ' S.' Y Y Y T E Y F F F F ' ' ' ' R F D D c c c c D c c 0 0 0 9 < < : : : < < < 7 7 7 7 7 0 9 9 9 9 9 9 9 9 9 9 < , < 9 0 D D 0 0 0 0 0 0 y D D D D D D D y 9 : @ @ @ & & $ # + . . . + + . . . . . . . .                       ; ",
"8.8.8.8.8.8.8.8.8.8.8.8.8.8.,.,.8.8.8.,.,.>.>.>.8.,.,.,.,.,.,.,.>.>.>.,.>.,.,.,.,.=.C C C C C C C C Z Z Z Z Z Z x x x h g 3 3 2 > : : @ @ + . .                                                                 X o X X                                                                                                         X X X   X             X X X     O X                     X X X X       X X                       X X X     X O X X X X X X X X X X X X O X X X O O O O X X X X X X X X X X X X X X X X X X X X X                                               X                           . . . + 8 e J J < 9 < . X                                                               X & = % + @ % 1 % @ + . .                                                                             . . . + + + + + + + + + + + + + + + . . . . . . . . .                   . . . . . . . . . . . . . . . . % % X .   . O O X         X X X O X X                                       X O O X . . % % = = = = = = q q q q q q q q q q q q q q q q w w w w q w q w q q q q w w q q q q 1 1 w 8 9 b D F F I I I Y Y Y Y I I Y F F I ' ' Y F H I Y H H F D c F R ` } } R F D c D D D D c c 0 0 9 8 , , , , , < < < 7 7 7 7 7 9 9 9 9 9 9 9 9 0 0 0 9 7 7 4 9 0 0 D D y y D D D D D D D D D D J 7 @ + @ 1 $ @ + + + . . . . . .                                     & ",
"8.8.8.8.8.8.8.8.8.8.>.>.>.>.>.>.,.8.>.>.,.,.,.,.,.,.,.,.,.,.,.,.>.>.>.>.,.,.,.,.=.=.C C C B N C Z Z Z Z Z Z Z v x k j 3 3 2 2 > 1 % % + + . .                                                                   X X X                                                                                                           X X X   X             X X X     X X                       X X X         X                       X X         X O X X X X X X X X O O X X X X X X O O X X X X X X X X X X X X X X X X X X X X X X                                                       X X X X               . . , u ! ! L c 9 : .                                                               O # - w q 1 @ @ @ @ @ + + .                                                                       .     . . . + . . + . + + + + + + + + + . . . . . . . . . . .                 . . . . . . . . . . . . . . . . % % X .   . O O X X X   X X X X X X X                                       X O O O . X % % % = = = = q q q q q q q q q q q q q q q q q w w w w q q q q q q q w w w w = = = = = - = 1 e D F F F F F H H Y I I I Y F F F Y ' R F F H H H F D D c c D K ` } } R F D D c 0 0 0 0 0 8 8 , , , , , , < < < 7 7 7 7 9 9 9 9 9 9 0 0 0 0 0 0 0 0 0 9 9 0 c D D D D D D D D D D D D D D y 7 @ + @ 1 $ @ + + + . . . . .                                       & ",
"8.8.8.8.8.8.8.8.,.,.>.>.>.>.>.>.>.>.>.,.>.>.>.>.,.>.>.,.>.,.,.,.>.>.>.,.,.,.,.,.C C C C B B N N Z Z Z Z Z x x x g j 3 2 2 > > 1 @ % + + . .                                                                     X X X X                                                                                                             X   X           X X X X                                                                                     X X X X X X X X O O O O X X X X X O X X O O X X X X X X X X X X X X X X X X X X           X X X                                                             . . u ! ! | | L K < .                                                               X # - w w w 1 @ 1 1 % % % X .                                 X                                       . . . . . . . + + + + + + + + . . + + . . . . . . . . . .                     . . . . . . . . . . . . . . % % O .       X X X       X X X X X                                         X X O O O X % % % = = = = q q q q q q q q q q q q q q q q q q w w w q q q q q q q q w w w w w w = = - % @ 9 c c c c F F F F H F F F I F F F F Y Y Y F F F F D D D c 5 5 c F R } ` L H D D 0 9 9 9 0 8 8 , 1 , , , , < < 7 7 7 7 7 9 9 9 9 9 0 0 0 0 0 0 y D D c 0 9 0 D D F F F H H G D D D D D D D y 7 @ + @ $ @ @ + + + . . . . .                                     O - ",
"8.8.,.,.,.,.,.8.>.>.>.>.>.>.>.>.>.>.>.>.>.>.,.>.,.>.>.,.>.>.,.,.>.>.>.>.=.C C C C B B M M N N N Z Z Z Z Z x k g 3 2 2 > : : : @ + . . . . .                                                                     X     X                                                                                                             X X X X         X X X X                                                                                                     X X X X     X X X X X X X X X X X X X X X X X X X X X X X X X X         X X X X                                                             . . 8 u e e J J J < .             O                                                     X & w w w q w w w w & X                               X X X                                     . . . . . . . . + + + + + + + + . . + . . . . . . . . . . .                     . . . . . . . . . . X . . . % X O .           X         X X X X                                             . . O X X % % % = = = = q q q q q q q = q q q q q q q q q w w w q q q q q q q q = w w w w w w q - + @ 9 D c c j c c D F F F F F I F F v v F H Y F F D D D c D D c 9 4 4 c L R ` R L P J 0 0 9 7 , , 1 , , , , , < < < 7 7 7 7 9 9 9 9 9 0 0 0 0 0 0 D D D D D c 0 D D H L H H H H H D D D D D y y 7 $ @ @ $ @ + + . . . . . . .                                     . & ",
">.,.,.,.>.>.>.>.>.>.>.>.>.>.,.>.>.>.>.,.,.,.>.>.>.>.>.>.>.>.,.,.>.>.A C C C C B B M M M M N N N Z Z Z Z x k j 3 2 > : @ @ + + + . . . . .                                                                       X X                                                                                                                             X X X                                           X X                                                                                     X X X X X X X X X X X X X X X X X X X X     X X X X X X                 X X                                           . . q $ $ w u J 8           X O X                                                       . % q q q q w q - & .                               X X O                                     . . . . . . . . . + + + + + . . . + . . . . . . . . .                           . . . . . . . . . . X . . . X X O .           X         X X                                                   . O O X % % % = = = = = = q q = = = % q q q w q q q q q q q q q q q q q q q q = = q w w - - - - . + 0 K F c c c c c D F F v c K F F c c c F H D D D c c c c c c 0 4 > < 0 D L L L P J u 9 < , , 1 , , , , , , 7 7 7 7 7 7 9 9 9 9 9 9 0 0 0 0 0 0 c c D D D D c D D G H H H H H H H D D D D D y 9 , @ @ @ + + . . . . . . . .                                       # ",
">.>.>.>.>.>.>.>.>.>.>.>.>.>.>.>.>.>.>.>.>.,.>.>.>.>.>.>.>.>.>.>.A A C C B M M M M M M M M N N N Z Z x x k j 3 2 > : @ + + .                                                                     X       X X X X X                                                                                                                         X     X X                                             O O                                                                                           X X X X X X X X X X X X X X X X X X X                             X X X                                           . w & w u u s &         O O O O                                                 X         . + + + . . .                                       X                                   . . . . . . . . . . + + + + + . . . . . . . . . . . . .                           . . . . . . . . . . . . . O O O .                                                                               . O X % % % % % = = % = = q = = % % = q q q q q q q q q q q q q q q q q q q = = = = = = - - w . + J R R F F F c c D D D c c v F F v c c c D c c c c 0 0 c c 0 0 0 9 4 < < 9 D J u u e 8 , @ $ $ , , , , , , 7 7 7 7 7 7 9 9 9 9 9 9 0 0 0 0 D D D D D D D G D D D D H H H H H H H H D D D D D 0 7 , $ @ + . . . . . . . .                                         X ",
">.>.>.>.>.>.>.>.>.>.>.>.>.>.>.>.>.>.>.A =.=.=.>.>.>.A A C C C C C B B M M M M M M M m N N N N x x x k g 3 2 > > @ @ + .                                                                         X X         X X                                                               X                                                           X X X X                       X                   X X X O                                                                                             X X X X X X X X X X X X X O X X X                                     X     X X X X X X                           X   % % . %         X O O O X                                                               . .                                               X X                               . . . . . . . . . . . + + . . . . . . . . . . . . . . . .                         . . . . . . . . . . . . . O . .                                                                                 X O X % % % % % % = % = = = = = % % % = q q q q w w w q q q q q q q q q q q = = = = = = = = p . + J } } Y F F F c D D c j 3 j c F F c c c c c c c c c 0 0 0 0 0 0 0 9 7 , @ < 7 7 8 7 , , $ @ @ , , , , , 7 7 7 7 7 7 9 9 9 9 9 9 0 0 0 0 0 D D D D D D D G H F D D H H H H H H H H D D D D D y 9 , $ + + . . . . . . .                                           X ",
">.>.>.>.>.>.>.>.>.>.>.>.>.>.>.=.>.>.A A A A =.A A A C C C C B B M M M M M M M M M m N N N x x x k k 3 2 > > : : + + .                                                                           X X         X X                                                             X X                                                         X X X X X                       X                 X X X X X                                   X X                                                       X X X X X X X X X X X X X O X X X X                                 X X X X X O X X X X                           X           X       O O O X                                                                 . # X .                                           X X X                           . O . X . . . . . . . . . . . . . . . . . . . . . . . . . .                         . . . . . . . . . . . . O O . .                                                                                 O O X O X % % % % % % % = = = = % % % = q q q q q w w q q q q q q q q q q q = = = = = = = = w . + J | } R Y F F D D D c 5 2 5 c c K D c 0 9 c c D D c 0 0 9 0 9 9 9 0 0 < @ @ @ @ @ $ , 8 8 @ @ , , , , 8 7 8 7 7 7 7 9 9 9 9 9 9 0 0 0 0 y D D D H H H H D L H G D H H H H H H H H H D D D D D 0 7 $ + . . . .     . .                                     .     X ",
">.>.>.>.>.>.>.>.>.>.>.A >.>.A A C C C C C C C C A C C C B N M M M M M M m m m m N N N Z v x x k k 6 2 > : : @ @ . .                                                                                                                                                                                                                                                   X X X             X X                                                                                                     X X X X X X X X       X X                                                                 X X X X X X O O O O O                                 X                                                               O X X X O                                       X X                               O X O X . . . . . . . . . . . . . . . . . . . . .                                 . . . . . . . . . . . . . .                                                                                       O O X % % % % % % = = = = = = = = = % % % = = w w w w = q q q q q q q q q q = = = = = = - - . + D } } ' ` Y H F D D F F c j 5 c c c c c 9 9 0 c 0 0 0 0 9 9 9 0 0 0 9 < , @ @ @ + @ $ , 8 $ $ $ , , , , 7 < < 7 7 7 9 9 9 9 9 9 9 0 0 D D H H H H H H H H H H H H H H H F H H H H H F D D D D y 7 $ + . .                                                       X ",
">.>.>.A >.>.>.>.=.>.A A A A A A A A A A C C C A C C C N N M M m m m m m N N N N N Z Z v v c j j 2 > : @ @ @ + + .                                                                                                                                                                                                               X X                                   X X X             X                                                                                                                                                                                                   X X X X O O O O O O     o o o o o o X               X                                                                 X X X X                                   . . X X                               . X X X . . . . . . . . . . . . . . . . . . . . .                                 . . . . . . . . . . . . . .                                                                                       X O X X % % % % % % = = = = = = = = = % % = = = w w w q q q q q q q q q q = = = = = = = - = . + y | } ' ) ` Y H F F F D c c c c c c D c 0 0 0 0 9 0 0 c 0 9 9 9 9 9 9 < , @ @ @ @ @ $ $ , 8 , , , , , , , < < 7 7 7 9 9 9 9 9 9 0 0 D D G H H H H H H H H H H H H H H H H H H H H H F D D D D D 9 , + . .                                                       % ",
">.>.A A =.>.>.>.A A A A A A A A =.=.A A C C C C M M M m m m m m m z m m N N N N x n n v k j 5 2 @ @ + + + . + .                                                                                                                                                                                                                 X X X                                 X                                                                                                                                                                                                                                         o o o o o o o O X   O O         X                                                                     X                                   . .                                     o O X .   . . . . . . . . . . . . . . . . . . . .                                 . . . . . . . . . . . . . .                                                                                         O O X % % % % % % % = = % % % = = = = = % = = = = q w q q q = = % q q q = = % % = = = - -   . y } } ' _ ' ) Y H H F F c D c c c c D D D 0 0 9 < 9 D J D 0 9 7 7 7 7 < , , $ @ @ @ $ $ $ 8 8 8 8 8 < , , < 7 7 7 7 9 9 9 9 9 0 0 D D G H H H H H H H H H H H H H H H H H H H H H H F F D D D D y 7 $ .                                                   .     % ",
"A A A A A A A =.A A C C C C C C C C C C C B M M m m m m m z m z z z z z x x x x x k k j 5 2 < : . . . . .   .                                                                                                                                                                                                                   X X X                                                                                                                                                                                                                                                                           o o o o o o ; O X O X O O O O   X                                                                                             X X O .   . . .                                       O O     . . . . . . . . . . . . . . . . . . .                                   . . . . . . . . . . . . .                                                                                           . O X X X % % % % % % % % % % % = = = = % % % = = = w w q q = = % 1 = q = = = % = = = - =   . y } } ' ) ] ] ) Y Y H H F F D c c D D D G D 0 9 : < e J J 0 9 < < < 8 < < , , @ $ $ $ $ $ 8 8 8 8 8 8 , , 7 7 7 7 7 9 9 9 0 0 0 0 D D H H H H H H H H H H ) Y H H H H H H H H H H F F F F D D D y 0 $ .                                                         # ",
"A A A C C A A A C C C C C C C C C C C B M M M M m m m z z z z z z z l l l l h h g 3 2 > > : @ @ .                                                                                                                                                                                                                               X X                                             X X                                                                                                                                                                                                                                               O O O X O O O                                                                                               X p w = & = & # .                                     . .       . . . . . . . . . . . . . . . . .                                     . . . . . . . .                                                                                                       O O X X % % % % % % % % % % % % = = = % % % % = = w w q 1 % % % 1 1 1 = & & & = = = - =   . y ` } ] _ ] ] ) ) ` Y Y R H F c c D D H H F D 9 , < 0 u J 0 9 < < < < < < 1 1 , $ $ $ $ $ $ 1 , , < 8 8 7 8 7 7 < 7 9 9 0 0 0 0 D D G H H H H H H H H H H Y Y Y Y H H H H H H F F F F F F D D D D y 8 #                                                   .     # ",
"A C C C C C C A C C C C C C C C C B B M M m m m m m m z z z z z l l l h h h g g 2 2 > : : @ @ + .                                                                     X                                                                                                                                                                                         X             X X                                                                                                                                                                                                                                                       X O O O     X O O X                                                                                   # ! s u w w w q #                                     . .       . . . . . . . . . . . . . . . . .                                     . . . . . .                                                                                                             O X X X % % % % % + % % % % = = = = % % % % % = w w q 1 % % % 1 1 1 = = & & = = = = =   . 0 ` ' ] _ ) ] ] ) ` ` Y Y R F c c D F H L L J 0 : , 7 e J 0 9 < < < < < , 1 1 1 , $ $ $ $ @ @ , , 8 8 8 8 8 7 7 7 7 7 9 0 0 0 y D G H H H H H H H H H H H Y Y Y Y H H H H H H F F F F F F D D D D u 8 #                                                   .     # "
};
