/* XPM */
static char *dafc83bee4554a8daca594417a6cab0ehhF7feSCIivS6ccS[] = {
/* columns rows colors chars-per-pixel */
"370 247 256 2 ",
"   c #040003",
".  c #0B0002",
"X  c #04010C",
"o  c #0B020C",
"O  c #140101",
"+  c #1B0201",
"@  c #18060B",
"#  c #0B0413",
"$  c #0A0618",
"%  c #130B1C",
"&  c #170916",
"*  c #1A131B",
"=  c #191309",
"-  c #230201",
";  c #280806",
":  c #370703",
">  c #2A1508",
",  c #381607",
"<  c #260B17",
"1  c #291518",
"2  c #361918",
"3  c #360A15",
"4  c #392519",
"5  c #342511",
"6  c #160D23",
"7  c #1C1324",
"8  c #1B1527",
"9  c #0A0B29",
"0  c #241B2B",
"q  c #271827",
"w  c #351A26",
"e  c #281C32",
"r  c #2C1227",
"t  c #29242A",
"y  c #372628",
"u  c #2A2534",
"i  c #372936",
"p  c #393539",
"a  c #37332B",
"s  c #1A232B",
"d  c #460702",
"f  c #570602",
"g  c #471806",
"h  c #571905",
"j  c #461A16",
"k  c #531315",
"l  c #680703",
"z  c #780604",
"x  c #671905",
"c  c #73160F",
"v  c #482509",
"b  c #582707",
"n  c #472718",
"m  c #572817",
"M  c #4A341A",
"N  c #573619",
"B  c #563509",
"V  c #672806",
"C  c #762906",
"Z  c #683608",
"A  c #773707",
"S  c #662917",
"D  c #673718",
"F  c #773817",
"G  c #782817",
"H  c #4B1A26",
"J  c #472926",
"K  c #483628",
"L  c #573827",
"P  c #463639",
"I  c #563A36",
"U  c #502A2D",
"Y  c #663927",
"T  c #71332C",
"R  c #711926",
"E  c #694519",
"W  c #774817",
"Q  c #774A0E",
"!  c #594429",
"~  c #584637",
"^  c #4D4736",
"/  c #684729",
"(  c #774927",
")  c #795628",
"_  c #674936",
"`  c #764A36",
"'  c #6A5537",
"]  c #775738",
"[  c #6A522A",
"{  c #786539",
"}  c #5C471A",
"|  c #3A3744",
" . c #352C46",
".. c #10275F",
"X. c #473945",
"o. c #4D3B4F",
"O. c #6B3848",
"+. c #374454",
"@. c #484747",
"#. c #574847",
"$. c #595756",
"%. c #534E50",
"&. c #685748",
"*. c #765A46",
"=. c #675A57",
"-. c #6D4F4D",
";. c #796548",
":. c #776758",
">. c #6D6856",
",. c #545169",
"<. c #695A66",
"1. c #6A6567",
"2. c #776967",
"3. c #747073",
"4. c #596469",
"5. c #3D4236",
"6. c #87190B",
"7. c #8E100C",
"8. c #AC120E",
"9. c #8E2F10",
"0. c #AC2E16",
"q. c #8F342C",
"w. c #AC3528",
"e. c #A01427",
"r. c #D0271D",
"t. c #874806",
"y. c #874718",
"u. c #91520E",
"i. c #AC530B",
"p. c #976616",
"a. c #B16B13",
"s. c #875827",
"d. c #875937",
"f. c #914E2E",
"g. c #AD5133",
"h. c #896638",
"j. c #966838",
"k. c #946B2E",
"l. c #AC7032",
"z. c #C97416",
"x. c #CC4F30",
"c. c #CB762C",
"v. c #DF5624",
"b. c #973944",
"n. c #8D564A",
"m. c #B05847",
"M. c #876747",
"N. c #966947",
"B. c #987649",
"V. c #897557",
"C. c #977856",
"Z. c #8A6D52",
"A. c #A67947",
"S. c #A67956",
"D. c #B36D4D",
"F. c #877768",
"G. c #8E776D",
"H. c #AD7668",
"J. c #925966",
"K. c #C97051",
"L. c #D07866",
"P. c #E86452",
"I. c #E03748",
"U. c #7A856E",
"Y. c #7D823F",
"T. c #B38736",
"R. c #AC881F",
"E. c #D28C19",
"W. c #D38A2E",
"Q. c #E7932F",
"!. c #ECB02F",
"~. c #DDA222",
"^. c #FBC837",
"/. c #FFF130",
"(. c #978656",
"). c #A88658",
"_. c #B68958",
"`. c #B18B4D",
"'. c #998568",
"]. c #978878",
"[. c #8E8974",
"{. c #A88966",
"}. c #B89768",
"|. c #B79977",
" X c #AD8F70",
".X c #B8A576",
"XX c #A6AD5D",
"oX c #CD8E53",
"OX c #F2AD4D",
"+X c #CE926D",
"@X c #EB9072",
"#X c #C7A778",
"$X c #D3AA73",
"%X c #EAAD74",
"&X c #DF9D50",
"*X c #F8D25B",
"=X c #B5CB7D",
"-X c #07378C",
";X c #1050AC",
":X c #2857AD",
">X c #1F58A2",
",X c #6E748A",
"<X c #5D6A9A",
"1X c #0570D3",
"2X c #0B71D8",
"3X c #7479D3",
"4X c #877A95",
"5X c #827DDE",
"6X c #768794",
"7X c #778FAB",
"8X c #078BEC",
"9X c #2090DF",
"0X c #6A88D4",
"qX c #938F8C",
"wX c #A79788",
"eX c #AD988F",
"rX c #B9A688",
"tX c #B2A896",
"yX c #8C93AE",
"uX c #96A7AE",
"iX c #B2AFAC",
"pX c #9DA19D",
"aX c #CC9986",
"sX c #C6A986",
"dX c #C8B798",
"fX c #D1B38D",
"gX c #EFB18D",
"hX c #C7B8A7",
"jX c #CDBAAF",
"kX c #F2AA97",
"lX c #B6C4B3",
"zX c #D8C597",
"xX c #EFCB94",
"cX c #D8C7A8",
"vX c #D7C9B7",
"bX c #D1CAB4",
"nX c #E7D6B7",
"mX c #F0D0AE",
"MX c #F9E8B6",
"NX c #F9E895",
"BX c #8E8ED0",
"VX c #ABB7CB",
"CX c #8C8FE8",
"ZX c #9AACD3",
"AX c #B3C8CF",
"SX c #ACCFE4",
"DX c #D4CFCA",
"FX c #E8D9C6",
"GX c #EFDBCC",
"HX c #F9E6C8",
"JX c #F4EAD4",
"KX c #FCF7E9",
"LX c #FEFCF8",
"PX c #F3EBE6",
"IX c #D3DFE7",
"UX c #C4BDCD",
/* pixels */
"4.$.$.$.$.$.$.$.%.#.@.=.$.@.>.:.n g n - - n &.^ P q # o o < 2 2 2 n , , : > K #.1.=.=.=.I v B W [ , g / v b h F j.F f c k g g n 4 5 5 , g h C x x C C C C V j ; Z s.L 1 8 u q 1 1 1 * o o o t i y 1 , L N , ; O o O - j h c l l C 9.i.9.9.9.9.9.9.9.y.9.t.t.t.u.y.y.9.u.y.9.9.9.q.q.q.q.q.w.q.q.q.q.f.g.f.f.g.g.w.c V d.).fXcX{.rXmXnXnX X/ }.C./ E ] ] M.nXLXKXDXPXPXPXGXFXC.rXLXLXPXPXPXPXKXKXbXvXPXJXGXJXJXPXJXJXKXKXPXPXLXLXLXLXLXKXKXLXPXPXLXLXLXLXLXJX XdXzXFXKXPXLXLXJXrX{ N , v M.|.sXzXzXzXzXzXzXzXdXfXsXsXsX#X#XfX$X#X.X}.}..XfX:.5 K a a y 4 .X}.`.}.#X! > w G.2 y a = 2 rX> 2 y 4 y t t y y = ' ).).L - 2 y r < O K Z.j.h.B.h.) h.s.h.k.h.s.s.h.h.s.j.h.+ Z.E h.k.s.k.s.l.l.A.h._ P < r q 7 & & & & & % 6 * @ ; R R q.R l c c c c R R R k j 2 J 2 w H R ",
"1.1.1.<.<.$.%.$.#.$.$.=.3.%.#.&.M , 5 - + K =.=.$.$.%.X.t & O - ; 2 j j j , ; ; 2 K &.>.M v E ) N O , F F h : b 9.y.S d , , N W p.u.Q W Z b h d g h h C 6.9.S : + K N.( a t q q t t q # o   y y 1 1 1 2 J n j H ; @ @ O ; g S c l l C y.y.y.9.9.9.9.y.y.y.9.y.y.y.u.y.y.y.9.q.9.q.q.q.q.q.q.q.q.f.f.f.f.g.g.g.g.g.g.9.f F h.|.mX#X{.zXnXcXB.[ ).{.] E ) ) ) |.KXLXLXPXKXKXLXLX].'.KXLXPXKXPXPXPXPXKXLXLXLXLXKXKXKXPXKXKXLXLXKXKXKXLXKXLXLXKXFXLXLXLXLXFX{.C.dXJXPXLXLXLXnX;.M + + L {.fXcXcXmXcXcXdXzXcXdXfXfXfXfXsXsXzXzX}.#X#X}.}.|.sX|.O y P a P y n #X}.}..X! > > '.dX, 4 y O :.sXM O i t y 4 4 t t + ;.(.{.a = w w & @ / B.h.j.j.h.h.h.h.h.h.h.s.s.) h.s.k.k.k.h.s.) k.k.l.l.l.d.L w 7 & # # # # o # $ # # # # X o < j R R q.R R R R R R R R k H < < < & * < < ",
"1.<.4.<.1.<.1.4X=.%.#.#.G.qX=.&.[ N , - ; K =.#.$.%.$.$.$.%.P q @ . - 3 2 j 2 , ; - - L n v Q ) v - V 9.9.C d h h G g ; B u.p.a.p.p.p.p.p.p.t.Q v : : h C 9.x m 1 O N N.*.~ p p t q 1 @ @ . y y < 1 < 1 w y 1 2 J U 1 @ ; < + j k c f x C y.u.y.t.y.y.y.y.y.9.y.y.y.y.y.y.q.q.q.q.q.q.q.q.q.q.w.q.w.g.g.g.g.g.g.g.g.g.g.C x F B.zXzX}.#XmXcX#Xh.B.}.B./ [ ] ) Z.nXLXLXPXKXKXLXLXdXZ.GXLXKXPXKXKXKXKXKXLXLXLXLXLXLXLXLXLXLXLXLXLXLXLXPXPXLXLXLXLXKX Xh.).vXLXLXLXLXLXdX;., + ; *.sXzXcXmXnXnXcXcXcXzXzXdXzXfXfXfXsXsXcXrX~ . (.fX}.}.}.#X{.{.;.5 K K 5 ~ sX}.sX! > 1 M nX:.> a O M |.).{.J < q t y y q = 5 '.B.).y   % o 4 M.N.s.h.B.h.j.h.h.h.h.h.s.s.s.s.k.j.h.k.k.k.Q Z `.j.{ L < & 6 $ $ # & & < r r 7 0 q q q & 3 R R R R R R q.q.q.R R k H T U 1 & * & @ & r y ",
"<.<.1.<.<.<.1.3.3.=.3.G.=.2.=.>./ v L > - J =.#.#.#.#.#.%.#.$.1.%.p * . . O > 2 j , - N n b s.k.> , h C 9.C G x d g : E p.u.t.u.u.t.u.u.p.u.u.u.p.y.b : x V h m N n - L ] *.%.,.%. .q @ o o t p q q w 1 1 q t w 1 J U < J 1   o O : S c x h C y.u.y.y.y.y.9.9.y.y.y.9.y.y.q.9.q.q.q.q.w.q.w.q.w.w.w.g.g.f.g.g.g.g.g.g.g.g.w.C V s.}.mXfX|.#XzXzXB.d.|. X] / d.h.{ .XLXLXKXKXKXLXLXGXV.cXLXLXKXKXKXKXKXKXLXLXLXLXLXLXLXLXLXLXLXLXLXLXLXLXLXLXLXhXM.B.FXLXLXLXLXPXwX! ; + n G.cXzXzXmXnXnXcXcXcXcXzXzXzXzXfXzXfXsXfXcXV.> * = .XsX|.fXfX#X#XmX*.5 K K > ;.fXsX;.= a > C.zX> 5 < 4 .X`.`.`.}.B.4 w y 2 t O ;.).B.C.M.5 K *.B.j.h.h.h.h.h.h.k.h.h.h.h.h.h.h.h.h.s.h.s.s.p.l.E ' w & # # # & 1 1 w r r r r r & 7 6 * o < O.R T R H 3 < < H R 3 < 3 r < & & < r w P P X.X.",
"1.<.<.1.1.$.<.3.1.=.1.qX2.=.=.&._ v v > - K =.$.#.#.#.#.%.$.%.%.=.$.=.X.y < . O + + > _ , v W ) , n V 9.C G h : 2 ; Q p.u.p.u.u.t.u.u.u.u.Q u.u.t.p.p.A g , 4 5 2 K 4 . L ' ^ $.4.| t o   . t p q t q u t t w w y w < < #.O @ & @ O J : h c h l C y.f.9.9.y.y.y.y.y.y.9.y.q.q.q.9.q.w.q.q.w.q.g.w.w.g.f.g.g.g.g.g.g.g.g.g.g.g.q.x D B.fXmX}.).fXmX}.) {.#XB.[ h.B.h.C.nXKXLXLXKXKXLXLX].wXLXLXKXLXLXLXLXLXLXLXLXLXLXLXLXLXLXLXLXLXLXLXLXKXdX).#XvXLXLXLXJXrXh.B + - _ sXzXnXzXcXFXnXnXnXcXcXcXcXzXzXzXdXdXdXfXzXzX! > a K M sXsXzX}.M.}.$XfX! 5 K K > C.fX{.> y a > :.~ = O M fX}.}.`.`.}.sXL 1 y 1 O ' {.N.B.B.S.).).).j.j.h.j.h.h.j.j.j.h.h.h.s.h.h.h.h.s.s.k.k.l.M.I r $ X X % q r w w r r r r < * q q * @ 3 H R b.T < < 7 q 7 % o X & & & 7 q r w i P P i w q i ",
"3.<.1.1.<.<.3.<.1.4X2.1.#.2.=.:.! v M , - K =.$.$.$.%.#.#.%.#.#.$.$.$.$.=.=.X.y @ . , _ : b h.W > n C 9.6.C h : : b p.u.u.u.p.u.u.t.t.t.u.t.t.u.u.Q t.p.W , 5 a y n J j + ^ &.&.$.| q O < O y P 1 y y u u i i t q w w w w o o . < 2 U + + 3 S x x l C y.f.y.y.y.y.y.y.y.q.q.9.q.q.q.w.f.q.w.w.g.f.q.g.g.g.g.g.g.g.g.g.g.g.g.g.g.g.9.V y.{.mXzX).|.mXfX{ B.#X).) ) C.N.M.dXKXLXLXKXKXLXLXdX'.PXLXLXLXLXLXLXLXLXLXLXLXLXLXLXLXLXLXLXLXJXrX{.sXJXLXLXLXLXvXM., - , Z.cXHXcX#XzXcXnXnXvXcXcXcXcXcXzXzXnXcXdXzXfXfXcX^ 5 ^ K y K cXfX' > = 5 sXdX4 y K 4 > |.zX! > a a y 1 . ; ;.zXM.> :.1 5 '._ > q & @ &.{.B.B.B.B.B.B.N.B.j.h.h.h.j.j.j.j.h.h.h.j.h.h.k.k.j.j.k.s.) I 7 $ # o * 1 w r r r r < r q q q q r r < H T T H < r q 0 6 % # & 1 r w w q w w i w w r q i i w q ",
"1.1.3.3.<.<.,.<.=.=.=.=.2.1.&.:.' v N , + K 2.%.#.&.&.#.%.$.%.%.$.=.$.$.$.$.$.<.%.I n Y , D s.E > 2 S x x C h d : ) u.t.u.u.u.u.t.t.t.t.Q u.u.t.u.t.Q u.p.s.n 1 n b x G m , ` &.<.%.q @ < @ o.4.X.u q y i y y i u 0 u q q 7 #   + L n.: O O O g S G f f 9.u.f.y.y.y.y.y.y.9.9.q.q.9.q.f.q.q.w.w.g.w.q.g.g.g.g.g.g.g.g.g.g.g.g.g.g.g.f.C V j.fXmX}.).fXmX).h.}.#XN.d. X|.B.{.JXLXLXLXLXLXLXJX'.cXLXLXLXLXLXLXLXLXLXLXLXLXLXLXLXLXFX|. XjXKXLXLXLXLXtX! - ; n ].HXHXzXzXzXmXcXcXcXcXcXcXcXzXzXzXmXnXrXzXzXzXfXcX|.> P ^ K 4 *.HX' > p P > '.zX> a a 4 , dXrX> 4 y 4 2 4 ' #XzX' . = y 1 q * * 7 # 4 V.{.B.M.B.B.B.B.j.j.j.j.B.j.j.j.h.j.h.j.N.j.j.j.j.j.j.) D H 3 7 # # o * q r w r 1 q < < < 7 r r r r r * r T b.b.H < & # % * q w i y w X.i e u u u P i u r % #     ",
"4.3.1.1.3.1.1.<.%.2.1.3.3.qX>.:.] v n , - K F.=.&.&.=.=.=.$.$.$.$.%.%.$.$.<.<.,.4.1.L N > N s.E > 4 S x x V S h b s.u.t.t.u.u.u.t.t.Q t.t.t.t.u.t.u.t.t.u.u.s.v , m C 6.C x g &.>.=.y < ; @ | ,X<X,.| t q t i p p i 0 0 i & o @ < m y.f.F : U 3 - j S h : d C u.f.f.y.y.9.9.9.q.q.9.f.f.f.q.w.w.g.g.w.g.g.g.g.g.g.g.g.g.g.g.g.g.g.g.g.g.9.x ( ).cXzX)..XmXfXM.N.#X{.Z.|.nXPXLXLXLXLXLXLXLXLXLXwXwXLXLXLXLXLXLXLXLXLXLXLXLXLXcX X|.nXLXLXLXLXJX].n - v M.|.HXJXnXcXcXnXnXcXcXcXcXcXcXzXzXzXzXnXdX~ > cXcXfXfXfX#XdX&.5 K 4 F.].> P P P > {.fX> a a 4 n cX:.> y y y > (.mX|.K . . F.K . % $ & 4 *.{.S.B.B.B.B.B.B.B.B.B.B.j.j.j.j.j.j.j.j.j.j.`.j.k.) S k k H r 6 o o & w i w w r r w r w r w r r w r < r 1 < H U w & & q r w i w i e e i r w i i u r q * X X X o & * ",
"1.<.1.,X3.3.3.3.G.G.qX3.2.3.2.=.;.v v , - J 2.=.=.=.1.1.=.=.=.=.=.=.=.$.$.<.$.<.$.=.K N > B s.( 5 a L m m n n > B s.t.t.u.u.u.u.u.u.t.t.Q t.t.Q Q Q t.t.u.t.u.u.h V G 9.C G , J *.Z.J < 2 @ | ,X,.4.4.,.@.u t t p i u u u 1 o & < U P L p.l.H.g - - : d G 9.f f C y.f.y.9.9.9.q.q.q.f.g.f.g.g.g.g.g.g.g.g.g.g.g.g.g.g.m.g.m.x.g.g.g.g.x.x.g.C V d.sXnXsX{.zXmX Xh. XsX{.JXLXLXLXKXLXLXLXLXLXLXLXcX'.FXLXLXLXLXLXLXLXLXKXdX XsXHXLXLXLXLXvXZ., - Y rXJXLXwXV.dXMX XnXnXnXnXnXvXcXnXcXcXcXmXMX].a y K nXzXzXxXzXfXmX_ > P ^ K 1 a P P a >  X|.> a a 5 / mX! > y y a 4 y P * @ + ;.sXC./ / ] C.)._.B.N.B.N.B.B.B.B.B.B.B.B.j.B.j.j.j.B.(.).B.B.( S f f l R H < # X & r i w r r r r r < r w r r w r r r r r q q & # & q i i i w w y i i i u u e * & o o   o & q e i e 0 ",
"1.1.<.1.1.1.<.1.1.=.G.2.=.2.2.#.[ N v , - n :.=.:.=.=.=.=.=.=.1.=.=.<.<.<.$.$.<.4.1.L L , B k.) 5 a L n y a t > E p.t.t.u.u.u.p.u.u.u.t.p.a.p.u.A Q t.t.t.t.u.p.s.h h G 9.G n ; / Z.K ; 3 - X.,X,.,.<X,.,.,.| | u y u u i e & O @ P K 4 4 N k.l.y.h : : d h y.A : : f.f.f.9.9.q.f.q.q.q.f.g.g.w.g.g.g.w.g.g.g.g.g.g.g.g.g.m.m.g.K.x.g.g.g.g.K.f.V D ).mXcX XsXMXzX(. XmX#XsXLXLXLXLXLXLXLXLXLXLXLXPX'.dXKXLXLXLXLXJXsX XcXKXLXLXLXLXdX! ; , Z.nXLXLXKXHX XfXsX;.|.KXnXnXnXnXnXnXnXnXcXnXHXF.y ~ K ' nXmX X' '.cXcXK 5 4 K 4 F.P a P a > fXV.> P J > Z.cXK 2 J y y y t 8 o > C.#X`._.}.}.).).C.B.B.B.B.B.B.B.B.B.B.B.B.j.B.B.B.`.`.`.j.F h d f f l c R k @ $ & r w r r w r < w 1 < < w r < r < r q q q 7 < q r w e r r q t i w P i r q * o # o o & * q e e e 9 $ # q ",
"1.3.1.3.1.<.<.3.1.<.3.=.=.>.:.:./ v v v - J 2.:.=.=.=.=.=.=.=.1.=.<.1.<.<.<.<.$.$.2.L N , v k.) 5 t n n 4 a a > ) k.u.u.t.u.u.t.t.u.t.u.u.p.u.p.Q Q Q t.t.t.u.t.p.Q g h G G S g v M.U ; , - o.,X4.4.4.4.,.,.,.<X,.| i i t 1 @ @ @ X.w w t 1 y N l.W.i.9.m - - k 9.9.x G 9.q.q.9.9.9.q.q.q.f.g.g.g.g.g.w.g.g.g.g.g.g.g.g.g.m.m.m.K.K.K.g.x.g.D.K.g.9.V d.#XnXfX XcXMX#X).JXcX XnXPXLXLXLXLXLXLXLXLXLXLXtX'.nXJXdXrXsXFXLXLXLXLXKX'.v - / dXKXLXKXFXnXHXrXzXHXHXdX.XnXJXGXnXnXvXnXnXcXcXHX].> ~ ~ 4 V.JXF.5 5 > dXvX4 5 5 > ;.HX' 5 P y 4 mX' 2 a a y P y t t y a a y * = ! |.}.).).).).B.B.B.B.C.B.B.C.C.C.C.B.B.j.B.B.).).`.`.j.F h f f f c c l l R 3 + o % 7 * r r r r w r w 1 w w r w r < w r r r r i w w r r r i i i i e q * # & o o & * q e e 8 9 9 # 1 n ) T.oX",
"<.1.1.<.3.4X<.2.G.G.G.=.^ ~ &.*.;.v v v > 4 :.:.=.&.=.=.=.=.=.<.1.=.1.3.<.<.1.<.$.<.L L v , s.s.5 4 S C S m a > ) k.u.u.u.u.t.t.t.t.t.u.t.Q u.a.p.u.t.Q t.Q t.u.u.k.Z d G G S S g ] ` ; : ; o.,X4.<X<X<X4.4.4.<X<X<X,.@. .q @ @ ; I y y 4 y y w < m p.a.i.u.C d : S F C f 9.q.q.f.9.9.q.9.q.f.g.g.g.g.g.g.g.g.g.g.g.g.g.g.m.m.K.m.K.K.K.K.m.D.K.K.K.g.C Z S.mXmX|.sXnXnXcXJXHXC.) sXLXLXLXLXLXLXLXLXLXLXGXcXcXdXPXLXLXLXLXnX*.; , G.GXLXKXFXcXmXnXHXnXdXnXnXFXHXcXV. XnXHXnXnXnXnXzXnXnXV.~ ^ ~ 4 tXhX5 ^ ^ 5 |.cX5 y 5 > wXnX! 4 K > &.nXN 5 a p a = P G.= < < * 1 L ).#X}.).).).).(.C.B.B.C.C.B.B.C.B.B.A.A.B.(.).).(.d.S f f f c c c l l l c c c k k k H 3 3 1 r w r r w r r w r < w w -.w w y w i w q e i i i w * & & o # & # * 8 u i e 9 9 $ < K ] `.}.&X$X$XoX",
"<.1.1.<.1.3.3.3.=.=.1.G.2.>.:.:.] } v , > n :.:.>.=.&.=.=.=.1.<.1.2.3.1.1.<.1.<.4.1.I L n : s.k.M j 9.6.C V v , Q p.u.u.u.u.t.u.t.t.t.u.u.p.u.p.u.p.a.Q t.u.t.t.u.p.s.g h h h S S g j.V d ; @.,X3.<X<X<X4.4.<X4.4.<X<X<X,.u @ + + P y y y y J y y q < > 2 g m k d : : k h G 9.G C f.f.9.9.y.q.g.g.g.g.g.g.g.g.g.g.g.g.g.g.m.m.m.g.m.D.K.K.K.K.D.D.K.K.K.q.x ( #XMXdX.XmXHXcXPXJXfX{ V.MXLXLXLXLXLXLXLXKXLXPXGXLXLXLXLXtXM : / dXKXLXHXcXzXmXnXGXnXHX XtXFXnXnXnXnXHXsXC.dXnXHXnXcXzXcXcXHXtXa #.K [.#.K ^ ~ 5 wXdX4 K 4 5 dXcXM 4 K > eXjX4 4 J P 1 5 rXfX`.] ] B.}.#X#X`.).).).).).C.C.C.C.B.B.C.C.B.B.).).{.).B.f.x f f l l c c c c c c c c R c c R R R 6.6.R H w w r w r 3 r r r w w q i < r 1 q i i i w < & * # # % & 7 0 e e q 8 9 $ & 4 ] `.&X&X&XT.T.T.T.R.a.",
"1.1.1.1.1.<.<.1.2.1.%.=.:.F.&.' ] } v v ; , :.=.=.:.=.=.>.=.=.1.1.1.2.3.1.<.1.1.1.2.~ n L ; Q j./ g C 9.9.9.C b A p.u.u.t.t.t.u.t.t.u.u.u.p.u.u.u.t.t.A Q Q u.Q Q t.p.Z h D h S T g s.j.b ; X.,X,X4.,X<X4.,X<X<X<X4.,.4.,Xu @ + + P y y a P K J y y y 1 * #   . : m.S : : d V f.9.w.q.g.f.q.q.q.q.g.g.g.g.g.g.g.g.g.g.g.g.m.K.K.g.g.K.K.D.K.K.K.D.K.K.K.oXg.C C S.cXmXrXdXHXnX{.|.mX).) }.|.bXLXLXLXLXLXLXLXLXLXJXC.g b H.JXLXKXvXdXcXnXHXHXFXGXJXcXdXrXnXnXHXJXHXnXnXMXC.M.dXHXnXHXMXcXHX].M #.^ a K P ^ ! 5 dXeX5 P 4 M nXrX5 K > ! cXrX2 K y < J .X#X}.#X$X$X#X}._.).).).).).).B.B.B.B.C.B.C.C.).}. X{.M.Y h f f l l c c c c l l c c c c c c 6.6.6.6.6.6.q.R 3 1 w w r 1 X.w < r < r < & e i w w q * & @ # # * * 6 e e 0 6 $ $ & 5 / T.oX%X&XoXT.T.T.R.R.a.a.p.a.",
"1.1.3.3.3.,X1.1.1.<.=.=.=.2.&.:.[ N v , ; , :.:.&.=.:.1.1.1.=.1.3.1.1.1.1.<.1.<.<.3.-.n L > b j.] , 9.9.9.9.C h Z k.u.u.u.t.Q t.u.t.t.t.t.u.u.u.u.u.u.u.t.Q t.u.u.u.p.s.h S h h h g Z j.b : X.,X,X,X,X,X,X,X<X<X,X<X4.4.,Xi < ; < <.#.y 4 a P P a y y y y y @ O : K.%Xl.V d : d c q.g.w.f.g.q.f.q.q.f.g.g.g.g.g.g.g.g.g.g.x.K.K.g.K.D.D.K.K.K.K.D.D.K.K.oXoXK.f.V ( sXHXzXrXnXHX X).mX#Xh.) hXLXLXLXLXLXLXLXHX;.v ( hXLXKXJXcXdXmXHXHXHXFXFXFXHXnXdXHXnXMXHXJXrX XHXnXHXC.|.zX XrX'.|.nXHXV.a ~ K V.vXM ! ! , vX'.> I 4 ! HX:.> y > #XfX|.; = 2 ;.#X#X}.}.}.}._._.}.}.).).).).).(.).(.C.B.).{. X X(.d.S h c f f l c c c c l c c c z c c c c c q.k k k R R R T : 2 2 1 1 1 < -.w < r 1 i w w r < & o # & % % * 7 q 0 9 9 9 $ w L h.`.$X$X&X&XW.T.T.R.R.R.R.a.R.E.R.R.",
",X1.,X3.1.1.3.3.3.4X3.=.>.&.#.F.' v v v ; , 2.2.:.=.:.2.1.2.2.1.1.3.3.2.4.<.<.<.1.1.:.n L v g s.M.v V 9.C 9.C h b k.p.u.u.u.t.Q u.t.t.u.u.u.u.i.u.u.i.a.a.t.t.t.t.u.p.k.V b S V S V b N.D ; #.qX,X,X,X,X,X,X,X<X,X<X,X<X,X| 1 ; @ 3.yX4.@.a y K K K J y a y @ + - L N.gXgXoXF d : d f.i.0.i.g.g.q.9.q.f.g.g.g.g.g.g.g.g.g.x.m.m.K.m.K.K.K.K.K.K.K.K.D.D.K.L.oX@XK.9.Z A.mXHXdXhXKXcXC.fXzXC.B.).rXKXLXLX|.B ) ).JXLXKXJXcXcXnXHXJXFXHXFXnXFXGXJX XcXHXHXdX'.&.M 5 dXHXnXnXHXdX! + &.a ].KX>.K 2.K cXFXM K K K HX&.5 ^ 4 ;.nX4 2 >  XfX#XsXM.{ .XfX#X}.}.}.}.}.}.}.{.)._._.).).N.).).).}. X XC.] S f f f l c c c c l c c z c c c z c c z 6.q.S T < < < < 3 J @ 1 w 2 < < 1 r & r w i r < < & & * & * q q r r q $ $ & 1 J ( `.oX&X&X&X&XW.R.R.R.R.a.a.R.R.E.E.E.E.E.E.",
"3.3.3.3.3.3.3.1.3.3.3.1.2.G.2.:.*.N v v , , >.:.:.2.:.=.1.2.3.3.3.1.3.3.<.<.<.<.<.<.2.K m B ; / h.B , m G 9.C h g W p.t.u.u.t.u.t.t.u.t.t.p.a.a.i.u.i.a.a.t.Q u.u.t.u.p.W h Z V S S g ] d.; X.6X,X,X,X,X,X,X,X<X<X<X<X,X,Xp > ; < 3.,X<X,X3.%.p y y P y y y - - ; _ 4 n j.gXxX+X9.h h d C y.g.g.g.g.g.f.f.g.g.g.g.g.g.g.g.m.m.m.D.D.K.K.K.K.K.K.K.K.K.K.D.K.L.+X@X@Xg.C W #XHXnXsXHXHXC..XmX{.h.j.B.sXHXwXvXLXLXLXFXnXnXnXnXnXnXFXGXHXGXMXnXJXcX XFXJX:.! ! ~ &.K '.HXnXJXV.M K 4 >.K M dX' ~ 5 4 HXdX5 ^ > Z.HX~ 4 K a K ^ = > {.zX.X}.#X$X$X$X}.}.}.}.}.}.}._.)._._.).).)./ { #X}.{.M.Y h d f l z c c c l l c c c c 6.c z z z 6.6.c 6.6.G , 1 < 1 2 2 1 < < < 1 1 r w w w r r & @ @ & * * q q r r 6 6 $ # @ 4 / k.R.p.R.~.~.W.W.R.R.a.a.a.R.E.E.E.E.E.E.~.~.~.E.~.",
",X3.3.2.1.3.3.1.3.,X1.2.3.3.2.&.' N , N , , *.>.:.:.=.2.1.3.3.3.3.3.3.3.1.1.<.1.1.1.3.#.n N ; B s.W , N C C G C g b l.p.t.t.u.u.u.u.t.u.u.t.u.a.a.i.i.i.u.u.u.u.t.u.u.p.k.b V G m j , ~ M.: P qX6X,X6X,X,X,X,X,X,X,X6X,X,X| 1 ; 1 3.,X,X,X,X,X,X4.@.y y J 2 - - ; -.K y 1 5 d.gXmX%Xf.f - : 9.x.g.9.g.g.g.y.f.g.g.g.g.g.g.g.g.K.D.D.K.K.K.K.K.K.K.K.K.K.K.K.K.K.K.oX@XK.9.C B.mXHXdXcXMXC.fXmX|.] B ] nXJXLXKXFXnXnXHXGXHXHXnXnXnXFXFXFXFXFXnX|.JXJX:.M K >.^ ~ 4  XHXHXF.> :.cX^ ~ K ' nX! K 1 &.KXwX5 M ' fXmXK 4 P a 1 @ K .XzX#X.X#X#X|.}.}.+X}..X}.}.}.}.}.{.}.).}.}..X{.C.M.S f f f l c c c c z c z z 6.6.c c c z 6.6.7.7.7.6.9.q.k ; 1 1 < w 1 < 1 1 1 w w J w 1 < & & q 1 < 1 r < r 7 6 $ & < 2 ! ) p.T.T.k.p.R.T.W.R.a.p.p.a.a.R.E.E.E.E.E.E.~.~.~.~.~.~.~.",
"3.3.1.3.3.3.3.3.1.<.1.1.2.>.=.:.:.n > N , > :.:.:.=.1.2.1.2.3.2.1.3.3.3.3.3.3.3.,X,X,X<.v N v : Q s.B m b h h V b , s.k.t.u.t.Q t.Q u.t.t.t.u.p.u.a.a.u.p.u.t.u.t.u.u.p.k.b h Y n y y K N.g P qX,X,X6X6X6X6X,X,X7X,X,X,X,X| 2 : > 3.,X,X,X4.4.,X,X,X4.@.y 1 - - , _ L K 4 y 5 > d.xX&XW.l.y.b d F y.K.g.g.g.g.f.g.g.g.g.g.g.g.K.D.K.D.K.K.K.K.K.K.D.K.K.K.K.K.K.K.D.D.@X@Xg.C y.#XHXmXdXzX XmXzX).B.sXHXnXcXsXcXHXFXFXHXHXHXFXFXFXnXnXnXFXJXdXnXKX:.~ a F.KX].= K nXJXwX5 4 cXHXK ~ M :.HXK ~ a ;.dX*.^ 5 { mXMXV.O > 2 L '.xXfX#X#X#X#X.X}.}.}.}.}.+X}.}.}.}.}.}..X#X}.).d.S f f l c c c c c c c l c G c c 6.z 6.6.z 6.9.9.6.G 6.c k 2 > 1 2 2 1 < r w w w w 1 < & @ @ @ 1 q r r r 7 6 # # & 4 E s.l.T.T.T.T.k.s.Q a.W.R.p.p.p.a.R.R.R.R.E.~.~.~.E.~.~.~.~.~.~.~.!.",
"3.3.<.,X3.3.,X3.3.1.1.1.1.2.2.2.:.! , N , , *.F.2.1.2.3.3.3.3.3.3.3.3.1.1.4.3.3.3.3.,X3.M v N ; Z k.( v b Z b S F x Z l.p.Q t.u.u.Q t.t.u.t.u.u.a.u.a.t.t.u.t.u.p.u.p.u.k.Q b Y J J y 4 h.m X.yX,X,X6X6X7X6X6X7X6X6X,X6XyX| > : < 3.6X,X,X3.3.4.4.4.,X3.4.p O ; : I L n M K K K > > D Z s.d.V V V f 9.x.g.x.g.g.g.g.g.g.g.g.m.m.m.K.m.K.K.K.K.K.K.D.K.K.K.K.K.K.K.K.K.L.oX@XK.9.C B.cXHXfX).zXmX.X{..XMXnXnXmXnXnXnXFXFXFXFXFXFXHXHXGXnXHXcXrXKXwXK ~ &.KXHXnXV.dXHXnXM K K JXdX4 ~ 4 '.nX4 ~ K '.'.= > ~ ;.{.fXzX}.}.sXxXxX}.#X#X$X$X#X}.}.|.}.}.}.}.}.}.}.#XsX.X).f.x f l z c c 6.c c c l c 6.G c q.c c 6.z 6.9.6.6.6.G h , 1 1 1 w y w < < w w y w 1 < & @ @ & & < 1 r < q 6 $ $ o 2 N s.l.T.W.W.T.T.l.k.s.Q ) Q R.E.R.R.R.E.~.~.~.E.E.~.~.~.~.~.~.~.~.~.~.!.!.!.",
",X4X4XqX1.1.3.<.,X3.4X4X3.1.1.2.&.N v B , ; &.F.3.3.3.4X4X3.3.3.3.3.3.3.3.3.3.1.3.,X3.,X_ v N g g d.h.b Z ( h V V A b u.k.u.u.u.u.u.u.u.Q u.u.t.p.a.t.u.t.u.u.u.u.u.u.p.k.Q v J U I P 2 s.D a yX7X7X6X6X6X6X6X7X7X6X<X,XyX^ n ; < qX,X<X,X,X,X,X,X3.3.4.,X,.O - ; L K K I I L L L J t #   . : kXm.f : d G y.@Xg.9.m.g.g.g.g.g.g.K.K.x.x.K.K.K.K.K.D.D.K.K.K.K.K.K.K.K.K.K.L.L.P.g.6.y.#XMXrX#XmXfX{.|.xXMXdXnXnXnXnXFXFXHXHXGXGXGXGXFXHXvX|. XvX~ &.M dXHXcXmXHXmXHXF.n K ' KX|.5 ~ 5 cXhX5 ! ^ '.~ . K fXfX}.C.).{.#XfXsXsXE #XfXfXB.#X#X+X}.+X}.#X#X$X$X}.N.F l f l c 6.9.9.c c c c c 6.6.6.6.c 6.6.c 9.9.c c c x k j > 1 J y 1 1 1 1 2 w y w 1 < @ & & * 1 q r r r 7 $ $ & < n ( s.p.T.R.T.l.k.k.k.) ) s.s.s.s.Q W.E.E.E.~.~.~.~.~.~.~.~.~.~.~.!.!.!.!.!.!.!.!.!.",
"M :.2.3.4X,X,X,X,X3.4X,X3.<.=.2.;.! , N g , &.:.2.3.,X3.3.4X3.3.,X,X3.,X1.1.3.1.3.,X,X,X2.n v D ; N s.W g N b b h S V b k.p.u.t.t.u.p.l.t.p.p.t.u.W.a.u.t.t.u.u.u.u.u.p.l.W > J J J p 1 ( s.: j <.6XyX7X7X6X6X6XyX7X6X6XqX#.] , = yX6X,X,X6X,X,X6X,X,X4.,X%.- : : *.I K ^ ^ ^ ~ I L L 4 ; - d $XMXmXD.C V d 9.x.K.K.g.g.g.g.g.g.g.D.c.g.g.K.K.K.K.l.x.K.K.K.K.K.K.K.D.K.g.K.K.K.P.x.9.6.A.#XzXsX{.#X|.}.MX(.nXnXnXnXnXnXnXnXFXGXFXFXHXJX XFXJXwX4 ! ~ HXnXcXcXcXnXnX! ~ M ;.KXF.a K ! JXwX5 ~ ^ K = ' cXzX$XfXzX|./ {.(.C.C.[ V.V.(.N #X}.$X$X$XfX$X_.d.V f l z 6.9.q.9.9.6.c c 9.6.c 6.c c c x x S d k k x x x x S Y m J 2 U 1 < 1 2 2 2 1 @ @ & < < r 1 r q 7 $ $ $ < 5 E Q p.p.p.p.s.l.p.k.k.k.s.k.k.k.k.s.s.) Q ~.~.~.~.~.~.~.!.!.!.!.!.!.!.!.!.!.!.!.!.!.!.!.^.",
"Q E B B [ :.3.,XqX,X1.<.qXG.3.G.V.' > v m , &.F.2.3.3.3.3.1.3.3.1.3.,X,X,X3.3.,X,X1.,X,XqX#.n m v > y.p.D v b F A C A h Q l.p.u.u.t.u.t.t.t.p.p.u.p.a.p.t.u.t.t.p.p.t.u.k.E , J y i | 1 E j.g : d g ^ 3.7X7X7X6XyX6X,X6XqXK ( g @ uX6X6X6X6X,X6X6X,X,X,X,X,.; g ; G.2.%.#.K I I ~ ~ K y @ + g S ) fXMXmXl.C f f 9.P.P.x.K.g.g.g.g.g.g.m.@Xg.K.c.K.D.K.K.l.g.K.D.g.x.K.x.K.K.K.K.K.x.v.0.z G f.gX#X).}.#XmX] mXnXnXnXnXnXnXnXFXGXFXnXJXdXdXJXFX~ ~ M V.HXcXcXmXnXmXzX4 ~ 4 F.KX~ a 5 wXJXhX> > 5 ! {.nXxXsXsX#XfX{.{.fX#X#X#X_.).(.(.B.B.{.).C.S.d.h d f c 6.G q.q.G G c G G G c c h x S d h c c c c f c c c q.G L ; 1 1 < < P y J < @ @ @ & < r q q < 7 $ $ # < v D Q k.a.p.p.l.k.l.k.k.k.l.l.k.l.`.} , N j.h.h.) Q OX!.!.!.!.!.!.!.!.!.!.^.^.!.^.^.^.!.!.!.!.^.^.E.",
"M ] E W s.B , K &.1.4X4X3.3.2.=.:.~ , v B v ! *.1.2.1.3.3.3.3.3.3.3.,X,X3.,X3.3.,X,X3.1.,X3.M m m ; b k.h.v V F C 9.9.A g ) l.u.u.u.t.t.u.u.u.a.p.t.p.u.t.u.u.u.t.t.t.t.s.B b U J t p t / j.g : h d : : n =.7XZXyX7X6X6XyXP ( h > pX6X7X6X6X6X,X6X6X6X4.,X%.> j ; F.3.4.1.1.#.P I I L J + + v ` n , E #XNXxXK.9.d f.g.g.P.K.g.g.g.g.g.g.@Xm.m.K.K.l.m.q.: d K.K.K.g.g.g.x.K.x.x.K.K.x.x.0.7.6.f.S.}.C.F 7.9.HXnXnXnXnXnXnXnXnXnXnXHXcX XdXJXrXM &.K  XHXzXcXHX' ! tX4 ' 4 tXJXM 5 ;.MXcXmXsX{.sXmXxX#XzXfXfX#X#XfXfX#X#X#X#X#XfXzXzXzX}.N.m : d l c 9.G x G c G G c G c G c f c c G 9.c l 9.c c c c 9.G m j > < #.1 w w w < @ @ # & < < 1 r r 7 & $ & < 2 D W p.p.l.p.u.k.l.l.l.k.l.l.l.T.s.j.) v M v / } j.s.s.h.B E.^.!.!.!.!.^.^.^.^.^.^.^.^.^.^.^.^.^.^.^.^.!.E.",
"      = M [ s.Z Q E B ! =.>.3.3.F.! v E B v N *.3.3.3.3.3.3.3.3.3.,X,X,X,X3.,X,X,X,X,X,X3.3.-., N N ; ( k.s.v Y V F 9.C V g p.l.p.u.u.t.u.t.t.a.u.t.u.t.p.u.t.u.t.u.t.u.k.v b m U P i 1 / s.g g g h b g : d g Y 1.yXuX7XuX^ ) b > qXyX6X6X6X6X,X6X6X6X,X6X%.; j ; G.3.3.1.3.3.1.$.P J n ; - m ( L L n , / _.*XOXc.9.C 9.i.x.@XL.D.g.g.g.g.g.x.x.x.9.f f d l K.g.D.K.x.g.x.K.x.x.x.x.x.x.0.8.w.z f T h c 7.w.HXnXnXnXnXmXnXnXnXnXMXfXrXMXnXHX>.a &.4 rXHXcXHXtXO ;.rX5 ! K &.&.= ! nXmXdXzXmXmXmXfX#XcXnXcXzXfXfXsX#X#X#X#XzXzXzX|.n.G l l l 9.c 6.9.9.c l G 9.6.c 9.6.c c 6.9.c c 6.c c l c 9.9.S m n 2 1 1 y y 4 1 < & @ & < < r r r < & $ # & 2 N W p.p.p.p.p.k.l.l.l.T.T.T.T.T.l.s.E _ + , ~ > O V., + B.h.s.h.B Q *X!.!.^.^.^.^.^.^.^.^.^.^.^.^.^.^.^.^.^.^.^.^.",
"! 4 = .   . . 1 4 , Z Z Q W E _ Z.! , N v N _ :.2.3.1.3.3.,X3.3.,X3.3.,X,X3.3.,X,X,X,X,X,X1.=.J N Y , , k.l.! 4 a 5 n Y F V v k.l.p.p.t.Q u.u.t.t.t.t.u.u.t.u.u.u.p.u.p.s.v Z S M P i q ` ) _ :.L g d g B b g d d m -.4XiX&.d.b ; qXyX6X6X6X6X6X6X6X6X,X6X%.; g ; G.qX,X3.3.1.3.1.=.$.y - - D ( N L N L M , Z D.c.x f y.h V i.P.@XL.g.g.g.g.g.g.w.7.f f f x K.g.g.g.K.D.9.D.K.x.x.x.x.x.0.7.0.7.6.g.w.P.8.x.HXnXnXnXnXnXnXnXnXHXzX|.MXmXmXHXL y ~ 4 |.JXHXmXK > wXnX> ^ ^ 5 > ' nXnXzXcXzXzXzXfXfXfXfXzXfXzXsXfXfXfXzXcXzX}.f.l l z z 7.6.9.w.6.c 6.9.9.q.9.6.c l c c 9.c 9.G c c c 9.f.G T m 3 1 2 2 J y w < & o # & < 1 1 r r $ $ $ & y _ h.s.u.p.p.p.k.l.l.T.T.T.T.T.T.s.h.B v M., 5 K 4 K O K N , N ) k.k.s.h.E B OX^.^.^.^.^.^.^.^.^.^.^.^.^.^.^.^.^.^.^.^.^.^.",
"M.{ [ / M 5 @ o   . . > M N B B B , + 2 2 > ! *.3.4X,X,X,X3.3.1.3.,X,X3.,X,X,X,X4.<X,X,X,X3.&.M N D / ; B k.B.M 5 p y K L m n 5 s.l.p.p.p.p.u.u.p.u.p.u.p.p.p.u.p.p.p.k.V V G F n t u t ] E &.3.3.1.&.M g h b b h g d d N D W g 2 pXyX7XyX6X6X6X6X6X7X,X6X$.; : , qXqX6XU.6X6X3.3.4.3.$.+ ; b ( L ! I I L L K K O O : +X&X9.C x i.v.@XP.g.w.9.9.0.7.l f f f D.g.g.g.g.g.g.g.K.x.x.x.x.g.w.0.w.l x w.7.P.8.g.HXnXnXnXnXmXnXnXnXcXrXnXmXcXmXnXM K ~ K ' HXhX! > 4 nXHXV.4 K ' rXMXmXcXcXcXcXcXcXsX#X#X.X|.|..X#XxXmXfXS.q.l z z 7.e.9.9.9.6.9.6.9.9.6.9.6.6.6.c 6.6.6.6.6.9.6.c 9.9.G m 2 2 2 4 y U J 1 @ # # & & < < * & $ # # & 2 Y s.k.l.k.k.u.p.l.l.T.T.T.T.T.l.k.E / , n M., > @ K , M v A.Z k.`.l.l.l.k.k.s.h.Q B W.*X^.^.^.^.^.^.^.^.^.^.^.^.^.^.^.^.^.^.^.^.^.",
"F.F.F.>.' ' [ } M 5 O . . . O > n v M N , > v v / ] 2.4X6X,X,X,X3.,X3.,X3.1.4.3.4.3.3.3.3.1.=.4 , ' / N + E k.k.a a M Y Y D n 4 5 W l.a.a.a.a.a.p.p.p.p.p.u.u.p.u.u.p.u.h G G S S 2 u y h.Z L 2.4.3.,X6X,X#.L g b V V h h b S g 2 pXZXuX7X7X7X7X6X6X6X6XqX<.m g ; qXqX6X6X6X6X6X6X4.4.%.- - m ] / ! / / ! / L _ , - : l.%X%Xc.9.9.9.i.P.P.K.g.6.l z f f f q.D.w.f.g.g.g.g.x.K.K.g.g.x.0.r.0.w.6.C z 7.r.7.x.HXmXnXnXnXnXnXMXcXsXnXnXmXmXnXnX4 K ~ ! a K 4 > K dXMXmXMXzXzXMXMXzXzXzXdXfXzXzXfX#X#X}..X#XzXfX}.N.G l z z 7.0.9.9.9.9.9.6.9.9.9.9.9.9.9.6.9.6.6.6.6.6.6.c 9.q.S m , 2 2 J J J q * o o o & * 1 * & $ $ & < w Y h.j.l.l.k.s.s.s.k.T.`.T.`.T.T.T.{ B h.N ; F.O ~ M.> M.> E h.l.l.l.l.l.k.k.k.k.k.h.s.k.Q E p.*X^.^.^.^.^.^.^.^.^.^.^.^.^.^.^.^.^.^.^.!.!.",
":.:.2.>.&.&.>.>.&.' _ M 5 = @ .   . + 4 J , > > > , , b N *.:.G.,X,X,X,X3.1.3.,X4.,.4.4.3.3.=.K . L ` / M + W k.{ 4 y P K K I M n , 5 K 5 , v W a.a.a.u.t.u.p.p.p.l.k.g x G f S G m > K N.Z ~ qX4.1.,X6X7XyX7X4.I n g h g g m m h m ^ qXuXuXyXyX6XyXyX6X,X=.) b ; qX6XyXqX6XqX6XqXqX4.1.y - m C.:._ ! / _ _ ! I > + D D.Z l.%X*XOXi.x x 0.P.@XP.9.f f q.P.@X@X@Xg.0.g.g.g.g.g.x.x.w.w.w.0.8.9.z z 6.0.0.7.x.MXnXmXmXmXnXnXcXrXMXnXnXmXmXnXHXK 4 ~ ^ K K > &.MXMXzXzXzXzXzXzXfXfXfX$XsXsX#X#X.X#XzX#XsX}.d.x l z 7.7.0.0.0.9.9.9.6.0.0.6.9.9.9.6.9.q.6.6.6.6.6.6.6.9.6.c F k ; 4 y y w < # o   @ < r q 7 9 $ $ < y _ h.l.T.l.l.k.k.s.k.j.k.j.l.l.`.T.Q _.} N , , B.d., C.O L h.k.`.oX`.T.k.l.k.k.k.k.k.k.k.h.s.k.k.E B B ^.^.^.^.^.^.^.^.^.^.^.^.^.^.^.^.^.!.!.!.!.!.",
"&.=.:.>.=.#.=.&.&.&.' ;.{ [ B M K 2 . . . O > 2 n j , , , : , v / &.3.,X,X<X,X,X<X<X,X4.4.3.=.P . O *.Y / v : s.l.s.1 u 5.a 5 4 , m g b ) ) n + O 5 s.p.t.t.p.p.l.W g j h S g f V S ; _ h., #.qX1.3.,X,X6XyXyXBXZX7X4.X.2 - - g D h x h m =.yXZXuXyXyX7XyX1.N b ; qXyX6XqX6XqXqX6X6X3.4.1 ; n C.:.2.:.&._ _ ! ~ 2 - h f.( B Z _.*X*Xa.c.u.C i.P.P.x.7.w.P.@Xw.@X@XK.f.f.g.g.g.g.g.0.w.0.0.7.7.7.7.x.r.r.7.K.HXcXnXnXnXmXzXM.cXnXnXnXnXnXcXHX'.+ K 4 > 5 '.MXcXfXfXfXfXfXfXfXfXfXfXsXsXsXfXzXzXsX_.S l l z 7.e.w.0.6.9.9.9.9.0.0.9.9.9.9.6.9.9.6.6.6.6.6.c 6.9.6.6.6.6.G R g n 2 .       o < 1 1 6 $ $ & y _ j.l.l.l.l.k.k.k.k.l.l.j.j.A.B.j.j.A.`.h.- sXv M C.- E h.E `.T.`.T.T.Q j.C.; , (.j.l.l.l.k.k.k.s.h.h.h.B > , OX^.^.^.^.^.^.^.^.^.^.^.^.^.!.!.!.!.!.!.~.~.",
"&.>.&.&.=.#.#.#.^ ' } }.B C.[ ! ~ #.^ P y = @ . O O > 4 n m n : : : g L -.<.,X,X,X<X,X,X,.<.=.P o . 2 ' D ( , , s.l.{ 5 t a 4 M m D F V b Q p.l.s.v O > j.u.s.W v , g g G x g m S g , M.( g ' wX1.1.4.,XyX7X7X7X7XZXyX6X6X%.- j n + - g h h b _ 1.pXuXyXuX3.N B > qXuXyX6XqXqXqXqX6X3.$.2 ; n  X2.2.>.F.:.&.-.L , - h s.) ` _ N D A.OX!.Q.i.l.C g.kX@Xw.7.w.kXL.@XmXkXK.w.g.g.g.x.0.8.8.0.8.0.7.7.0.r.r.7.K.HXnXmXnXmXfXcXrXnXnXnXnXnXnXnXnXMXC.! ' V.zXMXzXfXfXfXfXfXfXfXfXfXfXfXzXxXzX#XN.G f l z 9.0.0.q.9.9.9.9.9.0.0.7.0.6.9.9.9.0.6.6.6.9.6.6.6.6.6.6.6.6.6.z 6.9.S , J < @ & 6 q 7 & # # 1 I M.A.`.T.T.l.l.l.k.k.k.l.A.s.s.j.j.j.j.k.k.l.`.{ + ;.v / ( s.`.W.T.T.s.) M.> B ).M , O ] `.l.k.k.k.k.k.k.s.k.h.v Q &X*X^.^.^.^.^.^.!.^.!.!.!.!.!.!.!.~.~.~.~.~.E.",
":.2.=.=.&.&.^ #.P #.4  Xv ' &.^ ^ #.#.%.>.&.~ K 2 > O . . @ 2 , n 2 , , ; : , U #.<.3.,X3.1.=.#.. . . 2 ` D / g ; s.k.) 5 t a I L g C 9.9.x V Z Q p.W v [.qXp @ , N V C 9.9.h S ` : Z k.W g *.wX2.1.1.,X,X6X7XyXyXyXyX7XyX$., k I :.2 - : d h V V b &.3.uX3.B Z , qXqX6X6XqXqXqXpXqX3.$.3 : n rXpXqX3.F.:.:.:.' > - b j.) ( ( ] _ L Y d.h x OXc.l x g.P.P.9.6.kXP.@XkXkXkXK.w.9.l.K.@X9.7.7.0.7.7.z 8.r.7.K.HXcXnXnXfXcXnXnXnXnXnXnXmXnXcXmXmXMXMXMXmXzXfXfXfXfXfXfXsXfXfXzXcXmXxX#Xj.x f l 7.0.w.0.9.9.9.9.q.9.9.9.9.9.9.9.9.9.0.6.6.6.6.6.6.9.6.6.6.6.6.6.6.9.6.6.6.c T : H 1 @ q & 6 # 2 / j.T.T.T.l.l.l.l.k.k.k.l.l.A.j.v g g j.A.j.k.k.k.l.`.k.Z s.l.T.`.`.) E }., 4 4 ' ; ) h.+ ' v E `.l.l.T.T.k.k.k.k.p.u.~.*X^.^.^.^.^.!.!.!.!.!.!.!.~.~.~.~.~.~.~.E.E.~.~.",
"F.F.>.1.=.$.&.#.^ ^ M  XB ' ;.K ^ #.^ #.=.=.&.~ ~ ! L n > > O . O + > n n j g : : ; < y #.=.:.&.@ o # . 5 ` D / v - W k.) , 1 p a > v D V C 9.F g g g g > K qXqX! g C 9.9.9.6.C h : s.t.y.b ] wXF.2.3.3.,X,X,X,X7XyXyXyXyX#.j.v $.IXuX3.$.2 O + g V C V Y ( h v , wXpXyXqXqX6XqXqXqX3.1.2 : n tXpXqXqXpXqX3.>.>.5 - b f.` [ ` ] ) ] _ j - g &X*XOXc.9.6.g.P.P.r.r.8.L.kXkXkXkXK.g.+XJXHXD.z 7.7.7.z 8.0.7.K.HXnXcXzXcXnXmXnXnXnXnXnXmXmXcXzXzXfXfXfXsXfXfXsXsXfXfXfXzXxXmXzX}.f.f l z 7.0.w.0.9.6.9.9.q.w.9.9.6.6.6.0.0.9.0.9.9.6.6.6.6.9.9.6.6.6.6.6.6.9.6.6.6.6.6.z 6.S , 2 < @ < N h.l.T.l.p.p.p.p.k.l.l.l.l.k.k.l.B._.D - m g N.j.k.k.k.k.l.`.T.`.T.l.l.`.B., ; '.> 5 n _ - E ) s.`.`.`.T.T.l.k.s.j.k.k.h.s.p.*X^.!.!.!.!.!.!.!.!.~.~.~.~.~.~.~.~.~.~.~.!.OXOXW.",
"].wXqXqX3.=.=.=.@.#.K ].N ] ;.K K ^ P #.$.$.&.=.&.:.(.Z.! L L y 1 @ O . . + n J m j ; O . @ 2 P & o # o . 4 ( D / g : ) p.p.M = t y 4 S F C h D Z A V V C h , ~ ].Z.C 9.9.6.S j - ] s.Z b v ' ].F.F.G.qXpXuXyX6X<X7XyXyXuXK `.Z ^ VXZXZXSXZX,XP - - - g V A F b , wXiXuXyXuXpXqXqXpX3.:.` g n tXpXqXuXuXpXpX[.>.> - b h.] ] ] ] ] ` ` m : S s.j.%X*XOXz.6.6.K.gXP.7.z w.kXmXmX@Xg.oXmXcXKXfX9.z z z 7.0.7.L.JXcXrXnXnXnXnXnXmXnXmXcXcXcXzXfXfXsX#XsX#XfXfX#XfXcXmXmXzX}.f.l l z 7.w.w.0.9.9.0.9.0.w.9.9.6.9.6.9.9.9.0.6.6.6.9.9.6.9.6.6.6.6.9.z 9.9.6.6.6.6.6.z 6.6.z 9.T : w < @ - E k.k.p.p.p.k.l.`.`.A.l.l.l.l.l.l.l._.D d D Z `.l.k.k.p.l.l.T.T.l.l.l.l.}.v , > M v A.Q l.l.T.`.`.`.l.j.f.W f.F b A.k.k.h.p.a.*X!.!.~.~.~.~.~.~.~.~.E.~.~.~.~.~.!.~.T.k.W M n = ",
"].wXwXpXqXqX[.3.1.>.#. X' ' :.4 a #.^ ^ &.&.#.#.~ '.(.B (.' &.#.#.~ K K 1 O . . . < 1 1 & @ o X o o # # $ . 2 / D ( M - Q l.k.) 5 y 5 m F A b V V 9.9.9.9.A b , 4 &.N.D.9.9.3 + ) k.y.Z g N *.].F.F.[.iXiXiXiXVXyX,.6XuXuXI `.Z K IXVXuXSXSXZXZXZX3.P @ . . 2 m b D =.qXuXuXuXuXpXqXU.>.B b M tXiX6XuXpXqXpXqX$.1 ; b B.Z.;.] ] ] ` ] m : F j.d.( N.%X*XOXi.9.i.oXgX@X7.z K.x.7.i.oXmXzXHXnXMXfX+Xl l 6.7.@XxXfXnXnXnXnXmXmXnXcXcXzXzXfXfXsXsXsXsXfX$XfXzX.XMXzX{.q.l z 7.7.w.w.0.0.0.0.w.0.w.0.9.6.9.9.q.w.9.6.6.6.9.0.9.9.9.6.6.6.6.6.6.9.9.6.6.6.6.6.6.9.9.6.9.6.6.G S g J < < + E j.s.s.k.k.k.l.l.u.u.p.`.l.k.k.l.l.`.Q A l.A l.l.k.k.k.l.l.T.T.T.T.l.`.B.g A.l.k.`.`.`.`.`.l.l.y.9.x l c x s.k.k.l.k.k.k.p.R.*X!.!.~.~.~.~.~.~.~.~.~.~.~.R.p.) } > @ * q q 5 + ",
"hXG.wXwXqXqXqXqX[.[.V.rXZ.Z.V.^ ^ #.^ ^ ~ #.#.&.~ F.(., C.~ =.=.&.=.&.&.#.P y < O O O O O & * * & & & @ @ o . 2 ` ( D N - B p.p.s.} 5 5 N m b Z V V 9.9.9.9.C C Z V C F *.~ ^ ;.l.u.Q B g m *. XF.F.pXiXuXuXpXiXVX,X<XZXuX^ `.V K IXZXZXZXZXZXVXSXSXZX7X,.q . O D A 9.V E F.uXVXiXuXU.=.m b M tXpXpXuXuXpXpXqX>.1 - b S.'.F.:.M.;.*.] j : S j.d.d.` Y d.&X%X%Xx 9.a.@XgXP.0.6.l u.l.%X$X_.fXJXcXMXxX9.l 6.m.HXHXnXnXnXmXmXmXcXcXzXfXfX#X#X#XfXfXfXzXxXzXsXD.G l z 7.0.w.w.0.9.9.9.0.w.0.0.9.9.9.w.0.w.9.9.6.9.6.9.9.9.0.9.6.6.6.9.6.9.6.6.6.z 9.6.6.9.6.6.6.6.6.c 6.9.6.m , J @ @ + [ k.s.k.k.k.l.a.u.l.l.s.s.l.T.l.T.`.`.Z i.l.Z j.`.k.s.k.l.T.`.l.l.T.T.T.T.`.`.`.`.T.T.A.C 6.l g.x C A.l.k.`.j.j.l.l.k.k.j.p.R.OX~.~.~.~.~.~.!.~.R.p.E 5 @ #   a I J 4 K 5 ! M ! ",
"{.' ] ;.V.F.[.[.F.].'.dX X(.{.;.:.2.=.%.$.$.=.=.~ V.|.5 (.! ' &.#.&.=.$.=.=.&.Z.:.4 y r & o @ & & & # o & @ @ O , Y D N N , , W p.p.k.B > 1 v ( C C 9.9.9.9.0.9.A N t u * 1 ) k.t.Q h.B v b _ ].F.[.iXiXuXuX3.qXAXuX6XZXVX^ `.b ~ LXVXSXZXuXuXZXuXZXZXZXSX6X& - Y : : V 9.t.Q ] [.iXqX=.v b M tXpXuXuXuXuXiXqX>.> - b |.iXpXqXF.M.Z.M.v : D j.s.) d.] _ N d.V l.K.9.9.i.@XkXP.w.+XKXJXdXcXHXKXrXB.$X%XL.6.g.HXnXnXnXmXmXcXzXfXsX#X#X#X#XsXzXzXxXzX#Xj.6.z 7.7.0.w.0.9.9.9.w.9.w.0.0.9.0.9.w.w.0.9.9.6.9.9.9.9.9.6.9.9.6.9.9.6.9.6.6.6.6.9.6.9.9.6.6.6.6.6.z 6.9.6.6.6.c S , J ; < - [ k.s.k.k.l.l.k.s./ ] N B (.`.T.l.`.A.b F F b h.`.p.k.k.l.T.T.T.T.`.T.T.`.l.A.y.9.l D.j.x y.s.`.T.`.l.s.l.T.l.l.k.j.k.j.k.p.T.OXE.E.E.R.p.E n > & 0 P J J K = y > 4 M M 5 ! ! ! ",
"tXV.;.&.' ~ ' &.&.:.:.rX.XC.'.;.2.G.F.3.3.2.2.:.&.F.rXN C.~ &.&.&.#.&.=.#.~ ;. XM F.&.=.%.X.q o < & @ & & # o < ; , m D B N g ; b s.k.p.s.E n : b m > n F F N a u s 8 1 E l.p.Q b *.C.v g v _ ].F.qXiXiXuXiXuXqXuXuXZXSXIX#.`.b &.LXVXVXuXZXZXuX7XZXZXZXZXyX1 + *.G.J + - h 9.9.9.F ] _ g b N tXpXuXuXuXuXiXqX>., : j rXiXAXiXpXqX[.V.n : F N.] ] d.] ( ` D d y.&X*XQ.t.C C K.kXgXHXLXLXJXJXmXj.`.%XoXg.c +XJXnXmXmXcXzXzXsX#X#X$XsXzXxXxXzX_.f.z 7.7.7.7.0.0.8.0.7.9.w.0.0.0.7.0.0.0.w.9.q.m d 9.0.9.0.9.6.6.9.6.6.0.9.9.6.6.6.6.9.6.9.9.6.6.6.6.6.z 9.6.6.6.6.6.6.z 9.m , 4 @ ; + ] j.j.j.`.k.k.s.h.s.s.h.k.j.B N Z }.M., : g v ( `.k.k.k.l.`.T.`.l.k.D.C g.l 9.9.9.y.oXT.l.`.l.f.9.l 9.f j.A.l.k.k.j.j.j.k.k.W.&X~.p.O . . ^ ~ ! L M 5 > ! ! ! M M / / [ ) ) s.h.",
"iXqXqXqX[.F.V.Z.*.] ] C.).(.{.' &.F.2.2.F.F.F.F.F. XrX] '.&.>.>.=.=.=.=.=.#.M.{.> V.~ =.=.1.2.q @ & & @ @ @ & < 2 , ; n n ; m m : : Z u.p.p.l.E v 2 * % 9 9 s s t K [ k.p.t.A b DXpX=.m g b ~ wXF.wXjXiXiXDXVXAXiXVXuXIXIX^ `.b ' KXDXDXAXVXuXZXZXyXZXuXyX6X2 ; &.bXiXqX$.1 + : F p.u.u.V , L tXiXuXuXuXuXiXqX>.n g j hXiXVXuXAXAXAX1.2 : F B.h.d.d.n.` / D x f.f.$X%X*XoXl.V g.@XP.@XkXKXcXzXxX&X%X9.z c aXKXnXzXfXfX#X#XsXfXzXmXxXfX_.q.z z 7.7.0.0.0.0.7.w.0.0.0.7.7.9.0.w.w.w.G g 2 y ^ @ ; G 6.9.6.9.9.9.9.9.9.9.9.6.6.9.9.9.9.6.6.6.9.6.6.9.6.6.6.6.6.6.6.6.6.z q.m > J < ; 4 h.B.B.`.}.A.s.y.s.s.( ) E h.E h.k.+XE x i.i.V ( _.l.p.k.l.l.`.l.l l q.C k.l.l.`.l.l.9.C g.x z l 9.y.k.j.A.l.l.l.T.l.l.k.) Q R.W.l.u.v 5 5 ! 5 5 > > 5 5 M } [ ) h.j.j.B.N.N.h.h.",
"V.V. XC.N.B.A.S.{.H.C.Z.;.M.(.V.:.&.&.:.2.2.2.:.2.wXsXC.'.V.F.F.3.2.=.=.=.&.;. X5 :.#.=.$.$.2.P @ 1 @ & @ @ @ ; > , : L , + , m m g : : b Q u.p.p.l.l.p.u.u.s.k.p.p.p.u.Q b M 3.AXuX2.n , v / ].F.wXiXiXiXiXiXqXyXVXyXZXIX@.A.h ' PXDXFXnXnXbXlXiXuX7XyXuXqX, , &.iXpXpXuXpX3.P ; : V y.l.y.V ( [.pXuXiXuXpX3.*.v Z g hXAXuXVXlXAXlX2., : F {.Z.;.Z.Z.*.N Z V y.D  X/ D oX%XQ.z.9.9.P.@XL.gXKXLXLXJX9.6.6.gXJXcX#X#XsXfXzXxXxX$XD.9.z z 7.7.7.0.7.7.0.7.w.9.9.0.7.8.0.0.0.G m 2 y p $.:.:.*.; - c 7.w.9.9.9.9.6.6.9.6.9.9.9.6.6.6.6.6.6.6.6.6.6.6.6.6.z 6.6.6.6.6.6.6.G j 2 w - < 2 h.A.j.j.s.D ( ) s.j.l.l.p.oXoX_._._.b A z.i.Z ) _.l.s.k.l.`.`.k.k.T.l.l.l.y.C q.x l c 9.l.k.l.`.`.`.`.`.T.l.j.h.) W E ) s.h.l.p.l.l.E v M 4 M ! E { h.j.A.A.A.A.j.B.j.h.) [ ) E ",
":.'.C.N.j.d.A.S.B.S.{.{.Z.M.;.G.F.:.&.&.:.>.=.:.'.B..Xh.'.(.F.G.].].G.G.3.2.'.rX! :.&.1.=.$.1.y @ < o & @ & @ < < 2 : M > . O - , j m k , ; g B E Q t.p.u.u.t.t.t.Q Z b m =.uXyX<XuX3.4 , m _ ].F.qXiXiXiXiXpXyXuXuX7X7XAX#.`.g ] KXvXDXnXnXnXnXnXlX7XuXuX3.> , &.iXpXuXpXpXuXiXqX>.a . + , d.j.Z b ;.[.pXuX2.&., m m tXAXAXAXlXAXiX>., : Y bXpX2.:.Z.M./ B A f./ *.cX, , d.&Xz.i.c l 0.x.@X@XgXMX#Xd q.9.kXJXdXsXmXnXzX#Xj.c z 7.7.7.0.7.8.7.7.0.7.0.7.7.8.8.0.9.G h , 4 ^ =.F.F.*._ n n M ; - c 6.6.6.6.6.9.9.0.9.6.6.6.6.6.9.6.6.6.7.6.6.6.9.z 9.9.6.6.6.6.6.z 6.9.G k 2 y @ < ; N.j.f.f.V s.k.A.p.k.l.l.p.oX`.`.`._.W F y.V g - ).A.l.j.l.T.T.`.`.`.oXy.f c 9.y.l.l.`.`.`.`.`.`.`.j.h.) W E E ) d.N.A.).`.l.l.T.oXZ v [ ) h.j.`.A.`.`.A.l.j.j.h.( ( ) { E ( [ } ",
"Z.Z.d.j.N.h.N.S.N.j.N.S.{.'.;.F.F.qXqXG.F.F.*.] $X`.T.h.B.;.;.:.2.3.G.4XqX].wXdX&.:.2.2.=.1.=.> A.W O # # @ @ < > , g Y n O O O O - 3 k S S k g , , g v v b b b g v I 3.uXyX7X6X6X6X2.M g v _ ].F.F.pXiXiXiXiXVXAXZX7X7XuX^ `.g ' PXvXbXnXnXnXnXnXiXyXuXuX6X> , ;.iXpXuXpXuXpXpXpXpXqX2.> - m b s.A.p.u.) '.[.=., b B rXDXAXiXuXlXlX>., d Y DXIXAXiX[.:.[ D A 9.( N A.fX{.D h 9.c.9.6.C d D.kX@Xf.f 9.P.6.@XKXJXcX}.f.c z 7.7.8.7.0.7.7.8.7.0.7.8.8.8.0.8.6.h , 5 ^ 1.[.].C.*.Y v n n M M L + - l 7.7.0.9.9.9.6.9.9.6.6.6.6.6.6.6.6.6.6.9.6.6.7.7.7.6.q.G f c 9.c 9.9.9.j 2 2 - < ; A.k.t.l.T.p.k.l.l.l.l.k.l._.`.`._.h.; : g d , , v }.A.l.l.`.`.`.T.T.T.k.l.`.`.`.`.`.`.l.l.j.s.( E W ) h.j.A.`.).).S.B.B.B.l.T.p.T.p.k.`.`.A.`.B.j.j.h.h.W h.j.h.) ) h.h.) h.) E ",
"V.C.M.N.S.B.S.N.j.j.j.N.{.C.Z.&.=.2.3.4XqXqX4XV.}.$X$X}.XX}.}.).B.(.F.:.2.2.].dX:.:.F.G.3.1.=., ~.W.O # @ @ @ @ 2 , g Y ` - - @ - + . O @ ; j h V Z Z F E ` ].2.F.iXVXVXyX6XyX7X6XyX3.n > v _ ].2.3.qXiXiXuXuXuXuX7X7X7XuX^ A.g *.PXvXvXvXnXnXnXFXbX6XyXuX6X> , { cXlXpXpXpXpXpXiXpXqXF., - *.M.v b h.oX&Xl.Q D , g N rXDXAXiXuXAXlX:.g d Y DXAXAXAXAXuX#.N V W E ! M M M , y.i.&X9.c 9.f K.@X7.0.P.P.P.6.@XmXD.z 7.7.8.0.0.8.7.7.7.9.7.0.7.8.0.8.9.x j 1 p $.G. XC.*.Y Y N m L M L K n L L - : x 9.6.7.6.6.6.9.9.6.6.9.6.6.6.6.6.9.6.6.7.7.9.6.9.S n 5 = > x 6.6.9.q.G j 1 w @ ; , B.k.j.`.`.k.a.u.l.l.`.`.`._.`.`.}.g : c 9.6.x d., B.`.l.l.T.T.l.l.T.T.`._.`.`.j.k.s.s.) ) s.h.B.A.`._.).).S.B.S.B.B.B.S.A.l.R.T.l.k.l.j.h.k.s.s.j.h.k.k.s.h.j.h.h.h.) ) { ) ) E ",
"'.Z.h.N.N.N.S.S.S.A.A.N.B.{.V.&.=.1.1.3.3.3.G.:.).$X}.}.`.}.`.k.`.}.$X#X}.(.(.dXV.:.G.qX[.3.=., T.W.O * @ & + ; 2 , v D ( v , ; - + - @ O O O O O @ + ; 4 @ 1 ; , L ' '.qX6XuXZX7XyX3.K , v &.wX2.[.qXuXuXiXuXuX7X7X7XyXuX^ _.b ! GXDXbXbXnXnXnXGXbX6X7XuX6X> , `.MXiXAXuXqXpXuXuXuXqXG.j ; F.vXtX[.~ 5 N j.oXoXg.C b wXAXSXiXuXDXiX:.n d ` DXAXAXAXSXIX&.B C y.( / ! n 5 v t.z.&X9.c C d kXmXP.P.v.r.v.8.r.P.8.7.0.0.0.7.7.8.8.0.7.8.8.8.8.c h ; y @.2.].G.M.S.` Y / Y ` Y / L m m M n L n + : c 7.6.6.7.9.7.7.6.6.6.6.6.9.9.6.9.6.9.9.9.S m 4 = X     1 2 d c 6.6.g.G g 2 2 - > g B.l.`._.`.k.l.`.`.`.`.`.`.`.T.}./ D l 6.7.6.l S , Z.`.l.T.`.oXl.l.`.l.k.s.s.) s.s.j.j.A.`.`.`.).).).).).).).S.S.A.A.A.A.A.l.W.W.p.k.A.h.) h.h.h.h.h.k.j.) Q h.) ) h.s.j.j.j.A.j.",
"].Z.d.j.A.N.N.N.A.A.A.B.j.{.'.&.=.2.3.3.3.3.3.&..X$X}.}.`.}.}.`.`.#X$X$X$X`.(.{.;.*.F.qXqX3.=.v j.E O @ @ + ; ; g g v D ( h V g : ; - + @ < @ @ @ @ O O 1 .   . . O O + , M &.=.6XpX[.K , v *.wX2.F.qXiXiXuXuXuXyX7XyXuXuXP oXb / JXDXbXvXvXnXvXnXlX6X,XuX,X> , B.mXrXnXbXiXiXiXpXpXpX:., , V.cXpXlXlXtX3.P 2 T j.f.u.F N 3.lXAXAXqX&.v g ( DXAXAXAXIXDX' v V S.wX#.~ L n g u.z.&X9.x C d H.mXP.r.r.v.v.8.r.P.x.7.9.9.0.0.8.8.8.8.8.z f : > P >.F.G.C.` D Y / d.n.` Y m / / Y Y N N n J K n + : c 6.9.6.6.6.6.6.9.6.6.6.6.9.6.0.9.G m 2 * X     . = I I + 2 k c c 9.q.x g 2 2 - > m B.l.`.j.A.`.`.l.`.l.l.j.j.`._.B.L m l 7.z l h S , (.`.l.`.A.k.s.W ) ) h.j.A.`._.`.).).).)._.{.{.{.).S.B.A.A.A.A.S.S.S.A.A.l.W.W.l.k.j.B.j.s.j.k.k.k.k.k.Z ) h.h.j.j.).h.) B.j.k.",
"tXtXG.M.B.A.S.S.S.A.A.N.B.{.'.=.=.1.1.1.3.1.3.&.(.#X#X`.R.(.(.XX(.(.XX#X$X}.(.} L *.&.&.1.2.2.M ) , + @ @ @ - n , v B E ( h V F V h k : - - @ - ; < + ; U 3 2 1 O     @ @ - ; : g v ! n - j V.hXqXqXpXuXuXiXiXiXuXyXuXZXuXP `.Z E FXbXbXvXvXnXvXnXbXyXyXyX,X2 ; (.HXzXcXzXMXMXnXiXqXpX2., g Z.dXtXwXqXlXbXtX|.'   . W oXi.t.W V.qXqX&., h d.IXAXlXAXIXAX~ n h {.GX>.~ L M g u.c.Q.9.C C d K.P.r.r.I.r.I.8.I.P.r.7.9.0.8.8.0.6.c : , 4 #.2.'.C.] D N Y ` n.d.Y m n n v m / N m L m n g n L n + : c 6.6.9.6.9.6.6.7.7.9.9.q.q.Y n =         < L M.).}.fX*.O j h l l c 6.c , y 1 ; ; M A.k.k.j.`.l.A.j.A.j.j.l.B.A.+Xh.v : l C 9.f.j.( v ).).) E ) s.N.).).}._._.)._.)._.{.{.).).C.C.N.N.d.j.N.C.).).A.).).S.).A.l.W.R.p.l.j.A.j.j.l.l.l.l.j.j.h.j.A.).s.[ E B [ h.j.E ",
"wXiXDXG.C.S.A.A.A.A.S.N.N.{. X>.=.1.1.3.3.1.3.&.C.#X$X`.R.(.Y.{ { { { (.$X}.).;._ #.&.~ P a J 5 h.B - & @ - + J g g m D W b V V V x V V h g : : ; < @ < H d 3 U 2.^ 4 1 + + + + - ; g m m g v ;.tXpXVXAXVXVXiXVXuXuXZXZXuXP &XZ N FXbXbXnXnXvXvXFXlXyX7XyX3.K , B.mXcXnXcXMXMXMXbX[.iXV., g V.dXtXpXwXtXrXrX.X.Xa O N j.y.c.Q.z.u.( _ > : n.IXAXAXVXIXlX~ v V f.] ' ! M n g u.c.c.9.9.9.d +XP.8.r.r.v.v.8.v.P.r.8.0.7.z f : 1 a &.F.{.N.` D m Y n.n.` Y m ]  Xn n Y Y m m n N L b / Z.L n 5 + : z 9.7.7.7.7.7.0.9.9.Y J <     . @ 4 / N.).#X#X+X}.}.#X/ O j d c c 6.6.G g 4 > > - L A.k.k.l.`.l.j.l.A.j.A.j.`.`.+Xk.( ( j.l.A._.s.b v ).j.s.s.+X+X}._.{.{.{. X X)._.).S.A.B.N.h.A.S.S.).).B.B.).)._.).).).).`.T.&Xl.k.A.A.l.j.l.l.j.k.h.h.j.) ) ) E ) ] E } h.B.) v ",
"v m ` ` d.N.S._._.S.S.N.S.B. XV.=.1.3.3.3.3.3.:.(.(.(.(.(.(.(.(.Y.{ { { .XXX{.'.:.=.:.G.3.1.~ , j.B > > - ; - n n , b ( ( h V h V h x V x V V x h g : Y ` : - P G.>.].].&.~ J , - - - : m g g g b Z h.'.pXAXAXSXZXZXuXZXVXa oXZ E FXbXbXcXcXvXvXnXiXqX7XuX2.n , B.MXzXnXnXnXMXHXbX[.iXF.g , C.cXwXtXtXtXtX.X=XXXM . ;.HX].;.W l.&XQ.l.9.d *.IXIXSXIXlX[.*.D A f.M.' ~ L 4 v u.z.W.9.9.9.d @XP.8.r.r.v.r.8.I.P.0.l g , K &.].rX'.*.Y U _ ` ` Y ` Y Y m M.] MXHXg m Y N m m m n N D C.|.M n 2 + d c 7.9.9.9.q.Y n 1   X   @ 4 _ N.}.$X$X$X#X#X#X#X}. X#X/ + U d c c z c S j 4 ; ; > L h.k.k.k.j.j.j.l.l.A.A.j._._.}.j.( W A.l.k.s.A.b v ).j.j.W }.).{.{._.{.}.S.B.B.B.A.)._.).{.).C.C.N.d.] ( ) }.{.).).).).)._.F V F k.A.l.k.k.A.l.k.B [ E E E E B B ) h.[ v } h.} } ",
"M./ D m m v b D ( d.N. XcX XtX[.2.3.4X,X,X3.3.2.'.(.(.(.(.(.{ (.(.(.(.B..X).}.sX2.=.2.G.G.3.2._ h.Z g j ; - + ; ! v b E W b V V V x V V x V V V V V x f.( - + i 3.&..X[ 2.1.3.1.=.~ 4 , - ; : : : g x x C Q { ].uXZXSXSXSXK oXA E HXbXbXcXvXvXvXFXlX6XyXuX3.n : B.mXdXcXnXnXmXHXbX[.tX:., , `.NX$XxX=XzXzX.XsXXXM + { nXbXlXpXF.*.s.a.Q.c.t.E tXAXSXpX=./ Z y.l.C.&._ ! M , a.a.Q.9.9.9.d gXP.8.I.I.I.I.8.x.T L ~ >.F. X|.H. XH./ n L I n , ` _ |.` , H.fXfXcXg Y H.m m  X{.m m L H.*.n n 2 - d c 6.T m 5 .     @ 4 _ B.}.$X$X#X#X#X#X#X#XsX#XN._.}.sXL + U f z 6.z 6.S j y < ; ; / k.k.k.j.`.l.l.`.`.`.).A.`.`._.k.W k.j.s.s.) d.[ b ).A.W ) #X_.{._._.).}.).S.).).).C.M.M.] ] ] M.h.h.d.] M.}.).).).).).).S.D ( m h.`.A.s.k.j.k.k.B E h.h.[ { } { h.h.E } / M.[ B.",
"h.d.M.d.` d.` D D m m Y ` _ V.eX3.qXyXyXyXyXqXG.'.(.(.(.(.(.Y.Y.Y.Y.Y.(.(.(.(.zX'.&.>.3.3.1.=.M h.Z : j , 3 - ; / D b Z W V V V V V V C V V V V V x f y.` - ; y 2.&.|.M :.$.1.1.3.3.1.F.F.K 2 - O + + : g h x C A D =.pXuX^ T.t.E MXcXcXcXcXbXbXFXiX7XyXuX3.4 , (.mXrXzXcXnXnXHXlXqXpXF., : `.NXNXNXNXNXNX.X.XXXM ; M.nXlXlXlXlXlX[.^ n d l.@X9.F ].qX3.! g f.g.M.*.' _ M g l.a.Q.9.9.q.f kXx.r.I.v.r.v.8.P.h _ F.>.-.*.' *._ n n n L J n n tXKXJX*.C.g ` n.Y : ` C./ m |.C.g m N m m n K , + k 7.q.3 @ @ 4 / B.}.$X$X$X#X#X#X#X#X#X}.).`.h.+ O S.#X.XL + U f c z 6.6.x j y ; ; ; ] B.k.k.j.A.A.`.A.A.A.A.j.A.`._.s.s.j.W j.j._.}.E B _.A.Z ) #X)._._.).}.{.d.M.d.M.` N / M.*.*.M.] N.M.M.d.B._._.).).S.S.).S.V T D N.j.j.h.h.) s.k.B } ) h.E ) [ ) ) E B N } / ! } ",
"C.M.M.] ` M.M.M.M.M.h.d.( D S Z B D ` =.3.qXyXyXqXqXrX(.(.(.(.(.(.Y.Y.(.(.{ { fX].=.1.G.3.2.:.I B B g v b m : , D W b D y.V V V V V V A f.A V V V V h f.d., < i 3.&. XM :.$.1.1.1.1.&.wX:.2.1.1.$.K 2 - O O ; g V C C C F V u.Z [ JXFXbXbXbXbXbXFXiXyXyXuX,X4 , B.nXdXzXcXnXmXHXbXpXtX:.v , `.NX*XNXNXNXNX$X.X}.N - ;.nXlXiXiXiXlXiXwXM - j.xX%XQ.v.9.C g - y.j.C.&._ ! L v a.a.Q.9.9.0.f kXv.r.v.v.v.r.r.P.h 2 I P U 2 > / ;.L n n vXZ.n ' C.C. XY Z.Y sXsX, j C.M.*.N N.N.m m M.C.N j J 2 - d 7.6.j - h.$X$X$XsXsXsX#X#X#X}._.`.s.s.j.( : d W }.|.sXM + m f z z 6.6.h j 4 < > - *.B.k.j.`.A.j.j.j.A.A.`.j.j.A.}.s.j.oX`.l.A.j.S.b B B.A.Z j.#X_.{.}.}.|.{./ M.Z.Z.Y _ ] N.M.] M.] M.C.M.h.C. X).S.).).)._.S.h D m d.) W W s.Q k.k.B } h.h.[ ) } } M.} [ { N N ] M ",
"` M.N.d.d.M.M.M.M.M.M.d.] ] d.d.] ( F V b b m / *.V.'.' '  X X'.'.'.(.(.(.B.{ dX X=.2.4X4X3.1.~ v b b b Z W b g Z s.Z b W Z V V C C V V C V V V V V h y.f.h f T tX:.rX! :.$.$.$.4.1.~ wX' :.1.,X4.4.3.1.&.4 2 O O O ; g b b D b Q %XnXJXFXvXbXvXFXiXyXyXyX4XJ ; '.cXcXcXnXnXnXHXlXqXpX>.L g }.NX*XNXNXNXNX=X.X.X! + { HXbXlXlXiXtXtX]./ : S.wX'.xXNXxXOXz.9.h H.iX$.~ L M B a.z.W.9.0.0.f @XP.r.v.r.v.v.r.P.d n P P X.2.G.4 _ ` _ L HXV.L n , , fXC.M `  XZ.v fX*./  X] M.{.L L ' M., n J > - k 7.q.d + C.$X}.#XsX#X}.`.`.l.l.`.$Xs.u.l.k.A W.p.+X}.sXM - U f z 6.6.G x j 2 < 1 - M.j.k.l.`.B.A.A.A.B.A.A.B.j.A.`.W h._.A.s.A.d.d.( B B.j.B B.#X}.}.}.}.#XS.d.N.B.d.] d.N.N.] ` [ ] C.A.B.h.B.).).S.).).).{.D.h ( m ) ) ( E h.k.`.k.B } [ B Z ) ) ) E } { h.] ] ' v ",
"@ > > , n L M.S.S.{.S.N.h.d.d.d.( d.d.) ( D Z b b b b v b ] M.(. X]..X.X X(.(.cXrX=.2.qXqX3.=.^ v b b D W ( b g B E W b A V V C C V C V V C C C V V h F y.x q.n.hXtXsXZ.[.2.2.1.1.1.&.wX;.:.=.3.+.%.4.qXtX2.3.3.#.y = . . O + , h h Z k.XXzXcXnXJXDXuXuXyX,X4 - (.nXdXcXnXnXnXMXlXpXpX>.L , `.NX*X*XNXxXNXzX.X X_ ; h.HXHXnXbXtXtXtXF.m d H.IXiXqXqXwXnXMXNX&Xc.N.n K K 5 g a.c.c.9.i.i.l @XP.r.v.I.I.I.r.P.d I GX#.P qXG.4 L L #.#.=.I n n L ' ' *.! ] Z./ {.fX_ M L n / / M L n > n J J > - k 7.6.3 O (.#X#X{.j.A l.l.`.l.oX`.j.j.h V W Z m -  X|.sXv - U f 6.z z c x n 2 < 2 > Z.B.j.A.A.j.j.`.A.`.`.A.A.A.A.`.W `.`.j.}.D N C.D E }.A.Z _.#X|.}.}.}.#XS.M.C.M.L > O > K n 4 > 2 K n 5 v (.).).).).).).}.m.h d.).h.d.s.h.s.) `.) B E E [ ) ) B.) } h.[ } ] { } v ",
"_ / L L 4 > = O O ; N ` M.B.S.S.h.h.h.] ( / W W E D D B g g d g b D ] (.{..X.XdXwX2.[.pXqXqX3.&.B b b D D ( B , B E ) Z Q C V C V V C C V C C C V V h F s., , , , ] fX'.tXpXqXqXqX[.>.rX;.:.=.1.,.%.@.qX[.>.6X6X7X,X3.eXF.U ; - - ; : : d V t.T.zXdXuXZXuX,XJ - (.mXzXcXcXnXmXnXlXpXpX=.N g `.NX*X*XNXNXxX#X.X'.! > k.MXMXMXMXcXzX X(.B g {.DXAXIXAXyXqX|._.W.Q.!.Q.a.V + + A W.c.9.c.i.l @Xx.r.r.v.I.I.r.P.d &.DX#.%.#.P 2 J J P %.X.i J _ L L , dX X, _ N fXjXM n L L L L L M L 4 1 2 y ; - c 7.e.3 + C.#X#XB.k.s.y.`.oXs.D : b j.b f.F : ; +  X|.sXv - U f z 7.z c k L 2 ; > , N.j.`.`.j.j.A.A.A.A.A.A.l.`.`.`.k.`.l.l.).[ N M.v ] }.A.Z }.#X X X_.{.#XN./ ` L , 4 M n n L n L I n + + 5 {.{.).).).).).}.f.x j.).W ) j.) s.k.`.) B [ E ) h.) h.h.E h.[ } ) { ! ! ",
";.' [ / ] ' ' Z.' n ; + O + + v N ( d.d.s.d.s.( D F W b b b b h g g : : g g m ) ;.>.G.VXiXuXpX2.N b b D Z W B , B Z E W W A V V V V C C V V C C V V h D ( : , , g - ] {.[.[.qXpXpXpX[.dX].].[.3.3.,.p 3.:.&.1.3.6X4.[.FXpXpXVXyXX.P > ; - : : : b Z } &.[.3.K + C.MXcXzXnXnXcXMXlXpXpX&.M g `.NXxXxXNXxXxX.X.X'.! > k.MXMXMXMXnXnX.X(.N g |.IXZXAXAXiX[._ v y.l.s.oXOXQ.i.f d l.c.9.z.i.l @XP.I.I.I.I.r.r.P.d -.tXwXqXP #.:.tXJ J X.X.2.F.nX-.I Z.G.G.G.` M._ {.M n L L L n *. XM K 2 1 y ; : c 7.6., + ).#X#X_.W s.Q s.g g ( h.D g s.s.: m g g #X}.rX5 ; m f z 7.6.c k L 2 < ; , B.B.`.`.`.`.`.l.l.A.A.A.l.`.`.`.j.S.j.Y m N ` / , ( N.N.: }.|.{.{.{.}.#Xd.N : - ` d.) h.] ( / S.N.n n Z.Z.{.).).S.S.S.C._.f.h v ) A.s.`.s.l.`.`.) E ] [ [ [ [ E h./ ] M.[ ;.' } } ",
"eXeX].F.F.;.' rXhXdXrX X).M.D /  X*.L n g v b Z W W s.W Z B b b v B b b b h g f h h V D / Z.].:.[ B g Z Z W v , b Z Z W Q A V C C A C C V V C C V V h S ( : g j m g : ` G.1.1.1.3.[.'.dX XtXiXiXiXpX3.qX[.=.3.4.,X@.3.DX#.3.AXyX3.,X3.F.~ v : : - : g g b D N - B.HXnXnXnXnXcXHXbXpXqX=./ , `.NXxXNXNXzXzX.X'.'./ , j.MXNXNXxXzXcX|.;.B g _.JXiXqXqX3.F.' b h.MXiXU.]._.Q.Q.z.z.c.9.z.i.l @XP.r.I.I.P.I.r.P.d Z. X:.:.P F.FXGXvXeXI P -.].sXK ~ G.#.I jXmXZ._ _ L J J _ n n fXfXN Z.4 1 J > : l 7.6., + {.#X$X).g W l.Z Q p.Q A.s.g s.W h h f.Z }.}.sX, ; U f z z 6.x k L J < > , B.j.`.`._.A.`._._.`.`.`._.oX_._.W d.E h.B.E d.Y m / ` n.d |.|._._. X}.#XM., + _ Z.n.Y d.N.d.B.Z.v [ M.h.) ).S.C.S.B.S.C.{.f.x b h.`.j.`.W l.A.`.) } { h.[ E } } (./ B / [ v v } } ",
"bXjXhXiXtXtX].].tXeXtXtXtXtXeXiXLXKXPXvXdX{.M./ B v g g g b Z Z Z D Z Z V b b Z Z b V x f f V F y.Z b V V W v ; m N B W y.9.C C A A C C V V V C V V h Z ( g v v n v , v ]  XqX3.3.2.{  X'.].qXpXiXiXiXbXrX].qXqX,X,.1.DX&.1.iXyX,.1.2.hX3.qX3.$.P 4 ; - ; g D Z Q p.R.&XxXMXMXHXlXqX3.=./ ; `.NXzXNXMXzXzX.X'.'.N > j.NXNXNXMXnXdX X(.v d oXMXMXzXcXtXF.! B j.MXbXU.[.~ { _.%XQ.c.9.a.9.f kXP.P.P.P.P.I.r.P.: *.jX=.I F.JXdXsXcXMXC.~ 1 :.hXj 2 I =.J :.KXV.;.:.K K L '.L / |. XM.' > < P ; : c 7.6.: + {.#XsXC.- m D V u.l.b B , : S V s.W S g }.}.rX, ; m l z 7.6.c S m 2 < > v ).j.A.`._.j.s.`.A.l.A.`.`.`.`.A.s./ / / N m Y ( F ( D f.g #X|.}.}.}.}.#XN.( / / ` ` ` ( j.d.B./ D N.h.] ] ).S.S.S.).).).+X9.x Z N.A.A.A.E A.j._.E } [ { N N M B C.] } ] h.B.B.B.j.",
"bXbXbXbXbXDXbXtXtXtXwXeXwXwX].].JXFXFXFXnXnXnXnXnXdXrXV./ m g : : , h b B Z Z F W F Z Z V V V A A C A A V F Z b b Z Z A l.t.C 9.A A C A V V C V V V x V y.D , n n m n , D C.wXqXqXqX[.>.&.F.2.2.3.[.qXhXrXrXDXVXiXpXeXFXF.2.AXyX,.4.2.wXp ,X6X<X0XBXpX:.K 2 ; : : : d b Q a.&XNXrXqXiX2.L , `.NXzXNXxXxXzXrX].[.L , k.MXxXNXxXxXzX X(.v g _.NXzXNXMXHX X] v ).mXtX[.'.! M N.l.i.c.9.a.9.l kXx.I.P.P.P.r.8.P.d K ;.&.&.:.vXsXrXfXmXM.I 1 dXrX, M.#X X*.L jX*.I #.K I &. X_ L S. XZ.2 #.; 4 ; d c 7.6.: - {.#X#XB.: m b b g ( D g D E b / M.; + n |.|.|.> > j l 7.7.z x T U 2 - > M _.A._.`.}.`.`.l.`.`.j.j.h.s.j.j.B.N.) ( A.A._.j.j.E ( d.g fX|.|.|.|.|.|.h.h.h., Y _ Y g L ] ] [ h.C.M.M.M.{.{.{.{.{.{.{.+XC x F B.k.k.`.W `.l.`.B B E B.) h.B._._.).B.S.B.`.A.B.h.",
"hXbXjXjXjXbXDXtXpXpXpXeXwXqX].qXGXFXFXvXhXcXcXcXcXcXMXzX#X$X#X}.A.d./ m g : d h h V Z Z F W y.f.F F A V Z Z s.s.Z Z E W p.t.A 9.A A A C V V V V V V x V ( g ; ; > 2 n , &.pXqXqX6X6X3.:.>.].qXqX[.[.F.'.(.].pXiXiXiXbXFX.XrXDXiX,X3.F.eX@.3.<X<X0XZXiXU.ZXSXVX,.y 2 : : - : g D D [ V.F./ ; }.MX$XxXzXzXzX.X].[.L : B.MXxXxXxXNXcX X;.B b _.MXzXNXzXF.G./ B _.mXiXU.'.! n S.&Xz.z.9.i.9.f kXP.I.P.I.P.I.r.P.d L n n eXV.'.hXcXjXmX' ].*.dXL g N.%X}.M I jXN ] Z._ G.F.L J 4 ].;.> ] cXM.1 ; d c 7.6.: > {.+XsXZ.; , - b Z Z b Z +Xy., n > - - , #X}.rX> ; j l 7.7.c f T L 4 < > N }.`.`.A.j.A.j.W j.s.E ( W W j.A.k.j.`.`.A.h./ _ g N j.s.b fX X}._.{. X{.` M.*.2 #.U , 2 L / [ / ] Z.M.M.Z.}.{.{.{.{.{.{.{.V C y.k.j.j.j.) `.`.`.B.A.B.A._.).j.B.).).B.B.B._.).B.).",
"vXbXbXbXbXbXDXiXqXuXpXpXpXqX[.qXGXGXFXnXcXcXcXjXvXnXMXzX.X#X#X$X$X$X$X$X#X}.S.B.d.D b g d f V C F F y.y.F F W k.s.W W W g s.9.9.A A A A C C V C C C V V ( , ; = 1 > > @ 3.iXyXyX6XqX3.2.2.].qXqXqXqXqX].' V.].].qXqXtXnX.XtXIXDXiXiXtXhX1.,X3X0X<X0XqX=.ZXZX0X<XqXpX$.X.y ; : - : : g m D : T.NXNXNXNXzXzXrXwX2.K - h.MXxXxX=XMXcX.X;.v b `.MXHXJX].qX].[ E _.MXbXU.[.' 5 ).OXE.z.0.z.9.f kXP.I.P.P.P.I.r.P.d _ dXcXJXwXwXKXjX XJX*.wXFXG., v B.xXxX]  XmXv T.*X_.` L 4 y y < @ L sX+X#X&.+ d l 7.e.- > {.#XsXM.; g g F F V b b f.( + @ 1 @ O M #X|.wX> , k l 7.7.6.x T L 2 ; > / _.A.`.j.( j.Z s.j.s.W s.s.k.A.h.E B S S f d g + - h.s.W ( #X{.{.{.{.}.{.d.Z.Z.> I 2 I L M._ _ ] Z.Z.M.` Z.}.).).).S.).{.).f F |.(.B.`.`.`._._.).)._.S.A.).B.[ { { B.B.h.C.Z.;.[ ] ",
"bXbXbXbXjXbXDXiXyXyXyXyXpXqXqX].GXGXFXnXcXcXmXd.kXH.+X+XD._.#X#X#X}.#X#X$X#X$XmXMXnXcXdX|.C.M.F b h h x V F g ` N B D W Z s.9.9.9.9.A A C A C A A 9.C A ( , 4 > > 1 1 @ 4.iXuXyXyXuXqXwX3.qXqXqXqXqX3.3.>.'.pXpXeXwXwXwX{. XjXiXpXiXcXcXtXbXAXZX7X7XqX%.<X:X<X<XpX3.4.6X3.4.~ ] g , : : v b b Q l.&X*XNXHXlXpXF.~ - B.MXzXxXzXcXcXwX:., h _.MXnXqXqXuXpX' N }.MXbXU.[.;.M B.&XE.i.i.c.9.x kXx.I.v.v.P.I.r.P.d -.].wXG.G.GXvXn n ]., rXGXL J n / }.fXL F.'.B T.xXB., n v E }.B.N }.sXM.M.F.+ f c 7.q.: > {.#X#XN.g S V A V A A h ( , O @ J 4 M C.|. X X; , m l z z 6.f Y U 4 ; - ] _.j.A.j.A.N.b j.k.E Z s.j.k.s.` ; : j g : - @ . K d.W W ( #X{.}.}.}.|.}.N.S.C.n J I Z.L *.C.L ' M.M.` L M.{.).).).).).{.{.g  XPX[.B.`._.}._.)._.).B.B.C.{.] [ B.B.B.N.{ ] [ M.] M ",
"bXbXbXbXbXDXDXiXyXuXyXuXuXpXqX[.FXJXFXnXcXmXmXd.mXm.w.x.0.6.g.g.D.+X}.#X$X#XsXdXcXcXcXcXnXFXJXJXFXcXrXH.] / v g b N : g b s.A 9.9.9.9.9.A A t.9.9.9.A 9.s.V B n > 1 2 > ^ AXuXuXyXuXqXpXU.pXyXyXyXyX6XqX].[.qXqXqXqXpXqX;.Z.[.[.G.].rXdXtXbXDXDXbXbXhX3.6X<X<X+.qX3.| %.,.$.].dX>.>.#.K , : g : : : b W ).(.[.qX~ O (.MXzXcXnXnXcX.XV., g _.KXtXqXqXqX[.L b }.MXpX[.[.' ! ).OXz.i.z.c.9.x mXP.I.P.P.P.I.I.P.: wXKXwX5 2.DXG.; eX:.- rXZ.4 I U _ *.*.K 2 5 / `.NXM.> ~ M g %XxXQ h.C./  XV.+ f 7.7.9.; > {.+XsXN.g V V V V V C y.) / N.{.|.#X#X#X_.}. X: , k c 7.7.6.x Y n J 1 - ] ).j.A.j.k.D b j.s.Z Z s.s.W h.] + O < = > 2 n B ) b D D d.sX|.}.}.|.sX X] Z.Z.I I #.I n J 4 K ~ / *.] ` C.}.).).).{.{.}.S.g fXKXM.S.A.).}._._._.B.B.B.B.B.M.h.{ M.h.N { { ;.C.Z.! ",
"bXDXbXDXDXDXFXDXyXyXyXyXVX,X| 3.FXHXFXvXjXcXGXq.w.x.L.q.D.D.g.g.0.w.g.f.D.l.9.gXmXcXcXnXnXnXFXFXnXFXJXJXJXKX Xg y.y.Q A : y.A t.9.9.t.t.t.9.t.9.9.9.9.9.u.A Z V V V b m 2 pXSXSXSXAXuXpX[.pXuXyXuXyX6XpX[.[.iXuXyXqXqXeX;.rXbXpXqXqXqXwX[.wXpXiXiXbXcX.XdXiXtX[.rX'.u +.,.@.'.'.^ $.$.=.'. XK 4 , : : : d : v ] ! O (.MXmXcXnXnXbXtX:.> g #XKXqXqXqXqXF.M b |.MXiXU.'.} } ).OXz.i.z.c.C x mXP.x.P.P.P.v.I.P.: vXJX2.J F.KXG.n GXeXK &.J I ~ L Z.G.-.&.K K n / C.] M.sX)., xXxXE ] ] ) NX(.- f 7.7.6.; > {.+X$Xj.h A s.A.A._.}.#X}.}.}.)._.}.}.}.|.#X|.; 2 k c 7.7.z h N n 1 2 ; ] k.j.k.j.s.v E h.W s.) Z E Q W s.s.B D d.D k.( b , - d.S N.fX|.|.|.|.sXH._ *.-.I _ *.L + > _ &._ *.*.*.[ C.{.{.).{.{.{.|.N.h f.#Xh.S.N.).).).+X_.).C.C.C.) M.] ! ] M.[ M.[ / { _ ' ",
"bXbXDXDXDXDXGXDXyXBXBXBXVXqX,X4XDXJXFXnXdXzXnXGXfXkX+XD.D.l.g.g.g.6.g.9.6.0.g.gXJXn.L.m.D.+XfXGXnXvXcXcXcXHX#Xb A A C V d f.9.9.9.9.t.t.u.9.9.9.t.t.9.t.s.b Z F Z Z h V h h L -.6XuXAXlXuXAXAXZXZXuXyXiX[.G.iXuXuXyXqXbXV.dXDXDXbXqXqX].F.wXpXpXeXwXsX.XtXtXdXrXzXsX(.[.3.@.'.'.^ 1.4.a rX(.XX[.U.>./ m g d d h W b Q %XNXNXMXJXbXwX:., ,  XDXqX6XqXpXqXM v {.HX].>.[.! } }.&Xz.i.z.c.C V mXP.P.P.P.P.v.r.P.: tXjXwX&.2.F.L ~ dX*._ &.=.:.~ I Z.C.' L J K 4 2 2 L n |.).B %XxX) ] ] s.$X{.- f 7.7.c - > {.+X}.}.}.#X#X}.}.{.).).).}._.xXxX`.`.).M.' ! > j k l 7.7.6.k U 2 > 2 ; ) A.`.A.k.W v j.h.j.s.E E E Z W Q h./ + 4 , , v M / N.S d H.aX{.{.{.{.|.Z._ *._ _ -.n._ n I *./ _ _ _ / / '.}.{.{.{.{._.+XN.V : h.S.N.N.}.B.).}.{.).Z.C.N.C.B.B.S.S.C.C.'.;.M.M.] Z.",
"DXbXbXbXDXDXFXIXyXBXBXBXZXyXqXG.vXJXFXvXdXmXsX:.bXnXJXnX#X$X+X_.oX_.g.g.g.g.c @XHXG m.w.w.e.aX+XH.HXvXvXbXHX|.g A A A A d y.t.9.t.9.9.9.9.9.t.t.9.9.t.u.d.- > 2 m V V V x x 7.z f d f D / [.uXSXSXSXSXAX[.qXVXZXuXyXyXiX:.rXiXjXPXpX[.wX2.tXiXpXpXwX'.].tX].].rXzXzXfXzXzXfXzXfX(.wXqX^ '.{ >.2.>.[.cX>.&.~ M b Z Z g g Z p.W.*XnXtX'.> ,  XUXqX,XpXiXwXM g ).nX[.>.V.! M `.W.z.i.i.c.x F mXx.P.v.P.P.I.r.P.: hXGXwX-.G.:.eXF.' wXG.F.wX&.L N }.xX}.L ~ &.M rXhX4 O M rXN M.Z.` M.).v $XC.- l 6.e.G - > {.}.}.}.|.|.}.}.#X$X$X#X.X}.Z.M.' 4 5 < @ @ o   1 k c 7.7.6.k J 2 1 2 > s.W s.`.j.v b h.N.( v b v g g b B g D ( s.A._.+X$XoX$Xg : {.|.{.{.{.{.#XM._ I I -._ -.Y n ' *.*.M.C.C.).).}. X{.{.{.{.{.+Xd.S : N.}.N.{.|.).{.}.}.{.C. X X#X}. X}.).C.{.C.B.).{.).C.",
"bXbXbXbXbXDXDXDXyXBXyXBXZXyX,X3.bXHXFXvXdXmX|., M |.dX, }.h.}.}.}.$X$X$XfX$XN.mXmXg.w.w.I.e.kXm.q.GXmXvXvXHXaXg 9.y.t.A d f.u.9.t.t.9.t.t.t.t.t.9.t.t.t.p.V b - O , m G 6.w.7.7.0.8.l d f f d h Y :.qXiXqXiXIXSXZXuXyXDXV.tXiXiXIXpXqXiX2.pXpXpXqXqX[.>.wXwXwXeX|..XrXrXrXfXxXxXzXxXcXrXdX'.^ 5.5.>.eXP >.1.&.tX'.L ! n - : : h Z s.d.g - rXLXiXzXMXnXV.v g C.JXlX1.F.L v _.c.z.i.i.c.x n.kXx.P.P.P.P.I.I.P.: hXV.J G.KXwX&.*._ KXeX:.2.#.I N S.xX+XL I ~ M Z.hX].I > *.'.[ Z.M.|./ > ;.&.+ l 7.7.6.- > }.#X+X#X#X#X#X+X).M.' L J 2 < & o o o o o o @ - : f 6.7.7.6.k J 4 > 2 > ] b B E h.g g Y n : , b b / d.N.).+X#X$XzX$X$X#X#X#XaXd d |.sX X X|.|.sXM./ *.Z.Z.C.{.H.{.|.}.}.|. X{.{.).{.}.}.|.}.|.}.$Xd.S : #XfX|.dXsX.XsXsXsX|.|.#X|.}.|.}.{.Z.;.;._ &.&.~ K K ",
"DXbXbXbXbXDXDXDXyX3XBXyXBXyX,X3.jXJXFXvXdXcX XL {.'.dXM sXB B.} h.B j.zXB.(.fXzXHXJXJXHXGXH.+XL.f.mXnXvXvXGXaXg W t.9.y.d f.u.u.u.t.t.9.i.t.t.t.t.9.t.t.a.9.A A b : : ; d d f l l 9.9.6.q.f f.f.d f d f h Y F.pXVXZXSXIXqXiXDXVXDXiXqXiX2.pXpXuXpX[.tX:.wXiXtX]. X'.wXtXrXtXsXfXfXzXfXzXmXmXdX'.>.2.wXa ^ %.^ tX>.$.4.>.'.{ N g : d V F b E #XNXMXMXHX'.B b ] FXpXU.2.! N A.i.z.i.z.c.f +XkXx.P.P.P.P.I.P.P.g :.~ eXvXPXFXFX&.FXvX#.:.=.-.L L #X%X`.M =.K > ;.].G.P K > h._.}.#X' , n K y + l 7.7.9.; 5 |.|.).B.] ~ K 2 1 @ . o o o . . . + ; : f f c G G T d.M.*.: n n 4 > 1 , Y v v g , b b D ) j.`.+X$X$X$X$X$X+X$Xl.g.g.L.V oX$XaXd : aXsX|.|.|.|.|. X|.sX|.|.}.}.}.}.}.}.{.}.}.}.}.{.{.).C.M.] ] / m F D - ). X(.(.V.V.V.:.&.&.&.;.;.:.:.&.&.' ;.*.M.C.M.B.B.B.",
"bXbXbXbXbXDXDXIXyXBXBXBXZXyX,X3.iXJXFXvXdXcXrXsXnXM ;.! V.> [ M./ E ).gX/ M ! ' F.V.'.rXtXFXKXKXKXGXnXvXcXHXsXg 9.y.t.y.d y.u.i.i.i.u.t.i.i.i.u.u.t.9.t.u.A t.9.Q j.E } M ; : : - - d f x x F y.V S x h x h f f h d.h.).C.dXDXIXIXAXuXiXU.pXuXuXyXqXpX3.pXDXiX[.qXF.wXtXrXtXrX|.rXrX.X.XzXzXzXxXzXzXzXV.:.&.^ tX$.@.$.>.cX].U.(.#XQ B ( d.b : h Z `.sX Xv v ;.KXpXU.2.L } W A u.9.c.c.l kX@Xv.P.P.P.P.I.P.L.g F.vXLX].wXtXG.tXdX~ KXtX~ #.L / S.$X}.*.:.K 4 C. X_ P P ; B NXNXs.> _ / M.a + l 7.7.c - K ^ 5 < & @ o o       @ @ - 3 j L ` d.N.Z.C.V.V.:.>.#.^ #.1 . a y 4 2 2 - Y ( D N.).}.$XgXgX$X$X#X`._.l.l.%Xy.i.0.0.i.K.y.D.+X$Xd : sXsX|.|.|.|.|.}.#X#X#X#X#X|.{.{.{.C.B.] ` L L J 5 > I L ] _ v b F S : K 4 P P ^ #.*.;.;.Z.C.{.}.}.}.|.#X|.#X|.{.}.}.).B.j.",
"bXbXbXbXbXDXFXIXZXBXBXBXBXyX,X,XiXJXFXnXcXdXcXcXzXmXnXfX}.}.(.) ) B h.zX[ ! ] C.eX;.&.L K F._ wXL dXFXbXvXHXfXh W y.A A d y.y.9.9.9.9.9.t.u.i.i.i.i.t.9.i.u.t.t.Z N , n ! = qXAXyX3.O.k d d d d f x x V Z A A V V V h f x C Q h. XtXiXDXyXAXSXZXuXpXiXF.qXPXbX[.tXqXiXpXtXpXeX].2.tXdXdXrXrXsXzXzXzXxX#X.XXX(.zX:.$.>.>.tX;.>.zXNXNXrX:.~ ] Y b V h d S v - #.PXAXyXqXK } W Z C C c.a.C mXP.P.P.P.P.P.x.P.P.m FXtX].wXvX4 *.jXF.LXDX&.&.I 4 C.N.+X_.L K K ~ ' Z.&.K K ; s.$X( v N ] h.{.K - c 7.7.c j @   X       . < w I &.C.'.'.{.{.'.V.>.#.p 0 $ X         q = @ K n 2 2 2 - ).$X`.$X$XoXK.g.g.g.9.0.0.0.w.g.oXf.g.D.`.`._.}.}.#X+X: g cXfXfXsXsXsX.X}.{.S.Z.*._ L Z.;.n ; < 1 K K J K J K ` n.( N N S f.V W }.}.#X$X$XfX%X%XgXxXfX$X#X#X|.#X#X{.|.|._._._.B.).A.",
"DXDXDXbXDXDXFXIXVXBXBXBXZXZX,X,XiXJXFXvXdXjXcXcX! M {.cX).).$X$XfX$X+XzX}.}.M.*. X! ' tX_ :.tXJX*.cXFXvXvXHXfXb y.t.t.y.d A Q.!.~.E.z.i.t.6.6.6.9.9.A 9.u.9.u.u.F N > 4 4 = 4.IXAXSXIXDXpXpXqX2.I k d d d f h V V V V V V V x h f h f.F ] G.uXVXAXAXDXqXpXDXiXqXtXqXiXpXiXiXtX[.3.pXtXwX X'.Z..X}..XsX#X.X).(.xX_.{..X'.dX{ .XNXNXNXMX X! dX'.Z.C.d.f.W Z W b b &.3.[.[ [ E Z h f c.i.u.kXP.P.P.P.P.@Xx.P.K.m KXvXeXwXDXiXJX[.PXhX#.=.P wXnX{._.$Xh.L #.~ K ;.C._ K K > ) $X`.h.]  Xh.C.5 - f z z l - @ y P &.V.'. X X X'.:.&.I y % X         o < J L / h.).Z.y < - K 4 2 4 J - B.$XA.D.g.y.g.g.f.c.i.l.K.A._.`.`.}.}.#X$X#X#X}.}.#X#X: k  XN.Z.` I J j I j d j H 2 I Z.|.' 2 J ~ L n J K J L n ;.n K L T f.b j.xX%X$X$X$X$X+X$X}.}.#X}.#X}.#X}.}.}.}.}.).).`.).`.(.",
"DXDXDXDXDXDXFXIXVXBXBXBXZXZX,X,XpXJXFXvXhXjXdXnX|.Z.V.K M v }.#XE M.M.}.#X#XzXMXnXnXvXJXV. X_ rX].nXFXnXvXHXfXb u.u.9.y.d Z !.*X^.~.^.^.^.^.!.~.E.i.9.C 9.9.9.t.F N , M M 4 @.AXuXiXiXiX6XAXIXSXSXSXVXuX2.I j : d d f h V V A A V V x h f f f V ( M. XqXuXSXSXVXiXiXPXpXiXiXiXwX3.iXtXtXwX|.rXcXfX{.{.(.).).`.}.}.(.'.'.zX$XNXNXMXxXMXzX5 hX'.G.'.rX XM.M.( F V h h D ) ) B b g d l.g.l.@XP.P.P.P.P.@XP.P.m.T KXJXtXbXLXKXqXtXeX&.:.&.~ Z.hXfXfXxXB.! &.*./ ] V.~ K K , B `.`.W v ! v ;.> > Z.S. X|. X|. X'.:.#.i q o X     . O > J / h.j.`.oX&X$X%X%X%X&X$X;.> ; < L j 2 n n - B.%Xl.f.D.j._.`.l.`.`.`.$X}.$X$X$X$X$X}.}.}.h.).#XfX+X: d d T 3 O < 2 3 n.T T I I I L j rX*.2 J J ; + J K j L  Xh.N.M.m Z f.h A.$X_.+X}.}.+X+X#X$X`.}.+X$X}.#X#X$X$X#X#X$X+X+X+X}.}.",
"DXDXDXDXDXDXDXIXVXBXZXBXBXZX,X,XpXPXFXvXcXzXcXmX.XZ.'._ n ! #X#Xv n N C.! M V.V.*.rXcXsXHXGXJXJXvXFXnXnXvXHXfXb s.t.9.y.d A ~.*X^.~.!.E.E.!.!.!.^.^.^.^.*Xa.A y.W B M ! ! K a AXVXVXiXiXU.iXAXVXVXAXAXAXVXVXSXSXZXqXL v d d g g h b h b V F x f h f d h V E ;.].iXiXAXAXAXAXiXpXqXpXiXtXtXtXKXbXtX X[.[ rXnX{.B..XfXfX(..X XnXJXJXJXGXtX~ dXG.V.F.sXaX XwX].F./ / D B Z b g b h : j.u.K.@XP.P.P.P.@X@Xx.P.K.` KXGXbXLXPXG.:.G.Z.wXtX&.#.K _ #X`.$XN._ *.*.N / V.~ K K , B E oX) > ; , ;.; 4 ].>.^ q & o     o @ 2 n / h.A._.oX$X%X%X$X$X$X%X$X$X}.`.B.) `.#X' > = > K n 4 J n ; ).#X}._.#X#X#X#X$X#X$X}.oX`.T.l.j.j.h.[ h.B.B._.#XfX{.: k T n.Y j I I I n.m I I O.I U n / L 2 2 1 O < J 1 2 n I J 2 J 2 V f.h }.xXxXxXxXxXxXxXxXxX%X%X$X$X#X}.}.).(.B.M.;.;.&.~ ^ ^ ",
"PXFXDXDXDXDXFXIXVXBXBXBXZXZX4X,XpXPXFXnXcXdXcXjXdXdXsXfXM.v ).#XN M _ ! { [ ' ! cXC.'.{ '.{ '.;.HXFXnXnXvXHXcXb y.A A y.d Z ~.*X^.^.^.^.^.^.^.!.~.~.~.^.*XR.V 9.W B ! M ! K p DXVXVXiXiXU.iXAXVXVXVXVXVXqXuXAXVXSXIX].).C.h.[ N v g d d g g h h D V h h h d d f f b Y -.G.pXAXAXuXiXiXiXiX].hXJXnXrX[.(.JXKX(.{.:.^ [.wX XzX.X'.rXzXbX].M.xX|.{.C.sXrXG.F.tXtX[.>.[.Z.} E B B b : F W +X@XP.P.P.P.P.P.x.P.g.D vXJXKXjX=.=.G.:.G.eXhX:.#.#.I n B.$Xs._ &.K 5 / Z.! K K > ) k.&Xu.v M E }.> 4 *.- - n ! h.B.`.}.$X%X%X%X%X%X$X$X#X_.k.p.NX) , = @ o X   . (.#X~ 1 @ 2 U 2 2 L n - ).#X#X).B.}._._.B.B.s.k.`.s.) `.j.h.}.}.#X#X$X#X#XfX|.: H n.-.-.U O.O.O.-.H U I U H j U ; j 2 J K I K L -.I 2 w 2 2 y j V A g ).}.B.B.{ ] ' ' ~ K K y y t * t ^ P ^ t @.a a a 1 5 P ",
"wXFXJXDXDXDXFXIXSXBXZXBXZXZXyX,XqXPXGXnXcXcXcXjXcXcXmXcX$X#X#X#X}.}.|.] {./ ] Z.*.Z.&.M F.> G.&.vXFXnXnXvXHXcXV y.9.9.y.h V !.OXa.R.E.~.!.!.!.^.^.^.^.^.*XR.V 9.W B M K ! ^ ^ iXVXiXiXiXU.uXAXAXVXVXVXVXpXuXAXZXVXAXtXsX#X#X{.C.M.;.] / N v g , : g h h x V V S h h d S V h b N &.[.pXlXDXpXpXlXiXtX].'.MXHX(.rX%.+.4.6XpXU.AXLXbXdXnXcX{.fX$X}.}.xXfX}.'.tXtX[.>.tX(.E [ v b b : g D +XL.P.P.P.@XP.@Xx.P.w.g ].wX].#.LXeXG.V.V.sXdX&.~ :.F.] ).$Xh._ -.L v ] C.' ~ ~ v k.`.h.L L K y y . K C.).$X%X%X%X%X%X$X+X`.j.] / v n > O . O B %Xn 2 ! &.~ &.>.n }.#X~ 1 + 2 L 2 n ~ n ; _.#X#Xd.h.h.) h.h.).(.`.$X$X$X$X$X$XzX$X#X.XsXfXfXxXaX: H O.H : w H H U I -.-.I -.#.U U I Z.U I -.-.U I I L J K L K I L f.D.C.> . & # 0 * * & * a y y = y y 1 P K K 4 4 4 4 y a 5 K ",
">.K wXFXDXbXbXDXDXBXBXZXZXZX4X,XqXPXGXnXvXcXjXjXcXjXcXzX}.}.}.}.$X+X`.xXxXfXmXMXdXcXrXrX X].'.~ jXHXvXnXvXGXmXb y.9.t.y.d C W.*X!.~.~.E.~.!.a.~.~.~.^.^.*XR.V y.s.B M ~ M ^ a iXAXiXiXiX3.iXAXVXVXVXVXVXpXpXAXVXAXAXtXsXsX#X.X X{.'.'.(.C.Z.M.*./ Y m k d d d d g g g _.$XoXl.a.t.V h b / >.3.7XyXAXiXwXFXnXV.rX%.@.6XVXiX2.LXLXLXpXIX[. XfXMXzX#X$XgX$X#XzXdX'.K rX'.B [ / E h : N N +X@X@XP.P.P.x.P.P.r.9.m :.-.-.hXJXG.F.F.:.dXdX-.=.wX:.L M.M.[ ! &.L n ! _ K 4 y y * # $ X X   * @ O > [ (.$XB./ L 2 ; @ O . . O 2 I ; , M.h.h.T.%X_.h.] _ n I J , }.#XK 1 + J K , , &.n ; ).#X}.).#X#X#X$X$X$X$X$X$XoX`.`.`.).B.(.C.C. XcXdXmXaXd U U U U U H -.4X-.G.G.O.-.-.U I U U J H 2 J J J n U I I I I I J C.fXhXO 5 &.P &.&.&.>.&.=.=.:.:.:.>.:.V.V.F.G.].].].wXeXtXtX",
"LXqX+ tXFXDXDXDXDXBXZXBXBXZXyX,XqXPXGXnXcXcXcXjXcXzXcXzX}.}.+X+X+X}.B [ ;.'.{.sXdXzXmXMXHXJXKXFXGXFXvXFXvXHXmXb A 9.t.y.f V E.^.^.~.!.!.!.!.!.!.~.E.E.E.*XW.x y.s.B ! ^ 4 K 5 [.DXiXiXiX3.uXAXVXVXVXVXVXpXpXAXVXAXAXhXfXfXsX.X.X.X.X|.|.|. X X{.(.C.V.:.*.&.G.J m : - S.`.l.T.oX$X%X$XoXl.y.b g g / :.[.bXJXwXlX4.,.,XIXpX$.IXIXlXwXqX%.5 |.{.)..XsXMXmX+X#X|.'.K tX{.B E h.d.g : ( D +X@XL.L.@X@X8.x.x.l x ` FXbXLXLXwXwX].F.*.Z.*., n v ; ; - ; 2 2 = @ @ .   . . . o # # @ < 2 K a O H : N ).fX, . 1 w I 2 L C.).}.(.Z., / {.C.M.> _ C.> > = = K ! / +X#XJ 1 + J J 2 4 _ > , }.}.}.#X}._.}.}.#Xh.s.T.j.k.j.h.}.}.).fXzXzXzXcXcXnX|.: U O.O.O.O.O.-.-.<.<.-.<.-.o.I U U U U I U I _ U U U J U J J w ; H.fXtXhXhXjXbXbXbXbXvXDXvXFXdX|.GXFXnXFXFXFXvXFXnXvXvXvXvXvX",
"JX[.; L vXGXDXDXIXBXBXBXZXZXyX,XqXIXGXnXvXcXcXcXzXdXcXzX.X}.}.}.}.#XM.] n ! ~ K K 4 nXZ.' ;.rXcXGXFXFXvXbXGXmXZ y.9.9.y.g h E.^.*Xa.a.~.E.!.~.~.~.^.~.^.*X~.V y.y.D ! K M ! a >.DXVXiXiX3.pXAXVXVXVXVXAXpXpXAXVXAXAXbXcXzXdXsXrXrX.XrXrX.X|..X|.|.|. X{.'.[.bX2._ N , ).k.l.l.T.`.oX$X$X$X%X%X&XoXp.F V g ( M.].6X6X7XSXlX@.6X6XtX].3.>.} sXV.;.V.|.}.}..X.X.X|.(.).B.E E h.d.g V f.Z +X@XP.P.@XkX7.x.x.l G Z.vXeXhX*.! ! K 5 + > > n ~ #.&.:.F.;.:.K > @ 1 2 J K ~ _ [ j.+X`.`.}.#XK O U : E ).fXB '  X{. XL n ;.C.Z.M., , ] M.C.! 5 ' Z., ! ;.M ' _ N #X}.4 1 + J n 2 5 ] > , |.#X#X).{ h.) B.}.).}.`.}.}.$X$X$XzXxXzXmXcXcXcXvXHX|.g O.O.-.-.-.-.-.-.J.J.<.J.<.<.o.I I U U J J 2 n J J J H 2 2 2 3 - H. XrXLXPXPXPXPXLXKXPXPXJXKXdX'.FXcXcXdXtXhXtXhXhXhXhXtXtXdX",
"&.2 g Y tXJXDXDXIXBXZXCXZXVXyX,X4XPXJXnXnXcXcXcXzXdXdXcX#X}.}.}.}.#X_.}.}.M.N.C.' _ nX X;.;.' F.GXFXvXnXvXGXmXD t.9.t.y.h b W.!.E.E.p.W.E.!.a.~.R.E.E.^.*X!.x y.y.E ! K ^ ^ 4 #.DXVXiXiXU.iXAXVXVXVXVXAXpXpXAXVXAXAXbXcXcXdXdXdXdXsXrXrXrX.X.X.X.X|.|.|.}.|.dX'.;.] [ ).l.l.l.`.oXoXoX`.`.oX+X$X%X$X$X+Xd d d d d h Y ;.].U.yX6XlXiX4.%.N #XC.).(.fX).|. X X&.[.[.[.(.h.B S.d.: C f.g D.@X@XP.@XkX8.P.w.l n.M = = = = a ~ :.:.:.'.'.C.N.N.f.G x x V : / B.}.fXxXgXfX#X_.%XNX#X_._.#X4 O U - E ).fXv [ C.] Z.! v  XB.]  XjX, L sXN M.).xX{ > '.M.~ ' > v $X{.> > + K 4 2 n ' ; v #X.X#X}.}.sXsXfXzXmXmXmXzXzXfX$XoX&X$XfXfXcXnXcXnXHXH.T -.O.O.O.-.O.O.-.-.-.O.-.2.<.I U J 2 2 2 2 2 2 2 2 2 H 3 H U J J rXjXsXC.;.M.Z.C.Z.Z.V.V.Z.Z.C.V.;.;.*.' [ ! ! M M , v n m - ",
"> ; T n.FXGXDXFXIXZXZXCXSXSXyX,XqXDXDXnXnXnXnXnXmXmXnXmXfX#X#X#X}.}.#X#X$X$XfXmXmXcXcXcXdX].].].JXDXFXvXnXGXMXD A t.9.y.h b E.*XQ &XR.E.R.!.~.~.R.a.~.^.^.!.V y.y.B K ^ ^ ~ ! ^ AXVXVXiX[.pXAXAXAXVXVXAXpXpXAXVXAXVXbXvXcXhXdXdXdXdXsXdXsXsXrX.X.X.X.X|.|.|.hXwX(.).N.}._._.`.D.g.g.oXoX_.+X$X`.+X$X$XA.: d g f f f f h d h b D N.{.>.>.' rX'.wX XsX).fX#XdXU.tXiXrX{ #XB B.) : V y.h.xX@X@XP.kXkX0.r.7.l L.H.G.aXaXmX@Xf.9.6.c f f f f f f l G q.h : B.fX$XsXB.s.S.+X).`.%X( ; Z fX2 O U : E {.fX, ! ;./ M._ > C..X(.! ] - ; ;.J M B B.> = > = I 4 > ] $X).> 1 + J J 2 n _ - N fX#X#XfXzXfXsXzX|..XrX|.{..X).)._.$X$X$XfXcXnXnXnXHXH.T O.O.O.o.<.<.O.<.<.<.<.o.O.o.J H J j J U J U U K I I I I -.~ I K jXjXC.b , g Y N B D m v g g g d g : m g S f G q.T H.'.cXm.w.",
"eXwXZ.{.JXFXDXGXIXZXBXZXSXSXyX,XyX<X<X3XSXyX>.V.'.'. XfX.X}.#X$X$X$X$X$X$X$XfXzXmXcXcXcXnXFXHXJXFXFXvXnXnXHXMXD A 9.9.y.h h a.*Xb W.*X^.^.^.^.!.E.E.E.R.^.OXV F W E ! ^ ^ ~ ! K iXAXVXiX[.pXAXAXAXVXAXAXpXpXAXAXAXAXbXvXbXhXhXhXhXhXdXdXdXdXdXdXsXsXsXrX.X|.hXtX(.).M.}..X#X+Xl.A.l.A.+X_.$X|.- W $XgXj.B ` b b d d d f h x h f f f V F F B.C.rXtXcX'.cXbXtXU.tX' .X`.%XE N.( d A V dXKXL.@X@XkX@X0.r.7.z K.HXmXkXkXkX0.l l z 6.g.H.aXdXjXjXjXvXG.- : {.S., - v N.+X}.B._.{.Y : d.fX1 O U : E }.sX> v ] / *.I - ; P - > n M > 4 4 > B j., 1 . 1 > > L V.sX XX.* ; L J 4 n _ + _ cXsXfXfXsX#XfXzXsXsXrXcXvXcXnXMXHXnXmXmXMXmXmXzXsXZ.S.*.O.O.O.O.-.-.O.-.<.2.2.<.<.-.I U J y J y i i i i y y J J K _ L Y fXfX|.m N Y v ` T S h D.q.m.g.m.aXq.w.x.K.L.w.P.m.L.D.mXg.K.",
"tX[.[.wXJXFXDXFXPXVXBXCXZXSXyX,XyXBX3X3XCX3X#.! ! ! ! ! ! ! ! [ [ { M.B.).{.#XzXmXnXGXHXnXFXJXJXFXFXFXFXFXGXMXW A 9.9.y.h h a.*X!.^.*X*X*X^.^.^./.*X*Xb ~.*XV A W E ! ^ ^ ~ ~ a pXDXVXiXU.pXAXVXAXVXAXAXpXpXAXSXAXVXDXvXbXbXbXbXbXhXhXhXdXhXdXdXdXdXrXrXrXrXhXtX(.).B.}._.D.oXA.A.A.( _.$X$X|.: D $X%X) &.IXIXAXuXqXZ.( h f d f f x x x l l l 9.g.K.`.fXnXiXU.AXU.].(.`.Z s.D d V A Z gX@X@X@XkXkXw.w.7.7.P.kXkX@XkX@X@XgXgXmXHXPXKXKXPXFXcXzXfXb d : aXd.: h.#X$X#XA.`._._.m - d.fX; O U - E }.sX; > L L n L ; + 1 - 2 K n > 1 y + Q k.> > O y = = O ;.fX].p # ; L K n n ~ O ;.mXfXzXcXcXnXFXGXJXJXJXFXnXnXcXfX|.{.C.d.) W Z b g ` C.n.-.J.-.J.J.<.<.<.<.-.<.o.o.X.H j j j m S G 9.w.g.x.c.K.P.K.oXoXoXfXnXhX XhXnXJ.kX+XkXL.kXaXkXL.L.+X$XS.+X}.#X.XsXfX X.X.XXX.X",
"hXjXjXDXJXGXFXGXPXVXBXCXCXZXBX,X4X3X3X5XCXyX=.*.' ' _ *.*.' ~ ! ! ! ! K K K M K ! [ ;.Z.'. XdXcXFXGXJXKXKXKXKX( t.t.9.y.h h a.*X^.!.E.~.~.~.E.~.^.^.^.!.^.*XV A W D ! ^ ~ ~ ~ K [.DXiXiXqXiXAXVXAXVXVXAXpXpXAXAXAXVXDXvXbXvXbXbXcXcXbXbXhXhXcXhXdXdXdXdXtXtXhXtX{.{.C.#XK.g.( h.A.j.j._.$XgXoXy.l.$X%XW &.PXIXIXIXIXIXIXIXAXqX:.( C V C C 9.C z 7.8.v.v.c.Q.oXxXKXtX5 5 v E D g h y.E %XL.@X@X@XkX8.8.7.z K.GXkXkXkXoXf.HXGXGXPXPXKXLXLXLXKXJXmXm : , }.B.#XfX+X}.).}.`.s.A.b - j.sX- + U - E |.|.; > K K O 4 2 2 y ; ; 2 > + O 1 O W k.> > J &.4 ~ n M.fX'.a @ 1 I U n J _ O rXMXnXnXcXdXsX.X).).B.j.s.Z v b g g : h V V F h h / fXN.Y T T I I I U ` Y ` ( d.D.f.g.i.i.a.i.c.c.c.Q.P.v.P.P.P.c.P.L.K.+XmXdXwXJXJXJXaXaXfXfXwXdXdXdXsX.X#XsXzXzXzXzXrXdXcXzXdXsXcXvX",
"PXPXKXPXJXFXDXIXPXVXBXCXCXZXBX,X4X3X3XBXCXyX[.'.V.V.V.M.;.' ' &.;.' ] ] ' ' ' ! ! ! M M M M n K 1.,.$.$.:.G.|.W t.u.t.y.h b a.*X^.^.^.^.!.~.!.~.~.~.E.~.!.OXC 9.W D ! ^ ^ ~ ~ K >.IXDXlXqXpXAXAXAXVXVXAXpXpXAXSXAXAXDXvXvXcXbXbXbXbXvXbXcXbXbXbXcXhXhXhXdXdXhXtX|.|.(.sX}.+X_.A.}.`.).N.E +XK.u.l.oX%XZ 2.qXtXjXiXlXAXIXIXLXLXIXhXfX#X+X_._._.H.D.l.z.v.v.v.v.v.Q.OXc.l.k.W b : d b ( gXL.@X@XkXkXK.L.aXw.P.mXkXkXkXD.f KXLXLXLXLXLXPXHXnXcXxXfXb d v }.#XfX$X`.#X$X_.}.l.oX_.b A.sX+ @ H - E #X{.v K > > > > 4 1 < < 1 > O . ~ L v `.k.+ 1 #.K _ _ + V.dXF.2 = 2 L J n n 4 > {.C.d.) E b b Z V b b g : Y / ( d.|.{.H.fXS.n.` / d.+XN.m n.J.n.` n.n.n.h.`._.oXoXl.l.l.c.c.a.i.c.&XOXP.x.x.v.P.P.K.K.oX$X#XC. XGXFXvXvXvXnXnXvXvXcXcXbXnXcXcXmXcXzXcXcXcXzXfXsXcXdXtX",
"DXJXhXn DXKXIXIXPXDXBXCXZXSXZX,XyXBX3X5XBXyXtXrXwXwXrX XV.Z.V.V.V.V.C.B.B.M.Z.V.V.Z.V.V.*.*.:.2.4X,.| X.i y n Z t.u.t.t.h b u.*X!.~.!.!.^.^.!.^.^.^.!.^.^.!.V A W E ! ! ! ~ ! ~ #.iXDXDXuXAXIXSXSXAXVXDXpXuXAXAXAXVXbXbXbXbXbXbXbXbXbXbXcXbXbXbXbXcXhXhXhXhXhXhXtXrX XrXsXfX+XD._._.oX+X+XfXS.: F +X%XV G.G.S.}.}.}. X X|.wX XH.fXfXfXmXnXnXnXFXGXJXJXGXmXgXOXQ.z.Q.&X%X@X%X%XoXf.A h.fXK.@X@X@XKXLXLXKXkX@XmXmXkXkXm.S KXnXC.N.g.9.i.Q.c.l.$XgXg d b #X_.`.`.`.+X%X}.$X$X_.oXZ `.#X+ < H - / #X{.+ K 1 2 2 J J 1 + _ Z.*.*.> _ Z./ `.) > P ~ 2 4 > O '.dXZ.1 * 2 _ K 4 K J , m d f k f d : : ; : ; ; - C.d.` ]  X|. X XN.( s.F ` ) ( ( n.T d.d.n.A.N.f.F j.l.A.D.j.D.` L L S.oXOXOXP.x.x.P.x.c.K.K.D.+X+XM.wXHXFXnXFXhXtXhXbXnXdXnXbXbXrXcX|.{.mX}.(.(.{ rX{  XV.G.",
"] Y d d G.PXFXIXPXIXBXCXCXSXZX,XyXBX3XBXCXyXtXtXrXeXtXrX'.'.].'.{.{.{.{. X'. XrXrXrXrXtXrXrXtXiXyX,X<.$.@.=.] Z t.t.t.y.h h u.*X!.~.~.E.~.!.~.E.E.~.E.E.^.*XC A F E ! ^ ! ! ! ~ ^ #.^ P K #.3.AXyXAXAXIXAXAXIXSXSXAXDXbXbXcXhXhXhXhXbXhXdXcXbXbXbXbXbXbXbXhXhXbXhXdXrXrXsXfX$X_.D.oXD.$XgXxXN.x V +X%XV '.vX X|.|.|.|.|.|.}.{.S.+XK.oX+XL.kXmXHXJXPXLXLXKXLXKXKXHXMX@XoX%X%XOXOXOXQ.$X+X@XkX@XaXKXLXLXKX+X@XmXkXkXmXm.S KXG.@ U h D.%XgXl.y.$XgXg : b +X`.k.$X`.j.%X_.$X$Xl.oXb `.#X+ < H - / sXC.O > 2 w J J > = 4 :. XZ.;.*.- > > k.h.M 5 = 4 #.> O {.dX:.1 < J Y n 4 K U n n.T h x R k k k k h T G f N.( ] ] ] d.}.B.B.{.N.` d.j.d.d.M.( F f.F F F g.f.y.j.A.).C. XF.F.^ 2./ oXOXv.v.v.x.x.x.x.K.g.K.+XM.rXJXnXnXFX:.G.].eXV.'.|.' rX:.'.' |.xX(..X(. XcX X X:.tX",
" XZ.n.*.hXPXIXIXPXIXBXCXCXZXZX,XyXBX3XBXCXBXuXpXpXpXtXtX].'.'.'.{.{.{.{. X X.XrXdXdXdXdXdXdXnXDXyX<X4.%.@.&.n.F t.t.t.9.h h u.*X!.^.!.^.^.~.!.!.!.E.E.~.^.*XC A W E L ! ! ^ ^ ~ K tXLXa + tXqXiXO J IXqXL F.%.uXAXiXIXDXFXGXFXcXcXnXhXhXdXdXhXbXbXbXbXbXbXjXiXbXhXdXrXrXsX#X#X#XsXfXfXfXfXxXl.g.i.oXgXZ ].hX X|.|.rXrXsX|.sX|.}.+XK.K.g.g.K.mXzXnXKXKXLXnXmXHXHXKXLXLXKXJXMXNXNX%X&XmXfXgX@X@XkXLXLXLXKXL.kXmXkXkXkXm.S KXqX^ ' ! JXJXmXmXxXMXsXg : N #X}.h._.+Xh.}.+X$X`.k.Q Z _.|.+ < J ; ) fXZ.+ 1 P 4 K K > > 2 K _ K O ; > 5 2 N N > 1 = 1 P 4 -  XdX' > > U L n 4 K J n / n d : : : - - - , ` d k f.T ( M.D ) ).S.S.sXrXC.B.N.S.f.V q.C G G G x V l.A.`.A.j.{.>.>.F.[.1.K oXOXx.i.x.x.x.x.x.x.x.L.D.D |.JXnXvXvX].FXhXtXwXbXtXrXcXdXvXfXzXzXcXzXmXzXmXMXcXcXFX",
"JXDXPXPXPXFXFXFXPXIXBXCXCXZXBX,X3X5X3X3XCXCXCXBXBXCXCXBXyX,XqXqXqXqXqXqX].].{.rXrXdXdXdXzXdXnXFXyX,.| 1.1.$.M.F y.u.9.9.V h t.*X^.^.^.^.^.^.^.^.^.!.!.~.^.*XA C W E M K ~ ! K ^ a =.LX@.4 DXIXDX= J GXO I aX+ -.~ > FX~ _ ' G.nXhXwXvXcXcXcXnXFXvXbXvXbXbXbXiXDXjXhXsX.X}.}.#X|.#X#XsXfXzXxXV h V +XxXb {.hX XrX|.|.sXsX|.aX|.S.%XK.+X+XK.oXmXfXS.aXhXKXcXmXmXMXHXHXHXGXMXmXmXMXmXMXMXgX@X@X@XkXKXLXLXKXL.kXmXkXkXmXg.F KXG.K L ) mXmX$XxX+XxXsX, : N #XA.+X$X_.j.+X$X_.l.`.b g |.{.O w J ; ) fX*.+ #.K ; > 4 2 O ; ! v L M 4 5 5 2 > > < @ = > 1 = > rXjX! > > L L K K K 2 n fX/ , E E h.h.k.A.N.: f x T S T H.d.d.h.N.N.N.|. XZ.] A.D F F C G C C G V F S.`.B.B.|.iX=.[.G.C.`.W.&Xx.0.0.x.x.v.P.x.x.K.N.b rXGXbXvXvXGXGXFXJXJXJXGXJXHXnXnXnXnXnXnXzX$X.XzXzXrXcXhX",
"FXPXPXIXIXFXFXFXJXIXBXCXCXCXZX,X3XyX3X5XCXCXCXBX5XBX3XBXyX<X<X5XBXBXBXBX4XBXBXBXyXyX4XqXyXyXiXVX4X+.8 p %.&.] W 9.t.9.9.h h u.*X^.!.^.^.^.^.^.^.^.^.^.^.^.*XA C W E M K K K K ! ! ^ FXP > jXDXDX@ K PX. F.KXJ :.>.J :.+ tX_ O jXG., ! jXvXvXwXV.vXFXvXDXJXFXbXDXDXvXsX{.}.|.|.|.#X#X XsXnX Xf c : ` MXb C.dX X|.|.|.rXrXsX|.{.S.fXoX+X@X+X$XmXmXL.n.mXKXGXnXmXnXHXHXHXnXmXmXkX+XD.%XMX$X@XkXkXkXKXLXLXLXKXJXmXmXkXmXf.y.KX2.K L g aXmX( $XZ $XfX: : E #X_.fX$X_.`.gX$XoX`.j.: : sXZ.+ U J ; ] fX' O J 1 @ + J Z.+ > Z.M.B.B ).j.E E [ M M 4 4 4 @ O > dXdX~ 1 > L Y n n L 2 n Z.m B oXl.k.}.}.( B.d d x ( b d.n.( N.M./ L / M.Z.d.N.B.F y.q.G 6.G G G C f.j.`.).|. X#XfX).B.k.W.OXOXv.r.x.v.P.P.P.P.P.L.j.D dXFXbXvXvXdXhX].tXvXtXhXFXwX(.(.|.rXwX.XV..X(.h.#X'. XG.",
"DXDXDXDXDXDXDXDXFXIXBXCXCXCXZXyX3X3X3X3XCXCXBX3XBXCX5XBXyX<X<X,XwX#X#X}.`.}.#XzXvXjXhXjXiXiXiXiXyX,X=.y y I ) y.t.t.9.A h h t.*X*X~.!.*XQ.Q.*X~.!.^.!.E.^.*XA C A D K a a K L ! ~ ~ qXa ; jXIXAX= P LXpXK ].> 2.=.P F.- KXG.- hXcXHX' L HXcXM ;.n GXG.! ! dXeXFXhXhXdX|.#XsX#X#XrXsXaXrXmXS.z 8.6.9.mXN G.dX|.rXrXeX|.|.sXsX{.S.aX+X+X@X+X+XgXxXaX+XKXKXKXKXLXKXLXLXLXKXJXHXMXgX+X%XMX+XgXkXkXkXkXMXHXKXKXJXHXmXmXMXf.f.KX1.J I - G.G.+ : g gX#X: : / }.) +X$XA.k.$X#X$X+Xs.Q W #XZ.+ w < , h.fX' O y 1 O + ' ' n 5 ;.M.B.B (.B k.E h.N M 4 n K 1 = 4 hXdXL 1 ; Y Y 4 J L 2 n L , N }.E N C.] m M.: d S T V n.F B d.d.( / / Z.d.] S.S.y.9.g.f.9.9.q.G f.j._.C.V.rXdX|.' M [ h.k.l.c.x.w.g.G Y Y S m.K.T 1 = hXFXcXvXFX[.wX].].].:.tXcX(. X X X(.(.rX(.fX#X{..XfXdXrX",
"bXbXbXbXbXDXDXDXDXDXBXCXCXCXZXyX3XyX3X3XCXCXCXBXBXCXCXBXBX<X<X,X]..X#X}.E h.h.h..X#X#X#XzXcXmXmXHXKXbX1 q J ) s.t.t.9.l.Q h t.OX*X/././././.*X^.^.*X*X!.*X*Xt.C 9.W N K K ! ~ ' ' _ :.> n jXDXDX< I IXLXy ; - 2.=.2 tX- Z.M ; vXFX].- g nXdX5 vX- rXFXjX+ *.&.JX> ! :.rXfX#XfXsXsXdXsXhXGXN.z 7.z x gX/ '.hXwXsXrXrX|.rX#XsX XS.sX$X$X$X$X$XgXmX+XS.KXJXPXKXLXLXLXLXLXLXLXLXKXKXHXgXMXoXkXkXkXmXmXMXHXHXHXHXHXmXmXmXf.f.KXqX*.Z._ / ! v b b gX+X: : `  X, sX#X_.A.#X+X}.`.W g h #XZ.+ J < , M.zX~ . 4 y + F.wXK 4 , v ] [ ) (.Q `.E B., M > 5 K 4 > M cXdXL 2 > ` Y J J K 2 n M.v D N.: d.d.g N.( : x S y.D N.Y N M.*.L ! ' Z.Z.] C.S.Y L Y d.d.Y ~ P :.M.] $.t ].hX>.^ 1 a F.D D.9.z x.w.q.h q.g.x.g.f N.D cXnXvXvXFXvXhXvXnXnXdXzXcXcXnXnXcXcXzXzXcXvXnXnXzXcXcXmX",
"DXDXDXDXDXDXbXDXDXUXBXCXCXCXZXyX4XBXBX3XCXCXCXBXBXBXBXBXBX<X<X,XqXsX}.#X#X#X}..XsXsX|.|.{.|.rXdXnXJXiX1 y 4 ( y.t.t.9.a.y.d u.9.9.9.u.i.i.a.a.E.~.E.E.~.~.*Xt.C t.W M ^ ^ ^ ~ ~ ' ' *.+ J jXIXDXO P LXpX. wXa 2.:.4 nXC.*.g g cX4 O : H.FXvX>.; v cXnXvX, ;.].tXO :.&.sXsXsX|.sXdXdXdXhXmX+XD.+XD.F gX( ].hXrXsXsX|.|.|.|.sXS.C.aX_.+X+X+X$XxX$XgXkXmXHXJXKXLXLXLXLXLXLXLXLXKXKXMXxXMXK.kXkXkXmXmXHXHXJXHXHXMXMXmXHXy.j.KXG.fXS.N.n.Y / ( ( xX}.- : M.#Xb fX$Xk.`.$X+XoX_.Z : : fX` + J 3 , C.mXK . K #.4 wXJ ]._ 2 n J > 2 4 M [ [ (.} K K K 5 4 = ! nXdXJ 1 > ` N n J J ; ' {.> M.'.M _ n + ;._ : h G T f.S./ N &.p t P ~ $.5.^ wX^ P ~ I ` Y _ #.P :.=.M  X). X#.* %.~ '.:.; &Xl.h G x.x.l K.x.x.g.x , *.FXvXcXvXvXvXvXnXnXzXcXcXcXvXnXnXFXFXvXvXnXFXnXnXcXfX$X$X",
"DXFXDXDXDXbXbXDXDXVXBXCXCXCXBXyX3XyX3X3XCXCXCXBXBXBXBXBXBX<X<X,XqXfX}.`.}.`._.#XfXfXzXcXzXcXnXnXcXJXbXy y J ( s.t.u.9.A b d i.i.i.i.t.t.9.0.9.9.9.C C x x 9.V A Q E M a a K ^ ! ! _ &.. 4 jXDXAX  %.PXt > GX4 2.=.1 HXtXhX~ n M.- ` '.cXmX;.wX+ 4 FXdX_ - Z.wX#.> Z.*.dXdXdXrXrXfXfXsXfXmX{.+XgXgX( mXY ].jXrXsXrXrX|.|.|.sX X{.#X+X+X$X+X+XmX+X+XgX+XmXHXJXKXLXLXLXLXLXLXLXKXJXMXxXmXK.kXkXmXmXMXHXHXHXHXHXHXMXmXmX9.D.KX-.mXN.d.Y M n n v mX{.- ; M.}.g $X$Xj.`.$X+X$X+Xg b m cX_ + I ; 2 {.mXM > G.eX;._ I :.> 2 N ;.' M M 5 5 4 n 5 4 K M 5 M > ' mXrXn > 2 *.m j I K - *.|., V.'.K _ ' , V.Y : f G T d.H.Y D S.Z.n L Z. X' &.>.^ #.y ~ -.L -._ I :.^ >. XC.].5 @.p ^ '.S.( b _ I : x m.: G P.v.v.K.O 5.PXvXvXvXvXvXnXcXfXfXdXnXtX].wXtXwXeX[.wXbXwXwX X X.XzXzX",
"FXDXDXDXbXhXtXiXiXiXZXCXCXCXZXBX3XBX3X3XCXBXBXBXBXCXCXBXBX<X<X4XqXdX[ [ [ ] C.{ sXV.Z.'..XsXcXnXcXJXbX4 K K / s.t.t.9.A h g a.i.i.i.i.i.i.z.i.i.i.i.i.i.i.t.C C 9.D M K K K K ! ! _ _ n I hXDXAX- -.F.. [.GX+ :.=.1 FXhXvX~ M L n HXHXvXFXZ.; Y J n FXdX; Z.F.+ ;.M.*.hXvXjXdXdXdXdXfXfXcXsX}.S._.d.gXN G.jXrXrXrXrXrXaXrXdXL N gX+XS._.+X+XmXgXgXgXgXmXMXHXKXLXLXLXLXLXLXLXKXKXMXmXNXoXkXmXmXmXHXHXJXJXHXHXHXHXmXMXA D.KXI / M.D N.gXoXj.W mXS.- : M._.E gX$X`.+X$X$XgX( g b / nXL - T ; 4 |.mX} Z.G.G.eX~ , > 4 5 n ! E W j.E h.v ! , n n 5 > 4 . ;.MXrX4 2 > ` m v _ K ; Z. X, C.' > &.! > |.m : h T f.( Y Y d.|.~ K Z.{.>.^ @.^ C.` 4 @.#.U ` ` K %.K '.+XS.'.> &.'.N.B.l.l.c.v.v.0.f m.n.: k q.g.m.F *.HXvXcXcXvXvXfXfXcXbXvXnXbXhXhXtXrXdXtXdXhX].hXhXtXcXcXfX",
"bXiXtXwX].].].eXpXuXCXCXCXCXZXyX,XBX3X3XCXCXCXCXBXCXCX5XBX<X<X4XqXdX|.B.(.B.M.B.fX{.'..X(.C.'.rX{.HXDXy P I ( s.t.9.t.A b g i.i.i.t.i.i.i.a.i.i.i.i.u.t.t.u.C C A S.! K K a K K ~ ~ L M K iXAXAXVXiXpX3.pXbX&.V.F.n cXdXvXK n C.- |.M.'.tX;.. hX:.+ JXJX+ ].J + dX;.&.jXFXhXrXdXdXdXdXjXjXdXjXsXgXN.gXm ].jXtXtXrXrXrX|.|.rX*.] gXgX$X+X+X+XgXgXgXgXmXmXmXHXKXKXLXLXLXLXLXLXKXKXmXMXxXoXkXmXmXMXHXHXJXJXJXJXHXHXmXHXA +XKXI ` n.g d.gXD.f.j.mXB.- : B.}.h $X#X_.+X+X$X+Xg m b ` FXn : T ; 2 rXmX> + O + @ O . O = O O O . . O > n 5 [ 5 M M M M ! 4 '.nXwX> 1 2 ` m v F.n > C.C.; {.~ > M ! v {.g d l q.Y M ` ( B.C.! '.{.V.;.' 4 ].C.D m -.U Y n.T L ^ t 4.@.@.eXF.X s u * *./ - 1 J h 9.x.v.x.k 1 * y / N.cXnXnXnXFXFXmXnXFXFXJXJXJXKXKXPXPXJXJXFXFXFXFXGXFXnXzXzX",
"iXiXtXtXtXwX].[.[.yXBXCXCXCXZXBXyXBX3X3XCXCXCXCXBXCXCXBXBX<X<X4XqXeX}.#X) B.(.{..X|.rX|. XsXrXrXcXvXDXP a M E s.t.t.9.A b g g.i.t.t.t.i.i.9.i.i.i.i.i.t.u.u.C C F D M a a y K K K ! ~ M 5 qXDXVXAXAXSXIXiXpXIXSXIXAXiXtXhXC.M.sXM., > eX_ + 2 2 O K wXrXO ].= :.JX' :.dXcXFXnXjXhXdXdXdXjXsXjXcXaXN.gXN eXbXhXdXsXrXrXrXeXwX X'.fXfXgX$X$XfX+X+XgXgXMXgXc kXkXfXKXLXLXLXLXLXKXKXnXMXxXoXmXmXmXHXHXJXKXKXJXJXHXHXHXHXV +XKX#.V._ M n N v D ] mXN.: : ).#Xb _.+XB.s.h.B.N.b D b ` GX, : T ; n rXzX' ' *.M.Z.(.{. X X X.XfXsXsXsXdXfXdXdXcXcXzXfXfXzXxXzXmXrX, , L *.v n G.n , ` D ,  X^ 5 1 2.!  Xd f c f.t p _ ] {.' ;.|.|.|.rX' ;. X` T T S Y T T F f.D / '.:.V.zXzX X*.L / k.c.c.i.9.i.v.r.v.v.P.v.P.K.N.d.Y m ( ) M.B.B.(.C.{.{.{.{.{.'. XrXdXdXjXdXhXdXsXzXzXzXzX",
"iXqXyXyXBXBXBXBXBXCXCXCXCXCXZXBX4XyX3X3XCXCXCXCXCXCXCXCXZX,X<X4XqXeXM.zXN M M.[ {.|.;.rX;..X{.rXnXcXFXP y M / s.t.9.9.9.b h i.t.9.t.9.i.i.9.i.i.i.i.i.i.i.t.C C 9.Z M K 4 5 4 a K ^ ~ ! K qXLXIXIXSXAXDXpXpXAXAXAXAXtXrXfX.X.XsXsX X.XcX.XZ.aXd.M.sXb d -  X&.|. Xj.A.l.A.#XfXnXvXcXnXmXnXrXdXdXdXH.gXN tXbXhXhXhXdXsXrXrXeXG.S.fX$XgXgX+X+XaXaXgXgXmXHX9.kXHX_.mXKXLXLXLXLXKXKXnXHX%X&XmXmXmXHXHXJXKXKXKXKXJXHXHXJXV +XKXI ` _ M._ g Y D b MXM.- : {.#XE fX#X$X$X$X$Xj.m ( b ] FX, : T - K zXmXMXMXHXMXMXMXMXMXMXMXMXMXMXMXMXMXmXmXmXmXzXfX#XfXfXsXsXcX{.5 2 U ] v n V.5 > cX|., #X(.(.(..XsX}.d c c g.S ` ` d.}.}.}.#XsXfXfX#X#X{.d.q.q.q.f.q.G f.f.9.l.oX&X&X_.A.D.l.l.a.a.W.z.v.r.r.v.r.v.v.v.P.P.K.m.d.S S B N D D D D Z b v g , , v B v , g g g g N *.> > > J ",
"ZXyXyXBX3XCXCXCXCXCXCXCXCXCXBXBX3XBX5X3XCXCXCXCXCXCX3XBXZX<X<X4X4XjX' N.M.B Z.[ C.|.'  XV.V.Z.cXrXnXJXP P L D y.t.9.9.A b d i.i.9.i.t.i.i.i.i.i.i.i.i.i.t.t.C C F Z 5 a 4 5 y a K K ! ! n K 2.3.1.pXVXAXiXpXIXAXAXDXbX.X.XsXfX.XsXfXsXsXfXdXzXcXzXdXdXtXdXdXC.) h.`.j.A._.`.oX}.fXmXvXFXvXjX|.S.aXH.gXD dXbXjXhXdXhXtXtXtXrX'.S.fXfXfXgX+X+X$X+X+X$XmXkXC mXkXw.MXJXKXLXLXKXKXKXnXHXxX%XMXmXMXHXJXKXKXKXKXKXJXHXHXJXh +XHX; Y / Y g b y.Z s.MXd.; :  XsX: k : _.#X_.d.s.g S g *.FX- d q.; *.|.}.).).{.).(.(.(.(.(.V.Z.Z.M.;.{ { { ' ' _ ! 5 I 4 K K K M L L j Y ` g M G., v C.( g M.h.{ ] ] ] b f z z g.w.g.f.9.j.N.d.n.N.S.{.S.C.N.q.q.q.q.q.9.f.f.F F f.W D f.A t.9.t.t.y.V C l.9.i.9.0.x.0.g.g.9.m.g.d.Y - ; m ] ! ' ^ 4 ] N.N.] / ` Z.{.B.d.d.d.s.( }.dXy P 2 &.",
"ZXyXyXyX5XCXCXCXCXCXCXCXCXCXCXBX4XBX3X3XCXCXCXCXCXCXCXCXCX<X<X4XyXjXI , (.[ [ [ Z.'.'. X;.V.{ cXfXHXJX^ y L N ( y.9.9.A V d u.i.t.t.t.i.i.i.i.i.i.i.i.i.i.u.C C F D 5 4 4 a 5 K K K ! ! M :.#.. X.G.2.3.FX5 a DXIX3.K rXsX{.V.sX.X XsXfXrXfXsX.XsXdXcXvXcX] / ] E h.h.] h.h.).+X+X#XdXnXHXaXg.K.g.f.mXL iXDXhXjXhXiXhXhXtXrX XC.$X$XaXfX+X+X+X+X+XgXmXMXl.%Xw.kXHXHXHXJXJXJXJXHXnXJXMX$XHXGXMXHXJXKXLXLXLXKXKXKXKXHXg +XKXbXFXHXFXGXHXHXMXMXMXd.: : fXmXb ( j.$X+Xj.j.B.d.B.C.fXFX- d n.; i 1 1 < * * & & & & % $ $ # # $ $ $ # # X $ X   P hXK X $ X X X # 1 I T g L F., m q.x - + O O O O + - f q.g.g.f.g.q.9.F f.F q.` ` *._ _ _ Y ` f.F F Y / L ~ K K ^ K K 4 n , L , m j g k d 2 2 j H - n N n K K I 5 1 2 > ;.^ ^ * a :.Z.C.F.F.G.G.G.Z.Z.V.Z.*.-.Z.:.~ -.o.P ",
"ZXyXBXBXBXCXCX5XCXCXCXCXCXCXCXBX4XyX3X3XCXCXCXCXCXCXCXCXCX4X<X4X4XUX:.O [ .XB.).sX|.sX X XV.dXV.= hXPX%.K K M ( Q A A C F f i.t.9.i.i.i.i.i.i.i.i.i.i.i.i.t.C C A ( M 5 a K 4 4 a a K ! 5 F.pXX AXLX4.qXDX  t IXIXs O  XcX' O  XwXO M. X, ! .XzX X] Z.rXC.v ] Y N / ] N E / B.B.S.#X{.sXgXgXm.g.g.f.gXL iXDXbXhXhXhXhXhXdXtX X|.fX+X$XgX$X+X+X+X+X$XmXkXq.@X+XMXMXMXMXmXMXmXMXxXzXMX%Xc.mXHXHXHXKXKXLXLXLXLXKXKXMX%Xf fXKXKXJXMXmXxXxX$X$X$X$Xd.: g  XdXrXdXsX|. X X X{. X X X XF.- f R O .                       X X X o o o   . . @ < :.sXV.G.; < w < < ; : T Y , L :.> m m.9.l c z 7.w.7.7.8.7.m.g.g.f.f.f.y.f.d.N.N.Z.` _ Z.&.K #.a a K ~ J J K K 4 L ! M / m m h y.V S G c G l 6.6.C 9.x f.b m n.Y > I _ n L _ ;.'.' '.rX4 :.wXG.i & & 7 & # 6 7 7 % * e w q q ",
"ZXyXyXBXBXCXCXCXCXCXCXCXCXCXCXBXyXyX5X3X5XCXCXCXCXCXCXBXZX4X<X4XyXiX X) }.zXzXzX#XsXzXzXMXnXJXdX! vXPX=.p P L ` A A A 9.y.f u.t.t.t.i.i.i.i.i.i.a.i.i.i.i.t.C C V d.' 5 K K a 4 a 4 K K 5 &.qXX uXIX4.pXqX  1.IXuX  N C.mX] O hXtXO M.|. X} v dX+ L J - n v ] / v N M.) [ D ) N.h. XsX#XfXfXfXfXxXS.H.D hXbXjXjXjXjXhXhXdXdXwXrXcXfXfXfXfXgXgXgX%X@XkX+Xf.MX@X@XHXMXmXmXmXxXxX%XzXNXQ.v.%XmXKXKXKXLXLXLXLXLXLXJXkX@XC l.9.6.z l l l l l f l x T : , - + O O . . . . .           . + T m.q.q.q.b.n.n.f.n.m.m.m.m.m.D.D.D.+XL.H.L.L.L.T kXmX]  X( K.7.8.r.r.8.8.g.S , L Y : m mXf.l 6.7.7.7.7.7.8.7.7.6.m.w.f.m.N.+X+X+X+X+X+X+X$X+XoX+XF W j.F C g.y.i.g.g.x.g.x.x.v.v.v.v.r.r.r.r.r.r.r.r.r.v.v.0.x.K.g.D.D.D.D.A._.$X$X+XgXaX+ w i y 1 y q & q u u q q i u y t u q ",
"VXyXBXBX5X5XCXCXCXCXCXCXCXCXCXZXyXyX3X3XCXCXCXCXCXCXCXBXZX4X<X4XyXiX X`.B.M.Z.C.(.{.Z.C.rXrXdXcXcXcXJX>.^ J N ( A A C 9.y.d i.9.9.9.i.t.i.i.i.z.i.i.i.i.t.t.V C V D M 4 a 4 5 a K 4 K K M &.3.  VXIX4.pXP y $.IXqX= F.[ cX{ . [.:.O C.sXdXZ.O ].. hX X! [ / ! / ] M.Z.C.C.B.h.S.N.N.#XfXfXgXfX+XaXH.N.Y jXDXjXjXjXjXhXhXhXhXeXdX#X_.$X$X$XgXgX%X%X@X@X%X%XgXmXHXHXMXMXMXmXxXxX&X%X%Xc.r.P.P.mXKXLXLXLXLXLXLXHXkXgXkXK.g.f.q.9.c c l f f d d d d d k d d d d d d d d d k d k d k d : dXJXHXHXHXHXMXMXMXnXnXnXMXMXHXnXHXMXnXHXHXnXHXFX^ =.].H. XH.H.q.7.r.I.8.w.g.h , M / : m mXf.l 7.7.7.7.7.7.7.7.7.9.m.q.f.mXsX+X$XaXaX$XaX$X+X+X+X_.j.D.9.9.K.`.oXoX$X$X$X$X$X%X%X&X&XP.x.0.r.r.r.r.r.r.r.r.x.x.x.g.D.N.S.N.d.d.S.fX|.).fXH.; 2 1 y y 1 1 =.wXeXqX3.i q e q u 0 q ",
"ZXyXyXBX5X5XCXCXCXCXCXCXCXCXCXBX4XyX3X5XCXCXCXCXCXCXCXBXCXBX<X4XyXiX}.oX}.B.B.(.}.).{.(.(.'.'.{.rXrXJX>.#.a L ( A 9.9.A Z b W t.t.t.i.i.i.i.i.i.i.i.i.i.t.i.C C V E L 4 4 1 5 y P 5 4 K M ' =.& VXIX1.[.= F.%.DX%.. &.J hX&.+ -.y O  X#XrX;.O F.> M.Z./ / / D ` ( ] C.d.( M.}.S.{.S.S.{.}.fXgXV d d +X( jXDXjXjXjXjXjXhXjXhXwXcXL.l +X$X+X+X+X+X+X%XgXoXP.&X&X%XxXmXMXmXxXgX%XoX%X%Xi.0.P.I.P.@XmXKXLXKXLXJXGXHXHXHXxXgX@XP.x.x.x.0.r.0.w.0.0.0.r.r.0.0.w.0.w.w.w.w.w.w.9.9.8.8.8.7.gXmX|.|.|. X X X X X X X X X{. X X{. X X{.sXcXcXZ.Z.|.G.C.dXC.H.7.8.8.8.0.w.h 5 L L ; Y mX9.l 7.7.7.7.7.7.7.7.7.9.K.q.f.mXmXaX+XaX+X+X+X+X+X+X+XD.D.C V j.+X%XfXxXxXxXzXxXxXxXxXgX&XK.x.0.0.w.x.r.r.r.x.x.x.x.K.D.m.N.d.f.y.j.}.+X_._.fX*.- y y i y < 2.tXtXwXeXqXG.q w q q t q ",
"ZXyXyXBX5X3XCXCXCXCXCXCXCXCXCXCXyXyXBXCXCXCXCXCXCXCXCXCXCXBX,X4XyXiXsXA._.}.}.#XfX.XfXzXzXzXdXnXGXnXGX:.#.4 L N.W b v v ! { ' ! Y ( y.t.i.a.i.i.i.i.i.i.t.u.C C V D 5 a a 5 4 y y K M K L *.J @ VXIX3.a ; ].^ iX= J iX%.bX>.. DXiX  qXjXiXF.  iXpX. M [ [ / ! N / Z.h./ ] M.N.S.+X_.N.d.S.S.#X/ O L fXD jXDXjXjXjXhXhXdXdXtXwXjXaXf.$X$X+X+X+X+X+X@XgXg.P.Q.P.P.Q.OXOXOX%XOXOXK.+X%XxXNXHXMXMXxX%X&X@XxXMXmXkX@XK.g.0.0.c l f l l l l l l 6.z 7.8.0.f.m N L L L L L L n M ` c e.7.z gXnXsXrXrXrX|.|.|.|.|.|.rXrXrXsXrXrXdXsXrXdXcXcX|.|.H.sX XdX!  XK.7.8.r.8.7.h , L Y ; ( kX6.z e.7.7.7.7.7.7.7.7.w.m.q.f.fXgX+X$X+X+X+X+X+X+XoXoXD.f.F F j.%XgX$X$XgXxXxXfXgXgXxX%XoXc.i.g.g.w.x.g.x.x.x.x.x.x.x.K.m.D.d.f.S.A.N.h.j.D.aX_ @ y y y r a qXqXiXjXiXqX4Xw q u q * 7 ",
"ZXBXyXBX5X3XCXCXCXCXCXCXCXCXCXCX4XyXBXCXCXCXCXCXCXCXCXBXBXyX,X4XyXpXsX).[ N.[ { sX'.V.V.V. X|.rX XvXJX=.^ P ~ _ > ; K ~ ! ' &.n > &._ N ( y.i.z.i.i.i.i.i.u.9.C V S 5 y a 5 5 4 a K M ! L ;., @ VXIX3.. ~ eXK [.. 2.KX3.pX1.  iXpX  qXDXDX6X# PX=.1 '.M.} ! L N ` Z.M.M.S.}.{.}.+X+XS.D.( s.f.N.j.D.l.D DXDXiXDXbXjXhXhXhXjXtXvXfXfXfXgX+X+X+X+XgX%XgXg.P.P.P.P.P.P.P.P.P.P.c.i.9.c.*XNXxXxXxXxX%X%XOXv.r.8.8.8.8.8.8.l F f.F G x x h h x S l 7.8.0.m.m n K a K K J 4 4 :.Z.c e.7.6.cXnXcXhXcXcXnXmXmXcXcXcXcXcXmXcXcXcXcXcXcXdXcXnXrXC.M.'.Z.hXtX Xm.7.8.r.w.9.k , K L - n.mXz z 7.7.7.7.7.7.7.7.7.w.m.f.F _.fX+X+XoX+X+X+X+X+XoXH.f.F y.( A.$X$X#X$XfX$XfX$X#X$XgX&XoXx.i.g.g.g.x.w.0.x.x.x.x.g.g.m.D.m.D.N.d.T T d.N.oXaXJ < w q i w 1 4XqXiXiXiXpX<.< t q q =.=.",
"VXZXBXZXBXCXCX5XCXCX5X5X3X5XCXCXBXBXBXCXCXCXCXCXCXCXyX,XyXpXqX4X4XtX|.h.h.B.h.|..X.X.X{..X).(..XrXnXJX:.~ ~ K > = ~ ~ K _ n ' &.> ~ n 4 K n v p.a.i.i.i.i.u.C C V D 5 y 4 5 5 a a K K L ! ' m 4 iXIX3.. G.tX^ &.O [.DXG.[.=.. DXqX. F.:.iX* 2.DX. ~ ' / N ` N / N.{.C.Z.|.sX+XN.+XgX@XD.f.N. XtXH.` f.( fXdXjXjXjXvXvXvXGXG.v g F oXoX+X+X$X+X$X%X%X%Xx.P.P.P.P.P.P.P.v.v.v.i.C C K.&XQ.Q.W.c.c.c.c.P.0.8.8.8.8.8.8.0.l S.H.C.G.cXsX{.|.H.G l 7.8.8.f.n .           . a F.*.l e.7.z mXcXdXdXhXdX X|.|.|.|.|.|.rXfXfXsXfXdXdXdXdXcXcXw . Z.'.cXFXZ.: z w.8.7.w.G j 2 n n ; Y D.x z 7.7.z 7.7.7.7.7.7.9.g.f.G D._.N.B.S.S.S.S.S.D.D.+XN.S F F _.gXgX$XfX$X#X#X+X_.+X$XoXK.x.g.g.g.g.x.x.x.g.x.x.w.g.m.D.m.N.j.d.d.f.f.N.D.+X+X2 1 y w q q & w =.G.G.2.X.& r r q w =.w ",
"ZXBXyXBXBX5XCXCXCX5XCXCXCXCXCXZXBXBXBXBXCXCX5X5XCXBXqXwXU.2.[.F.:.wXsX#X#X}.}.fXsXfXsXsXcXsXzXcXdXvXHX:.^ K 5 K I V._ &.*.K L ' *.! _ K K ! K , t.z.i.i.t.i.9.C V D 5 4 4 y y K K K ! K ! ! N V.DXVXAXiXpXqXiXqX2.F.iXjXpXqX3.iXpX@.pXF.P =.DX$.= tXI L ` M._ / M.|. X` '.sXsX+XoX@X+XD.N.jXIXIX-.g x C L.K.w.m.m.K.L.L.f.: ; v S.%X@XK.l.K.%X+X+X%X%Xa.c.P.c.v.P.P.P.v.v.v.i.C x c.W.c.c.c.c.l.l.l.c.0.8.8.8.8.8.8.e.l N.` I -.nXrXZ.H.J.x z 7.0.0.f.j + ].Z.|.rX XF.n :.` z e.7.z mXcXdXsXcXeX. + ; M *.! + + v v B fXdXdXdXfXcXtX@ X.eXcXsXd d z e.r.r.8.q.g j 2 U n ; ] f.l z z z z 7.7.7.7.7.7.0.f.f.G N.S.d.N.M.] ;.Z.S.) A._.S.d.d.d._.$XfXsXfX#X}._.`.A.+X+XoXK.g.g.g.g.g.x.x.x.x.x.x.x.g.g.g.m.N.N.h.s.B.}.+X+X@XaX> w y y $.#.y 1 y 1 y t i t 0 0 e o.-.3 ",
"VXZXyXBXBXCXCXCXCXCXCXCXCXCXCXCXBXBXBX5X5XCXCXCXCXyXU.[.[.&.>.;.} (..Xh.h.}.).{.sXfXfXfX#XfXcXnXcXvXJX:.K #.~ J :.:.M &.&.M _ ;.V.;.' ' ~ 4 ^ , V l.i.i.i.i.9.C V D 5 5 4 y 4 K K K ! K K L n K iXVXiXAXiXqXAXAXqX1.qXiXiXpXDXVXAXAXiXDXiXAXVXiXiXtXL ;.'.{.C.M.M.{.C.S.{. X+X+XL.+XoXK.N.aXDXqXM.b h Z fXfX[ '.(.M.F._ O n D.@X%X@X%X@X+XK.K.$X$X%X%Xg.c.v.v.v.v.v.v.v.v.x.9.x x g.z.z.c.c.l.l.l.l.l.0.8.8.8.8.8.8.e.l N._ L -.mX|.Y n.N.f c e.8.0.T , O FXjXFX' V.wXn Z.Y z 8.7.9.mXdXdXsXcX X= 4 5 K 4 J M 4 , ; / cXfXfXfXfXcXdXrXjXsXn.d l 8.8.8.8.8.w.d n j 2 U n > ` q.z z z z 7.7.7.7.7.7.7.q.f.f.d.B.S.N.N.d.] ] M.M.N.H.+X{.H.N.d.S.$XfX#X#X$X#X#X+X}.}.+XoXc.g.g.g.w.w.w.g.g.x.K.g.g.m.D.m.N.N.f.j.h.'.hXvXjXkX X< t q t [.].>.&.G.2.2.#.G.3.4X<.* -.-.j ",
"jXiXyXyX5X3XCXCXCXCXCXCXCXCXCXCXBXBXBX5X5XCXCXCXBX7XU.{ >.^ ' { M V..XE { {.B.}..X{. X{. X'. XdXV.V.JX:.K &.&.&.' *.' &.! *.*._ *.*.M ' *._ M ! , Z i.i.t.i.9.C V D 2 4 4 4 5 4 K K 4 K K L / M qXAXuXiXiXqXiXAX6X%.F.pXqXqXVXAXpXpXiXiXpXiXiXiXiXiX' v ] Z.d.n.C.S.C. XrX#XH.L.+X+X@XL.d.kXdX&.d.b h V $XxXmX#X{.|.|., v N.%X@X@X@X@X@X+XgX@X+XgXgXgXc.c.c.v.v.v.v.v.v.v.i.9.f x c.c.&XoXoXoXK.K.c.K.g.8.8.8.8.8.8.8.z n.Y Y C.aXC.Y ` N.f 6.0.8.w.T , + qX].wXK J &.n Z.T 6.7.z m.mXdXsXsXcXV.M I 4 > L L Z.*.5 ! _ mXfXfXsXdXcXM.dXsXk f 7.8.7.0.e.7.w.6.: U , , J , , ( G c z z z 7.7.7.7.7.7.z f.m.d.N.H.H.M.M.] ` C.{.] M.S.S.S.D.f.f._.sX#X}.#X$X$X#X#X$X$X+Xc.g.g.g.g.g.w.g.g.g.g.m.m.m.D.H.|.fXaX XC. XdXbXDXDXFXqX@ y w P $.P @.y y P i o.X.o.,.o.u <.j H ",
"hXwXpXBXBXCXCXCXCXCXCXCXCXCXCXCXBXBXBX3X3X3X3X3XBXyXU.' 5 5.&.' } (.zX$X$X`.`.#XzX#XsXsXfXrXsXcXMXnXKX].&.~ M _ n ' *./ M.rX X' _ I , L ! ! &.~ ^ n b u.t.i.t.C C D 4 4 5 4 4 5 K ~ 4 M M N / M %.UXiXiXiX[.iXiX>.4 K ~ ^ qXlXpX^ F.iXiXpXuXuXuXpXiXF.n L ` f.q.q.m.f.d._.H.m.oX@XgX@XN.] nXwXF.M.h h F gXgXgX}.{.#X` L M._.+X+X@XgX@X+X@X@X@Xg.i.z.c.c.c.v.v.v.v.v.v.v.v.i.9.d C oXc.oXW.c.c.c.c.c.oXg.8.8.8.8.8.8.7.l D.d.C. X` ` n.*.n.l 6.8.8.0.T > + 4 , 4 ! M n n ;.Y z e.z q.mXdXrXrXdX'.' G.Z.n ;.G.tXdXM L ] cXsXsXsXfXzXD T f l 7.7.7.7.8.8.7.w.l : K 2 2 n , > ( F x c l z 7.7.7.7.7.7.z g.j.d.d.S.S.N.M.M.M.] C.] ` S.D.j.D.j.d._.#X#X#X#X$XfXfX$XfXxX+XK.l.i.g.g.g.g.g.g.g.g.g.g.g.H. XaXrXrXvXvXFXFXDXvXhXFXG.@ u t y 1 = q u i i u e 6 # 6 e %.J.T q.",
"rXF.4XuXBXCXCXCXCXCXCXCXBX3XBXyX4X,X5X5X3X3X3X5XBXyXU.[.>.^ Y.>.} { #X).S. X X|.#X#XsXsXsXsXfXcXcXvXJX'.K 4 5 K 5 _ L _ C.N V.;.! ! ~ ~ ! L ! 4 K K g u.i.i.9.9.A D 5 5 4 5 5 5 4 ^ K K K M ! _ P pXqXiXiX[.iXlX#.> K 5 > [.>.&.&.K [.lXpXpXiXiXpXiX].5 Z.N.g.m.c q.q.V y.D.+XK.K.K.+Xh ] { ;.h.W b h F aX` ` M.C.Z.n ` S.D.K.oX+X@X@XK.K.K.K.l.a.a.v.v.v.v.v.v.v.v.v.v.v.i.F d 9.c.z.z.z.a.i.a.a.a.i.0.8.8.8.8.8.8.7.z N.` _ _ U U T n.N.l 7.0.8.0.T ; ; tXV.&.K M n K *.Y 6.e.z f.mXsXrXrXdX'.C.*. XL / |.{.;.C./ Z.fX#X#X.XfXkXx l z z 7.7.e.e.7.e.e.e.z d U , n n , > fXL.l l z z 7.7.7.7.7.7.6.g.q.f.f.N.S.N.B.C.{.{.S.B.S.H.N.F q.y.f.oX+X$X$X$X$XfXfXfXfXgX+XK.g.0.0.0.0.9.w.x.x.g.g.0.9.g.D.H.D.H. XsXcXJXKXPXDXGX=.& i t y #.bXFXDXFXDXDXDXDXqX& 7 %.T x.v.",
";.:.G.yXBX3XCXCXCXCXCXBX#.L ! / n y 4XCX3XCXCX3XyXqX[.rX[.' ;.' ^ . *  .+.<X3X-X9 e ,. . .* 1 * u o.J.H.L / {.+X_.d.N.Y N L ] N N M._ ' *.*.&.*.L ~ v Z i.i.i.9.A D 4 4 4 4 4 y 4 4 K K 4 M L ! K :.6XiXiX3.pXlX>.> ! L M ~ ~ tXbX[.a iXpXpXiXiXpXtXhX5 4 h q.w.6.m.+Xf.m.D.K.D.f.f.f f.aX/ } ;.W b d F gX}. X#X|.{.s.D.D.K.K.oX+X+X@X@X+XoXK.K.K.oX&XK.&XOXc.c.v.v.v.v.z.i.A : ].KXLXLXLXLXiXLXLXLXLXGX6.8.8.w.g.9.z l D.D ] M.Y M.` d.N.f 7.8.8.e.k O K jX:.&.K + > L *.Y q.7.z g.xXrX|.|.jX` L L n.n n Y v N M.n ;.zX.X.X.XsXgXx z z z 7.7.8.8.7.e.w.8.7.d J : j n , , Y G z z z z z z 7.7.7.7.6.g.f.f.f.` ) ( ( Z.{.'.C.Z.N.f.F x z f C y.f.j.f.j.j.j.j.j.j.l.l.g.0.7.7.7.7.8.7.7.0.g.g.g.g.l.m.m.K.K.m.g.g.N.H.sXGXLX@.@ e e i U f.0.8.8.8.8.0.g.n.+ 1 -.f.&XQ.",
"sXwXwXiXVXZXCXCXCXCXCXCXo.n v m g J BX5X3X3X3X5XqX[.U.{ [ Y.;.^ ^ . 4 t i ,.<X .$ ,.yX,.%.u * 1 q I ` T Y ` +XgXgXgX+Xb m n , L n C.Z._ &.n L K K &.n b i.i.u.9.C D , 1 4 4 4 y 5 1 y K 4 4 4 M M ! $.pXiX3.qXiX=.n '.' N > $.iXVXAXp pXiXiXiXlXiXiXiX>.+ : q.kXkXD.@XK.g.g.g.K.%XD.x L.gX( G.bX` h d F gXM. X}.C.S.g.m.oX+X+XL.m.D.f.m.@Xg.V K.oXoX+X%XgXxX%X%X@XP.v.v.v.i.C d A j.+XaXwXKXLXDXDXFXnXrXdXrX/ S / n.n.G 9.f.g.j.j.j.f.g.f.l z m.D.j.M.' N , > G.;.K ' ' M.G 0.8.7.K.mXdXrXsXjX! - J -.- ; ; 4 _ J O V.fX|.#X|.fXaXf l z l l z 7.7.7.7.7.q.f j L > 4 n , h q.z l l l z z z 7.7.7.7.7.z z l z z z z z l l l l c l h GXJXFXvXbXjXhXdXdXrXsXsX|.S.B.j.N.A.D.l.g.g.g.g.g.g.g.g.g.D.K.D.K.K.K.K.K.m.g.g.g.9.f.jXJ o 0 u w k g.x.v.Q.Q.Q.c.l.d ; G.H k e.w.",
"dXsXsX XrXpXyXBXCXCXCXCX<.K L ] v I BX5X3X3X3XBXpX.X].Y.' (.(.' ^ 5 K > 5 %.%.t # 3.UX<Xo.i 1 2 O n aXD n d.+X+X@XgX+Xb ` M , L , ! _ ' ;.;.' ' L *.n b i.i.i.9.C Z 5 1 y 1 1 4 5 5 K 4 5 5 5 4 , ~ =.G.bX2.U.pX~ M mXM.} M a qXpXpX^ [.pXpXiXDXpXiXiXn m T d +XmX+XD.f.9.g.g.g.g.K.m.kX@Xd.iXDX/ h d F mX#XM. XS.+X@Xm.D.D.oX@XoXD.x D.D.C f.oXoXoX%XxXgXgXxXgX%X@XQ.c.z.i.C f C l x f N.KXKX+X7.8.r.r.mXdX^ ^ ! ! ' ;.` f.S g j , ; 3 d G +X$XA.( d.}.B.] / / *.' ~ L L m S G x f.).(.C.).|./ ; G.V.} N Y n 2 + O (.sX|.|.}.sX+Xf l z l 6.g.K.L.oXK.q.h - j L , n J : m H.9.6.q.6.l l z z 7.7.z z z l z z 7.9.q.9.w.w.7.0.0.6.G JXJXJXJXJXPXPXKXKXLXLXKXJXcXfXfXfXfXdXsXfXfXzXdXfXzXfXD.K.L.L.L.L.L.L.K.K.L.K.K.m.m.g.y.d.I & 0 1 _ +Xc.Q.&X&X&Xc.L.d j -.O : l 7.",
"cXrXdX.X'.eXpXyXCXCXCX5X=.N ] C.N _ ,XBX5X3XCXBXpX X.X.XXX(.(.(.! ' ^ = 5 ! 4 4 @ <.VX<Xe q y w + G. Xb b S.+X+X+X@X+Xf.` m L - , *.I 4 L V.F.:.' &.; b u.i.i.9.C Z M 5 4 4 4 K K 4 ~ K ~ _ ! / N :.[.>.jX>.$.F.! ! sXM.' ! ~ 3.3.2.#.F.[.qXlXDXiXbX|.D f.f.d f f.L.D.C V G D.g.g.m.T g D ] iXDXL g : T gX#X{.{.C.|.aXkXK.l.K.+XgXL.L.gX+Xf.y.@XoX&X%X%X%XgXgX%X%X@X@X&Xv.i.9.h y.y.g mXLXLXLXKXkXaXHXJX=.DXDX5.5 a a 5.^ ' L j 2 J y , f @X$XA.j.d.N.] ] ' ] L = O & & # & % 7 % $ # # o @ & 1 y 4 ,  X).h.fX|.}.{.}.#X#X}.}.fXH.d f c g.oX+X%X%X%X%XgX@XS : m 3 j J ; N fXoXoX+X%X+XoXm.l z z z z z z 6.c T j .   o I n.6.7.6.G HXFXvXvXFXdXvXaXhXaXjXdXmXfX|.sXsX|.#X#X#X#X#X#X#X+Xm.D.L.+X@X@X@XL.L.L.L.L.K.K.K.m.K.K.D.H._ & * n.K.g.&X&X&X&XoXS.- P pX2.4XwXH.",
"sX.X.X X;.>.1.,XCX5XBXo.n B b m Z m 3 4X5X3XCX3X>.Y.;.(.(.{ V.(.{ ;.^ O K V.K 4 O <.VX<X0 * q ; m mXS.g D.oX@X@X+X@X@X@XK.+XN.: > &.K 4 K K M ' ' L b y.u.i.i.9.C V g ) s.D D N E / M n ] ] [ ) / ! '.>.tX2.$.&.! [ ] [ [ h.[ ! [ 4 &.;.>.2.wXqXqXtX` +XoXD.S d h m.y.V V y.g.m.D.F ( b B ! iXDXM h : T gXxXmXfXM.N.F K.D.D.L.D.@XL.K.@X@Xm.@XoXoXoX$X&X$X%X$X$X@X&XP.v.v.i.9.x u.t.k.MXMXMXKXKXKXJXJXJXFX].:.&.5 = * a ^ %.^ ^ 1 3 U : D.gXg.oXD.m.( / ` ] ` Z.I @ q * * 1 q q q q q 1 7 * * * * & . 4 ~ v sX}.}.}.}.}.}.+X}.fXS.d f.oXl.l.+X@X@X@X@X@X@XMXH.- , J J - m _.D.j.l.D.D.#XHXKXT l z z z z z R ; O ` M.n O L m.6.z q.JXFXvXnXcXH.kXe.P.I.w.w.w.e.7.9.w.G L.gXy.D.G f.L.D.D.L.@X@XaX@X@X@XL.L.L.L.L.K.K.K.K.m.m.m.H.~ O ` K.K.&X&XOXOX%XM.O =.DX$.qXqX3.",
"rXdX|.rX'.&.1.yXCXCXCX,.2 b m D D N j 4XCX5XCX<X$.{ ' ' ' ' ' :.' ' a = M '.! n > $.VX,.q * q ; H.mXd.f.+XD.+XgX+X@X@XgXgX@XkXS., 4 J _ M L M n L N A u.u.i.i.9.A h : ] s.E E B B N v , N g , g , - ].:.[.>.~ ~ ' Z.'.{ E h.h.E [ > ' ' ! M ~ V.'. X` D.+XoXm.g.oXD.f.F F f.g.g.F F , n W h.bXDXM g d q.gXgXzXxXmX|.B g D.L.@XK.K.m.g.L.kXD.D.K.oX+XoX%XP.8.P.L.@X+XL.K.D.g.q.f A t.&X*X~.!.XXXX&XxXmXmXrXnXKXtXV.^ 5 a a a ^ #.P < < d +XD.K.K.K.D.f.D.+XL.d.M.'.> 1 q q * q q q q 1 q q 1 1 q q q * o & K sX}.}.}.}.}.}.}.}.fXy.h $XK.D.D.D.K.@X+X@X+XL.gXKX#.+ 2 n ; D _.f.f.K.f.y._.#XMXKXS l z z z c G /  XxX$X#XC.: n.q.z n.JXnXnXFXcXq.P.b.L.kXK.m.w.7.7.7.7.6.K.gXf q.z q.m.L.H.+X@X@X@X@X@X@XL.+XL.L.L.L.L.K.K.D.m.m.f.Z.- / +X&XOX&XOX&XK._   qX3.p 3.3.G.",
"{. X(. XV.! #.,XBX5XCX<X2 N m N D N j ,XCX5XCX7XU.(.(.(.'.;.5 a 4 ^ 1 = M V.! n > %.UX<Xq < 1 2 kXaXL.K.+XD.K.gX%X@X@XL.kXkX@XkXd.+ n *._ ` *., ; , V i.u.i.t.t.A h : m W A y.t.Q D g n Y v b m , : |.'.'.Z.;.;.;.Z.}.(.h.h.s.k.h./ ;.' Z.M.n.+XgXkXn.g f.+XD.g.K.m.f.f.f.S Z B Z Y : ( j.).dXhX/ b h f.+XK.L.L.@Xg.F V j.oX%X@Xg.L.+XG x g.l.l.l.c.oXx.8.8.r.I.mXMXMXMXMXMXNXxXoXa.k.u.) `.`.p.u.oXmXdX5 F.cX|.{.Z.&.^ ^ ^ 5 a $.p & 2 _.D.K.g.K.K.@X@XL.K.N.C.{.4 & q * q q q 1 q 1 q q q 1 q < 1 * * 1 _ fX$X$XsXfXfXfX#X}.$X( f.+XS.K.oXD.K.oX@X%X@XoXD.gXcX- n n ; F D.y.f.K.f.F j.+Xj.$X+Xf l z z f _.xXoXoXp.&X$XxXs.6.z N.HXvXvXnXFXnXJXFXHXHXFXhXmXsX}.#X+Xd.gX+Xg.m.D.f.N.+X+XL.+XL.@X@X@XL.@X+XL.L.L.L.L.L.K.K.K.m.g.n.m ( _.oX&XOXOXQ.l.y $ pXqXF.3.iXeX",
" X{.C.C.;.' =.,XCXCXCX<X2 b b b Z B j -.4X<X3X,X>.;.;.;.;.' = . O a O + 5 ;.! 5 ; I VX,Xw 2 , Y aX+X+XD.@XD.f.D.D.+XkX@X@X@X@XgX+XF : b ( N.d.N N N W y.t.u.t.t.t.Q b b V A Q Q V s.] , m g m Y g g N B v g g j , v , , j n , > ; ; , L N.m.m.w.m.L.q.d d.H.+XD.f.f.f.D.N.s.b Y Z.+ g ` ; , : : g h g g g g h V y.y.h F f.D.F f.m.L.@XD.x q.g.l.g.g.x.8.8.8.8.P.c.NXOXOXOXOX*X*X*X*Xu.A E E } Q 9.K.mXaXL '. Xn O > * = #.>.^ = t $.p . N.oXK.K.K.K.L.K.g.g.W ` F.2 * & * 1 q q * 1 1 1 * q q 7 q * 1 * = K }.`._.}..X.X#X#X#XzXj.B.S.L.oXD.D.K.K.K.%X@XL.K.g.gXm , 2 : y.D.9.g.oXf.9.f.l.l.l.@Xz z 7.7.l j.OXOXoXk.OX*X`.V f.l H.HXjXvXGX].K iXtXF.hXhXeXwX;.zX.X(..X(.}..X.XsXh.N.+X+X+XL.L.L.@X@X@XL.aXkXmXkXL.L.L.K.K.K.m.m.n.h F K.oX&X&X&XOXA.1 8 qXwXpXpXqXw ",
"'.'.V.;.{ &.3.4X,X,X,X3._ [ / ) ) ( E ( ( Y _ ` [ [ [ [ [ ) h.k.h.h.s.s.k.k.s.s.s.Q Q Z s.s.S N.L.+X+X+XgX+XV f.m.G f.D.q.g.K.L.@XgXg.V 9.q.F g g Y m b b b b b , , , m V F A W V s./ - j n b Y m g , m N v : , n , : : 2 ; ; O O J &.I I -.O.T n.n.-.T S n.aXL.g.f.f.m.N.s.D C.{.v M.: L  XsXsX X|. X(.'.'.|.L + n N f.f.d.: H ; : k R D.D.: n Y / ` d 8.I.8.I.7.gXOXQ.Q.Q.z.z.z.l.h Z W Q E Q V @XJXcXM.` , ; = > 4 1 .   a ^ 1 t @.> S.%Xg.m.L.K.L.K.g.f.D Y &.4 & 1 7 7 7 7 * * 1 1 < 1 * 1 1 & * q # ; g d g j m L / [ [ h.s.A.D.K.D.l.l.l.c.K.@X@XoXK.D.mXZ.; 2 ; f.D.A j.D.y.y.f.f.f.f.gXg.l 7.7.l l.*XOXk.) R.*Xs.: jX:.].HXcXvXGX:.~ G.:.G.-.=.-.K M cXI 2 M *.K I ; _ d.d.D.+X+XL.L.L.L.@X@X@XaXJXKXjXL.L.L.L.L.K.K.m.N.h V oX&XOX!.OX%Xf.@  .iX$.=.4X#.#.",
"Z.Z.{ ;.M.*.] ] E B E Z ) ( E E B B B N / / ] ( E ( W E W W W W W W Q Q W D Z E Z b b v : v C.N.g.D.K.+XgXMX+Xh m g - : x L.@Xg.K.+XoXf.C q.S d Y m g g g g g g , , , m b W A Q V y.n + n N B b m b , m N N b g j g g n n , ; K Z.'.F.y @ w J _ Z. XsXn.R 6.L.+Xf.f.F S ( ( F ( g *.Z.O U :.G.GX'.|. X|. X'.mXZ.+ I H.S.d.N.m : + . O - T n.N v v M 4 + f L.w.8.8.P.+X'.V.F.F.:.:.F.C.B B } B v : q.K.l 7.7.8.0.9.w.9.g.+XD m J 2 < a 4 +Xl.C q.9.m.g.D.D.f.D n 1 @ 1 * * 1 * 1 * * * 7 * q * % # % & * @ : c 7.z z l l l f f d x L.g.K.g.g.g.l.K.oX+X%X@XoXoXgXaX, , : d.g.9.g.g.V 9.f.g.g.g.j.S : d h g l.*X&Xk.$XQ %Xs.v rX> wXHXcXcXnXtXJXwXG.eXwXG.G._ / cX_ I M *.I > ` C.f.N.D.K.L.L.L.L.L.@X+X@XkXkX@XL.@XL.L.L.L.K.D.m.d.b x c.Q.Q.Q.Q.oXh O +.DXpXuXiXpXpX",
", : , , g g v v b N N D E E ( ( ) d.B.M.: g g b b b b B Z Z Z Z Z Z Z B B Z Z A b b b : L aXjXC.m.D.g.g.D.gXkXL.q.T x G +X+Xx h f.K.+X+Xf.q.h h D h b b V b b g g , g S V y.Z A C f.Y - v Y v v D m g g m g , g n n n n n , `  XsXrXF.K @ U H T U H.G.J S f.m.gXD.j.T : h S m , O I U I I -.O.H.dX.X|.rX.X|.fXN.R R N.|.}.H.d h S Y ; + . + N d.N.n.J - - n.L.7.8.8.L.aXhXeXZ.#X).A.}.d.: n , n.m.q.g.l l l l l l l f 9.gXx k d ; < a K $XK.q.g.g.m.F y.Z ( ( _ y @ q * & * * * * * * * q * & * y w 1 < O : c 7.7.7.7.z 7.7.z z e.w.L.K.g.g.l.D.D.g.V f d n.T : ` n ; j f.f.C g.g.C y.g.g.g.f.S , 2 j n , Z OXQ.j.b t.%X, -.Y : dXGXcXcXvXGX].tXJXvXvXKXnXcX.XfX$X$X#X|. X XxXS.s.j.m.D.D.K.K.L.L.L.L.L.@X@X@X@XL.L.K.K.K.m.g.g.n.h 9.c.z.E.Q.Q.l.d @ H q.0.P.P.P.w.",
"zXcXnXFXnXnXnXnXnXnXnXnXHXnXnXnXnXnXHXvX, g b Z D Z D D Z Z Z Z Z Z b b B Z Z A Z b d n.jXjXcXH.D.m.K.g.K.L.kXkXkXkXkX@XmX X- - k T f.g.g.G d m h b m b m S S g : ; g S b W Z Z Z s./ - v N v , m m g m m g b m S m m j k T H.H.n.H.'.:.1 O.O.I U -.F.;.m H.S.$X$X+Xf.S j - + , S.kXk H.4Xj n.H.U - ; - O + T q.R k ` C.+XD.: d m.K.D.f.n.: . . Z.n.n.T L : K.I.r.e.R - - 3 ; + - 3 - j Y ] M.|.hXvXFXvXDXDXtX].Z.T h q. X: : : ; @ @ I +X@XL.g.L.D.K.f.V n.` L @ * * 7 7 7 % < * * 1 1 < * O I Z.( ` n.J : c 7.7.7.7.7.7.7.z z g.K.9.D.K.c.l.g.q.F d.h G +XS h Z.; > n j.y.9.y.f.C y.f.f.g.K.+X] &.:.V.&.5 }.`.( D `.).+ =.5 v cXnXbXbXbXGX2.<.o.J :.KX*.L _ G.~ ;.G.] C.}.C.S.S f.f.m.f.m.L.K.L.L.L.K.D.K.K.K.K.K.K.D.g.g.g.m.n.j P <.%.,.,.3.<.0 u i H f 7.e.R R ",
"nXcX'.;.'.mXzXzXzXcXdX, zXcXdXdXdXdXcXdXg b B Z Z Z D D Z D Z b Z Z b b B Z Z b , L G.DXqXvXjXS.m.g.m.K.@X@XkXkX@XL.L.@XmXH.+Xf.d T n.d S S m j g v b b b m g g > , , m b W Z Z V W L + m N m j , ; > 2 2 j n j j j 2 : T D.+Xn.k H.|.H.H 3 -.O.b.T H. X*., H.H.n.N.oX+XL.f.f.gXMXMXT D.aXn.I tX2.. . . ; n.b.q.q.R m H.Z.{.n.N.d d T f L.L.k ; J + - , H.h f.K.g.oXK.m.: 3 U 3 < w # # < r O + - ; : k -.J.J.eXtX2.:.:.>.~ I J I w q - q.D.K.m.@Xm.K.L.@Xm.k n   8 7 7 % * % 7 q * * 7 & & < I n 2 ; J - : 7.7.7.7.7.7.7.7.7.z z L.q.K.g.g.l.K.K.D.f.g.+X+XL.D.mX, ; g D.i.f.f.9.q.q.q.f.g.f.K.{.Z.F.=.4 K L ;.}.#X{.;.&.-.n m nXnXcXcXcXFXwXwX2.J ].KX#.y K _ I K 2 F.&.Y y.kXD.f.f.g.g.f.m.D.K.L.K.K.K.D.D.D.K.K.K.K.m.m.D.m.T 2 7  .+.,.,.,. .e u 8 $ 9 9 9 9 8 ",
"M '.'.&., dXcXdXdXcX.Xv Z.nXcXcXcXcXnXnXb B D Z E E Z Z Z F Z F Z Z Z Z Z V h g G.PXiXDXqXhXkXH.K.m.g.m.L.K.q.l q.L.K.kXkXq.kX@XT : f V F F S b b m B b m j , ; ; 2 ; j b Z V Z Z D n - n h m m , , ; + @ O < @ O @ . ; n.aXjX] S D.L. X-.3 O.T q.q.m.H.H.j , -.X.J +X+XoXoXH.HXkX+X@XD.fXcX;.F.J.- O U n.q.q.b.b.q.S J.G.V.C.S.Y g _.d d.kXH.d k j < 3 2 : +Xg.l.g.+XN.- @ @ H w w @ < 3 3 < < 3 3 : : ; - - - - : d d d d : - - < @ O T +Xg.D.kXg.K.L.g.G n.n < u q 7 & @ # @ # # % & # @ @ J j m j 2 U T q.w.w.9.9.0.7.e.7.7.z g.@XD.9.q.f.K.@X@XK.L.K.K.@Xm.aXg ; j K.g.f.K.f.9.9.f.g.f.f.F n._ , 4 @ & t   X     a [.^ 5 L nXvXcXcXcXbXnXnXGXjXhXFXrXrX'.C.C.M.V._ *.` l l @XD.y.f.g.f.q.g.m.K.L.L.K.K.K.L.L.L.L.L.L.L.K.g.d.j w t * @ < < * q * & # % # # % # ",
"dX(.cXnXwXFXFXFXnXFXcXnXcXnXbXcXcXdXdXdXB B Z Z W W W W Q A A W Q Q A Z h g _ eXDXpX].vXDXeXjX; D.L.D.G x f G L.D.@X@XkX@XC L.@X@X+X%XK.q.T - ; ; ; < O @ . O + > + + n b Z B Z D N . . n b v m , 2 3 2 < - < < < 2 + I H.fX|.N S N.aXfX XM ` n.n.m.m.+X+XH.- y I ; - Y j.D.kX+Xx D.gXaX}.fXG.O ~ I : b.T q.q.q.q.q.R n.J.M.V. X{.d.+XW V n.L.T : 3 2 - - M.$XoXoXK.g.D.Y r & # & q # # < < < < 3 3 3 3 3 d d d d f f f d : - =.G.=.=.I d.g.y.V d q.L.K.j.b , 1 #.X.y P #.#.X.X.i q q q q * ; U m m 2 2 3 3 2 2 n U L Y ` f.( f.D x L.g.C q.q.q.m.K.L.K.g.L.kXL.n.: , m D.u.i.l.g.f.9.9.9.y.D v > 4 4 1 . q y J 1 P =.F.V.L > / FXcXjXhXcXcXbXvXvXnXGXvXnX{. XzXfXzXzXfXfXxX+XG x f.f.f.g.m.g.f.g.K.L.L.+X@X@X@XL.K.K.K.L.K.m.m.n.H y %.X.X.$.#.$.P p 1.$.i X.P X.@.",
"rXrX X{.).B.] { ) ( ) E D b b b h b b b V F W F F A A Q t.t.t.t.A b h D *.jXLXDXqXGXeXhXKX2.> F.'.v n.h : S oX@XG c @X@XL.w.L.kXkX@XK.f.q.d - , _ n O O < + ; U :.n - j b F Z F Z N . @ n N m v , 2 < < < < - - < < 3 I n.eX*.L `  XcXjXsX_ &.G.C.H.H.fXmXjXG.I Z.G.-.- - eXkX+XmXmXgXgXgXn.-.O P eXR R T q.R q.R R R T R d k ` H.fXgXS./ S m.L.d ; 2 - Y S.K.l.D.K.oXg.d.+X+XK.m.L.j - 3 U 3 ; 3 3 3 : 3 3 d k k f f f d ; iXIXqX3.qXG.T g.f.q.A 9.g.K.N.: 2 #.1   X o o @ * q 0 q q i P w j m Y Y m j ; + @ O O + O ; ; - , y @ O S G 9.f.q.q.q.g.D.m.G f f.f.( F D ( j.u.c.c.i.f.g.g.g.g.f.D.N.Y Y n 4 J ; g h m m ; + @ . K HXdXdXdXcXvXnXnXnXFXFXcXcXZ., n n *.I 2 C. Xf.L.f q.m.m.D.m.m.K.L.+XL.K.K.K.K.m.m.m.m.q.G S S m L ;   X X p y i P p P X.o.i u | @.$.",
"h f h h x C V C A C V Z V V V V Z Z Z b Z D b g , n , 2 , ; ; O O P qXjXpXPXPXF.FXDXwXtXLX%.. 2.P P w ; T T q.+XH.: G g.c q.K.@X@XK.g.F V : g b Y g - w < - > 2 , j ; j b A Q A Z N . @ m m m N n , 3 2 2 < < ; 1 < 2 I -.-.< y F.F.sXfXrX&.y F.J.H.D.D.aXdXeXL *.H.+XL.m aXHXmXm.f.gXxXMXaXF.I > 4XJ.f R R T R R R R k T b.k - - Z.mXfXZ.Y R L.T : ; : D.D.oXl.l.l.L.: + < j q.m.q.I 3 < w < ; 3 3 3 : d d d d d f f d - G.iX4.3.1.qXZ.g f.+XK.K.K.K.+XS > &.=.p X X X # o o # X X # # X o 2 j m S Y J - < 2 2 2 2 2 n 2 , j L > - h g.G q.q.G 9.q.f.+XH.T b T : m Y : g m m D D F F f.f.j.j.K.D.g.g.f.D.oXD.D.D.D.A.N.N.S.d.] HXvXnXnXnXnXsXcXcXZ.sXmXsX` Y *.! n K n (.}.S H.D.m.q.f.D.K.f.F F F F T S h d : S q.g + - , g d U 3 o % $ X X $ @.,.s $ 0 q # # # # ",
"n , n n 5 4 4 > > < * & < @ @ < @ o #   @ @ < 2 - ; 3 2 : - - #.iXDXiXqXiXKXwXbXGXtXwXeXKX].G.1   * #.O.m q.b.q.L.9.h h d D.g.m.K.g.y.h , g b g b V F m + O j j : , ; n b F W A Z D + O L S m N j , > 1 1 < ; ; 2 - m J.wXP X # o.-.G.G.*.I . q X.U T k O.G.:.a . U n.H.L.kXm.d q.mXHX+XK.kX Xn.: O.T d R R R q.R R k R R R b.R d - }.gXM.m G m.q.: 3 - f.K.oXD.l.K.f.f q.T ; < K _ {.Y 3 - O @ < 3 3 3 3 d d d d f f : =.iXP 1.iX^ qX].: g L.oX@X+Xq.g ; &.$.%.$.$.t X   X # # # # @ & & @ 3 m Y m m m > < 2 2 2 j U m j , j J 2 - : D.f.x 9.f.g.m.g.g.D.m.g.f.: +  XZ.- j , ; ; ; > > , n n , , m Y m ( s.f.f.k.A.S.N.D.D.oX$XHXdX'.;.! ! L Z.L + n dX|.] (.B.B.M.] Z.#XsXsXN.S n.G q.g.D.D.G : : g m j - - : m.@XT : g k h T n.m U U k T T H H H H w & $ $ 7 7 % ",
"@ o & & o < 1 ; ; ; , j Y h k m j 1 < @ < 2 j m k g S.C.- j ].FXjXtXqXqXFXGXG.tXFXJX].[.LXqX-.F.y * . w o.X.P + : R S x x T d V y.F F Y : g b V C A F b : ; , j g m - j V F F A Z ( + + m b m m n 2 - < < < 1 ; < - T H.wXa q X.i w O.G.F.F.y q #.I O.T T G.G.F.u q r I J - m m.mXD.d d d +X+XH.m T n.d k R R R T q.q.c R k R q.R d d kXN.b c L.q.k : - y.oXoXoXl.D.x f K.g.L.L.f - T U Z.n.H j d : : : : : : : d d : I [.U.a qXpXt iXeX-.- m m L , + , ` ' &.$.@.%.$.%.i o o o X X X o & . , Y m m S j ; - ; 2 2 2 n , , j n L 1 + h D.g.q.q.g.D.L.g.g.T 3 3 r @ . , C.g m m g g n n , j n , > , > , j n j g j v g , , v N D D / n N ` [ h.N.[ C.M., /  XZ.] {.sX X).) M.fXcX{.b D.G q.m.m.+XaXD.q.S d S f.D.+X+XkXL.D.K.m.m.+Xd.d.( m h f.q.q.q.w.w.q.n.: m C.I < ",
"2 2 1 1 - m F V b m b g {.d.V S g 2 2 + < > , j g d m j Z.tXjXtXiXwXwXiXPXjXG.tX2.PXjX2.PXwXy qXw O q & o i -.J . . ; j - Y H.S S Y m d.] : V V V V F h g j , n v m : v V F A A A ( + + m m m m n j + 2 < ; 1 3 ; j n.+X-.w P <.o.I k H.sXqX-.y -.-.-.J.H.aXgXgXgXgX%X+X+XaXD.D d d k d H.kX+X_.C.' mXn.d k R q.R R R b.R R k R R k : ` H.S c L.D.T - - y.oXoXoXoXy.x m.m.f G c k : H ; - 2 T f.9.6.6.c G l l f l l m G.3.3.i qXF.y iXG.F.n , O . 2 S m.T : &.$.%.%.@.$.$.=.2 3 , 3 > @ @ O ; m m S N , - < 2 ; > , , 2 , , , j O + F g.g.g.g.g.g.m.n.H o 6 & & @ ; 4 n , : g j j , , 2 j : , , j , g g v N v g g v n N N N , > , D / / N Y Y N L ] / N ] n v L ! ! C.Z.D N.C.M.#X+XF F m.K.m.@XkXkXL.K.D.+X@XK.g.+XK.g.K.K.m.f.b / ] j : T R c c S h q.f.S n.N , K ",
"> j w 2 O n ( V m g j b S V F h : n 2 - ; 2 j j g g : -.eXjXpXiXtXqXpXDXjXDXPXeXeXFXGX[.G.J J -.G.F.J w 2 . o r P y + ; T +Xm.F g j ` Y N.d.: b C A F b g : j N g v : g A W A t.t.( + + J g b m n j - w > ; 2 ; ; U S.aXU H -.-.-.J.T b.aXwXJ.H H wXmXmXmXmXkXkXmXmXkX@XkXD.S d n.mXG f +X@XgXaXsXL dXfX` d k R q.R c R R q.q.b.T f k k n.R c L.aXf.- m +XoXoX@Xg.f x D.9.q.T - 3 - d q.q.d + O m n.x C 9.6.9.6.9.x C.].3.$.X.iX$.a iX=.K _ N.N.Z f.g.C f : 4 =.@.$.=.^ @.2.-.: k k g m j - : m Y m L j j m j 2 j H j j j : ; j Y n.g.g.K.g.g.S 2 # X     * w @ 2 I m m m m m m j g , n N n , - ; 2 , g g v j v , n ` D ` / / Y C.C.C.` Y ` N n g , L / / , : : n L N n M M m E d.D h T f.g.f.w.g.K.L.L.@X@Xg.g.K.kX@Xg.L.L.m.G Y ' ! L , k d d d : d f f T 2 - m F ",
"j - < @ + n f.V h g h S V F y.b g Y 2 + 3 3 j k k : G.jXpXiXwXjXwXeXiXPXDX[.bXGXeXjXJXhX:.-.J y G.GXjX; , H <     i I , Y d.Y n , J _ / ) #XY d C 9.9.V g , , m , n , v F t.C y.u.s.- + L g v m M 2 + ; ; ; w - - -.aX X3 O.J.b.n.n.n.H.aXaXeXm T mXkXgXgXgX@Xm.D.+XaXgXgXd.+ 2 H.S d f.D.+X+XfXrX2 j T n.m d k R q.q.q.q.R R q.m.q.f R R R c L.kXm.: +X+XoXoXK.q.l 9.g.f.+Xd ; j 2 O ; m k G x d T x c 6.x C c l G tX%.qX@.=.iX^ @.pXP :. XS.j.l.j.d T h T L #.%.$.a ^ >.>.:., : d h k k : g m S b m g m m j 2 3 2 - - n _ G. X+XgXK.g.T , G.#.. o @ J Y n.J O < 1 < 3 , j j j g j j j j n j , 2 , j j , , , , , L Y m m , > N M.N N m D Z.Z./ N n 4 , n v v Y M v , M N / / d.M.v : f.f.g.D.m.g.m.K.@X@Xg.g.L.L.kXkXm.m.L.m.q.xXHXHXJXJXvXbXiXtXwXG.;.*.M._ ` F 9.",
"S S m 2 + n s.V b k g S V q.y.V h Y , + ; 2 m S : *.DXG.iXqXDXiXeXeXDXbXJXJX].jXDXwXDXJXqXDXqX2.=.:.5 G.T m S m @   @ y y y L L _ , L L L H. Xh V 9.F h g , , , : n , v W Q Q u.t.s.+ + L g v n n , + ; < ; w ; + _ hX X2 J.H.J.m.b.H.H.fXmXdXC.}.mXkXkXgXkXgXkXgXK.L.K.q.T - 3 m d D.L.f.+XH.aXgXY k H.aXd k R R R R q.q.q.q.6.m.m.R f q.q.c K.kXm.g.oXoX+Xl.F D.f q.F f.D O < 1 U 2 - - h 9.9.G x z c C x 9.x d eX3.$.qXp G.tXa =.wX:.HXfXb C.fXd.F f.g.l.oXd.#.a @.$.$.1.2.n g h h m g g g g m j g g m g - + - n *.C.H. XG.V. XZ.4 = #   2 _ d S q.f.T L _ 2 O < @ @ O O @ < 1 ; > 2 n , n m m n j m n , ; : / v , n L L M '.;./ *./ Z.C.[ L n , > , v / B.{.N v , > v N ( ( _ , : Y q.f.m.K.L.L.L.K.g.L.m.l q.K.K.g.K.K.m.S g L Y d.Z. XtXhXvXHXJXLXKXGXFX|.D +X",
"k m T U > , ( V h g g b A y.y.V h n j ; ; j k : J FXqXqXiXtXFXtXeXiXiXqXwXPXKXqXjXbXwXPXiXqXDXiXqXK ~ hXeXY T f.d.Y @     t K *.*.n , _ ] [ {.d.V t.F b g : , 2 : n : v y.Q Q y.t.s.+ ; L g m m n , - < H 3 2 ; - -.dXwX2 G.aXL.m.b.L.aXrXnXnXsXaXmXmXkX+XD.D.+XgXgX@Xm.N.` Y : T S F 9.q.D.K.gX+Xd.q.H.mXT d k R R R R q.q.q.6.q.m.m.c f b.c m.m.g.oX+X%XD.( : f G q.G T : ; q U J 2 j d S 9.x c x x C C c c f -.jX@.3.1.p pXqXP #.hXMXcX+X}.S.fXj.y.P.v.v.K.A 4 ^ $.%.$.$.=.~ g h h m g g g g j d j : g Y  XH.H.+XgXkXgXkXfX> 1 1.X . 2 m h f.f.x Y , , 2 ; -.I > - ; 2 j 3 ; L h g b g , ; ; ; ; , > 2 , n / j ; L Z.Z./ _ N , / L ` Z.] ` N , , v / / M.sXN.` N n n , v N N L , : m ( f.g.m.K.K.K.K.L.@Xm.g + + - m L.D.f.m M 5 M 4 , ; ; - + - ; - , , D A j.d.",
"j , : 2 ; : f.A V h g b A y.y.h d m j ; 2 j : - tXGX2.qXwXhXFXeXpXjXjXqX%.pXKXPX[.FXtXhXPXG.pXiX2.P I F.G.] m T q.q.T L @   @ 2 K L N N.M.N N.S.V C 9.F S g g m g j : b s.t.t.t.t.s.+ ; Y g b N n , ; 1 2 < w ; - I G.2.X.wXH.aXL.+XaXaXH.fXkXH.gXgX@XkXgXgX@Xm.c S m _ g U n.k k T Y m j j q.$X( S.G.K =.G.Y d R q.R R R R R R q.q.c q.R f q.q.f.oX+X$XoXy.y.d - T 6.e.e.z 3 y 2 < 2 H : h G x x x x C c x f S qXqX@.qX$.@.iXG.a F.MXA.S.N.M.D d.N.9.g.%XgXg.x v &.^ @.%.%.#.~ v h b b b m g j m d : - ;. X_.gXmXkX+Xm.kXaXmXH.O J m q.g.K.K.g.G m : - 2 I &.].'.G.K - 3 j 2 g ( V S S S k j , - 2 n , : g ` Y ; n M./ L j , 5 ` Z.M.Z.[ N / N N / ] ] M.{.fXd.N N n ! n v L 5 5 > , j S f.f.f.g.m.K.g.m : d m m ; + - g n.Y : rXC.v ! ' ;.Z.Z.;.] ] / L b C D.` ; ",
"j : - 3 < - f.C F h d b A y.F d : n.j - 2 j ; G.hXwXqXeXwXPXjXwXiXtXGXLXpXX.iXLXjX].JXeXPXiXG.UXeX1 J -.wXI : h d f G d.L 4 .   o K GX{.{ ( ` C.#XV A V h d b m b D , b s.A A t.t.s.+ - Y g g m n j + ; 1 < 2 < O -.F.P H J.H.H.aXmXmXjX X_ N.f.L.D.x q.f.D.@X+XgXN.Y ].+ + U U - U H U j j n g : +XkX XI U O.H k R R R q.q.q.b.q.f R m.q.f f.K.@X@X+X%Xf.x c G j - f 7.8.e.j 1 . 1 w 3 : k G x x x x G x f b G.qX3.p qXp %.DX1.a hXrXcXGXdX] gX) N.d.V gXD.C A / ^ ^ 5.@.$.=.K b V V V h g : ; ; - + :.eXrX{./ g H.mX+X+XkXaXkXD.D.gX@XP.L.L.G d : : _ F.[.].F.V.'.].F.J - - , D Z F D S b n , ; N S b b N.Y : , ` Y Y n ; M M.{.S.C./ / ] M / N L m N ` ] {.N , M N h.M.N ` v n > ; J g S f.f.f.D.n.d d T m.w.g.q.c x d T T ( HXmX{.*.v ; ; , v M L / f.y.D.S.] M.",
"J 3 : j ; - y.C Z V b g Z A 9.F S j , : , : _  X:.tXG.hXDXbXwXvXtXeX=.GXLXiX%.GXPX].vXbXvXJXqXpXDXG.y y G.eXd f S V F f.g L *.4 . ^ hXG.n _ M.*.JX|.g G V d m g h D : v s.A A A t.k.+ + L b g n n n - > > < ; < + F.4Xo.U H T H.fXGXnXhX*.` D.D.m.H.S : n.d d n.aXS L U + < -.n.; - - j L ` Y : n.+X+XgXaXT T H.k R q.R q.q.b.R k q.b.R q.@X%X%X&XoX%XD.S h c q.q.l z 7.r.8.R ; O q 1 3 n g T l x c x C x h G.4X3.$.p 3.a 2.DX2.P J ;.wX- m +X$X#XaX+Xm.f f 9.9._ P a p $.=.$.K b V V b F S g T N.T H.jXV.|.mXmXT : T kXgXgXgX$XgXS.S.+XD.f.g - , _ G.].G.V.F.V.F.G.F.].wX'.J - h D b h F D j 2 ; j m d d.` - U L j n n , M ] C.{.{.Y ` ] L N [ N ! , n v n L , 4 , N ` M./ {.N M Z.n n 2 : D D.f.q.G g.K.g.q.G G c 6.g.m.T ; O &.nXnXcXfXrXZ.n : ; > , A l.N., n K ",
"m k k m 3 - y.C A y.V h A 9.9.A S : 2 < - 2 G.:.].wX#.2.KXiXwXjXtXeXiXDXDXKXjX3.JXhXtXFXiXKXiXqXpXPX3.2 4 _  XT m F F F - n m / ] |.2 . y K _ L eXJX` V S g b b V F g b f.t.C A t.k.- + Y b g m m m - 2 > > @ O w -.2.G.H.n.T n.'.].eX-.I Z.N.+XaXH.m.d D.m.d T T k n.I - < J.H 3 ; 3 j T m m d.D.+X+X+X%XgXL.L.k k R q.q.b.R R b.m.q.l g.gX+X$X+X%XoXF h S q.F : d R l 8.e.R ; @ q y 1 ; : T l f V x x V C.qX1.1.@.@.=.a iXDX^ > ].I + m S._.xXmXMXaXgXf.d F D K a ^ %.%.$.@.K b b d f.kXkXmXkX@XaXM.L {.M.: +XkXkXD.@XkXgXgXaXgXfX-.y > = > ~ '.wX'.F.2.F.F.V.'.F.G.].].tXhXZ.g h b d g j , ; ; m b D n.g : I J - L , M / Z.*. X/ d.C.] N M.C.M./ v / / v / / n ; ] N , / C.M.N C.M.` ` n - Y m.g.D.D.m.g.g.m.m.m.L.L.T - o o O V.cXFXFXcXcXhX X*.b V g.D.g , n n ",
"m m m m J - f.F V V V 9.9.9.A A g j 2 ; O J wXjX2.2.qX#.eXqXFXDXG.G.iXPXwXGXKXjXG.jXiXGXiXDXPXqXqXiXDX#.-.> 2 {.n.S F h ; :.F.F.vXqX4 > . = y a K V.sXb m g b b V S g b p.t.A Q t.s.+ + ` ( g m N m , 2 3 3 - 2 -.+ + < H H.rXeXG.2.& O H.kXD.f.f.m.D.x h m : j - J ` Y ; - G.H.J.J.U : T S g T d.H.+X+XD.+X%XgXT d k q.q.l q.b.T k f m.gX%X+X+X%XoXF h x q.T : - 3 k f 7.e.k - r q 1 2 + , S x x x x x m _ 2.=.2.a =.^ [.jX=.K 2.~ > ; , fXKXmX#XxX+XmXgXn. X+ P @.%.p 5.@.#.K n g D.%X@X@XL.h - > K &.:.> 2 ~ *.H.kXgXgXgXgX+XaXmXT - , L ].wX].].[.F.F.[.[.F.'.'.].].wX[.&.'. Xj h m : ; ; ; g m g N.` g n J ; ; n Y v ] [ / V.] M.S.C.Z.M.Z.C.M./ ] M./ ` / m v M.|.N , N Z._ > N / ] _ n - G q.q.D.L.@X@XL.P.L.L.k . # 6 @ l 7.7.q.#XnXvXdXbXHXD.C S.: ; n n 2 ",
"m m k j 2 - D V V V V A 9.9.9.F h g Y 2 O eXPXqXqX4XF.eX#.&.FXGXiXG.2.pXiXDXiXDXjXG.iXDXiXpXKXjXqXqXDXGXG.2.2 - Z.d.D H.hXLXDXFXiX~ hXhXF.. . * 4 > sXd.v ; g g g b b g p.t.t.u.t.k.; + Y b g m D m - , 2 2 3 H T j X.I 3 : H.dXG.#.O J kX@X+XD.f.q.T g : j j T n Y N ` n j J.J.L.H.J.H : T : m S T H.+X+XD.oX+X+Xd d R R R T R k R G @XgXoX+X@XoXF V f.G T < < 3 k e.l z e.k - y 1 w w 2 J k h h x x V ` K P 1.[.1 $.=.tXK :.[.$.=.y O 2 Z.mX+XN.%X+XkXgXf.gXS.&.y P ^ %.%.^ M b j.mXH.( S *., ;.Z.*.' &.wX].'.[.Z.S.@XaXaXaXgX+XmX X- ;.rX].F.].].].F.].'.'.].'.].].].:.&.F.wXdX;.: m m j ; - g h ( S._ - j ; > K n ` M ' ] M ;.] L ] fX).] / v ] ] M.{.{.] N N ] ) ] *.Y n J L > 4 > > 2 -.m : Y n.9.C q.q.G R k O X 9 6 : 6.0.8.8.8.7.9.cXHXMX{.d S.jXG.n ; , j ",
"h m g j J - b F V V V A y.C 9.y.F g _ - J KXjXbXqXiX=.pXqXjXG.FXbXiXjXDX[.2.FXqXDXeXF.DXDX].bXPXpXpXpXLXUXDXKX^ ; -.Y d.wXG.iXGX&.tXDXtXGXiX%.. . #.rX, ] L , : : m m h y.t.Q Q A k.- ; L h b S S m - 2 2 , 3 3 3 3 I =.G.I - J #.< Y +X+XH.+XN.h g U - < y 2 , L *.N.( _ Z.Z.eXH.L.J.H.n.T : - T S d.H.oXK.D.D.aXg 3 3 H T R R q.q.c +X+X&X+X+Xf.d L.aX; + & < 3 k e.z z 7.6.d 2 q y w 3 j m h f h g Z.eXF.a p 2.* >.=.^ ~ tXG.>.2.P . $.~ A.@Xm.L.K.g.gXF N./ 4 >.@.$.%.$.J Z.gXD.( C.O . Z.' _ F.F.].eXF.F.].qXwXZ.H.gXgXgXgXgXgXfX_ [.>.;.! F.:.&.].].[.[.[.].].].:.F.eXwX].tX].d h m j - ; m m {.C.m - U , I n : _ 2 , Z.n M _ M _ wX! , v ;.M.` N.] ).] ! / M.C.v M L L : > J 4 1 1 < 2 L y . & & @ & * $ X $ 8 & ; x 0.8.8.8.8.8.8.7.l @XaXg N.mXdXhXrXG.2 ; ",
"S m m *._ - h y.F C V A 9.f.y.V S j *.; G.DXwXG.$.jX>.eXqXPXG.I tXDXiXPXJX=.jXiXpXDX<.iXGXqXtXDXDXqXqXDXDX$.PXiXF.L F.> + , L Z.].jXjXjXwXDXDXiXK =.    2 _ M.M + + - : W t.A A A s.+ + Y h V D b g - J L : 2 - > =.:.:.:.G.:.2 + ` H.K.D.S.D.S b Y I < @ w ; : ` D ( N *. X-. XaXkXwXH.aXvX:.O Y f.f.f.D.oXD.f.+XY .   3 k R R R R x kXgXgX+XD.h n.H.b.O & q @ ; d q.z l e.e.l - % q 1 1 j k d f : U hXiXpX1.= y 1 p P qXG.qX].^ P P y y ~ v aXD.f.L.F D.f.D , > #.$.@.$.$.~ ;./ > . P I - ; Z.hXtXwXF.2.2.].].].|.wXZ.fXkXgXkXgX+XxX|.;.'.' :.rX:.:.].].].].].].].:.[.eX].].].wXrXg d h : ; ; v M.).( g ` j U J + + J 1 O I n L ' ' ' ! 4 n L |.'.M./ L n M.{.] ! Z.L , v L _ L - 1 J w 2 < 1 _ I 1 * # # X X * y j c r.r.8.8.8.8.8.8.8.8.7.7.9.y.fXnXzXdXrXcXdX' ",
"h S d.m _ : h f.F F F F f.f.A V g g j - G.jXG.qXeXiX2.eX4XDXhXG.=.].jXGXJXG.JXiXqXPXG.3.PXeXiXtXGXqXpXpXPXqXtXwXeXeXG.#.O 4 n *.vXeXiXjXwXhXtXvXtX2.#.. . @ 2 n ( S.S.F A Q Z Q Z s./ - N b b Z S h : L m : j - G.eXF.&.]. XrX|.D.+XD.g.m.j.( m j j y < o o J  XZ.O - ; 2.G.w =.G.eXaXJ.Z.cXGXK - ` T n.D.m.D.g.L.D.3 @ O @ 3 3 R R G +X@XoXm.x h T G b.; O r < < d e.7.l 7.e.l + X X   @ 2 j d : : ].iXiXqX3.p 1 = ^ F.qXqXqX:.#.$.=.=.%.#.`  X$XK.gX+Xm.G j.( ] L #.@.%.#.y = . + m h m.c S T tX].].F.:.[.wXwXeXtXZ.v d.gXaXkXkXgXgXmXG.&.>.[.].>.V.].].wXwX].].].F.[.'.].].].qXtXY g Y g , ; m ( {.N m C.J J < @ O y > 1 I 2 2 J G.! + K V.Z./ N C.C./ , C. X/ M *., L / Y *.*.n O @ 1 < O U I 2 & 0 u P P U w H U S c 9.0.0.8.7.7.0.7.z z w.K.f ` HXdXjXnXwX' *.",
"S T m m T ; g ( m h h F f.u.9.V m j , - tXqXeXjXG.iXG.eX].iXhXhXhXK iXDXGXqXKXDXiXpXeXP DXbXeXqXDXUXqXpXDXDXtXbX=.bXtXeXI F.;.-.jXjXtXjXjXwXbXtXtXhXbXhX#.. + |.MXMXxXgXF h h V b D d.g D b V S m g : m m : : U H.y < o 1 _ d.+X+X+XD.K.L.f.f.N + < * *     1 y *.3 ; ; G.F.o % o.O.J.J.O.J.wXF.+ j m T N.j.f.m.oXD.q.T H @   o + H k D.K.oX` - : T m.H.-   * r 3 R z 8.8.7.e.l ; # * t o . - - : eXjXG.].qX3.@.O K :.:.qX].[.>.1.3.=.=.y . ~ J ` F m.n.: , b d.+Xd.&.a 1 O . ; n f.%Xf.f S h ` dXwX].G.>.wXwXwXtXF.n n v N.gXgXxXgX$X$XgXC._ ;.F.F.].[.].].].G.F.:.[.].].].].].wXtX*.d m j ; > m M.#Xv ] L 2 1 @ @ @ J @ 2 P ; + 4 F.n O , V.M.L M ;.*.*.L v ] ] ] L n M.S.C.] *.&.2 + 2 U 1 - 6.w.z f 3 & 6 p O.U 2 P i 2 9.0.7.x.+XgX9.l 6.K.D.d d mXnXnXC.v ;.rX",
"S S S m m : : *.n g : : F f.F h F S : j wXiXqX3.1.iX].qXqXtXbXqXLXqX& PXKX1.DXFXiXtXDX$.wXGXeXG.eXPXqXpXiXPXqXGXG.tXtXtXDXPX~ , *.GXhXjXbXiXiXjXeXDXDXiXjX].S.xXgXD.: - F k.+X+Xf.y.Y , F V V D b b d S Y d : U I I U I H.+X+X+XoXD.D.K.oXN.d.g - w H w & o $   w I : _ tXeXo.w <.O.O.O.U U G.tXO.3 H m T d.T N.D.m.q.b.q.R R T 3 + d n.K.m.: k n.m.q.b.3 O o < U R 7.7.8.8.e.z H i q i q . , +X+XaXmXH.N V.P 1 &.a 4 2.[.2.F.G.=.3.3.$.$.t q < < 3 : 3 - , n m mXM.. . = t ^ L f.G F F h h g H.wXG.G.F.2.tXtXeX' M , L ! v d.+XgXgXkX@XgXmX'.G.].].].F.].].G.2.>.:.F.F.[.].].[.qXeX*.g m , ; ; m N.Z._ M.2 @ @ & O 1 #.> ; w < < J &.> , n L _ n n _ _ 4 > - 2 I 4 n ! L Z.M.M.M.` K 2 , _ Z.: l x.r.r.r.0.c - < * i #.; k 7.7.c.$XoX$Xf.9.l.K.x f d aXJX*.v  XcXdX",
"Y m m m m , - U m m g g V F f.D V b : J hXqXqXDX=.iX].].[.eXvXG.PXFXP F.KX2.bXjXtXiXDXjX3.PXeXG.[.PXiXqXpXDXjXtXjX].bXF.iXtX2 L g ` G.hXbXbXeXjXeXF.eXjX].aXgXkX+X- +  XmXMXgX%XgX+X/ - D b b g , ; - j k j ; ; G.Z.N.+X@XK.oXL.g.g.m.D.f.f.Y - ; j U H <   # < - : - n.sXtX2.w <.J.J.H.J.-.G.vXn.I k S m b T F D.m.R b.q.R b.b.b.H .   o O : b.q.q.q.b.O.O & * 1 j l 7.8.8.8.z 3 i 1 1 ; -.HXmX+X+XkXH.n.; 4 >.^ t t qXF.qXG.G.=.@.[.qX#.1 * q + J j j m Y - , V.~ . %.3.1.#.K Y f S F h h C.eX2.2.2.^ 2.:.Z.*._ n > n M n , / _.kXmXkX@X@X+XC.].[.].G.F.].:.>.>.>.F.G.[.].].[.].wX_ g T : j : m Y M *.-.; + < @ + 2 G.#.O < @ = I K > L I ~ M n L / ' n > < O O 1 4 L 4 n M *./ _ 4 K *.L M./ f 0.0.r.r.r.r.0.d < < - z 0.6.K.%X`.$XgXi.i.K.S x G 9.l.f.) bXKXJXDX",
"S h m m Y m ; ` D D S d.y.y.y.F d.` g Y jXDXiXDX%.tXqX].qXwXDXG.GXDXjX#.G.GXGXwXqXtXhX#.=.IXjXG.wXPXDXqXtXtXPX[.FXqXGXbXG.iXhX].*.v N L jXvXbXtXeX=.P =.hX|.gXgXj.d fXMXgXK.oXgXxX}.+ O N g g d.oXN.- + , , - : C.j.D.K.K.K.K.K.g.m.m.m.f.Y , + 3 j U j I 2 j U j 3 d J.aXaXH.H O.J.J.H.J.O.n.jXwXI n.: m m h f.H.R q.b.b.R k b.q.b.b.d @ 3 q.q.q.b.b.b.n.; @ w n Y f.q.7.7.7.l + & q < ;  X+Xm.D.K.+Xf.L K :.P t * @ qXqXG.G.qX=.^ %.qXqX1 . @ O J T k T Y 2 #.K $.^ p 4.1.$.~ ` d S F d  XHXmXsX'.Z.;.]._ N N N n Z._ , 5 5 M ] n.+XaX$X+X@X+XG.G.].].:.].;.;.F.].].].wX].].].].eXm g S g j : ` Y , -.K ; 2 y y I + I -.O @ & > I 1 > I ~ L 4 K I _ _ J 1 > 2 > I 4 2 J + 4 J n M M ! / ] M.n.h 9.0.r.r.r.r.r.r.7.f l 8.8.9.%XoX%X%Xf.9.K.G l q.g.g.w.7.9.D.#XfX|.",
"m Y S g Y L - ` b m g D s.y.Z V F b : -.jXDXG.DX#.tXeXqXqXqXDXG.FXFXiXtX2 F.DXjX2.].G.@ 3.UXDXF.qXDXPXeXqXtXDXiXtXbXtXKX3.jXDXiXbX[.L n K hXvXtXhX=.i qXdXaXgXgX+X%XmX%XD.+XmXxXY : +Xn.: : H.+XgXxX%Xj.: : - j D.g.g.m.D.K.D.g.m.D.m.f.( N : H : j m m eXH.*.aXJ.: f H.aXaXaXT U J.n.H.H.b.b.aXfXL G.U O 2 U n.R R R q.b.b.R l R q.b.m.b.b.q.q.q.q.q.b.J.: . % # & w n ` l.l.l.( 2 w + - S.L.D.K.L.D.f.H._ y y y . 1 qXiX[.>.qX[.@.^ @.3.pX1.a 1 1 H U Y U ; P 1.1.3.a t =.&.*.m h b b D MXxXgXgXgXM.! '.M v ;.;.v ' ' N ! M M ;.N d.+X+X%X@X@X+XZ.G.qX:.F.V.:.].wX].].].G.].qXqXF.g h S g j , Y ` O -.J 2 1 ; I F.+ < I < 1 1 < y > L n K 1 @ + y O @ < < y #.I I > I _ 2 2 , ~ ; ; L M / Z.Z.g G x.r.r.r.r.v.v.v.r.r.8.8.7.9.%X$X9.9.K.C x D.sXrX;.` f.g.7.7.7.7.",
"S S m Y m g ; ` F Z V y.A A F F S : : G.<.<.2.FXP eXtX].].qXbXqXjXGXtXhXiX+ 2.KXtX=.G.qXu qXDX3.qXhXPXjXG.tXiXPX].FXwXFXG.wXDXqXpXPX]._ , L  XnX].P 3.eX XaXgXxXgXgXgX+XgXxXaXd - cXHXd.h aXkXx K.gX+XmXS.- - j m.f.g.g.g.g.f.m.+XD.N.T Y : < H H d m m M 4 2 wX-.: f.+XfXmXdXG.~ G.H.H.L.n.n.eXnX*.n.J.  o # O k b.q.q.b.b.b.q.R l l q.b.b.q.b.b.b.q.b.n.j o X # X & < O + = L d.A.A.j.V f.m.D.m.K.m.T J * t & q   pXiX[.3.^ #.qX[.@.#.@.$.@.* a 1 O 2 U w . 1 #.$.3.3.= 5 Z.n.g m m D ( +X+XgX+X+X2 O &.K ! rXcX*., M ! / _ N _ rXY D.+X@X$X+XgX$XC.].F.=.2.&.[.F.3.3.[.].[.&.G.*.d G h d 2 - Y n.O 2 :., I > O I 1 O & < < < & @ y -.< y < . 1 y q & o 1 J I K 4 4 I -.2 2 J -.2 - 4 n L _ L + d x.v.v.x.r.r.v.v.v.v.v.v.r.z c.g.9.K.C x l.oX#X;.~ K 4 L ` D.x.0.",
"S m m m m n - ( V F F s.y.F A h h k n G.F.jX[.vXI ].tXqX].wXjXwXiXPXiXiXiXwX2 tXPXiX3.iX4X<.DXqXG.iXFXFXwXwXiXGXiXjXtXqXqX2.GXeXG.iXDXtX*., L  XeXF.F.|.+X$XgXgXgXgX$XgXgX+Xd b MXxXN.m , N.kX9.c @XK.gXgXY - m j.y.f.g.f.9.f.D.K.D.f.` L . @ 3 j n.rX{.*., - J.J : m.+XfXnXnXwX~ G.eXeXaXH.J.eXHXV.U :.o o & O R b.T q.q.q.b.m.b.q.q.R R b.b.q.q.q.q.q.b.T O % & o   O 3 T U : @ < 2 U ` n.f.m.g.+XY . o * 7 # @   wXqXqXpX[.%.1.qX3.$.1.@.o   = >.* = < @ . 1 @ q 3.1.$.~ S.S d S Y T S h V +X$X/ . * :.L 5 v _ *., 4 n M _ _ 5 '.'.Y +XL.@XgXgX%XaX{.F.:.~ *.sXfXsXwX].[.].G.wX*.d G h g 2 ; g m , O J y 4 I O q q @ . & * @ q @ w w @ 1 @ @ U < r w 1 & 1 1 y J 2 > U < ; 2 J 2 < < < 2 I Y - S x.r.x.r.r.r.r.r.8.7.7.0.v.v.0.0.l.9.l g.G m / ~ ~ ! ! K 5 K S.S.",
"m S m n n j - Y F y.F F F 9.A V V m - 4XhXJXG.hX&.:.dX].qXqXhXeXeXKXtXiXpXDXjXy wXjXbXJXF.G.jXqXG.eXbXPXiXqXtXjXGXqXDXtXiX#.bXbXqXwXjXwXvX~ M M F.rX+X$X+X@XgX$XgXgXgXgX$XD.#XMXfX( - '.K O m T d d D.mX+XkX; - f.g.f.f.F V g.D.g.m.f.` > . O ; T J.eXhXtX:.I =.> , H.H.aXjXhX X&.F.wXH.aXaXT J.nX*.> F.o $ 7 @ H R k R R q.q.b.m.m.m.q.R q.q.q.q.q.q.q.q.O.+ q y I j 3 : k q.q.3 @ o & @ O _ m Y Y @ X # & % &   1 3.qX=.^ t 1 t a %.$.1.t * * < >.P   o i y < w 1 3.$.=.Z.n.h h D T ` S b h d.H.+ . @ ~ n > , n v 5 5 O = n K , K  XL d.+XoX+XgXgX$X$X|.Z.M  XxXgXgXgXgX+X{.].].: g h d m : j h S D g O < @ y < @ & w y O q & q * * & & @ O 1 y < @ y i & @ * 1 w w < 2 w w w 1 1 w q o . P j - T x.r.r.r.r.r.w.z z 9.c f d C x.c.g.f z K.q.- O 1 K _ ! ! ! a 5 5 ",
"( D j U j 2 - Y F 9.y.A y.W y.V b j - eXiX3.qXeXG.-.hXG.qX].tXtXwXKXiXiXwXiXGXDX2 =.DXGXwXjXjXqX].qXiXPXbXpXqXiXhX=.vXhXiXF.eXDXeXqXjXF.DXwX_ v L |.+X+XoX+X+X+XgXaXaXgXgXgXxXD.M.hXtX~ _ K @ O 3 : +XgXy.mX X+ S m.j.f.f.D.m.f.f.T T U   X X.-.T T Z.G.2.o.q r o < O.R -.G.F.:.2 P <.J.H.H.-.-.eX#.w J.# % % @ k b.q.R f k k R q.q.b.b.b.b.b.b.b.q.R q.b.b.n.- > T 8.e.f d f R 3 & @ < = J P @ o X # & * q &   * DX2.1 p %.1.$.%.p p @.%.1   @ . %.P * i i * & 1 y 1.p =.L ` h m D Y ` D S n.Y 1 X % o > eX X_ _ ' ~ ~ ~ 5 > > 5 4 Z.V.g B.+XD.+XgX%X@XgX$XN.+XgXgXgXgX%X@X+XS.C._ d S k T d g S F F T 2 . .   & & w y 1 < 7 o & & * o * * q w 1 < & & < < & i i < & @ 1 2 U w @ * q * & # @ q @ : w.r.r.r.v.x.x.z 7.v.v.v.0.x.K.g.d G 9.x.x.0.h - . @ 4 I ~ ~ ~ M ",
"T U n , 2 2 - Y V A A A 9.y.f.( j ; O G.PXt F.hX].I tXG.].G.eXiXqXKXUXiXeXiXDXLX2.#.*.G.DXbXGXiX2.wXeXGXFXtXwXeXwX=.tXhXeXtXqXDXtXG.iXG.iXqXeX:., {._.+X+X+X$X+X_.$XxXgXgX$Xd.H.hXtXDXG.j Y -.L ; - gXgXy.gXkXgXF f.g.y.q.m.f.S x S U <   o 2.J.-.T J.].G.=.i r @ U n.T -.G.F.=.o # X.U I O.U U G.F.U =.  X % o @ U H R m.b.R R k k l c R q.b.q.q.R b.m.R q.kXd.: S e.7.d ; d 3 < y q 1 @ P I 1 @ # # p & & & o %.1.%.@.=.$.p %.$.4.4.$.=.$.* o o & i p i & & o X.p t %.=.K S h m Y T d.T V S.j . $ % o P K tXFXwX:.4 M *.L ;.L _ L !  X XN H.+XD.+XgX%X+X%X@X+XgXgXgXgX+X+X+XH., :.g S h S : j S S b S m g S ` L ; @ w & q * # & o @ X X X & y w < & o # & & < q & @ & q < r P @ @ r < & & * * q : 9.0.0.r.r.r.r.v.r.7.6.6.c.c.x.9.0.v.v.v.r.v.v.r.9.d +   . t ^ ! ",
"J > > < w 1 + Y F y.A A A f.y.F k - + J LX1 $.pXwX#.qX].qXqXwXiXF.KXDXiXeXiXjXLXqXvXF.~ iXDXDXhX=.qXeXjXPXiXtXG.tX:.tXjX].pXqXbXeXF.tXG.tXqX[.DX&._ _.oX+X+X+X+XH.aX+X+X+XD G.jXtX2.tX~ - J U n / D ( f.f.gX@X%XmXy.F y.q.G c x S S : 3 O U O.O.O.T J.4XqX=.P < < O.J.n.J.aXtX].P X.-.-.-.n.O.I wX XJ O.o # q < 3 T q.q.q.q.b.b.q.b.b.b.R R f R R q.R k f H.kXaXj d e.8.r.8.e.f + i P 1 y #.w @ & o q p # $ X * qXa 5.$.@.=.3.qXqXqX6XqXqX3.1.%.i * & o # & & # t 8 %.p #.> j g m Y Y d.T T I O # & o 1 ^ [.> =.jXjX~ > + M *.! ;.n _ _ rX X/ +XD.D.+X$X@X+X+X+XoXgXgXgX+X+X+XS.+ J ` S g j : j S h h S S h 9.f.g.f.; O < & @ o q 1 O _ +X` O . w < @ # * * * & i & o 1 * q * 1 w P P < @ 1 y X.r < ; : : : f 0.w.7.f : d l.K.g.f l x.v.v.r.r.r.v.v.v.v.r.6.: O . % ",
"; ; ; < < @ - L F F V V F y.A F S m k , wXtX3.=.2.:.G.wXG.qXqXhX:.FXGXiXtXtXiXLXqXDXPX-.#.jXKXtXG.qXtXpXGXvXtX3.tXF.hXGXG.qXtXhXeXqXwXqXiXqX3.iX].n _.oX+X$X+X+XgX+XD.%Xj.m rXwXpXG.wX~ y O J U ; 1 > '., T D.x gXgXx q.c k S k , - j 3 H U O.O.q.q.n.H.J.J.J @ w n.n.b.J.aXeXwXP X.J.J.J.J.O.O.wX XU #.. # # . ; T b.R k k k R R b.q.q.q.q.R T R q.q.m.m.R q.D.] F 8.8.7.8.r.8.- q P q *   o * & # # # # # # # qXpX3.%.2.[.[.qX[.qX3.=.2.1.3.qX1.P %.q X # # # * %.q o 8 1 2 j m m Y ` ` L O o %   . wX#.~ hX_ 4 ].bX].M M ; _ L 4 ' , L C.( ` +XS.D.oX+X+XoX+XoXD.+XgX+X+X+X` O 2 T S g j : j S h h S S d : h G q.T : @ % $ $ o * @ L +XHXaX: - r & % * & * & # & & 7 & * & o w o.o.1 < w w P w + Y k : ; O O d c f l c.P.g.S - ; - h 0.0.0.r.r.r.v.v.v.v.v.0.c : ",
"; < < < @ < ; U D F S f f.9.A V V h S m n FX].. K F.:.eX].qXqXtX2.bXGXtXiXtXiXKXeXiXLXiX=.:.JX2.wXG.iXpXiXPXeX3.iXwXtXJXG.qXeXtXiXwXeXjXiXeX2.tXwX` $X+X%X$X+X+X+XoX$X+XN.F.].].G.].Z./ ] L + d x.r.7.R O   O Z.m f.g.g.l c H 3 < ; j G.wXK :.n.n.q.n.+XH.G.2 + U J.b.b.m.aXaXH.U H J.n.J.n.O.O.wXeXI -.. 7 o @ O.R R b.m.b.b.b.q.q.q.b.b.m.b.b.q.q.b.T H 3 O > L ( D.m.n - : R ; . o & 1 P 2 < & & & # & # # o @ . . P @.2.qX:.>.&.M ! M 5 K ~ >.~ P #.. o # o 0 o     #.=.j j Y Y ( ` J . o X o 1 K tXtX~ >.wXtX#.&.jXtX'.' K M ' ] [ ] / [ N n.H.D.D.L.+X+X+XoXK.D.+X@XL.H.g O 2 T h m j 2 g m h h S S d g m D S 9.q.n < & # & # o . + n.HX+X; < & # & o # $ & 7 7 7 & * * & o q i w o.P < < < > +X+XoXK.f.G l c 9.P.&Xg.f.: : j < + d 6.0.v.r.r.r.r.v.r.r.r.v.r.",
"U j J H 2 2 - n T F S h Z A A A F V h m j -.hX#.; &.-.wX].qXqXiX=.jXPXeXeXeXiXGXbXqXPXjXtX#.2.tXjXF.pXiXqXPXDX$.iXiXqXJXG.G.qXtXDXeXwXPXhXiX2.qXtXH.$X+X+X$X$X$X+XoX+XS.C.jX].&.&.&./ Y _ m z x.I.I.P.r.7.: J =.  ; n.f.j + @ < 3 ; wXGXG.-.G.G.H.N.H.fXsX|.2 + O.J.m.m.H.aXaXH.T j n.n.n.b.T O.aX X-.P     O U b.q.R k : 3 R T j > > 3 j H H j 3 < @ o X X @ U J n n [ j.+Xl.F g O   X . y H w < & & * $ $ X X a #.P p $.3.^ ^ ~ { ' / [ ! M 5 K K > P p     o | | @.$.* @ U 2 J U J @   & % # P ^ = wXtXtXF.:.F.'.F.:.tXtXwX:.2 @ 2 J L _ _ Y ( D.D.D.D.D.oXoXK.+XD.K.@X+XZ.- + J S h m 2 : j S k k S h f ( N.rXH.V 9.q.S j < < @ @ < j d m.kXY - & & @ @ q q # & * o $ & q * & # q < w w y w O n.gX@X+XoX+X+Xn.c f.K.g.d.O O ; H j f w.r.r.r.v.v.r.r.r.r.0.0.0.0.",
"j H j j 2 2 + n Y S b b D F y.F F h : , U 2 G.tX4 J ~ wX].qX].hX2.tXKXiXeXqXpXDXPXF.FXbXtXjX2.iXeXG.qXjXeXjXPX#.jXiX].PXqXG.2.eXjXbXG.jXFXtXeXeXqXFXaX+X%XgXgX$X+XoXoX( n qX*.:.L L y @ @ o @ k e.I.P.I.I.I.q.- . # $ 8 $ X q & + I Z.:.#.:.wXwXH.H.+XfXsX X> ; F.].H.H.aXcXjXsX*.I J.J.J.n.n.n.kX XI @   < T R R k k R T U U > 1 1 1 > = = = . X $ * q & @ J J 2 2 2 2 , / _.%X$Xk.N , O @ ; U U < & # # e w @ P y P 3.=.^ =.V.' ! ! ] ] [ ! ~ M K K 4 P @.&   a 3.3.3.1.q . = @ . @ @ 2 4 J K a + ~ F.hXwXtXwX:.F.[.:.].].wXtXwXK ; ; + + = ; j d.D.m.D.D.S.H.oXL.D.D.+X+XI O - I T h m , : j L k h Y d : F S.fXaXS q.q.q.m 3 < < < - k S d m.n.- @ o % % # & # # * # & # # # $ * * q * * 1 q @ I #.P i q 6 6 $ 9 8 9 p i y 1 ; ; - k G 6.0.0.0.r.v.r.v.v.r.r.r.r.",
"2 j U j > 2 - , Y h m d V F F F S g : , J > I G.y ; I G.].wXqXiX].qXLXiXtXqXtXiXPX3.vXGXtXiXUXDX&.2.pXiXDXqXGX^ bXbXF.PXqXqXqXiXtXPXiXqXjXwXtXGXbXwXJXsX$XgX%XD.oX+XN.vX=.a 2.K I < o & w < & - f e.r.8.I.I.I.r.R - o 6 i r i < - U G.w . @ o.-.H.H.aXcXjX].; w G.G.H.H.+XcXjXtX&.-.G.J.H.J.n.H.sX*.o o * -.O.R R b.b.T 3 < < 1 w w 2 2 2 2 4 J 2 1 r r q 1 y 2 4 J J J n , : m A.%X%Xl.Q h./ m j U @   & @.J -.@ P wX=.' G.C.{ / [ ! N N M M K a 4 K a > P >.. o $.y 2 & . - K 1 > I J 2 J n K ^ #.G.2.wXeXwXwXtX'.&.&.;.&.F.F.[.wX_ > K I y 1 ; n d.f.f.D.oXoXD.oXL.m.+XH.; . + T T h g , , : j g g m : n Z.rXJXC.d q.q.T S k 3 - ; H S x : n.H.: - r r % # q 7 # * # $ * % # & # 7 & & * & & & q e 7 7 % X     . t i P o.%.%.&.#.#.P q . - x 0.r.r.r.r.r.r.r.0.0.",
"; ; U 2 2 2 > ; L m Y h V D W F b b j : I I - :.I @ J :.].].].tXeXG.KXjXtXwXiXiXKX].hXKXiXpXjXLXPX=.wXwXPXqXG.=.jXDX2.JXpXqXjXhXiXeXjXbXeXeXeXtXKXiXiXPX+X+XoX+X+X( L _ G.I I 1 @ & # o w 3 3 ; - Y f f z I.I.I.I.I.l + o % i w < @ P =.w & . . o o q =.G.P . P G.H.H.H.+XaXaX XI #.Z.J.C.n.T Z.#.. X X.| @.X.y 2 1 < @ < < 2 2 2 2 2 2 2 2 2 2 J 2 @ @ @ 1 1 w y 2 2 4 J J 4 2 , N S.xXxXl.l.h.g J @ X < 1 #.G.%.].F._ {.Z.` [ B / _ 5 ! ! K 5 5 5 > a 4 4 *.K > 2 > L _ J < @ y y < O @ a ~ 2.>.2.G.[.].].wXwX].wXwXF.:.&.&.F.^ >.[.+ ; 4 K K 4 , m ` T j.D.D.oXoXoXD.+Xd.O o O U T f m , : m m k k : : Z. XcXnXsXm h G G G S m k : m f.G V f.H.: H H < o & 7 & % & % % % $ & & * * # & & # o o i y =       1 P i X.i o 1 P %.&.#.I P ~ P < - f 9.r.r.r.0.0.r.r.r.",
"< < ; ; U I J - m m m h V F F S S Y j + #.hX=.K P > J &.G.wXG.eXtX:.PXDXiXpXiXiXLXpXeXKXbXjXjXGXGX:.wXqXDX4XP qXiXDX>.GXiXG.DXwXbXvXF.jXLXiXiXtXjXLX[.vXsX+X%X+X( L 2 < @ 1 1 # & & o . < 3 < ; ; L L g d c 7.7.r.I.I.7.- X X @ y O.n.n.hX[.%.1.$.8 X * u o   P -.o.U H #.:.:.P * p X.i q & & #     u p p p p @.@.@ . @ = 1 > 1 1 > 2 2 2 2 4 2 2 K y O @ 1 1 2 1 w 2 2 > > n n L n g m S.j.k.B.> <     = a 2 O ~ F.L / C.Z.Z.M.N ] ;.= > K ! ! > 5 N / h.d./ g C.! M ' M./ 2 P 4 . . a 4 :.qX1.#.3.2.~ ].F.[.].].].].].'.F.G.].F.].wXG.> + 1 1 > > ; 4 Y f.f.D.D.K.L.+X+X: . % . > S k S g k Y j k k d ] '.dXvXcXnXHX*.d G G G G G G x G F f.f.m.d j 3 < < & * & o q & # # # # # o o q * 1 q u & < i %.X.& & @.X.y y X.i   q %.#.y P P K I #.1   O k 9.0.r.r.r.r.r.",
"< 2 2 < < 2 w ; U m m g D F Z F V m n . y DXjXeXI 1 2 ~ :.wXG.wXhX=.GXFXtXpXiXiXPXhXqXLXUXG.#.I I I 4XeXDX2.P eXiXPXqXGXqX=.wXiXG.DXPXF.GXPXiXeXeXDXtXwXHX XM.- y X.& 7 # % & 7 % O I m j j n j : m S G 9.w.6.c C z 8.I.c S -.@ o @ y G.$.%.3.4.5.| @.%.| X X s 8 X X # u u *       X X u t % t t t t @.@.| @.| p @.p 1 = + + 1 1 > 1 2 2 2 2 2 2 n L _ J - @ 1 1 1 1 2 2 J 2 j U L L n n n N ] , U K M ~ _ K O ~ > N Y d.] ( ( N [ *.1 1 @ 1 K S.A.f.W W s.) m h.] / ] M.L n G.^ K >.3.2.#.2.2.wXF.G.:.F.2.>.2.].].wXwX].].F.F.].].[.wXF.> 2 2 2 1 ; 2 L m f.f.D.D.H.H.L O & & O 2 m S j : j m m m d S C.rXnXdXdXdXcXmXD f G G F F F G S h f n.S k T T H < & 7 $ X # # $ $ 6 % 7 o & w 1 2 U Y n J   * o.%.q 1 P i y P P y y 2.=.t @ P y J P X.=.w & < 3 k c c 6.9.",
"> ; 2 < ; < w ; L n n : b S V F G Y > . 1 qX=.wX#.1 1 I #.].G.qXbX:.DXPXtXtXtXtXPXJXF.G.1 P G.2.iXiX[.[.qXy G.wXpXpXF.wXjXDXGXDXiXtXPXGX[.KXiXqX].iXGXG.bXy X # $ o < < & q & * . > gXs.b m S.h : m S f.- S w.9.h g , h q.w.I 1 o X p 3.@.4.@.u | ,.%.@.t   # @.@.@.$.@.p p s t u u | @.$.4.$.1.| 8 @.@.| | | p 5.5.5.@.@.a * O O < > 2 1 2 2 2 2 2 n Y ] _ n ; < < 2 1 1 1 2 2 1 1 < 2 J J 2 ; Z._ n L M > ^ ' *.M N / / / / d.N Z.*.> a 1 . 2 _ ) h.h.` , O 2 Z.v , _ ~ *.;.>.F.F.[.[.[.%.5 [.hXtXwXhXtXtX].=.&.&.:.G.wXeXwX].F.G.[.[.wX>.> 2 2 > 4 &.K , m n.D.D.m.S . $ # O 2 ` U j 2 - : m h h g / Z.dXcXdXrXtXrXcXfXm h G G G T T G S : S m S T T T Y ; < J < w w & q u < & < w H U U N b F d.V.O . P P < 1 y 1 y P %.$.i w P % # * q 1 i -.-.J r H r < & & # ",
"2 < < < y 1 1 ; U m L m S F F F h m <   . qXa 1 a 2 1 y P F.G.G.jX2.bXKXiXiXeXjXPXG.q <.qXiXwX=.F.2.qXwX2.&.tXeXiXG.2.:.jXUXUXqXUXiXpXLX[.iXDXqXwXeXFXF.wXy < X.w < < < & q & o . L n.f.g m ` : : m h d.2 . = U T x h m g M 4 O o # p $.$.u | %.$.@.p | s u | $.$.$.$.p 5.@.@.| u u @.%.@.@.| u s | | | @.| @.@.@.@.@.5.%.$.%.^ 1 & O O 1 1 1 1 1 4 4 n L ` _ I J < < 1 < < 1 & 1 1 1 4 2 2 y ; N.H.N.d.n 4 M M Z.M.m N ( ( L L n &.~ + 1 K 5 + > j N n.@ o . ^ *.+ 5 M ,  XV.:.G.G.3.$.@.#.2.^ #.qX].wXeXwXwXwX].G.:.:.&.:.G.].].[.F.G.[.wXI > 1 2 &.#.1 1 2 ` H.H.` + o & @ J J j j j 2 ; Y Y d g g D Z.sXrXrXwX|.rXrXhXdXh S G F q.q.T S S h x S T T T T T T H 2 r < 2 _ ` j j N U j m h b D +X+X%XS.O   w y y t t P #.P t * * * t q 8 & t X.*     < H R R R H 3 ",
"3 3 < y 1 > 1 ; 4 K J : g Y f.S b m O o   qXDXP #.y 2 2 J :.G.F.jXF.eXKXiXtXiXeXP wXGXiXDXqX&.=.jXjXjXjXDXPXbXDXDXPXLXDX=.qXeXqXF.G.F.DXhXF.IXiXwXF.Z._ ~ < < < r r q 7 # * o   P J . 2 U 3 O O N d.: S m j + O ; Y ` F S S D Y L n P %.u | $.%.p | %.4.$.$.%.$.@.@.| @.@.| | +.+.u u | @.| 8 8 u | | | @.@.@.| @.%.@.@.%.%.@.=.1.=.^ y < @ + < 2 w > 2 n L M L L n ; @ 1 q 1 r < 1 1 1 2 2 2 - n.K.0.K.f.] ` d._.j.N.gXoX@Xx.0.g.f.U = * 1 >.K .   1 #.o < @ J ] v v E fXMX]  X:.#.#.&.1.2.#.y 1 a [.eXeX].G.F.F.F.].].F.&.~ &.>.:.F.F.3.].G.> > #.&.K 1 y 2 > I J o # % @ - ` m m k d 3 3 m Y : k S D M.rXrX|.|.wXrX|.wXcXaXD F q.q.q.T T S S S S S S T T T T Y m k m ( ( F m S b h m D _._.%X$X+X+XgX+Xm . @ y i X.#.P i 1 1 1 & * t i p X.X.P p 1     O j R R 7.",
"j 2 H 2 > 1 2 + y 2 , , k T F V S , O %   t iXiXbXK 4 2 2 -.G.F.iXiXwXKXiXDX=.=.=.PXjXhXG.tXDXDXiXDXiXiXDXpXiXDXqXeXtXeXqXqXqXiXpXpX4XtXGXF.GXtX&.L _ > + @ < w < & *   1 1 2 -.I > & < @ 1 < O j.l.f.Z : U H , + . > -.H , N ( B Y #.#.^ %.@.p u ,.4.@.%.$.@.| @.@.@.@.%.$.%.@.%.@.s u @.u $ s @.| | | @.@.%.@.@.@.@.%.%.%.$.%.$.$.$.>.2.$.K > + < 1 2 2 2 n n m L K > O & 1 < 1 1 w 1 1 1 1 ; q.f.g.L.D.N.N.D.D.g.g.@X@Xx.v.r.r.v.F , K 2 4 ~ &.2 . q @ y + *.xX$X).xXHXzX,  X> = ^ >.P a 1 -.[.4 > I ].tX XwXtX X].].eXtX[.2.:.[.[.[.3.2.].>.K &.I > 2 4 2 1 t X X $ % @ 3 U S S j j ; ; j j m j m g / {. X'.'. XrXrXrXsX-., ( F F T F T T T T m h m S S Y Y F S F ` m g g : D s.A.+X%X%X%X$X+X+X+X+X%XgX+Xn y @.#.P i i i y 0 t q y a P p i y p #.P * X X X X X ",
"U j U U j J J ; 2 , N ` T h h T Y 3 o & # . P bXPX#.J J J I F.2.eXjXqXPXDX<.%.PXiXGXJXeX].eXtXG.wXeXqXG.eX].eXeX].wXpXqXpXFXvXhXvXjXG.F.vXZ.F.I 4 _ ~ O @ o & & @ & o < Z.` -.J . w J 3 - m Y W k.l._.d : j m k Y J ; y > #.- L Y b m _ ' #.t p %.,.+.@.%.@.| | +.| @.$.%.%.%.%.@.%.@.s u X # p | @.%.@.@.@.@.%.@.@.%.$.%.%.$.%.@.$.$.$.=.1.2.>.^ 1 + ; 1 2 2 J J L U J < 1 q 1 q 1 q 1 1 < w + ` xXzXMXB.F K.K.l.9.8.r.r.v.v.v.r.x.9.v *.5 = 1 1 = o o * K O |.xXxXmXMXMXfX{.|.~ K a a a t 1 =.:.*.*.' ;.;.;.:.F.'.2.G.].wXwXwX].F.>.#.^ ~ >.:.K K 2 1 1 1 2 J y   $ $ # O 3 m U m , 2 ; ; H j j j m : v M.{.C.Z.;.;.F.F.y   . , ` T S T T G S S m m m m T S T s.s.}.+X_.S.A.D.$X%X$X+X+X+X+X$X%X$X$X$XgXgXC.J ~ P a y i t t y 0 t X.X.i X.i u q t | @.X.i 8 # $ $ ",
"2 2 3 H H 2 H < ; 2 m m j : d Y U ; @ % % X . :.DXqX2 I ~ > *.:.2.wX:.JXwXa jXLXG.wXFX].qXiXqX4XiXiXpXpXpXpXVXVXiXDXGXGXhX2.=.2.2.G.F.:.].L n L Y M.-.+ O 1 < 1 J + Y Z.1 1 w . . > *.b y.K.c.c.u.j.j ; Y : : 3 j j U w . 1 . 2 U d n ( W S.C.M #.@.| p p p | %.| | @.@.%.$.%.$.$.$.4.$.% # @.%.| | 5.| | @.@.@.@.$.%.$.%.%.$.@.%.$.=.1.$.$.>.>.2.2.#.- - 2 2 > J L J J w @ * 1 < 1 1 r w 1 1 + ` +XH.D.y.g.v.i.9.l 7.8.r.v.v.r.v.x.S 5 1 1 &       X   < 2 O / gXxXxXmX+X}.mXmXM.L ;.K ~ >.M V.;.' _ :.V.G.Z.' '.;.F.F.:.>.&.>.F.].wX[.:.>.:.F.:.1 . = 1 4 J P & o o # % . n Y k j g J > ; n m : j L g , U ;.F.;.;.:.-.q # X $   < U S S m m m m m k g g m S D ( _.+X+X$XgXfXgX$X$X+X+X$X$X$X$X$X$XgXxX+Xn 1 | P y P i i y 1 * q p @.#.P i q 7 * p p q * 0 X.i X # ",
"; ; 3 2 2 2 J 3 3 U j m T Y h Y J + & * # #   @ =.tX*.*.J ; _ Z.F.bXbXhXI hXiXDXGX2.].FXKXPXhXvXHXJXHXJXGXFXKXFXvXnXtX].dXwXbXbXqX].bX&.L n n *._ / M.d.y.l.l.f.j.s.I O + I L _ _ Y d.s.k.l.l.u.l.( . . m d.` g k Y T 3   $ * . , n.s.( / / ;.#.t p u u p | | @.| | | | @.@.%.%.%.%.%.1.$.5.@.%.1.4.5.@.| | p | %.$.@.@.$.%.| @.%.@.@.%.$.$.=.>.>.>.2.2.4 @ 2 1 y J J 2 y @ # & * 1 w w 1 1 q - m f.j.g.C g.g.l.S.f f 7.8.r.r.8.r.8.m 5 5 ^ a ~ ! &.#.-.:.I @ . - ] _.%X`.%X+X).C.Z.' ~ K Z.M.C.] ;.' M M.HX XC.G.. = #.F.wXwX[.2.2.:.F.].].[.].tXtX^ 4 I K J J @ # & & # @ U m m j 3 j > 2 n j j m m j j 3 : L ! ' _ w o X # $ X . I T j j j j j j m m m m m S D s.A.S._.+X$X$X$X$X$X$X$X$X$X$X%XxXxXn.@ 0 @.P a y P p i i q y P o.X.X.u 7 $ X t | q q u X.X.@.t X ",
"1 < < 2 2 3 < r < J T T g n m J 2 @ * $ o #   i w J :.:.2 I U -.:.vX].#.tXwXpXqXJXFX:.F.wXtXhXF.2.G.G.qX=.F.G.:.2.2.2.qXDXpXG.qXwX].=.n ~ ' n _ / L / / , j ( j.Y , , I / L n K -.I , N.j.l.D.y.l.9.c : O O Y f.F D ` , . # 7 0 . , C.D L n J P i i i u p | @.| @.+.@.@.@.@.@.%.@.%.$.$.1.1.%.5.p @.%.$.$.@.p | p @.@.@.@.5.| %.%.@.@.%.%.$.$.$.>.1.=.1.2.t ; 2 2 J 4 2 J & & q r w y 1 < r w + ` }.sXfXfXS.+X+XS.d d 7.7.8.8.8.8.9.m 4 5 > M.V.' M v > , _ M._ . . . + v ] *.+ K #.&.;.M V.}.S.fXxXxXxXxXmXmXsX{.4 @ t * t $.2.#.P P P ^ :.wX].F.[.:.5 < w U 1   $ # # # @ n k m j 2 2 > J U j , n L g , 3 ; - 4 ~ y q q % # o # P I U Y m j j j j m S Y Y Y S S m / n.S._.+X$X$XgXgX%X$X%X%XgXmX#XJ @ P %.p P P K y p a a a @.@.X.i u q $ X X u t q 0 q u P p i y ",
"< w < 2 w w 2 - + - f f : : : 2 ; O o # % #   y o.2 2 J -.I 2 -.-.DX2.2.].].3.tXpXjXqXDXtXF.qXiXDXjXbXiXtXGXvXDXGXpXbXDX>.&.wXG.' K n n _ _ n ~ _ / / *.; n + @ . 1 Z., > 1 O y P 5 , m W l._.d.` d 8.e.f - + j y.d.` , . # @ X.P . *.L U 1 & q @.t p p u | | | @.@.| | @.@.%.%.$.$.$.$.$.$.1.1.%.5.5.5.| %.$.%.@.@.p p p @.@.@.5.@.@.@.%.%.%.%.$.$.1.$.1.1.1 1 w w 2 y y o   @ q 7 @ q 2 2 w O {.mXB.gXmXf.9.w.m.f f 7.7.8.8.8.7.c n . ^ KXG.rXFXJXJXbXF.' v  X~ + w 2 v C.rX, ! ^ V.~ 5 { #XxXMXmXmXMXMXzXmXfX{.n K p t * o * s t t t 8 * t F.eX[.&.^ + w P o o $ $ & o 1 U m Y , 2 3 2 n n : , j , , j ; < J &.y * q 7 & X q u $ $ o < I I H 2 2 2 H Y T Y Y Y m m F d.A._.+X$X$XgXgXgXgXmXmX*.; < p #.P p p K P X.P P P ^ P X.t 0 * X X X X * u t 0 u t u p y -.",
"w 1 w < < < 1 s ..>X>X>X+.p ^ ~ y 1 * % % &   y =.#.J w J K ; I P hXG.iXwXqXqXG.eX<.iXUXDXPXjXtXDXjXDXpXiXiXqXqX%.G.wXG.].tXZ.n M ! L K _ *.n _ _ L M.Z., , - 2 + -.*.g B.M.. t @ > / d.j.+XA.d.d.M . X X o w ; - ` H.:   $ o q #.+ I w 1 * # 8 | @.p p u u u | | | | @.| p p @.$.$.%.$.$.$.$.>.$.$.$.p p 5.@.%.4.4.$.$.$.$.$.@.%.@.@.@.%.%.%.%.$.=.$.$.$.1.p > 2 2 w w y O   e q o w w w 1 q ; m H.fXmXMXmXg.g.N.g f 7.8.8.8.8.6.q.n > FXHX'.FXjXhXcXnXnXcXN H._ O J n N.fX.X_ M K :.~ 5 &.C.j.%X%X$XgXfXxXxXxXrX; 1 8 * * i p 5.5.p | a p t 1 =.tXwX[.2.2 a o # $ & & @ < U j Y , , , , n Y N j m N g j j I J 2 < q 6 o X q i o * * & # o ~ V.y   X o @ n Y F D S m D ( d.A._.+X+X$XgXgXmXaXj @ t a #.P i @.P P P a P i p P @.P t & X X $ X X   8 0 t u t t i i t ",
"< < 1 q 1 < J u 1X8X8X8X9X>X+.&.-.=.#.& 6 % 7 X.F.K P P y J 1 J P iXtXF.GXtXqXtX:.F.qXqXqXiX=.G.qXqX2.-.2.#.#.#.3.wXiXG.:.L 4 , K _ _ I _ ` n / I I M.I ; 3 J n : Y S.j.A.N.d.E N.{.S.` j v d.k.l.`., > Z.m ; w 2 - #.= o # # q i q q o # % u q 8 u u  .| +.| u p p p p u p @.| p %.@.@.$.$.$.1.1.1.1.$.p a @.%.@.@.%.@.%.$.%.$.4.$.1.$.@.@.%.@.p %.$.%.%.%.=.1 1 2 1 1 w . o q & y w w 1 1 2 ; k d : S y.d.Y j , : f 7.8.8.8.8.6.f.[ ^ LXGXrXcXcXnXnXcXfXmXN *.~ O 1 2 |.[ n _ _ Z.*.rX|.].^ . N +X%X%X%X%X+XgXC.+ * * t a @.@.@.p p p a u t p 1 t qXeX[.[.a . o $ # # O 2 m m N j j ; j L L Y j N L : m H.|.hXJ @ & # # q i & # * o 1 2.> . 7 $ # & 6 X X ; Y ( F D D D D ) N.A._.+XgXxXn.> 1 y i #.P y P P P P a P P P P P P p 0 1 0 u | p i u i i i t t i P i p ",
"y 1 < & < i < 7 9 :X9X8X8X9X+.^ P a $.& # #   I I L I P P #.y i y jXLXF.].JXFXG.:.G.].].tX:.*.G.G.Z.-.2.=.=.2.tXGXGXG.~ K n 4 2 L ~ L I I *.L _ *.M.M.: ; - < : b A.h.d.j.A.D.A.A.)., - U - m j.y.l.c.i.p.oXl.D > 1 P @ o 1 & q 1 # o o # & & * 8 8 8 8 8 u | @.@.| | u t u p p | @.%.@.qXpX%.1.U.3.3.3.$.a t p p @.@.@.p ^ @.@.@.$.$.1.1.%.p p @.$.| @.$.%.%.1 2 2 2 w w . * & w w 2 2 1 w 1 - x 9.d : - - ; - l.%X0.7.8.0.8.8.9.C A $X}.dXdXJXJXPXKXGXFXKX;.;.:.O 2 ; fXM./ C.sXzXZ.! C. XZ.4 . . + J J n 2 > :.1 = 5.@.@.@.%.@.p p p a a t a p t 1 ].[.[.qXP   & # & @ J m m m n j : 2 N m m m m N m _ K ; wXtX@   & t 1 * # & # . I M.Z.P o # # 7 q 6 # X . n T F ( ( D D ( j.A.+XaXJ O y y P #.P a p y P ^ P P P #.#.P P P P i t i p p i p p P X.p X.P P X.i i ",
"# o o # i & & 7 $ +.9X8X8X9X>Xs * %.t X X   . y =.L I I 4 #.w P O 2.LXDX#.:.GXhXF.qXpXpXqX2.pXiXiXeXtXwXF.[.vXvXrX_ L > n _ n n I ~ K L - ~ Z._ L _ ~ + ; : ( k.l.l.s.W j.D.k.D.l.N.; < =.@ + n g V k.l.p.A i.c.A.g J @ & % & q < @ @ & * q & # o % 8 8 8 8 8 8 u +.@.%.| p t p @.| | %.$.3.1.1.1.3.U.3.1.$.8 8 u u p p p @.^ @.%.$.$.$.%.4.| | @.* s @.@.@.X.w 2 2 2 2 y . < r w < 1 1 w * X O V 9.9.6.x x x f c.OX7.7.8.8.8.0.6.b v N.f d F H.fXnXFXnXsXcXN _ -.O w ; {.fXmXfX|.sXZ.+ / Z.N.] ] ] &.I > 1 y J qX4 a @.p p 5.^ %.%.@.@.@.p p t t p t @.wX2.=.* X $ % o @ J L Y m n j ; j m j L g n L -.I y a . I #.. t q < q # & o = &.;.*.@ $ % 6 7 7 % # % % o < Y F D E ( ` s.N.C.> = t q P #.P a P ^ P p P P P #.P P P a a a i t t i i i P i i p i P p P i 0 q ",
"  1 0 i *   o i 1.,.9X8X8X9X<X| | 0 # X X * o 3.GX#.~ P y #.y P w q G.vXDXG.=.tXcXHXJXFXG.rXhXrXF.Z._ &.F.iXGXI 4 4 _ 5 K &.n n ~ ! K J 2 ; eXGXiXtX*.g s.p.l.l.s.j.s.W A.p.u.D.oXd.O o 1 O , N.s.V b Q k.u.Z y.l.d.> & @ * # 1 q & # % # & u 7 t o % 8 8 0 8 0 8 8 t | @.@.%.@.p | p | @.%.$.1.1.3.qXqX1.4.@.# 8 t t t u p p ^ @.@.5.%.%.t $.%.o 8 @.%.| @.y 1 2 2 2 2 y . q w y w w 1 + > ( %Xg.l 9.0.i.9.C l a.&Xb d 6.9.0.z V j.Z f.6.z z z z z 7.z c +X: / K . < 3 S.k._._.S.B.*.- ) )._ > > ' / ] M.M.M.V.F.a p @.^ #.@.@.@.@.^ @.%.@.p t t t t t [.F.K . X # X X @ 2 j m Y m j : m m m Y v L -.K y y 1 o O -.r w q q < @ & . _ Z.n.1   $ $ 6 7 % % % 7 % # X @ K Y Z D f.j.B.n < 2 t P #.P P p a P P P P P P P P P P i i a a y i i i i i i p p p P u q 0 & * ",
"G.3.| %   @.=.F.&.s 1X8X9X>X+.y .     * t #.#.P jXwX~ I a #.y P i y r =.DXPXG.P -.[.hX].K &.~ ~ ~ #.qXDXPXtX^ 5 2 4 &.K M &.n M _ L K eXeXqXiXUXvXF.v F j.l.y.s.s.j.s.s.k.k.u.l.K.A.2 & * . v D.l.l.l.u.p.k.s.f.p.( O & q p * o * q & < 1 & P * t 0 X # 6 8 8 8 8 s t t 8 s p %.@.| p | | %.$.4.3.U.qXqX3.$.$.$ X % 7 8 0 u u p @.p @.| u u | t t %.%.p | p < w 2 2 w w 2 @ y 2 y y @ > N.%XxXHXm.f C 9.x.0.C C oX&Xl.t.A l.j.V t.c.E.Q.6.9.@Xl 7.7.0.7.9.+XD / I O o O S.A.j.}.B.h._.E s._.` n 2 1 + 2 @ . K ~ :.P ^ ^ ^ @.@.@.^ p ^ P a p a t t p a * ^ :.4 1 q & # % 1 < ; g j n L : m m v L ! &.K U y 1 @ & r w < r r q q # & @ M.Z.P   # # # 7 7 & $ % % 6 # $ % o 2 Y Y m N.S.- q y %.%.@.P P P P P P P P P #.P P a i P i a a i i i u i i a y p i i q 7 # X 8 ",
">.* t a %.qX=.9 ..9X8X8X9X..8 y . % p t P :.t . qXiXqXI K #.P P X.q i y 1.iXjXvXvXhX=.~ tXhXeX].wXeX2.^ = 4 n 4 y y -.L n _ J 4 K F.qXKXbXbXiXF.K O W A.s.W W s.s.j.s.p.a.c.a.i.i.D.: & q O j B.f.f.l.l.l.l.g.k.A.m . # # P q   & 1 y J y ; 2 ~ a y % X X 6 * * $ 8 t u u s * t u %.@.p @.@.$.1.1.U.qXqX3.4.4.u X # o o $ $ * t u u u 8 s * t %.@.t # 8 p q & w 1 2 w w w 1 2 J w + Z $X%X%X%X%Xc.9.9.0.v.i.c 9.oXW.W.a.i.z.z.z.z.z.c.Q.t.a.xX%XK.0.0.z 6.oXj.h.M._ _ M ).#X).W A.#XS.v j.+Xd.N > > y J 2 n &.' :.a a ^ @.#.$.#.@.@.^ P t t t t a t p t o 4 1 < 2 M [ h.j.s.( m : - 2 - , N ;.;.M 4 y y q # 7 q q r q r < q 7 & * @ Z.*.O # $ $ % 7 % $ # # 8 7 $ % $ $ X 2 Y Y M.m > P #.#.P P P P P P P P a P I X.P P P P i a y y y i i i i i i i i u q 7 7 &   #.",
"* #.3.1.^ $.1 $ >X9X2X2X-X9 8 a P p * ^ &.&.*   qXLXiXX.K #.J P %.1 y P #.=.F.eXbXtX-.].[.&.~ ~ 2 ; ; ~ > L -.J J J &.L L _ 4 I wXLXpXGXDX2.y + b s.s.k.Q W s.f.j.j.u.oX&Xc.z.z.OXl.+ & * O ; n.D.s.k.l.l.l.k.j.A.> . & * P i & 1 2 w < , / W k.) E [ ! 1   X * % $ % 6 0 u t t u t | $.@.| %.%.4.3.6X3.3.4.4.@.o o o o X X X X $ 8 t s t s $.t X $ 8 t t o & 1 2 w 2 2 4 4 2 2 - Y %X&XoXoX&X%XD.x t.Q.OX!.i.i.&XW.W.c.z.a.a.a.z.z.z.W.9.9.%XA.).mXkXl f %XW.c.a.p.oXD.oX+XS.s.).}.D v s.}.j.D n > , 5 > J ~ &.=.t ^ @.@.^ #.$.@.^ ^ p a a p t t p t t t . 2 / ) h.j.h.s.h.s.) ) ] L , : / C.rXhX4 < < & q q & & * * * < q & # & . >.y   $ $ % % 6 % % # $ % 7 % # # X X . I ` *.J i e i P i i a P P P p P P P P P P J P P P i i i i i u u t u u u 0 q 7 6 6 $ . 2.",
"=.1.i $.t 1 < 9 9X2X1X9X+.8 %.^ ^ ~ &.&.P t p   G.jXeXqXa #.P P -.1 y J #.=.-.=.-.J #.-.2 + ~ K 2 4 K :.n I *.K y J &.&.n Z.].bXDXLXtX*.J - g d.D.l.p.s.Z y.y.s.k.s.Z s.l.t.i.c.OXf.- < < @ + I A.l.k.j.k.l.l.l.M.- & # & i u * 1 > Z.B v ).j.k.h.s.k.l.h.! o X $ % # $ $ % 7 t t t t | | @.p p %.4.3.3.4.$.4.p # & # # # X # X % $ 8 | t t * t @.@.u t 7 X & y 1 w 2 1 w J y - b gX&X&XoX&XoX%Xl.x t.oXMX_.p.a.&Xc.c.c.E.z.z.a.i.a.z.Q.9.f gXgXmXmXzXsXfXxXW.W.Q.E.c.i.oXoXl.k.A.N.E ) }.}.M./ n > 2 2 > [ ] C.&.a ^ #.#.#.@.@.@.p p p t t t t t a a p * > h.j.s.) E [ [ B W B.h.s.`.`.] _ L 5 '. X. @ q q o # # # & & & * # # o t =.. & % $ $ & 7 & % o $ % # # 6 % % $ q X.P w q % & % % 7 t t y y a P a a P P X.X.P X.X.P i u q * & # o X # X # o o # $ # X . [.",
"a t %.X.t q ; u 9X8X8X9X>X8 X.t %.=.#.#.P @ t   1 tXKXeXK #.P P -.y U 1 2 #.2.-.#.K n K I > *.K K M M &.n n -.4 5 4 M L , nXDXiXqX-.@ O + ` _.l.l.k.A y.Z ( f.f.y.s.D B ) g b V Z m < 7 q 1 & 2 S.k.Z j.k.p.p.l./ . * % * p t q q ; Y oXB s.) ) ) h.h.h.s.B.;.1   $ # # $ # $ 6 t u u 8 | @.s u @.%.%.$.%.@.4.%.# $ % # # # 6 8 8 8 % 8 @.3.%.| t 7 8 0 % X * 1 2 4 2 2 2 K 1 - oX%XoXoXoXoX&X%Xl.9.t.c.oX9.i.i.W.&XQ.c.z.z.z.E.E.W.a.t.y.A $X#XsXxXmXfXMXmXW.W.z.E.&XA p.&Xt.u.`.s.W A.A.+Xh.v , > 4 > ; V.h.;.a p ^ ^ %.=.#.@.^ ^ p a t t t t t 0 t @.a ! (.s.E E [ E E Z gXmXmXN.] ` ~ ~ L K . =.a & # X # # # @ @ & & & & #   %.i o # # $ $ % 7 & # # $ $   y <.#.#.%.p q q % # # % & 7 % * 7 7 1 q i i P X.P p u q 7 &                   X X X X X X       >.wX",
"$.1.& @ t t P s 9X8X8X9X..^ P #.=.= a I P a t * O jXiXpX=.#.K P =.J -.2 < a J K J 2 2 K #.> ~ K 4 2 1 ~ J > _ n J n _ *.M. XK < . . - D k.u.y.j.f.Z b d.Z s.s.s.y.s.W b k.f.u.u.g.h + < 1 1 < - d.s.W j.k.p.p.A.2   % % & P a q t 1 : H.h.s.k.) h.h.h.h.h.) s.B.4 o # & # & $ $ 8 u t 8 t p u p u p | | +.%.,.+.o # # # X $ 0 u u u p 8 8 u $ % 8 0 0 q X   1 w 2 2 2 2 y J ; g +X%X%X%XgX+XoX%Xl.9.g.x.P.x.8.0.c.&XOXQ.z.z.i.i.z.W.W.x C V oX$X$X$XxXfXgXgXW.z.z.z.W.9.l.oXu.oX+Xk.s.A.Z $Xj.D C.> K 4 + M.l.j.K * 5.%.#.$.^ p p ^ p t 1 t t t t t t p 5 ;.h.E ).MXMX_.B W xXxXMX Xn ~ ~ K a 1 X . ' ! < & X # X # # # & #       q # % # $ # $ % 6 & & # # o # %.o.P i q $ $ & % % % 7 7 q 7 % % & * q t i t 1 o   X o # # q q q q y i i p i i i i p y F.].V. XdX'.",
"1.a o X q @.>.u 9X9X:X9 t ~ #.%.P = =.P &.^ 2.%.  X.tXeXDX1.4 #.#.~ *.I I #.1 #.K y 1 1 I 1 y P y y J &.4 _ &.J J 4 K J > + . ; m f.k.l.l.k.W s.W b k.Q A f.s.y.y.W y.V s.y.u.p.D.: < r r < < - N N.W y.y.y.f.N.; # # # q p P t t 1 O *.N.s.k.s.h.s.j.h.h.s.) h.M.4 @ $ # & $ o $ t * % $ t | u s | | p | @.,.| # # # X # 8 0 u 8 u t u u * u u 0 0 0 #   @ w 1 2 2 2 2 w J > b &X%X%XxXNXmX+Xg.9.q.w.x.L.P.K.g.g.g.i.c.W.W.a.a.z.z.E.W.9.d _.%X$X_.+X+X_.&Xc.z.z.E.W.i.l.%X$XmXNX%XA.A.Z gXd.b KXZ.N d.D.D.l.W.&Xl.! p ^ ^ ^ p p ^ t t u u t a 1 s a a > ] { [ xXMXHXmX[ b +XgXmX X2 I K 4 *   . ! B.E , w w w q & X # X X o P <.q o & & o # $ 6 6 # X # % X # q $ 7 % X # o & 7 7 8 8 6 % # % % 7 7 7 & X     * y P X.#.P X.P P P P P i P i i P i i i y ].rX{.'.V.",
"3.* 8   y 3.2.s 9X9X9 y #.%.@ y q P i q P $.q # % X 3.PXPX1.~ &.-.=.K J K #.1 J P 1 2 I K K I 4 1 2 2 2 + 1 O . . + n Y ( s.k.k.l.l.k.k.p.y.W W b W j.b y.s.s.y.y.W y.A l.l.u.u.( - < < r r r 2 : S.A.u.p.p.u.D . # X o 1 P X.P q y O L j.s.s.) s.) h.s.) s.) k.l.h.4 & $ $ X o # X % % t  .8 6 p p i p p | | p & X $ X * u u u 0 8 8 p i t u 7 7 7 & o   & y 2 2 w 2 2 2 J 2 g %X&X&XxXxXmX+Xf.f.f.l q.x.P.P.K.m.D.+X_.p.Q.Q.W.W.W.W.&XW : A.%X_.A._.oX$XoXl.W.z.E.W.W.W.%X%X$X$X$X%XD.b gXl.k.l.A.f.A.+Xf.D.u.i.W.oXh.a p p p p a a a t a a t t t | t M M.E B s.xXmXMX}.Z l.@XgX` O t 1 & . > { j.h.h.n ; 3 J J U U < = &.V.wX#.o $ $ # # # $ % % 7 o # % # u X # % 7 6 7 e e 6 $ $ $ $ $ % q 7 # X     * i X.#.I P P P i P P i i p a a i i i i i a y t y :.V.:.;.",
"$.& & 0 #.3.=.$ 9X..8 ~ #.1 X %.i o .       . @ O + J hXqXDXqXa #.w > 1 4 #.J #.I y J P < < < + O O O @ @ @ + j ( j.l.l.l.l.l.l.l.l.l.l.k.k.s.Z Z d.v g d.y.F F Z Z W Q l.c.a.l.N - < r w r r w + +Xc.z.z.a.oX{.. o # # q X.o.P 1 q . J / ) h.) E s.d.) k.k.) [ 5 = @ # $ # $ o $ u 7 u u 8 t p s 8 p u u u | %   # X % t 0 u 8 u 8 t u 8 8 8 8 * 8 # X   1 y 1 w 2 1 1 2 n 2 : +X&XoXoX%XgXxX%Xl.p.9.D.kXm.9.g.+X+XgX&XoXc.Q.Q.z.W.W.Q.g.f A.%X`.l.+X$X$XoXa.W.z.z.E.c.9.j.$XNXNXxX%Xl.p.&Xc.l.l.l.oXV A D.S.+X).A W.Q.l.N t p a a t t t u t t u t s t ! B [ B.j.$XgXmXxXN.v m g Y _ L 1 . M B.h.) ) h.N./ n ; < < ; 2 :.'.F.V.o $ $ $ $ $ $ # O :.wXG.o.q i e # # & * 7 % % $ $ # $ $ # $ $ X   o * y P X.X.P P P P P P P P I i P P i i i i i i i i y a y y :.F.V.",
"t & & t 3.3.$.8 +.9 %.-.P   P X.$ ..1X1X1X1X1X;X;X..>X .iXjXqX& P #.~ ~ &.:.y %.> @ @ ; < < < < < < < < , N s.l.l.l.l.l.l.k.W D v : ; - ; , v N Y n + n ( Z W k.u.a.W.c.a.l.i.l.2 & < < < < @ w < L B.}.dXbXiX2.# o o o * q 7 * # o . ! h.W ) } ) j.h.d.v O .   X # # # @ & & X q X.i u t u 8 # 8 u t u u p | *   X # u u 8 t t 8 u | t 6 t 8 % 0 0 X X   q w w w 2 1 2 2 w y - j.%X%X+XoX%XxX%Xa.i.W.c.oXf.f q.oXc.c.W.W.W.z.z.E.z.z.W.l.C `.$X$X$XxXfXoXoXu.z.W.E.E.c.k.h.B ( d.s.y.f.W.&Xc.u.l.l.l.t.u.D._.f.p.c.c.z.Q.&X/ t p a u s t t t t s 1 n sXgXy.+XmXmXgXgXkXmX` 4 5 v gXmX+X( E A.k.h.h.) ) ) ) h.) v > ~ '.'.Z.].P   $ % $ $ $ $ $ o =.~ ].%.w i i q # # % $ # $ $ # $ $ X X X o * t P @.o.X.X.I I P P P P P P P P P P P p P P i i i t p i i i t y &.;.",
"# t P . 1.qXqXp t P =.#.  q X.8 ..9X8X8X8X8X8X8X8X8X9X-X4.=.=.y ~ =.J w 1 1 @   O @ < < @ @ < 3 v ( y.p.l.l.l.l.k.W D , - + - : g m W k.k.f.W b , : F l.W.W.Q.Q.a.E.c.i.l.l.p.j.- < < < < < @ 1 < + jXhX$.& . K #.= @ % & o # $ % @ O s.OXW.u.) N./ / / / L < < H J @ o & # # # 0 8 X X % % 6 | | u s u u u u % X   % u u u t u t | | u 0 % % 8 t % # X @ 1 1 w w 2 w 2 2 2 w , V oX%X%XoXK.&X%X&Xa.a.W.Q.Q.c.c.z.W.W.c.z.c.c.c.c.W.W.z.c.h `.%XxXmXxXxX$XW.u.a.E.z.W.W.&XoXk.A.).W k.p.p.&Xl.a.c.W.c.u.u.c.l.t.a.a.i.a.z.W.&XW = s 8 q s t t t t y m gXmXgXg.K.K.9.@XgXmX` J J F @X@Xf.W j.h.h.h.) E ( W E E E h.(.].'.V.F.F.o & $ $ $ # # $ $ $ X . =.X.q r i e # $ % % $ % $ $ $ # X & e X.X.X.P i P P X.P o.P P P P P P i P i X.P P i y y P a a i i i p i q J #.",
"q =.t p 3.$.$.. P #.@.o 1 p s ..9X8X2X1X2X8X2X2X8X8X9X;X$     o o & O O @ @ < < < < < ; j ( j.l.l.l.l.l.l.s.N , ; > , n D ( s.W E B g g g D y.l.W.Q.Q.Q.Q.E.E.W.a.u.A t.l.c.l.y.+ q & & < < < r r @ #.1 . . . &.Z.5 1 % * 7 0 %   @ - M.W.z.Q.Q.Q.u.> O n / C.Y : J w o # # & # u  .p p u | | p s 8 u u u u t $   # t 0 t u u u p p 8 q * 8 t u 8 $ $ # * q 2 w w w 1 2 w 2 y 2 b A &X%X%X&Xc.W.Q.Q.c.i.a.E.W.z.a.z.c.&XQ.c.z.z.z.z.z.W.c.i.`.gXxXxXxXxX%XW.t.W.Q.E.z.c.OXW.c.W.W.Q.Q.a.a.&Xc.a.a.c.W.a.p.oXc.u.a.a.a.z.a.z.z.&XE 1 p u u t t u u 1 5 E %XxX+Xh - : 9.K.g.S L , B oX@X+XW E ) ) E ) ) / E B ` V.G.G.F.G.V.].i o % $ $ $ $ $ $ $ % $ X q | e q e e & $ $ % % % $ $ # # u | p i i i i P P y P P P #.P P P P P P P P P P P P P P P i P i y y p u i i o.",
"@.G.%.p =.P p & $.#.t & i 9 -X9X8X8X2X2X2X2X8X8X8X8X8X2X9 o y y < 3 2 < + + + ; ; , ` j.l.l.l.l.l.s.D , ; ; v ( f.l.l.l.l.k.s.s.s.W D Z l.W.Q.Q.Q.E.z.c.z.z.z.z.z.u.V 9.u.a.oXD O q < < < < @ 1 y O < O.-.y . ~ &.+ o # # # % # q y Z.W c.Q.E.Q.Q.!.Q.l.v O j n.2 w y & & # & X 8 | u  .u t u u u u 8 t u t 8 #   $ u 0 u t t u p 0 7 t t 8 8 u % # % % & q y 2 y 2 1 2 2 2 y 2 m Z A K.%X%X%XoXi.c.Q.Q.z.i.a.z.c.W.W.z.c.W.W.c.z.z.z.z.W.a.p.$XNXMXmXxXxX&Xi.z.z.W.W.W.W.W.W.W.W.W.&Xa.t.&Xa.l.oX&Xl.l.l.&Xl.A a.i.a.z.E.E.E.E.oXv t u p i a t o 5 [ b Z %XL.f.m - J y w i 1 + : S.$XxX#XE ( [ E E E E N Z.].F.F.V.V.V.C.V.@ # % $ $ # $ $ # $ & 7 & u p q e e q % % % $ $ % % $ $ * i i w q t i i P P X.P P P X.X.P X.X.P P i P p i i i i i i i P i p i i i i u i ",
"=.=.= p ^ #.X.X.X.p & u s +.9X8X2X2X8X8X2X8X8X8X8X8X1X;X$ I Z.n < < + @ U #._ _ I L d.d.j.j.s.D , + - m s.l.l.k.p.s.j.f.s.y.s.k.W.Q.Q.Q.Q.E.W.z.z.z.z.z.a.a.a.z.z.W.u.C l.p.D.m O q < 3 H H ; < w & < J ; #.L ' ;.O @ & 1 * 6 % X * >.v l.E.z.E.E.z.Q.!.OXt.g L ; w U q # $ & o u u u u | u u u u u t u u t 8 X   7 0 u 0 8 8 | @.u u 8 % 7 | u # $ % o # q y y 2 y 2 2 2 2 w w ; Y Z A c.%X%X&XW.a.z.Q.OXW.i.i.c.Q.W.Q.c.c.c.W.W.c.z.z.c.a.+X}.s.oX$X$X+Xp.a.z.a.a.z.Q.Q.W.z.W.W.W.W.c.a.&Xl.i.W.&XoXl.l.&Xl.i.z.a.a.a.z.z.E.E.Q.l.1 p s * u   > ] [ / b d.y.S g 2 &.#.P 1   O : S oXgX%XZ E [ [ E B ) {.].G.G.'.V.:.Z.].I 1 i e # $ $ $ $ # # i X.o.X.u 0 q 0 6 & & & % % % $ X % q e u q i p i i i P P X.P #.o.X.P X.P P X.y P P P i y i i i u i i u y i i i p p ",
"F.1.q p t p o * p 0 8 | s ..9X8X8X1X8X8X8X1X........# . v N.M.g - J I ` Z.C.` , ; > / ( D d.5 O , ( j.l.f.s.s.k.j.s.y.y.p.c.W.Q.~.E.z.z.z.z.z.z.z.z.z.a.z.a.z.z.E.Q.c.V xX$Xh.: @ w 3 H T R 3 < r w + n.n.d n n.M.[ ' ' M.] ` M / M./ v p.Q.E.z.a.E.Q.E.Q.OXQ / ; . q 0   $ $ # u t u t u u u u u u u u u u 7 X X t t t 8 8 u X.t 8 $ * 8 u | % # $ o o o t w w 2 y w w 2 2 2 w 1 , s.A Z oXOX&XW.Q.c.z.W.!.OXz.i.c.Q.c.a.z.c.c.W.W.E.z.z.z.a.W.u.y.F F A.A a.W.z.z.z.z.W.Q.Q.W.c.z.Q.c.l.oXl.S._.$XD.p.l.%Xt.a.W.c.z.z.z.z.z.z.W.W.5 t p   y K ! B N E ) ! I . = =.#.y o o 2 j : d y.l.A.W B E E B {  X'.'.'.'.'.'.F.G.F.1 y P X.* $ % $ % # # i X.P y q q q q * $ & % % # X X # u q e u u i i P P P P P P P #.#.X.P X.X.X.P y p X.P P i i u i u u t i i w t i i i ",
"%.2.P u 9 | % i @.* | 8 q 9 ;X8X2X2X8X8X2X-X$ . + O . . _ d.M./ ' / ` ` N _ Y n > / d.( D d.Z D j.k.s.s.s.f.f.y.y.u.a.Q.~.E.E.z.z.z.z.z.i.i.a.i.a.a.i.i.z.z.E.E.W.a.C f _.HX_ - ; 3 j O.H 3 U 3 r w + T kXq.F ` M.n I 1 < 1 ' v V.v v B.u.c.c.z.z.Q.c.a.p.a.A W.+XO & 0 X $ $ $ u u u u u u s u u u u t u 0 $ X % u 8 8 8 t p p % 8 8 8 u | u X # $ o o o q w 1 y y 2 2 2 w w w < - g f.A V a.&X&XW.W.W.c.z.c.OX&Xa.i.W.W.a.u.u.a.c.c.c.W.W.E.a.z.W.a.a.a.W.W.W.W.Q.W.W.W.c.W.Q.Q.W.x.9.D.mX XaXcXcXaX_.l.&Xa.Q.Q.E.z.E.E.z.a.z.z.&X) + @.@ |.mX%XA.B v / / _ K &.#.1 . O U S d S h d f.+Xj.B } B {  X'.'.'.'.'.F.C.'.rX#.1 y P X.p % $ $ % X % i o.i q t q @ =.q # * % X X u X.u i u i u u i i i P P P P #.X.I P P X.p P X.p i q P i i p i u t 0 u u u q u u t i P ",
"* e * 9 >X>Xs @.a * u   1 $ 9 2X8X2X2X8X1X1X>X..8 <.%.. L M.M.! -._ _ ] ` n / / g ( ( D W j.s.s.s.s.y.s.s.F Q p.W.W.Q.W.z.z.a.a.a.a.a.i.&XMXxX%Xa.z.Q.Q.Q.E.Q.&Xy.C f.D.b  XJ O @ < 3 H j j H 3 H o.< j D.K.K.q.N.] Z.+ > ~ rXN / ] > Z.b k.a.a.a.c.W.z.a.c.t.i.Q.W.n # # $ $ $ u u u u u u u u u t u u u 8 # X u u 7 t 0 u | u t t 0 u  .| $ X o # # o o * w 2 y 2 1 2 2 2 < #.P . . , s.u.V t.W.OXQ.Q.W.c.z.z.Q.OXc.i.c.W.a.c.Q.W.c.z.z.c.W.W.W.W.W.W.W.W.W.E.W.z.W.W.W.W.W.W.W.g.w.m.H.KXJXaX+X+XD.N._.$XV u.a.c.c.z.E.E.z.z.E.W.j.> i . Y gXxXmXxXj., L ! _ K 1 X @ N S g h aXG f N.+X$XD v Z.wX'.'.'.'.'.G.'.|. X:.J i P P i i i # $ % $ q | X.q u q & J tX@ o $ X = tXKXhX< u t i i i i i p i P X.P P P I P P P P P i i i q p u i u i e e u q q q e e u t q y ",
"| u q 9 0X-X| ^ a # X $ ....9 ..9X2X1X2X-X;X8X9X..e q . > Z.I 2 K _ Y Y M.] L , D ( W y.l.k.W ( s.W ( Z Q l.Q.Q.E.z.z.z.z.a.a.z.a.a.u.$XmX~ 5 v p.W.a.l.W h l d + < m N.f.N.*.y 2 - - 3 3 3 r < w J @ 2 j.K.g.f.N.L J + , C.MX[ v ] + d.V l.c.z.a.z.OXW.a.W.t.W.E.W.oX+ o $ $ $ p 0 u u 0 u u 0 u 8 u u u 8 # X u u 8 8 0 u p 8 u p p | p 0 X o # % # # o & w w y w 1 2 1 2 2 I :.O # q - ` f.A A p.W.OXOXW.Q.c.z.z.OXQ.a.z.W.c.z.z.E.E.z.z.z.W.W.W.W.c.W.W.a.z.z.z.a.a.c.W.c.z.W.c.c.K.K.m.fXGXLXKXbXFXLXjXeXG 9.c.W.E.E.E.E.z.z.W.) > q . 2 ( oX%XxXmX|., 1 t * . : T S h h D gX+XD.oX$XxXS./  XG.'.'.'.C.C.'.'.=.w @ a i P P i i X.p * & q i p P & u q . ].tX@ # o X.bXKXvX1 1 i u i i i i i i i P P X.X.X.X.X.X.P P P a i P y p t t u t e e u e q q q e q t t t ",
"o q 6 ..0X..| ^ * u y s -X9X;X..1X8X1X2X-X-X;X9X:X9 # . ; G.@.y J n L N Y D D / d.y.l.oXl.s.Q W D V Q l.Q.Q.z.a.z.W.s.: u.a.a.i.a.a.l.h.4 = = 4 K a * X . j 9.f.d.|.T.T.W.oXW ) N.C.-.3 3 < 3 w q @ . M S.K.f.N.j.M.> . i 1 / ` C.v O d.b p.c.z.z.W.W.z.W.E.i.!.E.a.Q.l.. X % 7  .0 u u u 8 8 t 8 8 8 p u % X % p p 8 8 0 X.| 7 u u | @.p X # # $ $ $ $ X # w y y J 2 w w w 2 w -.I w q # o n y.y.9.t.a.&XOXQ.W.c.z.z.W.!.Q.z.z.W.W.W.W.W.Q.W.W.W.c.c.c.W.W.z.a.a.z.W.c.W.W.W.W.W.z.z.c.c.c.g.g.D.H.G.jXC.S +Xc.W.Q.E.E.E.E.E.Q.E.W.M O t . 1 > h j.gXmXMXgX_ O . n f.q.x h g d.$XmXgXK.l._.S.C.V.'.'.'.F.F.'.].2 .   t P P P P u i i P P i i q P q q i * 2 cXM.1 . qXKX:.=.i * i i i i y i p i p i i P P P P P P X.P P p i P P q i q 0 t 0 e u e u q e q e u e i i ",
"* X 9 >X0X..| y 8 $ $ ..9X8X9X;X-X9X2X2X-X;X-X-X1X9X..i O F.G.2.#.J ~ _ ] M. XN.W Z oXW.k.s.E b Z l.Q.Q.z.z.z.a.W.y.+ n l.a.l.oXp.k.A.B T.k.> P a ^ 1 + ! ).D.l.f.A l.a.a.oXb , n M {.G.+ < < r w & @ 2 k.oXoXk.k.M.O y 2 4 ] d.{., , d.Z u.W.Q.W.Q.Q.a.y.A Q.!.z.E.z.OXB . & % u e u u u t 8 8 t 8 8 u t % X t p | % t u @.u % % 8 u i % X $ $ $ # # # o o q J y J w H y 2 > 1 -.H < 1 & . , b Z p.p.A A p.W.OXQ.Q.Q.z.z.W.OXW.z.Q.Q.W.W.Q.W.W.W.W.&XW.z.E.W.W.z.i.z.c.W.z.c.W.W.W.W.W.c.c.a.c.l.f.G n.n.G u.W.W.W.W.Q.Q.W.E.E.Q.l., p o   q 1 J m C @XxXmXmXd.d T F V x h h S.S.gX%XoXj.s.` C.G.'.].'.'.'. X-.  & % 0 P i p i i i i i P p t u X.# i u e 1 ~ '.O P iXy @ & q i i y q w i i P u i t P P i P i P P P P P p P P p q i q 0 0 0 u u u q q u e 0 e e t u ",
"r e ..9X9X>Xs 4 1 9 9 2X9X2X8X2X-X-X2X8X;X..2X;X..-X<X .@ I =.<.<X<X,.4.,X<.#.L D W l.oXD.s.A l.OXQ.E.z.a.a.z.W.[ - Q oXl.l.j.A.l._.`.l.*X~.> { $XQ . ;.M.v D.l.g.l.!.a.a.l.W M N n M hX1 @ @ & & i > L ) A.oXA.k.} [ ' } B.] [ Z.- E j.D Z Q.W.t.E ] , > ' _ : u.Q.~.Q.`.O . 6 u e u e 8 u 8 u u 8 8 u 8 X % 8 | | % 8 | | t u u | p 8 $ # $ # # # o o o X & y y 2 y w w J K _ J.> 2 ; > m d.W Z V y.l.p.t.A t.c.&XOXOXQ.z.z.OXQ.z.z.Q.W.Q.Q.W.W.z.W.W.W.c.a.a.z.z.a.a.z.W.c.c.c.c.c.W.c.c.c.a.W.Q.&Xl.t.l.W.z.z.E.E.E.E.Q.Q.W.l.b O t X   y y X o + k oXgX%XgXf.d S F V g d.H.j.S.+X+XfX).] |.rXrX|.C.C.V.wX1 .   q p P P P i i i P p p P q %.q * p q q . ~ JXjXhX1 @ w i X.i t y w P P i p i i i i i i i P P P p %.%.i i i p q i t q q q u e q q 0 e e e q 0 q q ",
"1 $ ..9X9X1X9 y w 9 ..9X8X2X2X8X1X;X1X8X9X-X-X9X:X....<X* L =.,.<X<X+.| $.2.G.:.N.j.s.l.A.t.W.Q.E.z.z.z.a.a.l.W O ! A.l.) / ] Z.) E `.l.{.= p././.!.R.k.> 4 *.k.*X^.E.E.a.l.s.N N 5 ! rX3 J X.@   y 4 M.j.l.&Xl.B v / ! C.M.- Y M., D E W b +Xb O 1 ' , B B., : d W.W.E.&Xb . 6 0 8 8 e 8 0 8 8 0 8 8 u 7 u u 7 p @.s 8 @.u t @.%.@.8 6 X # # $ o X # # # X * o     X o @ 2 K -.M.*.U n ( f.l.K.f.V d W u.l.p.t.A A a.W.OXOXOXQ.Q.Q.Q.E.W.Q.Q.W.W.a.i.a.a.c.z.z.z.z.z.z.a.c.c.W.W.E.z.z.z.W.W.W.W.W.W.Q.Q.Q.z.z.E.E.W.E.E.Q.W.p.v , W `.%XoXoXS._ > . O b +XgXgXgXh f F h F %XD.j.j.+X+X+X{.> > wXF.=   X X # % | X.i i p p i u p y i p i i p X.o i q q w 1 cXJXKX#.@ i y P q q u P X.X.i y i i i y i i i i y P P P P X.i t u i 0 u e q q q e 0 q q q u 0 0 0 t q q ",
"pX+...9X1X9X..7 t 9 ;X8X8X8X1X2X2X1X1X8X8X2X;X1X9X1X-X:X..t %.,.<X>X+.,.$.4XG.K d.).d.( ).s.l.c.W.c.W.c.l.`._.s.] {.{.M M '.C./ ] A.A.j.;.O B *X*XR.^.R.+ 5 p.*X/.~.&X$XoX_.j.E v , M.V.- 1 *   . 1 4 {.j.p.&XoX+XfXMX#XfX$X$X}.` ; > L s.Z oXB , M [ v E N.D / , Z &XE.Q.y.O $ 0 8 6 8 8 8 8 8 t 8 u u 8 | 8 8 p $.s t @.t u | u t 8 % o # # # # # $ % #   X.P * * o   o   1 L ! Z.C.N Y T b q.l.c.F g g b y.a.u.u.t.t.u.p.W.OXOXOX*XOXQ.z.W.Q.Q.W.a.c.Q.W.c.z.z.z.z.c.W.c.z.W.W.W.W.W.E.E.W.W.W.W.Q.W.W.W.E.Q.z.E.Q.Q.W.c.Z b g ( gXgXgXxXxXxXxXmXH.+ - S.$XxXmX+X: h h +XgXD.j.N.N._.oXS.J & y y & & $ $ 7 q t P #.P i X.w i i i i i i a %.* # p q w = ^ JXtX> @ y i i q * i o.X.p u q w q w w i i i i i i i i i a p i i i i 0 i e q q q q 0 0 0 e e 7 0 u e e q ",
"2.@...>X1X8X2X..9 ..9X8X8X8X1X1X8X1X-X;X8X8X8X2X8X8X1X;X>X9 @.%.<X<X<X,.o.<.3.1 Y A.h.W ).s.l.`.j.A._.B.B.B.h.B.{ ;.' n [ |.S.s.l.`.l.W L O > $XNXB ~.!.R.^./.*X*XxXzX{.}._.{.mXfX'.*.*.O < & o o 2 N _.l.u.mXxXM., = . a M ) fX~ . O L A.h D.Z , M ' v s.j.v v L g a.Q.Q.l.. $ s 8 7 8 8 8 u 0 u u u u i % $ 8 u %.p | p s 8 u u t * o o # # # $ # $ $ #   y >.&.#.#.y     y w 2 Z.F.+ @ y H 2 > Y f.f.Y - O , A p.a.i.u.A t.u.k.l.l.Q.*XOXQ.Q.OXQ.W.c.a.W.Q.Q.W.z.z.z.z.W.z.z.W.W.W.W.W.W.W.W.W.W.Q.W.W.W.W.Q.Q.W.W.l.Q h g n , , j.g.K.oX%X+X%XgXxXgX; g oX@XgXmX` - s.gXgXS.f.A.j.d.D.N.L #.P P I -.%.#.=.#.p * & q p P p i u i P i y X.X.o q i u i . F.KXwXO 1 i i q q X.P i t q e t w q q i i i i p t i P i y a i i u p i q u q q 0 q q 0 q q 0 e 0 0 0 q e q ",
"% ,.<X>X9X2X8X2X....9X8X8X8X8X1X2X8X2X;X;X2X1X;X1X2X;X-X9X-X .P 3.,X>X+.o.G.G.*.M.N.j.W j.j.M.' ;.:.V.Z.'.C. XV.! ^ 5 5 ! mXMXl.u.oXoXj._ O . ! `.T.oXT.*X*X$XS.d.( W W y.j._.gX#X|.S.*.O q e o o 1 ! _.l.`.$XB , N {.M.C.M O F.J O - d.D.y.$X XM M / v k.s.; j _ v b &XQ.l.. X 0 0 8 8 8 u 8 8 8 t u u p 7 X t s | %.%.| %.| u 8 u u X X & & o # o K I .   P >.&.&.&.#.a . < y J I 1 . X $ 6 & $ & & < n.m < & & = B s.a.a.a.u.u.Q t.p.p.l.oXW.&X&X&XOX&XQ.OXOX!.!.Q.Q.W.W.W.W.E.W.E.W.Q.W.z.E.Q.W.Q.&X&XQ.Q.W.l.s.E B v v M + . 1 2 + : C i.c.oXgXgXMXgXd f.K.$XgXgXd j.gXgXS.A.s.j.( D m 2 %.#.P y P X.X.@.X.X.P i q p i i i u i i t i %.q o t X.i q O vXJX=.& i t i i P P y q t y w i i e e t t i i i u i p p p i i P i i i q u q * q 0 0 e q q 0 0 0 e 0 e t q ",
"& | s >X2X1X2X2X..;X9X8X8X8X8X2X1X2X8X8X;X-X;X;X1X2X2X-X2X2X .e 3.,X+.,.M.$XoXc.&XW.l.u.`.A.#XfXfX#X#XfXzXxXfX{ V.5 ^ a ;.MXxXl.k.s.W }.*.. > (.XXT.}.{.H.H.S.d.j.j.S.aX{.{.{.{.).#X#XC.+ 1 q o o > / _.W.oX) , M ] C.! V.*._ *.1 O , T g.g.m.+X/ } / B A.E g , n g , s.&XT.O   8 t 0 8 8 u u u 8 t u u u % # u * t 1.%.%.@.t $ # $ 0 $ # % #   > / s.s.=   ~ -.-.&.;.G.=.- + 1 2 L K @   X o @ @ * r r J - w w < r 7 6 < L y.a.z.z.a.u.u.u.t.u.u.a.l.W.W.oX&X&XOXOXOXOXOXOXOXOXOXQ.OXOXOXOXOXQ.OXW.l.`.`.j.W D b h Z W V oXgXgX+X}._ 4 . . O , F D.gXgXmXgXD.%X+XgXxXoXF D.D.D.( S g U U O 1 a P X.i i i X.i * u P i i X.i t y y y y P o.p X # i p p   ~ KXjX< q i P P P P t t y t t q e q e e q q 0 i i 0 i i P i i i i u t u 0 u q 7 q q 0 e 0 q q e q 0 q u q q ",
"* i -.e 1X2X2X;X;X8X8X8X8X8X8X8X1X1X1X8X8X;X;X;X2X8X9X-X-X:X+.7 K C.] $X&X%X%XoXW.p.t.u.oXl.$XfXfXsXsX#X}..X;.:.^ = 5 5 :.&.4 2 * * @ 2 (.$X*X*Xa.l.A._.}.fX+X{.{.fXsX}.j.j.).}.#X X{.M.+ w I @ O K _ ).&Xu.s.S.h.) [ N Z.;.> 1 < - k w.L.g.m.m.) } / v h.N ; n n 5 n g &X&XO # * 8 u u u u 8 u 8 t u  .p % 8 p p %.1.t #   X $ 8 u X # q # o 1 ) p.t.k.N - J I =.I J *.U w 1 1 y J L *.#.w o # # # * o X   U I 2 ; w q # X $ o 5 D s.a.c.z.a.a.u.u.u.u.t.t.u.s.s.Z k.l.p.l.a.l.T.l.l.l.l.a.l.l.p.Q y.y.W V Z Q t.u.y.Z : _.mXxXxXmXmXfXC.J . - +Xl.l.$X%XgXxXgXgXgXgXmXS.h f.f.g m U U y . y i i P X.P t q X.q @ q i i i i t t y p X.#.P *   o p t t   bXKXJ & p P X.i i t y i i i t i u q u q 0 q q q t q q i i i i t t i i u q u 7 * 0 q q 7 q 0 0 7 8 0 e e e 0 ",
"7 q I 6 ..:X-X..8X8X8X8X8X8X8X8X8X1X1X2X8X8X1X;X-X-X2X2X;X:X4.I V l.c.&Xz.a.a.i.a.c.a.l.c.s.{.|.|. X X X{.'.^ K > 1 a K 4 > 1 1 J y O > dXHXL.e.e.P.+XN.A.).A.A.A.A.h.s.j.A.{.#XsX|.S.] : I U <   a L A.%Xt.+ n ' L n y #.> . J G m.L.m.g.g.g.g.D N E B B.N n N M L &.n t.$XO * 7 * 0 8 8 u t 8 8 t t p u # t i p $.p t p | u | $.8 X o # . > ) Q Q y.s.h.m n _ _ n K L j J w   @ y U L ] M.M.2 & $ # # o w U U U H < 1 @ q $ $ $ $ $ @ M s.s.a.a.a.W.a.a.a.u.u.s.b W Q Q W Q Q y.t.y.y.W V Z W Z F t.t.t.u.p.u.W n @ o . L A.oX&X%XxXmXMXMXgXf.f l 6.g.oX$XgXgXgXgXgXgXxXD : j J U I J *   P X.a P p i q * t i * # & p P i t y i #.@.* X   X & p i . 3.LX#.@ p P i i i i i i i i q q i i w u u t e e 0 0 1 q t p i y y e e i i q u * 7 q 7 7 q q 0 q q 0 e 0 e e q ",
"u # X q y q 9 ..9X8X8X8X8X8X2X8X8X2X1X1X8X8X8X8X2X-X..;X;X:X@.Z.W t.t.p.oX&X&Xc.c.z.z.W.W.oX] *.*.;.;.*.~ > = 1 P #.#.K y a P #.@.t t j e.r.r.r.8.K.gX{.S.).S.S.S.A.D.S.S.S.H.aXaXN.N.d.: m -.; . y ; ).oXl.- < 1 .   o =.4 O Y m.x.K.m.K.g.g.L.n./ } E B., , K K L L / B C.< 7 t % t 8 % 8 u i u 8 7 p 8 X t % * t X % t | %.X.# X o & X = ) s.W Q Q k.( v n - 2 L J *.I 2 - -.I O 2 y K _ I & 7 6 o @ 2 K J n n U 2 r r q & & 6 8 % # p i X $ * > N W u.l.a.i.a.c.a.a.a.a.i.i.a.a.a.u.u.i.u.a.a.a.i.p.u.D n & $ 9 X o L n.2 , d f.oX%XgXgXgXxX%XG d f G D.+XgXxXgXgXgXgX+X- J U J r 7 # o o.#.P p y i q 7 7 i i * @ p P i q i %.t       X i u i * P KXP @ X.u q * e i i P i t t q q i i w t i e u u q q q u i p X.p i t q u q q u % 6 7 q 7 q q u q 7 q e q 0 7 8 ",
"qX=.P | 8 8 $ ..2X8X8X8X8X8X8X8X8X2X1X1X1X8X8X2X8X8X;X....>X< N.l.x 9.l.c.&X&Xc.z.z.c.c.a.y.B Y / *.4 . 5 ^ >.:.>.^ a ^ #.$.5.s . : e.r.r.r.r.e.e.m.fXfX#X}.{._.}.sXfX#X+X+XgX+XN.j.S.d.- U -.- . y - s.&Xc.- _ U 1 . * #.> + S +XL.g.g.K.g.K.D.gX` v ) C.> > n ! N N _ / L . % i 6 8 s 0 6 % t | @.p | 7 X t t t 8 7 8 % % t 8 X & & o @ _ h.s.s.y.Q s./ , K , n I > 3 U U j m j.( N n n P @   o # o y U m L L U U 2 < i q $ $ # 7 % . ] Z.1 X $ 9 $ $ $ $ 9 $ 1 J M Y / E m b W s.y.s.W E n L n ; o $ $ $ 9 $ %   M sXC.M *.#.o . - ( +X@X&X%XmXMX$X+XoXj.D.+XgXgX%X$X+XgX2 . w w 7 % # 7 X.P i X.t u u q q 7 X.t * i X.i q X.1   & q q p o.p q . tXeX. P q * $ o & i u i t t y t i i t i w i i e e e q * q i p p i i i u u q 0 u % 7 7 7 7 q 7 7 q 0 0 q q q 0 0 ",
"@.wXG.qXpX$.* ..;X2X8X8X8X8X2X2X8X8X1X1X1X1X2X2X1X2X2X2X....+.=.u.c.c.z.z.z.W.Q.z.z.z.z.i.C s.d.h.M.> . ~ wX2.5 ^ >.2.#.t = ; R e.r.r.r.8.w.Z.>.*.T M.C.}.#XsXfXvXJXmXsX#X$XxX_.N.D.|._ - n -.; . y < h oXW.; #.J 2 . & =.2 + d.L.0.0.m.L.9.g.f.aX] v E (., 5 *.:.K = q . a o # | 7 8 u 8 8 * % 6 u t u t % u @.%.@.| | %.%.8 # & & # 2 s.y.Z E E W y.k.N > I 2 ; J ' ] ! v v ( s.j.s.s.] 2 .       . @ _ m , L L , ; w w < # 6 9 9 $ 2 ] d.2 # % e 8 6 $ 9 $ 9 $ 9 9 9 $ $ $ $ $ 9 9 9 9 9 u u u e 6 X X $ % #   ^ Z.N MX{.K I * X t . + N.oX%X%XgXxXxXmXgX+XoX+XgX%XoXoXgXZ.O # 8 q & X  .i i u X.0 * i 7 7 7 q X.* i P t i i * X.o.i i P X.y o . eXeX* q * % % o & u u w u i i i i u i 0 0 q e e u u u e e q 7 * & * q u u q i u % 7 7 7 q 7 7 0 0 u 7 0 u 0 q % ",
"q P F.qX[.* @ 9 ;X2X2X8X8X8X8X2X8X8X8X1X1X1X2X8X2X1X1X2X:X..-X<XG i.z.z.z.z.c.c.z.i.i.i.t.C t.u.p.l.v . &.F.F.y P a X s < R e.r.r.r.r.e.*.Z.L.e.8.7.f.N / N._._.l.l.oXoXoX$X%X+XN.N.S.` , n =.; O =.< d c.OXg n U 2 @ & #.> - d.L.w.K.m.q.q.F sXJXdXA.h.{., > y P 4 , ( W ) O   u t 8 8 u t 8 8 8 7 8 u t p | 8 @.u p p t * % # $ o > d.h.s.E W W W s.s.v - y 1 > I ` / _ n v B.`.s.( ( M., > w w < 1 J ` ` / N n j 3 H O.w $ $ . N a.z.E.Q.a.Z @ 8 7 6 6 8 % % 7 & 7 7 % $ $ u % # i q u e y i P X.o.X.i 7 X @ V.Z.L ' ] dX^ . @ i y I ^ O - f.+X@X%XgXxXxXgX%X+XoXoXoXoX+XfX- .   o o i X.# 7 p o.q * q 7 * 7 & u i i P y P X.%.X.i y w X.o.& o   $.i & * % % $ # * q i i i i u 0 q q t t i i u e i i u u u u u e 7 q q q 7 # 0 % % 7 7 q 7 7 7 0 0 0 q q 0 e q % ",
"p q @.qX*   &.$ >X1X1X2X8X8X8X2X8X8X8X8X1X1X1X1X2X2X1X2X2X;X9 n.C 9.i.i.i.i.z.z.i.i.i.i.t.u.a.z.z.z.c.A v 4 1 . * # & O.e.I.r.r.8.r.r.r.r.e.r.r.r.e.m./ / N.}.fX`.`.oXoX$X$X$X+Xg.9.m.T j J P @ 1 y ; g W.OXh , J n + @ #.2 - n.L.9.w.w.l j.S.#XgX_.s.oXB., > E a.E.~.OXp.E > @ 0 u 7 t t 8 t u u 8 8 t | t t @.1.| t 8 8 i 0 # # . ( s.W s.s.y.y.Q s.h./ + > J 2 n *.] / Y , / _.k.k.j., ; H 2 C.B.N Y / Y ` Y H 2 3 w U r @ : i.Q.Q.z.z.z.E.z.n o 7 % % 6 $ % 6 % 7 6 % $   -.{.n . X * q e u u i P X.X.* 1 G.' ' (.;.~ y X.# | t n mXMXsX4 O + ) _.+XgXgXxXxXgX+XD.oX+XoXgXn.< e e o.X.& X $ %.X.# % 0 0 % 7 & * i i P i #.#.X.i q 0 q p P q # i u 6 6 % $ $ X X 7 0 0 e q w q u i u 0 0 0 7 7 7 7 7 7 7 7 0 u e q e e i p i * o & q q 7 7 7 8 0 0 0 7 7 0 7 7 % ",
"X.p u u @ K *.q -X2X;X;X1X8X8X8X1X2X8X8X1X1X2X1X1X2X2X1X1X>XF.l.C 9.i.i.i.i.i.z.i.i.i.i.9.u.a.i.a.W.a.Q , .   # t k e.r.r.r.e.I.P.e.r.r.r.r.r.r.r.8.m.*.[ M.).#X}.+X+X+XfX+Xm.7.7.m.H.g , J I J P P @ , p.c.b , U j + & -.; ; N.oXK.q.d d D.f.y.$Xl.p.l.`.l.E.~.~.!.OXc.A A.I @ * t 8 0 u u 0 u e 0 8 * %.$.X u @.s  .@.%.=.* o . K d.Z s.s.W W s.s.Z W ) 5 . 1 2 n *._ Y m j v s.j.j.D , 2 ; + ]  X] Y m Y Y Y U - < w < ; V z.Q.E.z.z.Q.Q.E.z.( + * % 6 6 % 6 6 $ 8 % $ X > C.`.B.! 1   X * 7 q q e q @ -.'.N ] C.F.&.o # u |  .1 , }.%XxXMXfXL + x g.K.+X$XgXgX$X+XoX+X+X+XaX2 e  .0 $ # o p %.7 X # 8 0 6 8 % * * i P X.o.P u 0 q e y X.X.1 0 p 8 % % # o # X o u q q i i p i u q q * * % q 7 7 q 7 q q 0 0 q q q q q q u u e i * * u q 7 * 0 7 q q 0 0 8 0 7 $ ",
"X.X.X.i p P V.p >X8X2X;X;X2X8X8X2X1X1X2X2X1X1X1X1X2X2X1X>X<Xd.9.9.t.i.i.i.i.z.z.i.9.u.l.t.p.a.a.z.W.W.p.+ 1 4 j z r.r.r.8.w.L.m.e.r.8.8.r.r.r.r.7.z f.N.` M.C.#XA.A.+XfXfX}.S.D.D.S.C.n ; < U w . # & : p.l.D : n 2 < @ K ; > k.&Xc.c.A Z A.j.l.xXoX%X+XD k.Q.~.!.!.&XQ Q j.4 @ * u 0 0 u u u t 8 8 7 7 p p y K M.] ! 2 1 o X O N j.) s.W W W W Q s.) Z B ( n - 4 I ` ] / Y _ n Z A.N : n J n , : ` / N n N L Y I - & @ ; y.a.z.z.z.Q.OX*XOXQ.a.n o & % 6 % % $ $ % 7 % 6 . N B.h.j.`.).^ .   o * 7 X & V.Z.M Z.V.F.P X X X * i u q O , N.oXgXmXMXmXgX+X+XoX+X+X+X+X+XoX+X+XoXgX-.. X $ $ $ 6 %.0 # # # 7 8 6 8 % $ & i X.o.p w e q e e i @.t # u % % % # $ X X X * e q p X.i t e q q q q 7 q e 7 7 q q 7 6 0 0 q e 0 q 7 q q q 7 u  . .7 $ 7 7 q i 0 7 7 0 8 7 % $ ",
"p p X.X.i y I @...9X8X8X;X;X8X8X8X8X2X2X2X1X1X2X;X;X1X>XF.$Xs.V t.u.9.9.9.9.i.i.9.y.s.s.u.a.c.c.a.z.E.&X) g z e.r.r.8.8.m.z 7.8.8.8.8.8.r.r.e.7.7.7.R H.) N.S.}._._.}.}.{.+XH.J.n.n.G.> O 1 I I @ o & ; p.&Xf.: j n 2 + U , g k.W.E.z.W.s.mXMXcXcXmXdX4 M ) W.!.!.OXu.Z s.) + & & i u 8 8 p t 7 7 t u 8 $ . *.Y N.$Xl.y.W b : Y s.Q s.k.s.Z E ) Q W y.s.s.W ( , , n ` ] _ _ _ _ , I m g j j J J j Y n , L Y Y U I @ o O V i.i.z.Q.Q.OXOXQ.Q.a.V ; # 6 7 8 % 6 6 % % 7 % %   K N.k.s.s.j.`.B.2   X   2 G.' } M.F.].1 X # # $ 0 p p 8 X   + m l.oX%XgXxXxXgX%X$X+X_.oX+X$X+X+XoX+XaX+ o 6 % $ 0 u $ # # # % 8 7 % X X t %.X.p i q q e e u p X.& q q % $ $ $ $ X # # q u p t q i q q 0 0 0 q 7 q q 0 0 q q q 7 0 q q u e q 7 q 0 0 q 6 7 u i 7 $ % i | u 0 8 8 7 7 $ $ ",
"X.p i X.X.X.t  ...>X9X8X2X;X1X8X8X8X8X8X2X2X1X1X1X;X-X+.$XQ.c.u.p.p.k._.s.y.W F {.j.C 9.i.z.a.i.i.i.l.p.V c r.r.8.7.S.dXjXdXvXmXkXL.8.8.r.7.f d k : g C.;.Z.B.C.S.{.{.|.dXrXH.*._ G.].O O 2 J w & o . , oXp.Z g j 2 2 ; K , g f.c.x.c.u.j.|.mXfX}.M./ N |.A.Q.!.OXz.A y.u.) > @ # q p u t t t t p  .8 $ $ q _ d.d._.+XN.Z Z f.k.s.W s.W W W s.W W W W W k.k.d.v > 2 Y ` Y _ Y 2 + + U m j j n J , _ -., , n J n J @ . > y.t.i.z.Q.Q.Q.Q.E.i.C C d., o 9 8 % % $ # 6 8 6 6 $ r 1 L h.j.k.k.A.}.` . P V.} ] Z. X2.X X $ # e o.o.X.X.o.X.o. .u 1 T D.K.oX%X%X%X$X+X_.oXoX+X$X$X+X+XgX] . 6 6 % 6 # X o # o # * $ X & X.@.X.P i w q e e q X.o.u % i 7 % $ $ # # $ # & i e e u u e 0 u e 0 q q q q 0 q e 0 q 7 7 q 7 q e q 0 q q e e q 7 7 q u u e 6 6 7 0 u 0 8 * % $ 7 ",
"X.p p p p p @.i u ..9X8X8X1X1X2X8X8X8X8X2X2X2X1X1X2X>X4X&Xa.a.W.a.t.Q }.S.d.s.A 9.V A.xXFXFXnXfXoX`.h.- z e.7.w.aXKXLXKXPXPXJXPXPXKXKXn.h f j 2 5 4 ! C.;.M.M.N.B.).S. XfXG.n.` *. XG.+ + 1 2 w < O ; d.d.: ( m , , 3 n n , d q.m.q.T S n.{.S.}.mXrX*.E Q W.OXOXW.t.u.Q Q ) > & & * 0 u | u p  .u 7 $ 7 u #.L d.N.j.{.}.f.V F y.s.j.s.W s.k.s.W W s.W Z Q s.k.Z ; 1 J Y ` ` J ; < + J _ n j j j 2 j M.L n , 2 J J < O , 9.u.i.i.z.z.E.z.t.V 9.z.W.p.; $ 0 % % % $ 6 6 $ # & q & & < I M.L m L , ! *.L ;.V. X%.  X # X  .o.X.X. . . .X.X. .|  .0 w U y.D.oX%X+XoXD._.oXoX+X+X#X+X+XsX1 X % $ # % $ # # # X o & u o.o.X.P P i i t q i P X.X.X.7 q $ $ $ $ # $ # # u u q q q e q q e u u 0 q q 0 0 q q q 7 0 q q q q e 7 q 0 q e 0 8 0 q 7 7 0 0 7 7 % # # 7 8 6 6 $ 7 ",
"X.X.p i X.X.u p i s 1X8X8X2X1X2X8X2X8X8X8X8X1X1X2X>X$.$XW.z.W.a.a.i.9.t.9.9.u.l.#XHXPXLXLXLXLXLXLXKX` l 8.e.mXKXKXGXnXvXcXcXcXzXfXfXHXJX+ 4 ;.' Y.XXzXXX{ M.M.M.M.N.C.S.S.N.Z.n.M. XV.O ; < i < - n p.a.b : ( D , < ; n n ; g Y D ` n.T f.+X+X_.}.`.`.l.Q.!.OX&XA u.u.Q Z ) > @ # * 8 u u u 6 $ # $ 6 8 | P ] E W N.B.}.S.f.W f.A.s.s.W A y.s.W Z A y.y.A Q Q ) v ; 2 L J I 2 w J 1 @ U U U j j 2 ; U U J U 2 < 2 w O > D 9.t.u.i.i.A g V u.z.E.E.c., X 7 % 6 % 6 8 % $ # 7 q r r r & & & @ 2 _ ! _ V.].].y   # # 7 o.o. .|  . . . . . . . . . . .u 1 J f.D.oX+X+X+X_.oX+X+X+X+XoX$X{.+ o $ X.o.0 * # o # u X.@.P p P i P i u i y i i P X.p e % $ $ $ $ # # X # u 0 7 e u e e u t u q 0 q 7 q 0 7 % q e q 7 e q 0 0 q q q q e e q 7 7 8 7 7 0 0 7 7 e 7 # % 6 % 8 6 ",
"#.p P X.i X.i u i u -X9X8X8X1X1X8X8X8X8X8X2X1X1X1X.._.Q.z.a.i.i.i.u.l.oXfXnXKXKXcXhXKXLXKXPXPXJXnX+Xz 6.aXKXKXnXvXnXmXxXzXxXgXgX%X$X#XHX: n.zX.X=XXX{ { (.M.h.d.d.N.N.N.B.N.N.d.d.{.Z.. @ 1 n E u.z.W.a.x d Z ( : ; ; , v n ] M.C.mXGXL.&Xz.z.E.!.!.!.!.!.!.Q.u.t.p.u.u.Z ) 4 @ * e u 6 s u 0 0 8 7 t p | = K ) W y.f.N.N.N.W F y.F W W s.s.j.N.N.A.B.S.A.j.l.j.N.N - @ 2 2 & r q & . < J m j 3 3 ; - < < 2 H 2 < 1 r @ 2 U S S m h g V i.z.E.!.Q.u.> # 0 $ % % % e % % # q u r r 1 < @ O y _ ! (.'. X[.# # $ X 6  .,.o.i i  . . .i u i  . .i i |  .i w j j ( +X$X$X+X+X+X+X+X+XoXoX$XZ.. 8  .q q q i q X.X.P i i i i i i i i u u i p X.p t * % $ X X $ o X o # 7 q q 0 q u t i u e q 7 q 8 q q 6 q 7 0 0 7 q 0 q q e q 0 0 q u 7 7 & q 0 7 7 e 0 8 8 u 8 X # $ 8 % ",
"%.X.P p p o.p u i i t ..1X8X8X8X8X2X2X2X1X1X1X;X-X .`.W.W.oXfXcXGXPXKXJXcX+Xl.u.9.C f.a.t.i.l.a.i.C x mXKXFXnXcXzXzXgX%X$X$X%X&X&XoX$XxXB..XdX|.s.b - `  XN.h.d.d.j.j.j.j.j.s.W d.S.D.A u.a.i.z.z.z.c.9.g.g.D.fXs.V j : ] #X XM.d.mXkXg.&XQ.!.OX!.!.!.!.!.E.t.u.u.u.u.u.y.) n . # q 8 % X 8 u u p u u | 8 u y 4 ! g Z V D Z F ( B.).M.{.}.}.(.h.{ (.Z.Z.M.d.M.{.S.S.S.n.J .   # o @ . J K 2 2 3 < ; @ @ @ < 1 w w w w < < q & & < g A i.i.Q.OXQ.u.Z Y < % 9 6 6 % 7 % $ X 0 q r r w & @ L Y _ rX'.F.#.o & $ # 8  .8 e o.o. . .u  .i u  . . .u i X.X.X.P J d.( f.+X$X$X$X+X+X+X+X+X+XoX%XZ.O o o * %.p q i i i i i i y y y i i i y P X.X.P | # * q & X # # o # X % e i u e e i u i u q q 0 7 8 8 7 7 0 7 q q 0 q q q 7 7 q u q 7 7 7 7 0 0 0 q 7 7 8 8 0 $ X # % 8 6 ",
"P X.P i u i @.X.i P J w $ >X9X2X8X1X1X2X1X;X-X>XAXFXJXGXGXGXnXzX$Xl.i.i.t.i.i.z.z.a.i.a.l.oXW.p.`.mXHXJXcXmXzXzX%X%X%XxXxXxXxX%X$X$XMX|.zXHXxX}.( h V N.{.Z.M.d.d.h.j.d.j.j.j.d.j.D.oXl.z.z.z.z.z.c.i.w.K.m.f.gXxXW g > M.M._ - N n.w.P.W.z.E.Q.Q.Q.Q.OXW.u.u.p.t.p.p.k.Q h.K . # $ 8 8 $ X # 8 8 * p u u %.t . > D D C W ) { M.B.[ ] B.(.C.M.Z. X}.C.M./ N.C.C.(.B.B.S._.C.4     o . J I U 2 < < < @ < < < < < w w w w < & o & 3 m A i.Q.Q.a.A Z Q s.N @ $ $ % $ & # & $ u q * & . > I L C.rX:.&.1 # 8 $ X 7 ,.o.e $ 7 o.o.X.|  .u e i X. .e i o.X.X.X.J U N.W W _.+X$X$X+X+X+X+XoXoXoX%XM.= o i P q q P X.i i i i i y y a i y i i P P P e $ % 0 i % # X X o X q i i i i e e i u e q e q 7 0 8 7 7 q 7 q 0 q 0 e 0 7 7 q e e 7 7 7 7 8 8 0 q q 7 8 8 7 # # # % 6 6 ",
"P i i i i i | 3.p t i p t 9 1X1X1X1X1X1X1X;X;X:XqX#XoXW.a.a.a.i.a.a.a.i.a.i.a.z.a.a.c.l.l.&Xa.p.u.#XHXcXxXfXxX%XxXxXxXmXmXmXxXzXzXmXzXB.$XA.V s.A Z Z F +XM.d.d.d.d.d.j.j.h.j.j.j.A.oXl.a.a.z.z.z.z.0.w.P.m.d N KXdX{.Z.{., _ , , D g.OXE.E.~.E.~.!.OXW.u.t.u.Q y.Q Z s.Q ) _ O & # # i | u | u p p u p p &. XD h Y ( d.N.(.C.;.{ ] B.C.V.[ / M.B.C.C.h.M.{ ) h.[ [ M.M.h.B.S.M.> . @ 2 J J H < < & < < < < < 1 < < w w J < o & > S u.a.p.Z b Q u.p.p.W 1 # $ $ % 6 6 % % 0 & < 1 &.5 N |.dX=.P * X $ # $ 7 0  .,.,.e $ e %.o.X.|  .8 e  . .e  .u 8 e 0 q @ L S.D D D.+X+X+X+X+X+XoX_.oX+XgX_ i q y t i p p i i i y y y P P P P i P P P t * % % 7 u | 0 8 # X X q e q q q i e e i e q q 7 q 0 7 7 7 7 7 q q q q q q q q 0 q 0 7 7 7 7 7 7 8 7 0 7 7 7 % X X X $ % $ ",
"P X.i i i X.p X.i i p p X.s ;X1X1X1X;X;X;X1X1X-Xu C.oXW.c.a.l.T.T.l.p.l.l.l.a.u.i.p.`.%X&Xu.p.p.v mXnXzX$X%X%X$XxXxXmXmXmXnXnXMXMXdX.X'.FXJXzX) b y.V b |.M.) ) d.s.s.j.j.j.s.j.j.D.oXu.z.z.z.z.c.i.0.r.I.K.f.}.{.zX' ; N / Y aX+Xf.c.Q.Q.~.~.Q.OXOXa.t.t.p.t.Q Q Q E E ) ) ] , O q q u p p u u u u u p *.` s.Z E B.h.) B.M.M.' ' V.}.}.C.M.h.M.{ M.] N.C.(.V.M.Z.B.M.M.h.) ) h.S.Y g J j ; 2 1 1 & & & 1 < & < 1 < < w y < o & < Y ` v , B Q u.p.p.u.y.L o $ 6 6 6 $ $ * q e & >  XsX.X X~ i $ 7 6 # $ $  . .6 0 o.,. .$ e o.o.| | 8 0 X.X.i u 7 % % & 6 # < *.S.( D S.+X+XoX+X}._._.oX+XfXL i X.p q p i i t i i i P a P P P P P P X.X.o $ 7 % 7 0 i i u 0 & X q e e q i i e e e e e q 0 0 0 0 7 7 q q 7 7 e q 7 q q q 0 7 e q 7 7 7 8 0 0 0 q 7 7 8 # X X # $ % 6 ",
"p i X.X.i u i P t i p p X.9 ..2X8X2X1X1X1X1X;X;X .V._.T.oXoXl.a.p.l.%X%XoXl.l.a.a.a.p.&XW.a.a.p.g mXxX+X%X%X&X%XxXnXnXFXHXJXMXcXsXsXfX'.FXLXKXnX).Z g b +XB.d.d.h.s.d.N.N.d.d.d.s._.+Xc 6.w.z.z.c.0.r.I.P.P.m.b.c d : d S q.m.kXH.C c.Q.Q.~.!.*XW.t.A t.Q Q Q s.s.W Z ) Q s.s.B O & p | @.$.@.| u t 2 C.+XA V s.B.[ { C.(.Z.] / ' { Z.C.M.C..X).C.Z.] Z.B.C.C.{ Z.B.M.C.N.] M.M.) N.` g H 2 ; < < q * & < q r < < < < 1 w * o o @ r < > v W W u.u.u.p.t.E 2 o $ 6 $ % o % q q q 7 . cXdX5 1 $ 9 6 # $ % 8 e  . .8 9 | %.u X u o.%.X.i 6  .X. . .7 % 6 6 7 7 # < ` D./ D S.oX_.S._._.+X+X%X+X> q X.#.i i i i i P i i P P P P P P P P X.w o $ 7 $ % 7 e i u u u q e 0 q 0 i p i i e 0 0 q 0 0 q q 8 6 q 7 7 0 q 7 q q 6 7 q 7 q 8 6 7 8 8 q q 8 8 8 7 6 # # # % 7 $ 7 ",
"P P X.P y q t u 1 u i i  .q & 9 ..>X1X1X1X1X;X-X .F.A.l.#XxXp.p.&X%X%X&XOX%XW.a.l.l.a.u.u.a.i.p.C A.MX%XOX&XxXMXJXJXJXJXHXcXsXrXsXdXsX{.FXPXGXJXcXV.g :  X{.] Z.C.h.h.N.M.( D ( D H.eX; q.c.a.c.9.z m.L.P.K.m.K.K.K.K.K.g.q.D.n.d q.&XW.~.!.OXa.t.t.a.Q Q Q Q Q W Q W W s.k.k.E > # # 7 i | t @ + _ N.f.F D ( B.D / h.).}.C.' ;.Z.;.] ` ] Z.V.{.'.Z.(.).(.(.] ] ] ] (.(.Z.(.}.{.C.[ j.` ; 2 < < & < < 1 < & < w 1 2 2 1 1 @ o # # q r 3 v D W A p.W.OXW.t.E > X 6 $ & # % 7 * < % o . wX1   * $ # # $ $  .e 6 e  .7 6  .%.0 X  .o.o.X.6 0 X.u i X. .0 6 7 7 7 o > T N.Z b N.+X_.S._._.oXgXN.> t i o.%.X.P i p P P P P P P X.P P P X.X.t * o 7 % $ 7 7 i  .i q  .e 7 q q e i i q e q e q q 7 8 q 7 7 8 7 q 0 q q q 7 q 7 7 0 6 7 7 7 8 8 8 7 7 0 6 8 $ X X $ 8 8 $ 6 ",
"X.i p @.i q u i u u  .u  .u 8 $ 9 >X1X1X1X1X1X;X .qX#Xj.+XxXW.OX%X&XW.oXoXxX%XoXl.a.l.l.u.u.t.u.k.$XfXdXcXmXHXHXnXnXcXdXrXrXrXfXdXdXsXrXJXKXPXJXFXnX~ +  X XM.N.C.M.h.B.).] / sXrXcXkXC c.W.a.i.a.a.K.l.l.oXoXoXK.&Xc.l.l.l.g.f.a.c.Q.!.OX&Xu.t.u.p.p.Q Q Q Q W ) W s.W s.Q W N.4 @ & o o * . - ` D.N.b D F B.;.' V.Z.;.{ ) ] C.M.Z.{ ] M.;.M.M.] N.{. X{.C.V.Z.M.M.M.[ { Z.}.#X|.] Z f.` - < 1 * & & 1 q r < 1 2 2 2 2 w @   o o r w 1 2 n Q p.R.W.&X&X&Xk.) > # 9 6 $ 0 q < * & * o X.X.  # # # # % 8 8 u e 7 6 0 6 6 e o.% #  .o.o.e %  .i  .o.,.X.0 7 6 % 6 $ < U ` b E A.+X+X+XoX+X#Xm 1 i i I X.X.#.#.X.P P P #.P X.I #.X.X.X.o.X.p # $ 8 q 7 8 e e q q q 7 q q q e i u e u 0 0 0 q 8 q 7 7 8 7 7 q q q q 8 0 0 8 8 8 8 8 7 % 6 8 8 8 7 7 8 6 # $ $ 6 7 e % % ",
"i u X.X.i u i p i 0 e u i q * $ 9 ..1X1X1X1X1X>X .wXfXj.&XW.W.&X%X%X%XoX&X&X&XOX&XW.p.u.l.p.`.xXKXLXjX' V.'.]. X X X XwXrXrXfXfXfXsXsXdXJXPXPXPXIXLX].- M.{.M.S. XM.Z.jXHXtXDXLXLXPXkXf.c.z.a.E.Q.Q.a.A z.Q.W.t.c.c.z.W.W.z.Q.E.~.!.!.OXW.t.t.a.a.u.Q Q Q s.y.s.s.) Q Q s.s.W j.I O * # # < 4 / j.D.S F V ).M.Z.(.{.(.M.) / ;.Z.M.{ M.Z.).).(.M.) B.M.C.C.Z.(.(.(.(.M.] ' ] V.(.V.C.B.) s.Y O * & & & < 1 w w 2 ; , : - < +   o X 7 r r r 2 s.l.p.l.W.&XOX&XT.s.> # # # q q q q q & q P 7 # % & % 0  . .8 6 e u e e % X % u  .X % | o.o.% e  .,.,.,.,.e 7 8 7 * 6 % % w Y ( j.}.+XoXoX$X X2 P i y P X.X.o.#.X.i i i i X.X.P P X.P p P X.X.# # 8 8 7 0 0 0 e 7 7 7 q q e e e i i i e 0 0 8 q 8 8 7 8 7 7 q q q 8 7 q 8 7 8 8 8 7 7 6 6 8 q 7 % 6 6 $ X $ % 6 6 0 * % ",
"0 i 7 i | i p | u 0 e i e 6 6 9 $ ..;X1X1X1X1X:X .F.A.t.l.l.W.oX&X%XxX$XW.&XW.oX&X%XW.l.l.sXLXKXnXrXtXV.V.'. X X.XrXrXrXdXdXdXdXfXsXfXhXPXKXGXnXGXLXqXO *.sXrXvXJXPXLXLXLXLXLXGXtXdXl.g.a.i.Q.Q.W.a.V l.W.Q.u.i.z.i.z.E.E.E.E.~.Q.Q.Q.c.Q t.p.p.A Q s.Q Q s.s.s.) Q s.W B ) B B _ +   # o @ M.( s.s.V D h.] / M.{ {.{.{ { ;.{ ] { / h.Z.C.(.V.M.C.(.Z.C.[ ) B.{ (.(.M.;.;.' { M./ B.(.).W ` j O < < & * < 1 4 2 > 1 ,.<X:X:X>X..8 % & * < 2 L W p.R.W.&XOXOXW.s.M w q $ $ # * 1 q * & # # & 6 # u o.o. .8 % 6 0  . . .6 X &  . .X 7 i X.e  .,.,.o.i 6 & 6 6 7 7 0 7 $ # < J Y f._._.D.fX*.& i i i y i i i X.P #.#.#.1 1 y i X.X.X.P P p i # X 6 e 8 0 8 6 6 $ & 6 0 u e e u u i q q e 0 8 0 8 0 8 6 7 7 0 8 q q 0 8 8 7 8 8 7 7 8 % 6 7 8 8 7 6 % # X $ % 8 6 8 8 6 ",
"t 7 q X.p q u i u u 6 6 0 u $ 8 9 ..;X1X1X1X1X;X..#.&Xt.C l.oXW.&X&X%X&X&X&XoXoX&X&X%X%XA.MXFXPXJXwXsX'.'.'. X|.rXtXtXtXdXdXdXdXfXfXsX|.JXJXmXdXJXLXZ.: n.PXKXLXLXLXLXPXDXhXtXhXKX|.p.Q.i.Q.Q.Q.a.C a.W.E.z.i.Q.a.z.E.E.E.E.Q.Q.Q.z.u.t.t.a.a.u.Q W Q s.W s.s.s.W W y.s.Q W E ( E L . # o O , n.( d D D B.! v L [ Z.;.M.;.;.(.C.{ { M.] [ ' [ ;.B.).(.M.M.M.Z.M.N.] { V.'.] ;.V.V.'.;.V.h.b ` : < & 1 1 2 < + u <X0X0X:X3X:X3X:X+.8 6 6 7 & 2 / p.l.W.~.~.a.E v n ! ~ ~ K < & & q q % % % % & # u o. . . .e 7 $ 6  .|  .7 X # 0 $ X u %.,.,.o. .7 % % q % 6 e | ,.o.0 6 $ # < j D S.+X+XJ & y i q t t i i i P X.i X.$.1 # q q i P P #.#.X.t X $ 0 8 6 % # X     7 0 q q e i e e e e e e q 7 7 8 8 8 7 7 8 e 0 8 8 8 0 8 8 8 7 7 6 6 7 6 8 0 6 6 $ # # $ 6 6 6 8 6 % ",
"* q i i X.q u i i 8 $ 6 u u # 7 X 9 ;X1X1X1X;X;X..% `.&Xl.V A l.W.&X&X%X&X&X&X%X&XoXgX}.d.nXPXKXdXC.dX|. X X|.rXrXtXtXdXdXdXdXdXfXfXB.$XMXmXsXmXKXvXz 7.f cXjXhXjXrXdXhXdXiXFXLXmXf.OXi.z.Q.Q.a.C a.Q.z.z.u.E.z.z.E.E.E.!.Q.Q.W.a.t.t.u.a.a.A y.l.k.s.s.s.Q s.k.Q E W E s.s.) v B ) ) N 2 1 , ` Y b D ] C.M ! C. X;.E ] ] ' { M.{ C.(.Z.{ ' / ] { Z.Z.{ ;.C.(.C.B.] M.;.] Z.Z.M.(..X}.(.) b q.S < 7 * 1 @ @ ,.0X0X:X..>X:X:X3X3X3X:X..9 7 & 1 L W p.l.k.[ , , L j.`.`.h.) K < 7 < 1 * & & 6 % # 6 u  . . . .u 7 # # e  .| 6 X #  .| %.o.X. .7 6 6 6 6 % 8  .o.,.@.,.,. .6 6 $ # 2 ` aXC.< q i q q t w i p p P P i y %.$.o X % % q e i X.X.@.i % 6 % $ # # X $ * 8 q q u e e e i e e 0 0 0 q 7 8 6 8 8 0 8 0 q q 0 q 7 8 7 6 7 7 8 7 6 % 7 8 6 $ # # # 6 6 6 6 6 6 6 ",
"7 q q i  .i i u u 6 % 6 e u $ 6 $ 9 ;X1X1X1X;X;X:X9 D oX&Xl.A V i.W.OXl.l.OX%X$Xl.A.y.h d.nXKXJX|.|.cXrX X|.rXrXtXrXrXdXcXcXzXzXzXT.`.NX*X$XzXKXKXT g.P.g.+XGXvXbXbXGXKXLXLXLXaXC &Xz.z.Q.Q.a.C a.Q.E.E.i.E.W.z.z.Q.Q.Q.W.W.a.t.t.i.a.l.s.; . 1 } s.k.u.s.Q Q s.k.Q Q Q Q s.s.s.v E E k.k.E + _ g T m C.;.M ;.M.Z.;.Z.M.[ [ / ! ] M.;.;.{ ] { M.{ { / [ { ;.Z.M.{ M.M.{ { { ( ) B.{.sX.XM.D G T ; & 1 @ # <X0X0X:X-X-X:X:X3X:X:X:X3X:X-X8 % 7 y _ [ I J 5 M N.$XxX}.W B [ ] _ 1 o & * & # # % 6 # 8  .o.u u  .u & X X % u o.@.,.,.,.o.q % & % 6 7 7 e  .%.,.%.o.o.o.,.,.,.8 $ $ $ 7 -.J @ i i e q t q t i P P P P w X.$.p   X X $ % % 0 u u  .u 6 # X o # $ 0  .e 0 0 e i q q i 0 q q 7 q 0 7 7 8 7 7 8 8 8 8 0 7 8 7 8 7 7 7 6 8 7 6 6 7 7 6 $ # # $ 6 6 6 6 6 6 6 ",
"7 0 i X.i i u u 8 6 % 6 0 0 $ $ # 9 ..1X1X1X;X;X2X..> l.&XW.a.p.V t.a.c.&X%XT.u.t.t.h fXtXtXPXFXbXJXJXdXwXrXrXsXsXdXdXdXcXcXnXfXk.oXxX*X%X$XJXKXn.l x.w.m.q.aXLXLXLXLXPXjXaXm.x c.E.z.!.Q.a.C u.Q.E.~.a.a.~.z.Q.~.~.Q.z.u.t.A t.a.a.l.b O $ # @ n E k.s.s.s.W Z ) s.W W s.W W ) E ) b Z y.j.n - g T b ` C.Z._ n ! ;.V.;.] [ ] ] ] ' ] ] ' ;.;.Z.Z.{ ] ] ] { ;.[ { { V.Z.] ] { ;.' ;.'.|. X] h T ; @ + 6 <X0X:X>X....:X:X-X-X-X>X>X>X:X:X:X..0 < i w & > [ `.#X}.(.k.`.#X#X_.(.! + & & 1 % % 6 $ # % & 8 u 0 8 e e 0 e o.,.%.%.X.X.i 0 7 % 7 * 7 % e o.,.,.o.%.o.o.o.X.%.@.X # $ X X  .6 q u i e u t e i i p a P P i o.P #.P 7 X   X X $ % 6 % $ # # o # X # # 8 u q 0 e i e i e q q 0 8 q q 8 8 8 7 8 7 8 8 8 8 7 8 7 8 7 7 7 7 % 6 % 6 6 6 % # # # $ % % 6 6 6 8 6 ",
"q e p i u q e 0 6 6 6 6 0 e # # 7 9 9 ;X1X1X1X1X2X-X$ h l.W.c.W.l.A h y.p.p.Q Q u.Z h.KXcXtXJXPXLXDX].wXnXbXdXdXdXdXcXvXnXnX XE }.NXOX&X+XMXKXwXd m.g.g.m.K.g.g.K.m.q.9.D.f.G g.W.E.Q.Q.i.A a.Q.E.~.z.i.Q.~.!.!.W.a.p.t.Q A u.a.a.y.> # & % % < > Y s.p.s.y.s.D B B v W E W ) B Q k.s.Q s.s.d.- d ( V Y C.*.! N L ' ] ] { [ { C.M.] ] ! ! ] ] ;.Z.{ { ;.{ Z.{ / ) ] { ;.;.' C.(.B.h.j.F }.M.h T j < 6 <X3X3X..9 ....-X..9 ....-X-X>X>X:X:X:X:X..9 # @ L B.(.h.s.).zXMXMX}.h.] ' 2 @ @ @ X   X X X $ % $ | X. .o.,.,.,.,.,.%.o.7 6 # % 6 6 6 6 q q & 6 e | ,.o.o.o.o.| o.o.0 X X 7 | q % q q q q e 0 i u u i P P P X.#.P P X.#.X.q $ # # # # X # X # X X X # X 6 u 0 q q i e q q q 0 0 q 0 0 8 8 7 7 8 7 8 8 8 8 8 8 7 7 6 6 7 7 7 7 6 6 % 6 # # # # 6 6 6 6 6 6 6 % ",
"q e q i i 6 8 0 6 6 6 6 6 8 o P #.# 9 ..1X1X1X1X1X:X9 - Z l.&XW.a.a.i.t.t.u.u.t.u.t.fXKXGXtXdXcX X] [ ] '.dXnXGXGXFXnXcX}.) h.xX%Xl.a.oXHXKXG.- y.l.g.g.l.l.D.g.q.q.T q.T S F l.W.OXQ.i.t.E.Q.E.E.Q.E.Q.!.OXQ.a.t.A u.u.u.p.l.Q 2 $ $ 6 q * & r < 2 ` k.s.W k.) v N , v ) Q h.s.E Z s.s.k.s.s.V d f.b ] |.M.;.;.~ [ ! [ / / { (.M.{ ' [ { ' _ ' E ) { M.Z.;.' ;.;.' [ ] / [ h.).`.B.B.j.A.( h T k w ,.3X3X-X-X-X<X>X................-X>X:X:X:X:X+.e & ~ ] E h.#XxXNXxX#X' M M J w < e e i | o.o.,.,.,.,.%.,.,.,.,.,.o.o.o.i 0 0 7 % % 6 6 6 6 0 X.i * & % u o.,.%.o.%.o.%.@.i e | 8 & q q u q q i i i u e i P P i P %.X.i t P X.i 6 % $ $ # $ # # $ 8 0 u i 0 7 0 q q q e i i q e q q q e 0 8 7 8 7 8 7 8 0 8 0 8 7 7 7 7 7 6 6 6 6 % 6 % % # X $ $ 6 6 6 6 8 6 6 $ ",
"6 7 | p 7 7 8 0 8 6 6 6 8 % J J.I & $ ..2X2X2X1X1X2X..# , F l.oXW.a.W.a.W.a.t.p.a.u.nXGXC.Z.|. XM.] {. XN.W { B.h.h.s.s.).cXKXnX).}.FXKXJX[ - Q c.E.a.W.l.i.a.Q.W.l.W.a.a.&Xa.c.OXQ.u.a.Q.~.E.~.!.!.W.l.l.l.Z : b A p.a.a.p.n o # 6 6 7 % 7 & < q < 3 H m D s.s.s.E ) E B E W s.W Q s.W s.k.h.Z : ` S D +X}.{ (.(.{ N _ L ! / ' ] ' [ ] ;.Z.] ] N [ ' ' { { [ { B.;.' ;.} B ! ! ' V.V..X'./ x q.: r <X3X:X....BXBX<X0X<X>X-X..9 9 9 ........-X....+. .P L ] }.$X$X}.h./ { (.M.' #.-.%.#.,.,.,.,.,.,.,.%.%.%.,.,.,.,. .7 6 % 7 7 q e  .6 $ 6 7 8 7 q 7 6 % % * i o.,.,.o.o.o.| 6 X $ 8 7 q q r q q w t q i i i i a X.@.p i i P X.0   X # $ % $ $ % i | | | X.7 & e q q e u i e u 0 q 7 8 e e 8 7 8 8 8 8 8 0 7 8 8 7 8 7 6 7 7 8 8 6 6 6 $ $ # $ $ 6 6 6 6 6 8 6 6 % ",
"q i X.7 % 8 8 u 6 6 6 6 6 % 0 q $ X # 9 ;X9X8X1X2X2X:X..$ , Z p.l.W.W.E.a.u.a.W.u.A HXFXC.N.C.Z. XvXKXJXdXsX.X|..XsXnXJXKXKXcXdXGXLXLXdX, : i.E.z.z.z.z.a.a.Q.W.E.Q.E.z.OXE.a.OXW.t.a.Q.Q.Q.Q.&X&Xl.l.p.t.Q A Q p.a.a.u.n o $ 6 % % % % % * * & < w < 2 m h h b b D d.) B W E W ) W s.W s.s.j.b : T V ) {.V.(.;.! ' ' ! / ' _ _ ! N / ] ;.;.] [ ] ] ] ' / N / ] ;.{ { [ ' ' ! M } v B.sX).B V f.; ,.0X:X....7XyXiXDXDX7X;X2X;X-X....9 9 ..........+.,.X.M B.).).M.[ [ Z.{.C.M.' ~ #.%.o.o.o.o.%.%.%.%.o.%.%.%.o. .e 6 6 6 7 % % % i X.<.,.0 6 9 6 $ 6 $ X X X X $  .%.%.o.o.%.o.7 X # 6 7 7 7 7 q q e e t u i i X.X.P i q i P P i i % $ X X X X # X $ 7 0 i 0 & u 7 q q u e i i q q 7 8 7 8 0 8 7 6 7 8 8 8 8 0 7 6 7 8 7 7 7 7 8 6 % % $ # X # $ 6 6 6 % 6 % 6 6 6 ",
"8  .e & 6 8 e e 8 6 6 6 6 6 # # $ $ $ X 9 -X2X2X2X1X8X:X9 3 m m Z p.W.Q.W.W.W.a.u.u.zXJXnXbXcXFXKXPXJXPXPXPXKXKXKXKXPXJXvXdXbXKXKXcX` : h l.W.z.z.E.z.a.i.W.a.a.W.i.z.OXa.i.!.Q.a.Q.OXOXOX&XW.l.u.u.u.t.t.u.a.a.a.u.n o $ 9 6 % & * 6 % % * * & < w 3 3 T T x b b b m B E s.) ) ) W s.A s.h.s.B : m F V ` ( C.;.! ' *./ { h.{ [ E N / [ [ [ / / ] M.M.) [ ! / [ [ [ [ ! } h.j.h.) m h. XC.V 9.f.7 7X>X....:X<XyXVXDXqXIX>X;X:X;X;X-X................+.o.~ M.h.[ ] ' ;.*._ K 4 y P X.#.#.o.X.X.o.o.o.o.o.X.o.| 0 % $ 6 6 6 0 i e q 7 o P dXrX].F.> G.F.*.&.~ -.2.0 $ q  .%.,.,.,.,. .$ X & & 7 7 e 0 0 e e q i P X.P p i y i i i i $.o.i i 0 & 7 7 % X X X $ % $ 0 0 q q q u  .u e q q 8 7 8 8 8 q 8 7 0 8 8 8 0 8 8 7 6 8 8 7 7 6 6 6 % $ # # $ % 6 6 % 6 6 % 6 6 % ",
"u u % 7 8 e 0 0 8 6 6 6 6 8 $ $ # $ # # # 9 -X1X2X2X9X-X9 1 2 j m Z y.p.W.W.E.a.W.u.) JXFXFXFXFXFXFXFXGXFXFXFXGXGXFXvXhXbXKXKXhX] : : V a.z.z.z.E.E.a.a.a.z.E.W.u.a.OXz.a.!.OXOX!.W.oXl.l.p.p.u.Q t.t.p.a.a.a.y.1 # 9 9 6 7 7 # & % 6 6 % % & & < r w 3 S f.V V V F V ( v D s.W W W W Q Q s.h.D - j y.V D E { { / N N [ ) h.) N } [ { ] [ ! N [ ] ;.{ [ ! ' ] ] ! ! g g / { B.B.{ (.'.M.D b g.S u <X..-X-X3X<XIXZX<X,.VXDX,X>X:X;X;X-X-X.............. .>.' / [ _ L K K y 2 2 2 2 y P o.o.o.o.o.o.o.o.o.X.u % % % & 6 % e o.,.,.i 7 7   ~  XC.rX4 -.G.L I #.-.F.t $ % % q X.,.,.o.,.,.u # % 7 7 q e e q t w i X.X.i i i t p X.i q P #.o.p i i X.%.%.#.X.& X X # 6 0 7 q e e e i u q q 7 7 7 7 8 6 8 8 8 8 8 0 7 7 8 6 % 7 7 % 7 6 6 6 $ $ X $ % 6 6 % 6 $ 6 % % % $ ",
" .8 # 7 7 0 e e 8 % 6 6 6 8 6 # # # $ 6 % 9 9 ..;X2X>X..e q w J m b B D s.a.W.W.W.l.d Z.HXJXvXbXbXbXbXvXnXFXFXFXDXFXFXJXJXrXY : - Z i.Q.E.z.E.z.z.a.a.a.a.E.W.a.E.OX!.!.Q.Q.W.l.u.s.u.u.t.t.u.u.u.i.a.a.p.Z ; 6 $ $ 6 6 6 6 % * % % % % % % $ % * & w U k T V V s.A.A.s.b g ( ) ) W W W E W s.d.+ ; S y.b ] C.M.] / / / M ! ! ! ! { ] ] / / N ! N ! ! } ! [ h.B.' _ N N ! ! { ;.{ '.'.' b F f.: ,.>X-X>X>X7XiXPXIX+.+.ZXIX>X;X:X:X;X;X-X..............+.<.~ J I K 2 w 2 1 < 1 2 1 < 2 y X.o.o.o.o.o.X. .q $ & % % & % e X.o. .X.q & 6 7 < ].C.{._ >  X*.Z.;.M.*.P & 6 9 # # e X.,.,.o.,.8 # # % 7 q q u q e X.X.q q e q u X.X.0 q X.p X.X.& o * e P X.%.#.q & X % 0 q q i i i i i q 7 q 8 7 8 0 8 8 8 7 8 8 0 7 8 0 8 6 7 7 6 7 7 6 % $ # # $ 6 6 6 6 6 % % % % % $ ",
"6 % 7 7 0 0 q e 7 % 6 6 6 6 8 0 % $ 6 6 6 $ # 9 ..+.......8 8 w U Y h h b W W y.a.T.Z : Y eXnXFXFXFXFXJXnXnXGXhXvXhX{.( : : : A a.c.E.E.a.z.a.a.a.a.E.~.Q.!.Q.Q.W.l.T.k.Q k.t.u.u.p.t.t.u.p.a.E.a.u.F j # $ 9  .6 6 % 6 6 % % 6 6 6 & $ % % % & # & & r - U aXfXfXS.` v g v W W s.W W W W W k.j.; - d T D D M.' [ ' ' ' [ N d h ! ' ] / M M [ [ / ! v g L / { ' ' ~ [ ' ' ' ] B M.{.M.Z F f.q.; <X>X>X;X>X<X>XIXIX,X,.7XPXiX<X>X:X:X:X:X-X........+.+.+.+. .i P P 1 2 1 2 2 J U U U J y y J X.X.X.|  .7 # 6 # & % * i X.X.X. .X.e 6 % q q 3.FXeXG.O Z.C.Z.*.J O.G.w & % % $ # 6  .o.,.,.0 X # o o & 7 q q i o.w q 7 q e e | p r q P i P #.$.u o X q X.i P #.0 X $ q 0 e e i i i i e 7 7 7 7 7 8 7 8 8 7 % 8 0 7 8 7 7 7 7 8 8 8 6 % $ # X # % 6 6 6 6 6 % % 6 % 6 6 ",
"6 6 7 8 e 8 q e 6 % 6 6 6 6 6 0 6 6 9 6 % # $ $ $ 9 9 9 s ..e 8 J Y F V b b b Z Q k.s.g : d V ( Z.S.'.] wXGXM.b b : - : b t.a.E.~.E.z.E.E.E.!.Q.Q.Q.Q.W.E.a.a.u.Q y.p.u.Q Z Q t.Q t.u.p.a.a.a.W 2 0 $ 9 $ % i u # 7 % % % % $ $ # & # # $ % $ $ $ & & r < w n.T g : : m , N h.B B ) s.) ) v Q h.L O d S F g D ;.'.(.h.) } } v / ! M ! ! ! } ) d.{ [ / N ! M ! ! ' ' E h.(.h.d.g D A.Z V u.y.h & -X>X-X>X:X<XjXvXJXiX<X<XLX<X:X:X:X:X;X:X:X;X-X............ . .i i 1 1 y J K U U I _ I ~ I I P P  .u 6 % & & & & 7  .X. . . . . . .8 % % X & vXrX].+ G.&.. 2.:..   % % 6 7 7 % $ % 6 8  .e # # X X o # * t | i q 7 7 q q q i i q u i i X.P X.$.@.& # i i < X.X.$ X 7 0 i i i e u i u q q % 7 7 7 7 7 8 0 8 8 8 q q % 6 8 8 7 6 6 6 % $ o o % 6 6 6 6 6 6 % 6 % % % % ",
"8 6 8 8 0 0 8 e 8 6 % 6 % 6 8 6 $ 6 $ $ # # 6 $ +...9 9 e ..e e e r m F F V V Z Z Z s.b g b b h d - + Z.nXY : h g Z u.T.Q.!.!.Q.Q.E.~.!.Q.E.a.W.l.p.p.u.t.t.u.u.t.u.p.u.A Z Q p.a.a.a.p.W N < $ 6 7 % 0 * % 6 e # & % & $ $ & % $ $ # # $ & $ & & & @ * & @ ; , v L _ n g d.] B v B s.W j.W y.W h.- d T d n.jXJXJXJXHXcX' ^ ' ' [ ! D : v [ [ ' [ ! ! [ ' ! [ N g ( ( h.`.j.M.] d.W C u.g.F -  .<X:X-X>X:X:XBX,.IXpXiXAXVX>X:X:X:X:X:X;X;X:X:X-X........+... .e 7 q 1 w y w y J J L / _ -.-.#.X.w o & & % & & q  . . . . . . . . . .% & %   ~ Z.C.n + 2.. #.1.o X $ 6 6 8 7 6 8 6 % & $ 7 6 0 u q t p @.%.o.i q q 7 7 q 7 0 q * e i P P P P #.#.%.q u p q u o.u X $ 0 t u u i t e u q 7 7 7 6 7 7 8 8 8 7 6 7 8 6 % 6 8 8 8 8 6 6 % # X # % 6 6 6 6 6 6 6 % 6 % % $ ",
"% 7 8 8 0 8 q 0 6 % 6 6 $ 8 6 7 % $ $ $ $ $ $ 9 9 e 9 9 e ....e 9 X # 1 S y.y.F A A F V g k k h : n nXFXn : b Z l.oXoXoXl.l.W.l.p.u.u.p.u.t.t.u.t.Q Q t.t.u.Q Q t.Q u.p.a.a.a.p.y.D 4 & $ 9 $ 8 q q # e 6 % 7 e $ $ $ $ $ $ % & * % # & $ # o o & & # # * * U _ L M v N s.k.Q W W D E E E j.k.s.d.v + - F.HXnXcXcXcXnXHXnX' } M.M.] ] v N ! M ! _ ' ! { h.h.[ N h D { ;.h.{ { h.D A f.f.q.d O +.<X-X..>X:X:X<X3X<XVXDXuX<X<X>X:X:X;X:X:X:X;X;X:X>X..........+. .% * 1 < < 1 2 2 J J L L I _ -.I y # o $ # & q  . . .i  .i  . . . .| i 7 % X y wXG.' . ]. XC.:.O.i & o # % $ $ % % % $ $ $ $ q X.%.o.o.i q r q 7 7 q 8 6 % % & & i t i P P P P X.#.X.i i t q p X.X X 7 e u i i i u u q q 7 % 6 6 6 8 7 8 7 6 7 7 6 7 7 7 6 7 6 6 6 $ X X # % 6 6 6 6 % % 6 6 6 6 % # ",
"8 6 8 8 e 0 8 8 6 6 6 6 6 6 6 6 $ $ # $ % $ $ $ $ 9 9 9 8 8 8 $ # % $ $ X w Y q.y.u.u.y.V h m g M HXdX- : m h s.u.A Q Q A A A Z V b b Z A A Z V Z Q Q A Q u.u.i.a.a.a.p.y.N > & 9 9 9 9 6 6 6 0 q q & u 7 % 7 i 6 7 7 7 6 6 7 % * q & % & % * & # @ o & < ; n [ E ) s.h.s.s.W Q E W Z E ) s.) ( h., O F.JXdXdXcXnXnXcXcXnXcXh.s.B.{ ;.>.~ ^ ! [ m Y { h.A.B.{ ' ;.:.! M { h.[ b 9.g.g.c 3 r r  .:X-X>X:X:X:X:X3X<X<X<X:X:X;X:X:X;X;X:X:X:X:X:X:X:X:X-X..9 ....+.0 & * & & * & < 1 2 w J L L I I I J 1 % # q i  . . . . .i i  . . . .|  . .q O eXrXV.. 3.#.@ F.C.M.G.=.@ $ 6 $ 6 % & $ % % $ # % 6 # # 7 % $ & % % 7 7 6 6 7 # 7 i i i p P P P o.P i X.i u q i o.7 X & e i i i  .P i 0 q 8 q % $ 6 6 8 8 7 6 6 7 7 6 7 6 7 6 7 6 % # X $ % 6 6 % 6 6 6 6 6 6 6 % # X ",
"8 7 7 8 0 e e e 6 6 6 6 6 6 6 6 % $ $ $ $ % $ $ 6 $ $ $ $ $ $ # $ 9 % % $ 8 $ 7 2 n F f.f.9.S F F d.d g ( Z V s.Q Q A V Z Z Z Q Q A Q Q t.t.t.u.p.i.i.a.a.a.i.t.Q m < & $ 9 $ 6 8 e 8 6 7 $ & u q 7 % 7 6 6 6 e % q q q 7 7 q 7 * q 1 * q 7 r q w q q w w 2 L N.h.) s.s.h.W W s.W W ) E ) W Z ( M.O K JXhXcXdXcXcXFXnXcXcXMX}.E ) [ } ;.j.B.{ _ g m ] ] { [ ! M { ;.[ M.( D F g.g.f.x : - O.I q <X:X:X:X:X:X:X:X>X>X:X;X-X>X:X:X>X;X>X;X;X:X:X:X:X:X:X>X>X......e & & & & # # & @ < 1 2 j J L I _ _ y < q i i  . .u  . . . .u  . . .| | | X.& qXKXbX& @ wX' _ I K J =.=.X $ $ % % $ $ % $ $ % %  .e X X X # & # & & 7 7 6 $ # 0 u u t i X.y i X.#.P p * 7 e q X.i X X q u u i | X.i q 0 q 0 7 % % % 7 7 8 8 7 6 7 % 6 6 7 6 6 6 $ o # $ % 6 6 6 6 6 6 6 % $ # # # X ",
"6 7 0 e 0 0 e 0 6 % 6 8 8 6 6 6 % # % % $ % % $ $ $ $ $ $ $ $ $ $ $ % % 6 e q i % X $ 7 w U S T F F y.g.l.t.u.a.a.a.a.u.t.i.i.i.a.a.a.i.i.a.a.u.u.t.A B 2 1 6 9 9 9 9 6 7 * 7 7 q q 7 % 6 6 6 e 7 7 & q $ $ q i 7 % 7 7 q % 7 7 r r < q r r r w w w 1 2 2 J g / d.W s.s.) W W W W h.s.W ( W W E / + nXcXnXvXdXcXcXnXnXcXcXcXnXM / ] _ d.A.A.[ ! m Y [ _ ! ' ;.` M.] ( F f.l.l.f.9.k ; < - w J 6 <X:X:X:X:X:X:X:X:X:X;X;X;X>X:X:X:X>X:X;X;X;X;X:X:X:X:X:X-X-X......$ & * & & o o @ & < 1 j J K L I _ I J y i i  . . . . .u  . . .i i i i  .p q X.LXLX<.< HX' L F.y a -.F.$ $ % % 6 $ $ % $ $ % $ # u  .0 6 $ X X $ 9 8 7 $ # % q q i u t P i i p X.X.q # u i q  .X.7 X & u p i p X.p e 7 q q 8 7 % % 6 7 8 8 8 7 6 6 6 7 6 6 6 % $ # $ % % 6 6 % $ $ $ # o # o o X X ",
"0 0 8 8 e 0 e 0 6 6 6 8 6 $ 6 6 $ $ $ # $ $ # $ $ $ $ $ $ % $ % $ $ $ % $ 7 q i i 7 $ 6 $ 6 # & < < 2 U m m D F y.9.y.y.y.u.y.A Z D D m j 2 q $ $ 9 $ 9 9 9 9 e % % 7 6 q 6 7 7 7 7 7 % % & % 0 7 7 % 6 % % 7 q q 7 & 7 7 q q r r r r w r r r w r w 2 < 2 n j N h.s.s.) W W W s.W s.) ) ) W E W v rXHXbXFXvXcXcXcXcXvXjXcXcXmX[ g D Y ( ` ` [ ` [ ` M.] [ / ( E W y.l.K.c.g.6.c d 3 < q $ 7 6 e <X:X:X:X:X:X:X:X:X:X:X:X>X;X:X:X:X:X:X:X;X;X;X;X;X>X:X:X>X>X-X....9 6 # o # o & q 1 2 w H U U L Y Y _ -.J w i i i  . . . . . . . . .i  .|  .i & iXLXpX. qXF.. O :.. @ 6 # % # $ % % $ $ $ % % $ $ X 8 | i o.#.-.-.@ & $ $ & q q q q u u P p P P u & o e X.i 6 i X. .# X 7 i | | p i u 0 7 q 0 8 $ $ 6 7 8 7 7 6 7 6 % 6 7 6 $ $ # # $ % 6 $ $ $ # # # o o # # $ 6 6 ",
"8 8 0 8 0 8 e e 6 6 8 8 6 6 6 6 $ $ $ $ $ $ $ $ $ % $ $ $ $ $ 6 6 $ 9 6 $ 6 # 0  .7 # % 7 7 7 6 6 6 $ 6 6 8 6 6 9 9 9 9 9 $ 9 9 9 9 9 9 9 9 $ 9 $ u 8 % 6 7 7 u 6 & q 6 e 0 6 % 6 8 6 & % % 6 8 8 6 % 7 % % % i 7 r 7 q q q w r r w r r < 1 r 1 r 1 2 2 2 2 n n ( W W Z E ) s.s.s.W W E ) ( E b M.MXvXvXFXFXvXvXvXcXvXcXcXdXmXB.Z y.F V C V V V V V Z Z F y.f.g.c.c.l.u.C f 3 3 3 3 r < 0 e X  .<X:X:X:X>X:X:X:X:X:X:X:X:X>X>X>X:X:X:X:X:X;X;X;X;X-X>X:X:X:X:X....9 & & o & q P U w w w H J U L Y Y ' *.#.P i i i  .e  . . .i i i  .i  .i i i & &.KXDX. $.LXFXdXrX= X $ $ $ $ $ % % % % % % % % % $ # # X & q y i & X $ $ 7 e 0 q q e e p X.X.i & X q | i  .q e  .X.e X $ q i X.| | u 0 0 q 8 8 7 $ % 7 8 8 8 % % 6 7 % $ % $ # # $ $ $ $ # X X # X o # $ $ % 6 6 6 ",
"8 8 0 8 e e 0 8 6 6 6 6 % 6 6 6 $ $ $ # $ $ $ $ $ % $ $ $ % $ $ $ X # X 7 q % q i r & % 7 % r r < 7 * q u r * % q 0 % 6 7 % % 6 6 6 7 7 6 7 6 6 6 0 8 $ 7 6 7 e 6 % % 7 0 6 6 % % q 6 & % $ 6 0 8 8 % 7 % & 6 i q q e < q w r r < w w w w w w r w < 2 2 2 3 j , E s.W E W s.s.W W W E W W E D N cXrXhXnXvXvXbXvXvXvXvXcXjXhXnXC.V f.D.j.j.f.q.9.F 9.y.f.D.g.g.g.y.C x h k k 3 w r < & * q q X u <X:X:X:X>X:X:X:X:X:X:X:X>X:X>X>X:X:X:X:X:X>X;X;X;X;X:X:X>X:X:X:X>X9 $ q & q r y J w w 2 w 2 J U L L _ ` *.~ i i i i i u  . .u i  .i  . .u u  .e * jXKX=.O DX-.:.hX1.# $ $ $ $ 6 6 6 6 6 $ $ $ $ $ $ $ $ % $ X X X # % $ 6 6 6 8 q 7 e e i  .i & # i  .i e i i q  .i i 7 $ % e  .X.| i e 0 q 8 7 % $ $ 6 % 7 q 6 6 6 6 6 % $ # # $ $ # # $ # # # $ # $ % % % $ % 6 % ",
"8 6 0 e i e 8 % 6 8 6 0 6 % 8 $ # # $ % # $ 6 X 6 6 % 6 % $ 9 8 8 6 6 X u i q q q i e & q q 7 q q e r < r e o & r 7 7 q * * 7 $ 8 0 # 7 7 $ 7 u 6 8 i $ 6 8 7 0 6 % e % 0 6 8 e % % % 6 6 $ % 0 7 8 0 6 % 6 q q % e r @ < i < < J U w w < w 1 w w w < 2 2 2 j g B j.) s.) ) s.W s.s.W W E D B C.JXtXrXnXvXvXvXvXvXbXcXcXcXcXcX{.- m T F N.H.FXLXLXLXnX|.A.y.x x k k 3 3 3 3 3 < o & & % % 0 X ..:X:X:X:X>X:X:X>X:X:X:X:X;X:X>X>X;X;X:X:X:X>X>X;X;X:X:X;X-X:X:X:X:X..$ q q & < r w w 1 < < < 2 U L L L ` *._ O.i X.e i i u  .u  . .u i i u  .e i * $.PXbX. @.iX  o ,X@.# % $ $ $ % $ 6 % # # % $ # % 6 $ $ % % % $ $ $ % 7 7 e 0 7 e e q i i q o 0 X. .i 0 e e e  .0 0 u $ # i e e X. .e 8 0 6 e e 7 $ % % 8 8 % % 6 6 8 6 $ X $ # $ # # # X X $ # % 6 6 $ % $ % % $ "
};
