/* XPM */
static char *f40ffd291a0744e9b71fba26b30b04dbTGpMhgIvdjnDYNCE[] = {
/* columns rows colors chars-per-pixel */
"468 468 256 2 ",
"   c #003A54",
".  c #004B69",
"X  c #01576C",
"o  c #015474",
"O  c #015C74",
"+  c #015B7C",
"@  c #05587A",
"#  c #085470",
"$  c #01637C",
"%  c #05657A",
"&  c #166679",
"*  c #2A6B79",
"=  c #04455F",
"-  c #676761",
";  c #3C3A30",
":  c #908B77",
">  c #025D82",
",  c #055E85",
"<  c #015F92",
"1  c #026484",
"2  c #0A6484",
"3  c #016B84",
"4  c #03658B",
"5  c #036C8B",
"6  c #0B6C8C",
"7  c #0A6986",
"8  c #136B8A",
"9  c #02728C",
"0  c #0B738C",
"q  c #067489",
"w  c #16748A",
"e  c #026495",
"r  c #046C93",
"t  c #0B6D93",
"y  c #01669C",
"u  c #036B9C",
"i  c #0A6D9D",
"p  c #096793",
"a  c #126D94",
"s  c #037593",
"d  c #0C7394",
"f  c #037A94",
"g  c #0B7B95",
"h  c #05729C",
"j  c #0C739B",
"k  c #047D9A",
"l  c #0B7C9B",
"z  c #137494",
"x  c #137B94",
"c  c #13759B",
"v  c #147B9C",
"b  c #1A7C9D",
"n  c #1A7796",
"m  c #277788",
"M  c #257D97",
"N  c #367A8B",
"B  c #0166A3",
"V  c #026CA3",
"C  c #0A6EA1",
"Z  c #016BAB",
"A  c #0067A9",
"S  c #0572A3",
"D  c #0B73A3",
"F  c #0C7AA4",
"G  c #0B75A9",
"H  c #0C7AAA",
"J  c #0577A7",
"K  c #1275A4",
"L  c #147BA3",
"P  c #1A7DA2",
"I  c #137BAB",
"U  c #1779A9",
"Y  c #006EB2",
"T  c #0172B5",
"R  c #0379BC",
"E  c #147BAF",
"W  c #227EA2",
"Q  c #4B7D8A",
"!  c #057DC1",
"~  c #087FC2",
"^  c #04829D",
"/  c #0B829C",
"(  c #088498",
")  c #13829D",
"_  c #1A839B",
"`  c #278499",
"'  c #378697",
"]  c #30818D",
"[  c #0584A2",
"{  c #0C84A3",
"}  c #0C8AA4",
"|  c #0D8BAA",
" . c #0788A7",
".. c #1384A3",
"X. c #1C83A3",
"o. c #138AA5",
"O. c #138CAB",
"+. c #1B8CAB",
"@. c #1A87A8",
"#. c #1492AC",
"$. c #1B92AD",
"%. c #1795AA",
"&. c #1A95B3",
"*. c #118CB1",
"=. c #2284A4",
"-. c #2385AA",
";. c #268AA9",
":. c #2492AD",
">. c #2397B5",
",. c #2E8CAC",
"<. c #24A1BC",
"1. c #4A8896",
"2. c #5695A5",
"3. c #659AA7",
"4. c #73A9B5",
"5. c #66989F",
"6. c #0A8BCD",
"7. c #0682C4",
"8. c #028FD7",
"9. c #028FD9",
"0. c #0C8DD1",
"q. c #0291D7",
"w. c #0C94D5",
"e. c #0395DA",
"r. c #0B96DA",
"t. c #039ADD",
"y. c #0B9CDD",
"u. c #0A98D7",
"i. c #139DDE",
"p. c #1A9DDE",
"a. c #1196DA",
"s. c #0F8FD0",
"d. c #2A9FDE",
"f. c #09A1DE",
"g. c #13A1DE",
"h. c #1BA2DE",
"j. c #24A2DE",
"k. c #2BA3DE",
"l. c #32A2DE",
"z. c #049DE0",
"x. c #059DE0",
"c. c #059EE1",
"v. c #049FE1",
"b. c #069FE2",
"n. c #069FE3",
"m. c #069EE1",
"M. c #059DE0",
"N. c #0A9CE1",
"B. c #0D97E0",
"V. c #139EE1",
"C. c #1A9EE1",
"Z. c #1296E0",
"A. c #239EE0",
"S. c #07A0E3",
"D. c #06A1E3",
"F. c #06A1E2",
"G. c #06A2E4",
"H. c #04A2E2",
"J. c #09A3E3",
"K. c #08A2E2",
"L. c #0AA2E3",
"P. c #09A1E1",
"I. c #0CA2E2",
"U. c #08A1E4",
"Y. c #09A2E5",
"T. c #0DA1E5",
"R. c #0BA2E3",
"E. c #14A1E2",
"W. c #1BA2E2",
"Q. c #1DA8E5",
"!. c #23A3E2",
"~. c #2BA4E2",
"^. c #27A8E5",
"/. c #36A6E3",
"(. c #6FB3CA",
"). c #95938E",
"_. c #ADA898",
"`. c #8BB2B8",
"'. c #B7B4AA",
"]. c #BBB9B5",
"[. c #ADABA8",
"{. c #A19D98",
"}. c #C3BDB7",
"|. c #C5B9AD",
" X c #C1BE9D",
".X c #C5C2BC",
"XX c #CBC5BC",
"oX c #CBC7BA",
"OX c #D3CABC",
"+X c #D0CBB6",
"@X c #E0DCBF",
"#X c #8ABAC6",
"$X c #B3BCC4",
"%X c #95C6D1",
"&X c #B8D5DA",
"*X c #B0CED3",
"=X c #B8DAE3",
"-X c #A9D7E3",
";X c #B7E2EB",
":X c #C6C5C2",
">X c #CAC6C2",
",X c #CCCAC5",
"<X c #CDCCCA",
"1X c #C5CAC9",
"2X c #D2CDC4",
"3X c #D2CECB",
"4X c #D8CDC5",
"5X c #CDD1CC",
"6X c #D4D1C6",
"7X c #D4D2CC",
"8X c #DAD4CC",
"9X c #DCD9CE",
"0X c #DAD3C5",
"qX c #C8D5D7",
"wX c #D5D4D2",
"eX c #DAD6D3",
"rX c #DCDAD4",
"tX c #DDDCDA",
"yX c #D6D8D8",
"uX c #CECED1",
"iX c #E3D9CC",
"pX c #E2DCD4",
"aX c #E2DEDB",
"sX c #E6DBD4",
"dX c #DCE0DA",
"fX c #E4E2DD",
"gX c #EAE5DD",
"hX c #E8E4D8",
"jX c #EEE8D9",
"kX c #C5DCE2",
"lX c #D7DCE2",
"zX c #E2DEE1",
"xX c #CBE4E7",
"cX c #E6E5E3",
"vX c #E9E6E4",
"bX c #E7E8E4",
"nX c #EBE9E6",
"mX c #EAE7E9",
"MX c #EDECEA",
"NX c #E7E7E9",
"BX c #F2ECE5",
"VX c #F1EEEC",
"CX c #F2E7E2",
"ZX c #EFF0EC",
"AX c #EEF0E6",
"SX c #F2F1EE",
"DX c #F7F2E9",
"FX c #EEEDF1",
"GX c #F1EEF1",
"HX c #F8EFF0",
"JX c #F4F3F1",
"KX c #F9F5F3",
"LX c #FAF9F8",
"PX c #EFF1F0",
"IX c #BCC2BB",
"UX c #7F7E7B",
/* pixels */
"e.e.e.e.e.e.e.e.e.e.e.e.e.e.e.e.e.e.e.e.e.e.e.e.e.e.e.e.e.e.e.e.e.e.e.e.e.e.e.e.e.e.e.e.e.e.e.e.e.e.e.e.e.e.e.e.e.e.e.e.e.e.e.e.e.e.e.e.t.t.t.t.e.e.e.e.e.e.e.e.e.e.e.e.e.e.e.e.e.e.e.t.t.t.t.t.t.t.t.t.t.t.t.t.t.t.t.t.t.t.t.t.t.t.t.t.t.t.t.t.t.t.t.t.t.t.t.t.t.t.t.t.t.t.t.t.t.t.t.t.t.t.t.t.t.t.t.t.t.t.t.t.t.t.t.t.t.t.t.t.t.t.t.t.t.t.t.t.t.t.t.t.t.t.t.t.t.t.t.t.t.t.t.t.t.t.t.t.t.t.t.t.t.t.t.t.t.t.t.t.t.t.t.t.t.t.t.t.t.t.t.t.t.t.t.t.t.t.t.t.t.t.t.t.t.t.t.t.t.t.t.t.t.t.t.t.t.t.t.t.t.t.t.t.t.t.t.t.t.t.z.z.z.z.z.z.z.z.z.z.z.t.t.t.z.z.z.z.z.z.z.z.t.t.z.z.z.z.z.z.z.z.z.z.z.z.z.z.t.z.z.z.z.z.z.z.z.z.z.z.z.z.z.z.z.z.F.U.U.U.F.z.z.z.U.U.F.F.U.U.U.U.F.F.F.z.z.z.z.S.U.U.U.U.U.U.U.U.U.U.U.U.U.U.F.F.U.U.Y.Y.U.P.I.T.T.T.T.T.T.T.T.I.P.P.P.P.P.Y.U.U.P.P.P.P.T.T.P.P.P.P.P.P.P.P.U.U.U.U.U.U.T.T.U.U.U.U.N.N.N.U.P.P.P.Y.Y.J.P.P.P.P.J.P.P.J.J.Y.P.P.P.J.T.T.T.T.T.T.T.T.T.Y.Y.Y.J.J.J.J.R.R.R.R.P.P.P.I.I.I.I.R.R.R.R.R.R.R.R.R.I.I.I.I.I.I.I.I.I.I.I.I.",
"e.e.e.e.e.e.e.e.e.e.e.e.e.e.e.e.e.e.e.e.e.e.e.e.e.e.e.e.e.e.e.e.e.e.e.e.e.e.e.e.e.e.e.e.e.e.e.e.e.e.e.e.e.e.e.e.e.e.e.e.e.e.e.e.e.e.e.e.t.t.t.t.e.e.e.e.e.e.e.e.e.e.e.e.e.e.e.e.e.e.e.t.t.t.t.t.t.t.t.t.t.t.t.t.t.t.t.t.t.t.e.t.t.t.t.t.t.t.t.t.t.t.t.t.t.t.t.t.t.t.t.t.t.t.t.t.t.t.t.t.t.t.t.t.t.t.t.t.t.t.t.t.t.t.t.t.t.t.t.t.t.t.t.t.t.t.t.t.t.t.t.t.t.t.t.t.t.t.t.t.t.t.t.t.t.t.t.t.t.t.t.t.t.t.t.t.t.t.t.t.t.t.t.t.t.t.t.t.t.t.t.t.t.t.t.t.t.t.t.t.t.t.t.t.t.t.t.t.t.t.t.t.t.t.t.t.t.t.t.t.t.t.t.t.t.t.t.t.t.t.z.z.z.t.z.z.z.z.z.z.t.t.t.t.t.z.z.z.z.z.z.z.t.t.t.t.z.z.z.z.z.z.z.z.z.z.z.z.t.z.z.z.z.z.z.z.z.z.z.z.z.z.z.z.z.z.F.U.F.U.z.z.z.z.z.U.F.U.F.U.U.U.F.F.F.z.z.z.z.U.F.U.U.U.U.U.U.U.U.U.U.U.U.U.F.F.U.U.Y.Y.U.P.I.T.T.T.T.T.T.T.T.P.P.P.P.P.P.Y.U.U.P.P.P.P.T.T.P.P.P.P.P.P.P.P.U.U.U.U.U.U.T.T.T.T.T.T.T.T.T.T.P.P.J.J.J.J.P.P.P.P.J.J.P.P.Y.Y.P.P.P.P.T.T.T.T.T.T.T.T.T.Y.Y.Y.J.J.J.J.J.J.R.R.P.P.P.I.I.I.I.R.R.R.R.R.R.R.R.R.I.I.I.I.I.I.I.I.I.I.I.I.",
"e.e.e.e.e.e.e.e.e.e.e.e.e.e.e.e.e.e.e.e.e.e.e.e.e.e.e.e.e.e.e.e.e.e.e.e.e.e.e.e.e.e.e.e.e.e.e.e.e.e.e.e.e.e.e.e.e.e.e.e.e.e.e.e.t.e.e.e.t.t.t.t.e.e.e.e.e.e.e.e.e.e.e.e.e.e.e.e.e.e.e.t.t.t.t.t.t.e.t.t.t.t.e.e.e.t.t.t.t.t.e.e.t.t.t.t.t.t.t.t.t.t.t.t.t.t.t.t.t.t.t.t.t.t.t.t.t.t.t.t.t.t.t.t.t.t.t.t.t.t.t.t.t.t.t.t.t.t.t.t.t.t.t.t.t.t.t.t.t.t.t.t.t.t.t.t.t.t.t.t.t.t.t.t.t.t.t.t.t.t.t.t.t.t.t.t.t.t.t.t.t.t.t.t.t.z.t.t.t.t.t.t.t.t.t.t.t.t.t.t.t.t.t.t.t.t.t.t.t.t.t.t.t.t.t.t.t.t.t.t.t.t.t.t.t.t.t.t.t.t.t.z.t.t.t.z.z.z.t.t.t.t.t.t.t.t.z.z.z.z.z.z.t.t.t.t.t.t.z.t.z.z.z.z.z.z.z.z.t.z.z.z.z.z.z.z.z.z.z.z.z.z.z.z.z.z.z.z.F.F.z.z.z.z.F.U.U.U.U.U.F.F.F.F.U.z.z.z.z.U.U.U.U.U.U.F.U.U.U.U.U.U.U.U.F.F.F.U.U.U.U.P.I.I.T.T.T.T.U.U.Y.P.P.P.P.J.J.Y.U.U.P.P.P.P.Y.Y.P.P.P.P.P.P.P.P.U.U.U.U.U.U.T.T.T.T.T.T.T.T.T.T.P.P.P.P.P.J.J.P.J.J.Y.Y.P.P.P.P.P.P.J.P.T.T.T.T.T.T.T.U.Y.Y.Y.Y.J.J.J.J.J.R.J.P.P.P.P.I.I.I.I.R.R.R.R.R.R.R.R.R.I.I.I.I.I.I.I.I.I.I.I.I.",
"e.e.e.e.e.e.e.e.e.e.e.e.e.e.e.e.e.e.e.e.e.e.e.e.e.e.e.e.e.e.e.e.e.e.e.e.e.e.e.e.e.e.e.e.e.e.e.e.e.e.e.e.e.e.e.e.e.e.e.e.e.e.e.e.t.e.e.e.t.t.t.t.e.e.e.e.e.e.e.e.e.e.e.e.e.e.e.e.e.e.e.t.t.t.t.t.t.e.e.e.t.t.e.t.e.e.t.t.t.t.t.t.t.t.t.t.t.t.t.t.t.t.t.t.t.t.t.t.t.t.t.t.t.t.t.t.t.t.t.t.t.t.t.t.t.t.t.t.t.t.t.t.t.t.t.t.t.t.t.t.t.t.t.t.t.t.t.t.t.t.t.t.t.t.t.t.t.t.t.t.t.t.t.t.t.t.t.t.t.t.t.t.t.t.t.t.t.t.t.t.t.t.t.t.t.t.t.t.t.t.t.t.t.t.t.t.t.t.t.t.t.t.t.t.t.t.t.t.t.t.t.t.t.t.t.t.t.t.t.t.t.t.t.t.t.t.t.t.t.t.t.t.t.t.t.t.t.t.t.t.t.t.t.t.t.t.z.z.z.z.z.t.t.t.t.t.t.t.t.t.z.z.z.z.z.z.z.z.t.t.z.z.z.z.z.z.z.z.z.z.z.z.z.z.z.z.z.z.z.z.z.z.z.z.z.F.U.U.U.U.F.F.z.z.z.z.z.z.z.z.U.U.U.U.F.F.U.U.U.U.U.U.U.U.U.F.F.U.U.U.U.z.P.I.I.U.U.U.U.U.P.J.P.P.P.P.J.P.U.U.P.P.P.U.Y.Y.P.P.P.P.P.P.P.P.U.U.U.U.U.U.T.T.T.T.T.T.T.T.T.T.P.J.P.P.Y.J.P.P.J.Y.Y.Y.P.P.P.P.P.J.J.P.I.T.T.T.T.T.T.U.Y.Y.Y.Y.J.J.J.J.J.J.J.P.P.P.P.I.I.I.I.R.R.R.R.R.R.R.R.I.I.I.I.I.I.I.I.I.I.I.I.I.",
"e.e.e.e.e.e.e.e.e.e.e.e.e.e.e.e.e.e.e.e.e.e.e.e.e.e.e.e.e.e.e.e.e.e.e.e.e.e.e.e.e.e.e.e.e.e.e.e.e.e.e.e.e.e.e.e.e.e.e.e.e.e.e.e.t.e.e.e.t.t.t.e.e.e.e.e.e.e.e.e.e.e.e.e.e.e.e.e.e.e.e.t.t.t.t.t.t.t.e.e.e.t.t.t.t.t.t.t.t.t.t.t.e.t.t.t.t.t.t.t.t.t.t.t.t.t.t.t.t.t.t.e.t.t.t.t.t.t.t.t.t.t.t.t.t.t.t.t.t.t.t.t.t.t.t.t.t.t.t.t.t.t.t.t.t.t.t.t.t.t.t.t.t.t.t.t.t.t.t.t.t.t.t.t.t.t.t.t.t.t.t.t.t.t.t.t.t.t.t.t.t.t.t.t.t.t.t.t.t.t.t.t.t.t.t.t.t.t.t.t.t.t.t.t.t.t.t.t.t.t.t.t.t.t.t.t.t.t.t.t.t.t.t.t.t.t.t.t.t.t.t.t.t.t.t.t.t.t.t.t.t.t.t.t.t.t.t.z.z.z.t.t.t.t.t.t.t.t.t.t.z.z.z.z.z.z.z.z.t.t.z.z.z.z.z.z.z.z.z.z.z.z.z.z.z.z.z.z.z.z.z.z.z.z.F.F.z.U.U.U.F.F.z.z.z.F.F.F.z.z.F.S.U.U.F.F.U.U.U.U.U.U.U.U.U.S.S.S.U.U.U.z.P.P.P.P.U.Y.P.P.P.P.F.F.F.F.P.P.Y.Y.P.P.P.P.Y.Y.U.U.U.U.U.U.U.U.U.U.U.U.U.U.T.T.T.T.T.T.T.T.T.T.P.J.J.P.P.P.P.P.J.J.P.P.J.J.P.P.P.P.P.P.I.T.T.T.T.T.T.U.Y.Y.Y.Y.J.J.J.J.J.J.R.P.P.P.I.I.R.R.R.R.R.I.I.I.I.I.I.I.I.I.I.I.I.I.I.I.I.I.I.I.",
"e.e.e.e.e.e.e.e.e.e.e.e.e.e.e.e.e.e.e.e.e.e.e.e.e.e.e.e.e.e.e.e.e.e.e.e.e.e.e.e.e.e.e.e.e.e.e.e.e.e.e.e.e.e.e.e.e.e.e.e.e.e.e.e.t.e.e.e.t.t.e.e.e.e.e.e.e.e.e.e.e.e.e.e.e.e.e.e.e.e.e.t.t.t.t.t.t.t.t.t.t.t.t.t.t.t.t.t.t.t.t.t.e.e.e.t.t.t.t.t.t.t.t.t.t.t.t.t.t.e.t.t.t.t.t.t.t.t.t.t.t.t.t.t.t.t.t.t.t.t.t.t.t.t.t.t.t.t.t.t.t.t.t.t.t.t.t.t.t.t.t.t.t.t.t.t.t.t.t.t.t.t.t.t.t.t.t.t.t.t.t.t.t.t.t.t.t.t.t.t.t.t.t.t.t.t.t.t.t.t.t.t.t.t.t.t.t.t.t.t.t.t.t.t.t.t.t.t.t.t.t.t.t.t.t.t.t.t.t.t.t.t.t.t.t.t.t.t.t.t.t.t.t.t.t.t.t.t.t.t.t.t.t.t.t.t.t.t.z.z.t.t.t.t.t.t.t.t.t.t.z.z.z.z.z.z.z.z.t.t.z.z.z.z.z.z.z.z.z.z.z.z.z.z.z.z.z.z.z.z.z.z.z.z.z.F.z.z.z.U.z.z.z.z.z.F.F.F.z.z.z.F.F.F.F.F.F.F.F.F.F.F.F.F.U.U.F.S.U.U.S.z.P.P.P.P.P.P.P.P.P.F.F.F.F.F.F.P.Y.Y.P.P.P.P.Y.Y.P.P.U.U.P.U.U.U.U.U.U.U.U.U.T.T.T.T.T.T.T.T.T.T.U.Y.J.J.P.P.P.P.P.J.P.P.Y.J.J.J.P.P.P.P.I.I.I.I.T.T.T.U.Y.Y.Y.Y.J.J.J.J.J.J.P.P.P.P.I.I.R.R.R.R.I.I.I.I.I.I.I.I.I.I.I.I.I.I.I.I.I.I.I.I.",
"e.e.e.e.e.e.e.e.e.e.e.e.e.e.e.e.e.e.e.e.e.e.e.e.e.e.e.e.e.e.e.e.e.e.e.e.e.e.e.e.e.e.e.e.e.e.e.e.e.e.e.e.e.e.e.e.e.e.e.e.e.e.e.e.t.e.e.e.e.t.e.e.e.e.e.e.e.e.e.e.e.e.e.e.e.e.e.e.e.e.e.e.t.t.t.t.t.t.t.t.t.t.t.t.t.e.t.t.t.t.t.t.e.e.e.t.t.t.t.t.t.t.t.t.t.e.e.t.t.t.t.e.t.t.t.t.t.t.t.t.t.t.t.t.t.t.t.t.t.t.t.t.t.t.t.t.t.t.t.t.t.t.t.t.t.t.t.t.t.t.t.t.t.t.t.t.t.t.t.t.t.t.t.t.t.t.t.t.t.t.t.t.t.t.t.t.t.t.t.t.t.t.t.t.t.t.t.t.t.t.t.t.t.t.t.t.t.t.t.t.t.t.t.t.t.t.t.t.t.t.t.t.t.t.t.t.t.t.t.t.t.t.t.t.t.t.t.t.t.t.t.t.t.t.t.z.t.t.t.t.t.t.t.t.t.t.t.t.t.z.z.z.t.t.t.t.z.z.z.z.t.t.t.t.t.t.t.t.t.t.t.z.z.z.z.t.z.z.z.z.z.z.z.z.z.z.z.z.z.z.z.z.z.z.z.F.z.z.z.z.z.z.z.z.z.z.z.z.z.z.z.F.F.U.F.z.F.F.F.F.F.F.F.F.U.U.z.z.S.U.S.z.F.F.P.J.P.P.F.F.P.F.F.F.F.H.H.P.Y.U.P.P.P.U.T.T.P.P.P.P.P.P.P.U.U.U.U.U.U.U.T.T.T.T.T.T.T.T.T.T.U.Y.J.J.P.P.J.J.P.P.P.P.Y.J.J.J.U.U.P.P.I.I.I.I.I.I.I.P.P.J.P.P.J.J.J.J.J.J.P.P.P.P.I.I.R.R.R.R.I.I.I.I.I.I.I.I.I.I.I.I.I.I.I.I.I.I.I.I.",
"e.e.e.e.e.e.e.e.e.e.e.e.e.e.e.e.e.e.e.e.e.e.e.e.e.e.e.e.e.e.e.e.e.e.e.e.e.e.e.e.e.e.e.e.e.e.e.e.e.e.e.e.e.e.e.e.e.e.e.e.e.e.e.e.t.e.e.e.e.t.e.e.e.e.e.e.e.e.e.e.e.e.e.e.e.e.e.e.e.e.e.e.t.t.t.t.t.t.t.t.t.t.t.t.e.e.t.t.t.e.e.e.e.e.e.e.t.t.t.t.t.t.t.t.e.t.t.t.t.t.t.t.t.t.t.t.t.t.t.t.t.t.t.t.t.t.t.t.t.t.t.t.t.t.t.t.t.t.t.t.t.t.t.t.t.t.t.t.t.t.t.t.t.t.t.t.t.t.t.t.t.t.t.t.t.t.t.t.t.t.t.t.t.t.t.t.t.t.t.t.t.t.t.t.t.t.t.t.t.t.t.t.t.t.t.t.t.t.t.t.t.t.t.t.t.t.t.t.t.t.t.t.t.t.t.t.t.t.t.t.t.t.t.t.t.t.t.t.t.t.t.t.t.t.t.z.t.t.t.t.t.t.t.t.t.t.t.t.t.z.z.z.t.t.z.z.z.z.z.z.t.t.t.t.t.t.z.z.t.t.z.z.z.z.z.t.z.z.z.z.z.z.z.z.z.z.z.z.z.z.z.z.z.z.z.z.z.z.z.z.z.z.z.z.z.z.z.U.z.z.z.P.U.U.F.z.F.F.F.F.F.F.F.F.U.U.z.z.F.U.S.z.F.F.P.P.P.P.F.F.F.F.F.F.F.F.F.F.Y.U.P.P.P.P.U.T.P.P.P.P.P.P.P.P.U.U.U.U.U.U.T.T.U.U.U.U.N.N.N.U.U.Y.J.P.P.P.J.J.P.P.P.P.Y.Y.J.J.Y.U.P.P.I.I.I.I.I.I.I.P.P.J.P.P.J.J.J.J.J.J.P.P.f.f.I.I.I.R.R.R.I.I.I.I.I.I.I.I.I.I.I.I.I.I.I.I.I.I.I.I.",
"e.e.e.e.e.e.e.e.e.e.e.e.e.e.e.e.e.e.e.e.e.e.e.e.e.e.e.e.e.e.e.e.e.e.e.e.e.e.e.e.e.e.e.e.e.e.e.e.e.e.e.e.e.e.e.e.e.e.e.e.e.e.e.e.e.e.e.e.e.e.e.e.e.e.e.e.e.e.e.e.e.e.e.e.e.e.e.e.e.e.e.e.e.e.e.e.e.e.e.e.e.e.e.e.e.e.t.t.t.t.e.e.e.e.e.t.t.t.t.e.e.e.e.e.e.e.e.e.t.t.t.t.t.t.t.t.t.t.t.t.t.t.t.t.t.t.t.t.t.t.t.t.t.t.t.t.t.t.t.t.t.t.t.t.t.t.t.t.t.t.t.t.t.t.t.t.t.t.t.t.t.t.t.t.t.t.t.t.t.t.t.t.t.t.t.t.t.t.t.t.t.t.t.t.t.t.t.t.t.t.t.t.t.t.t.t.t.t.t.t.t.t.t.t.t.t.t.t.t.t.t.t.t.t.t.t.t.t.t.t.t.t.t.t.t.t.t.t.t.t.t.t.t.t.t.t.t.t.t.t.t.t.t.t.t.z.t.t.t.z.z.z.t.z.z.z.z.z.z.z.t.t.t.t.z.z.z.z.t.t.z.z.t.t.t.t.t.t.z.z.z.z.z.z.z.z.z.z.z.z.z.z.z.z.z.z.F.z.z.z.z.z.z.z.F.F.F.z.z.F.U.U.U.U.U.F.z.z.F.F.F.F.U.U.U.U.U.F.F.z.z.z.F.F.F.P.F.F.F.F.F.F.H.f.f.F.F.Y.P.P.P.P.P.P.P.U.U.U.U.U.P.P.P.P.U.U.U.U.U.U.T.T.T.T.T.T.T.T.T.T.P.P.P.P.P.P.J.J.J.J.P.P.J.J.J.J.Y.Y.Y.J.I.I.I.I.I.I.I.P.P.J.P.P.P.P.P.P.J.P.P.P.P.P.I.I.I.I.I.I.I.I.I.I.I.I.I.I.I.I.I.I.I.I.I.I.I.I.I.I.",
"e.e.e.e.e.e.e.e.e.e.e.e.e.e.e.e.e.e.e.e.e.e.e.e.e.e.e.e.e.e.e.e.e.e.e.e.e.e.e.e.e.e.e.e.e.e.e.e.e.e.e.e.e.e.e.e.e.e.e.e.e.e.e.e.e.e.e.e.e.e.e.e.e.e.e.e.e.e.e.e.e.e.e.e.e.e.e.e.e.e.e.e.e.e.e.e.e.e.e.e.e.e.e.e.e.e.t.t.t.t.e.e.e.e.e.t.t.t.t.e.e.e.e.e.e.e.e.e.t.t.t.t.t.t.t.t.t.t.t.t.t.t.t.t.t.t.t.t.t.t.t.t.t.t.t.t.t.t.t.t.t.t.t.t.t.t.t.t.t.t.t.t.t.t.t.t.t.t.t.t.t.t.t.t.t.t.t.t.t.t.t.t.t.t.t.t.t.t.t.t.t.t.t.t.t.t.t.t.t.t.t.t.t.t.t.t.t.t.t.t.t.t.t.t.t.t.t.t.t.t.t.t.t.t.t.t.t.t.t.t.t.t.t.t.t.t.t.t.t.t.t.t.t.t.t.t.t.t.t.t.t.t.t.t.t.z.t.t.t.t.z.z.z.z.z.z.z.z.z.z.t.t.t.t.z.z.z.z.t.z.z.z.t.t.t.t.t.t.z.z.z.z.z.z.z.z.z.z.z.z.z.z.z.z.z.z.z.F.F.z.z.z.z.z.F.z.F.F.z.z.U.U.U.U.F.F.z.z.F.F.F.F.U.U.U.U.F.F.F.F.z.z.F.F.F.P.P.F.F.F.F.F.H.f.H.F.F.U.J.P.P.P.P.P.P.U.U.U.P.P.P.P.P.P.U.U.U.U.U.U.T.T.T.T.T.T.T.T.T.T.P.P.P.P.P.P.J.J.Y.P.P.P.J.J.J.J.Y.Y.J.J.I.I.I.I.I.I.I.P.P.J.P.P.J.P.P.P.J.J.P.P.P.P.I.I.I.I.I.I.I.I.I.I.I.I.I.I.I.I.I.I.I.I.I.I.I.I.I.I.",
"e.e.e.e.e.e.e.e.e.e.e.e.e.e.e.e.e.e.e.e.e.e.e.e.e.e.e.e.e.e.e.e.e.e.e.e.e.e.e.e.e.e.e.e.e.e.e.e.e.e.e.e.e.e.e.e.e.e.e.e.e.e.e.e.e.e.e.e.e.e.e.e.e.e.e.e.e.e.e.e.e.e.e.e.e.e.e.e.e.e.e.e.e.e.e.e.e.e.e.e.e.e.e.e.e.e.e.t.t.e.e.e.e.e.e.t.t.t.e.e.e.e.e.e.e.e.e.e.t.t.t.e.t.t.t.t.t.t.t.t.t.t.t.t.t.t.t.t.t.t.t.t.t.t.t.t.t.t.t.t.t.t.t.t.t.t.t.t.t.t.t.t.t.t.t.t.t.t.t.t.t.t.t.t.t.t.t.t.t.t.t.t.t.t.t.t.t.t.t.t.t.t.t.t.t.t.t.t.t.t.t.t.t.t.t.t.t.t.t.t.t.t.t.t.t.t.t.t.t.t.t.t.t.t.t.t.t.t.t.t.t.t.t.t.t.t.t.t.t.t.t.t.t.t.t.t.t.t.t.t.t.t.t.t.t.t.t.t.t.t.t.z.t.t.z.z.z.z.z.z.z.z.t.t.t.z.t.t.t.t.z.z.t.t.t.t.t.t.z.z.z.z.z.z.z.z.z.z.z.z.z.z.z.z.z.z.z.F.z.z.z.z.z.z.z.z.F.z.z.z.P.F.U.U.U.U.z.z.F.F.F.F.U.U.U.F.F.F.P.U.U.z.P.P.P.P.P.P.P.P.F.F.F.F.F.F.F.U.J.P.P.P.P.P.P.P.P.P.P.P.P.P.U.U.U.U.U.U.U.U.T.T.T.T.T.T.T.T.T.T.P.J.Y.Y.U.J.Y.J.Y.Y.P.P.P.P.J.J.J.J.J.J.I.I.I.I.I.I.I.P.P.J.J.J.J.J.P.P.J.J.P.P.P.P.I.I.I.I.I.I.I.I.I.I.I.I.I.I.I.I.I.I.I.I.I.I.P.P.P.P.",
"e.e.e.e.e.e.e.e.e.e.e.e.e.e.e.e.e.e.e.e.e.e.e.e.e.e.e.e.e.e.e.e.e.e.e.e.e.e.e.e.e.e.e.e.e.e.e.e.e.e.e.e.e.e.e.e.e.e.e.e.e.e.e.e.e.e.e.e.e.e.e.e.e.e.e.e.e.e.e.e.e.e.e.e.e.e.e.e.e.e.e.e.e.e.e.e.e.e.e.e.e.e.e.e.e.e.e.t.t.e.e.e.e.e.e.e.t.t.e.e.e.e.e.e.e.e.e.e.t.e.e.e.t.t.t.t.t.t.t.t.t.t.t.t.t.t.t.t.t.t.t.t.t.t.t.t.t.t.t.t.t.t.t.t.t.t.t.t.t.t.t.t.t.t.t.e.t.t.t.t.t.t.t.t.t.t.t.t.t.t.t.t.t.t.t.t.t.t.t.t.t.t.t.t.t.t.t.t.t.t.t.t.t.t.t.t.t.t.t.t.t.t.t.t.t.t.t.t.t.t.t.t.t.t.t.t.t.t.t.t.t.t.t.t.t.t.t.t.t.t.t.t.t.t.t.t.t.t.t.t.t.t.t.t.t.t.t.t.t.t.t.z.t.t.z.z.z.z.z.z.z.z.t.t.t.t.t.t.t.t.z.z.z.t.t.t.t.t.z.z.z.z.z.z.z.z.z.z.z.z.z.z.z.z.z.z.z.z.z.z.z.z.z.z.z.z.z.z.z.z.z.F.U.U.U.z.z.z.F.F.F.F.U.U.F.F.F.F.U.U.U.U.P.P.P.P.P.P.P.P.P.F.F.F.F.F.U.U.P.P.P.P.P.P.P.P.P.P.P.P.P.P.U.U.U.U.U.U.U.U.T.T.T.T.T.T.T.T.T.T.P.J.J.Y.Y.Y.Y.J.Y.Y.P.P.P.P.J.J.P.J.J.J.I.I.I.I.I.I.I.P.P.J.J.J.J.J.P.P.P.P.J.J.P.P.I.I.I.I.I.I.I.I.I.I.I.I.I.I.I.I.I.I.I.I.I.I.P.P.P.P.",
"e.e.e.e.e.e.e.e.e.e.e.e.e.e.e.e.e.e.e.e.e.e.e.e.e.e.e.e.e.e.e.e.e.e.e.e.e.e.e.e.e.e.e.e.e.e.e.e.e.e.e.e.e.e.e.e.e.e.e.e.e.e.e.e.e.e.e.e.e.e.e.e.e.e.e.e.e.e.e.e.e.e.e.e.e.e.e.e.e.e.e.e.e.e.e.e.e.e.e.e.e.e.e.e.e.e.e.e.e.e.e.e.e.e.e.e.e.e.e.e.e.e.e.e.e.e.e.e.e.e.e.e.e.e.e.e.e.t.t.t.t.t.t.t.t.t.t.t.e.e.e.t.t.t.t.e.t.t.t.t.e.e.e.t.t.t.e.t.t.t.t.t.t.t.t.e.t.t.t.t.t.t.t.t.t.t.t.t.t.t.t.t.t.t.t.t.e.e.t.t.t.t.t.e.t.t.t.t.t.t.e.t.t.t.t.t.t.t.t.t.t.t.t.t.t.t.t.t.t.t.t.t.t.t.t.t.t.t.t.t.t.t.t.t.t.t.t.t.t.t.t.t.t.t.t.t.t.t.t.t.t.t.t.t.t.t.t.t.z.z.z.z.t.t.z.t.t.z.z.z.t.t.t.t.t.t.t.t.t.t.t.t.z.z.z.z.t.t.z.z.z.z.z.z.z.z.z.z.z.z.z.z.z.z.z.z.z.z.z.z.z.F.z.z.z.z.z.z.z.z.z.F.F.F.z.z.z.z.U.U.U.U.U.U.F.F.F.F.U.U.S.F.P.N.N.P.P.P.P.P.P.F.F.F.P.P.P.U.U.U.P.P.P.P.U.P.P.P.P.P.P.P.U.U.U.U.U.U.U.U.T.T.T.T.T.T.T.T.T.T.P.J.J.Y.J.J.J.J.Y.J.J.J.U.U.P.P.P.P.J.J.I.I.I.I.I.I.I.P.P.P.P.J.J.J.J.J.J.J.R.J.R.R.R.R.I.I.I.I.I.I.I.I.I.I.I.I.I.I.I.I.I.I.I.I.P.P.P.P.",
"e.e.e.e.e.e.e.e.e.e.e.e.e.e.e.e.e.e.e.e.e.e.e.e.e.e.e.e.e.e.e.e.e.e.e.e.e.e.e.e.e.e.e.e.e.e.e.e.e.e.e.e.e.e.e.e.e.e.e.e.e.e.e.e.e.e.e.e.e.e.e.e.e.e.e.e.e.e.e.e.e.e.e.e.e.e.e.e.e.e.e.e.e.e.e.e.e.e.e.e.e.e.e.e.e.e.e.e.e.e.e.e.e.e.e.e.e.e.e.e.e.e.e.e.e.e.e.t.e.e.e.e.e.e.e.e.e.e.e.t.t.t.t.t.t.t.t.t.e.t.t.t.t.e.t.e.t.t.t.t.e.t.t.t.t.e.e.t.t.t.t.t.t.t.t.e.t.t.t.t.t.t.t.t.t.t.t.t.e.t.t.t.t.t.t.t.e.e.t.t.t.t.e.e.t.t.t.t.t.t.e.e.t.t.t.t.t.t.t.t.t.t.t.t.t.t.t.t.t.t.t.t.t.t.t.t.t.t.t.t.t.t.t.t.t.t.t.t.t.t.t.t.t.t.t.t.t.t.t.t.t.t.t.t.t.t.t.t.t.t.z.z.t.t.t.z.t.t.z.z.t.t.t.t.t.t.t.t.t.t.t.t.z.z.z.z.t.t.z.z.z.z.z.z.z.z.z.z.z.z.z.z.z.z.z.z.z.z.z.z.z.z.z.z.z.z.z.z.z.z.z.z.F.F.z.z.z.z.U.U.U.U.U.U.z.F.F.F.U.U.F.U.N.N.N.I.P.P.P.P.F.P.P.P.P.P.U.U.U.U.P.P.P.P.U.U.P.P.P.U.P.P.U.U.U.U.U.U.U.U.T.T.T.T.T.T.T.T.N.T.P.P.J.Y.P.J.J.J.Y.Y.Y.Y.Y.Y.Y.Y.Y.Y.Y.Y.T.T.T.T.T.T.T.U.U.Y.Y.Y.P.J.J.J.J.J.R.R.R.R.R.R.R.R.R.R.I.I.I.I.R.R.R.I.I.I.I.I.R.R.I.I.P.P.P.P.",
"e.e.e.e.e.e.e.e.e.e.e.e.e.e.e.e.e.e.e.e.e.e.e.e.e.e.e.e.e.e.e.e.e.e.e.e.e.e.e.e.e.e.e.e.e.e.e.e.e.e.e.e.e.e.e.e.e.e.e.e.e.e.e.e.e.e.e.e.e.e.e.e.e.e.e.e.e.e.e.e.e.e.e.e.e.e.e.e.e.e.e.e.e.e.e.e.e.e.e.e.e.e.e.e.e.e.e.e.e.e.e.e.e.e.e.e.e.e.e.e.e.e.e.e.e.e.e.e.e.e.e.e.e.e.e.e.e.e.e.t.t.t.t.t.t.t.t.t.t.t.t.t.t.t.t.t.t.t.t.t.t.t.t.t.t.t.t.t.t.t.t.t.t.t.t.t.t.t.t.t.t.t.e.t.t.t.t.t.t.e.t.t.t.t.t.t.t.t.t.t.t.t.t.t.t.t.t.t.t.t.t.t.t.t.t.t.t.t.t.t.t.t.t.t.t.t.t.t.t.t.t.t.t.t.t.t.t.t.t.t.t.t.t.t.t.t.t.t.t.t.t.t.t.t.t.t.t.t.t.t.t.t.t.t.t.t.t.t.t.t.t.t.t.t.t.t.t.t.t.t.t.t.t.t.t.t.t.t.z.z.z.z.z.z.t.t.t.t.z.z.z.z.z.z.z.z.z.z.z.z.z.z.t.z.z.z.z.z.z.z.z.z.F.F.z.z.z.z.z.z.z.z.z.F.F.z.z.z.U.U.U.U.U.U.z.z.F.F.F.F.U.U.N.N.N.P.P.P.P.P.N.P.P.P.P.P.P.P.U.U.P.P.P.U.U.U.P.U.U.U.P.P.P.P.U.U.U.U.U.U.T.T.T.T.T.T.T.N.T.T.P.P.P.P.J.J.J.P.Y.Y.Y.Y.Y.Y.Y.Y.Y.Y.Y.Y.T.T.T.T.T.T.T.U.U.Y.Y.Y.f.P.P.J.J.R.R.R.R.R.R.R.R.R.R.R.I.I.I.R.R.R.I.I.I.I.I.I.R.R.R.R.P.P.P.P.",
"e.e.e.e.e.e.e.e.e.e.e.e.e.e.e.e.e.e.e.e.e.e.e.e.e.e.e.e.e.e.e.e.e.e.e.e.e.e.e.e.e.e.e.e.e.e.e.e.e.e.e.e.e.e.e.e.e.e.e.e.e.e.e.e.e.e.e.e.e.e.e.e.e.e.e.e.e.e.e.e.e.e.e.e.e.e.e.e.e.e.e.e.e.e.e.e.e.e.e.e.e.e.e.e.e.e.e.e.e.e.e.e.e.e.e.e.e.e.e.e.e.e.e.e.e.e.e.e.e.e.e.e.e.e.e.e.e.e.e.e.t.t.t.t.t.t.t.t.t.t.t.t.t.t.t.t.t.t.t.t.t.t.t.t.t.t.t.t.t.t.t.t.t.t.t.t.t.t.t.t.e.e.t.t.t.t.t.t.e.t.t.t.t.t.t.t.t.t.t.t.t.t.t.t.t.t.t.t.t.t.t.t.t.t.t.t.t.t.t.t.t.t.t.t.t.t.t.t.t.t.t.t.t.t.t.t.t.t.t.t.t.t.t.t.t.t.t.t.t.t.t.t.t.t.t.t.t.t.t.t.t.t.t.t.t.t.t.t.t.t.t.t.t.t.t.t.t.t.t.t.t.t.t.t.t.t.t.t.z.z.z.z.z.t.t.t.t.t.z.z.z.z.z.z.z.z.z.z.z.z.z.z.t.t.z.z.z.z.z.z.z.z.F.F.z.z.z.z.z.z.z.z.z.z.z.F.z.z.U.U.U.U.U.U.z.z.z.F.F.U.U.U.N.N.N.N.P.P.P.P.N.P.P.P.P.P.P.P.U.U.P.P.P.P.U.U.U.U.U.U.P.P.P.P.U.U.U.U.U.U.T.T.T.T.T.T.T.T.N.T.P.P.P.P.P.P.J.J.Y.Y.Y.U.U.U.U.U.U.U.U.U.T.T.T.T.T.T.T.T.U.U.U.U.f.P.P.J.J.R.R.T.R.R.R.R.R.R.R.R.I.I.I.R.R.R.I.I.I.I.I.I.R.R.R.R.P.P.P.P.",
"e.e.q.q.e.e.e.e.e.e.e.e.e.e.e.e.e.e.e.e.e.e.e.e.q.q.q.q.q.q.e.e.e.e.e.e.e.e.e.e.e.e.q.q.e.e.e.e.e.e.e.e.e.e.e.e.e.e.e.e.e.e.e.e.e.e.e.e.e.e.e.e.e.e.e.q.e.e.q.e.e.e.e.e.e.e.e.e.e.e.e.e.e.e.e.e.e.e.e.e.e.e.e.e.e.e.e.e.e.e.e.e.q.q.q.e.e.e.e.e.e.e.e.e.e.e.e.e.e.e.e.e.e.e.e.e.e.e.e.e.e.e.e.e.e.e.e.e.t.t.t.t.t.t.t.t.t.t.t.t.t.t.t.t.t.t.e.e.e.t.t.t.t.t.t.t.e.e.e.e.e.e.e.e.t.t.t.t.t.t.t.t.e.e.e.e.t.t.t.t.t.t.t.e.t.t.t.t.t.t.t.t.t.t.t.t.t.t.t.t.t.t.t.t.t.t.t.t.t.t.t.t.t.t.t.t.t.t.t.t.t.t.t.t.t.t.t.z.t.t.t.t.t.t.t.t.t.t.t.t.t.t.t.t.t.t.t.t.t.t.t.t.t.t.t.t.t.t.t.t.t.t.t.t.t.t.t.t.t.t.t.t.t.t.t.t.z.z.z.z.z.z.z.z.z.z.z.z.z.z.z.z.t.t.t.z.z.z.z.z.z.z.z.z.z.z.z.z.z.z.z.z.z.z.z.z.F.F.F.F.F.F.U.U.F.F.P.U.U.U.U.U.I.I.I.I.I.I.P.P.P.I.I.P.P.P.P.P.P.J.J.Y.Y.Y.Y.Y.P.P.P.P.J.J.Y.Y.U.U.P.P.P.U.U.U.P.P.P.P.P.P.I.P.P.J.P.P.P.J.P.P.U.T.T.T.T.T.E.T.I.I.T.T.T.T.E.T.E.T.E.T.T.T.T.T.f.f.P.P.R.R.R.R.R.R.R.R.R.R.R.R.R.R.R.R.R.R.R.R.R.I.I.I.P.P.J.R.I.J.J.J.",
"e.e.q.q.e.e.e.e.e.e.e.e.e.e.e.e.e.e.e.e.e.e.e.e.q.e.e.q.q.q.e.e.e.e.e.e.e.e.e.e.e.e.q.q.e.e.e.e.e.e.e.e.e.e.e.e.e.e.e.e.e.e.e.e.e.e.e.e.e.e.e.e.e.e.q.q.e.e.q.q.e.e.e.e.e.e.e.e.e.e.e.e.e.e.e.e.e.e.e.e.e.e.e.e.e.e.e.q.e.e.e.q.q.q.e.e.e.e.e.e.e.e.e.e.e.e.e.e.e.e.e.e.e.e.e.e.e.e.e.e.e.e.e.e.e.e.e.e.e.t.t.t.t.t.e.e.t.t.t.t.t.t.t.t.t.t.t.t.t.t.t.t.t.t.t.t.e.e.e.e.e.e.e.e.t.t.t.t.t.t.t.t.e.e.e.e.t.t.t.t.t.t.t.t.t.t.t.e.t.t.t.t.t.t.t.t.t.t.t.t.t.t.t.t.t.t.t.t.t.t.t.t.t.t.t.t.t.t.t.t.t.t.t.t.t.t.t.z.t.t.t.t.t.t.t.t.t.t.t.t.t.t.t.t.t.t.t.t.t.t.t.t.t.t.t.t.t.t.t.t.t.t.t.t.t.t.t.t.t.t.t.t.t.t.t.t.t.t.z.z.z.z.z.z.z.z.z.z.z.z.z.z.t.t.t.z.z.z.z.z.z.z.z.z.z.z.z.z.z.z.z.F.F.z.z.z.F.F.F.F.S.S.F.U.F.F.P.P.U.U.U.U.I.P.I.I.P.I.P.P.P.P.P.P.P.P.P.P.P.J.J.Y.Y.Y.Y.Y.P.P.P.P.J.Y.Y.Y.P.U.P.P.P.U.U.U.P.P.P.P.U.U.P.P.J.J.P.P.P.P.U.U.T.T.T.T.E.E.E.E.I.I.E.E.E.E.E.E.E.E.E.E.E.E.E.T.f.f.P.P.R.R.R.R.R.R.R.R.R.R.R.R.R.R.R.R.R.R.R.R.I.I.P.I.P.P.J.J.J.J.J.J.",
"q.q.q.q.e.e.e.e.e.e.e.e.e.e.e.e.e.e.e.e.e.e.e.e.e.e.e.e.q.e.e.e.e.e.e.e.e.e.e.e.e.e.q.q.e.e.e.e.e.e.e.e.e.e.e.e.e.e.e.e.e.e.e.e.e.e.e.e.e.e.e.e.e.e.q.q.e.e.q.e.e.e.e.e.e.e.e.e.e.e.e.e.e.e.e.e.e.e.e.e.e.e.e.e.e.e.e.e.q.e.e.q.q.q.e.e.e.e.e.e.e.e.e.e.e.e.e.e.e.e.e.e.e.e.e.e.e.e.e.e.e.e.e.e.e.e.e.e.e.t.t.t.t.t.t.t.t.t.t.t.t.t.t.t.t.t.t.t.t.t.t.t.t.t.t.t.e.e.e.e.e.e.e.e.t.e.t.t.t.t.t.t.e.e.e.e.t.t.t.t.t.t.t.t.t.t.t.t.t.t.t.t.t.t.t.t.t.t.t.t.t.t.t.t.t.t.t.t.t.t.t.t.t.t.t.t.t.t.t.t.t.t.t.t.t.t.t.t.t.t.t.t.t.t.t.t.t.t.t.t.t.t.t.t.t.t.t.t.t.t.t.t.t.t.t.t.t.t.t.t.t.t.t.t.t.t.t.t.t.t.t.t.z.z.t.t.t.t.t.z.z.z.z.z.z.z.z.z.z.z.z.z.t.t.t.z.z.z.z.z.z.z.z.z.z.z.z.z.z.z.z.F.F.F.z.z.F.F.F.F.U.U.U.U.F.F.P.P.U.U.U.U.P.P.P.P.P.N.N.N.I.I.P.P.P.P.P.P.P.P.J.J.J.Y.Y.Y.P.J.P.P.J.J.J.J.P.P.P.P.P.P.U.U.P.P.U.U.U.U.U.P.J.P.P.Y.Y.Y.P.P.T.T.T.T.E.E.E.E.I.I.T.T.T.T.T.T.T.T.T.T.T.T.T.T.P.P.J.J.R.R.R.R.J.J.J.J.J.J.I.I.I.I.J.J.J.J.J.R.J.J.P.J.P.P.P.P.J.J.J.J.",
"q.q.q.q.e.e.e.e.e.e.e.e.e.e.e.e.e.e.e.e.e.e.e.e.e.e.e.e.e.e.e.e.e.e.e.e.e.e.e.e.e.e.q.q.q.q.e.e.e.e.e.e.e.e.e.e.e.e.e.e.e.e.e.e.e.e.e.e.e.e.e.e.e.q.q.q.e.e.e.e.e.e.e.e.e.e.e.e.e.e.e.e.e.e.e.e.e.e.e.e.e.e.e.e.e.e.q.e.q.q.e.e.q.q.e.e.e.e.e.e.e.e.e.e.e.e.e.e.e.e.e.e.e.e.e.e.t.t.e.e.e.e.e.e.e.e.e.e.e.e.e.t.t.t.t.t.t.t.t.t.t.t.t.t.t.t.t.t.t.t.t.t.t.t.t.t.e.e.e.e.e.e.e.e.e.e.t.t.t.t.t.t.e.e.e.e.t.t.t.t.t.t.t.t.t.e.e.e.e.e.e.t.t.t.t.t.t.t.t.t.t.t.t.t.t.t.t.t.t.t.t.t.t.t.t.t.t.t.t.t.t.t.t.t.t.t.t.t.t.t.t.t.t.t.t.t.t.t.t.t.t.t.t.t.t.t.t.t.t.t.t.t.t.t.t.t.t.t.t.t.t.t.t.t.t.t.t.t.t.t.t.t.z.z.z.t.t.t.t.t.t.t.z.z.t.z.z.z.z.z.z.z.t.t.z.z.z.z.z.z.z.z.z.z.z.z.z.z.z.z.z.F.z.F.z.z.F.F.F.F.U.U.U.U.z.F.P.P.P.U.U.U.P.P.P.P.P.N.N.N.I.N.I.P.P.P.P.P.P.P.P.J.J.J.P.P.J.J.P.P.J.J.P.P.P.P.P.P.P.P.U.U.P.P.P.U.U.U.U.P.J.P.P.U.Y.Y.P.P.T.T.T.T.E.E.E.E.I.I.T.T.T.T.T.E.T.T.T.T.T.T.T.T.P.P.J.J.R.R.J.J.J.J.J.J.J.J.J.R.P.P.J.J.J.J.R.J.P.P.P.P.P.P.P.P.P.P.P.P.",
"q.q.q.q.e.e.e.e.q.q.e.e.e.e.e.e.e.e.e.e.e.e.e.e.e.e.e.e.e.e.e.e.q.q.q.q.e.e.e.q.e.e.q.q.q.q.q.e.e.e.e.e.e.e.q.q.e.e.e.e.e.e.e.e.e.e.e.e.e.e.e.e.e.e.q.q.q.q.e.e.e.e.e.e.e.e.e.e.e.e.e.e.e.e.e.e.e.e.e.e.e.e.e.e.e.e.e.e.e.e.e.e.q.q.e.e.e.e.e.e.e.e.e.e.e.e.e.e.e.e.e.e.e.e.e.e.e.e.e.e.e.e.e.e.e.e.e.e.e.e.e.e.e.e.e.e.e.e.e.e.e.e.e.e.e.e.e.e.e.e.e.e.e.e.e.e.e.e.e.e.e.e.e.e.e.e.e.e.e.e.e.e.e.e.e.e.e.t.t.t.t.t.t.t.e.e.e.e.e.e.e.e.e.t.t.t.t.t.t.t.t.t.t.t.t.t.e.e.t.t.t.t.t.t.t.t.t.t.t.t.t.t.t.t.t.t.t.t.t.t.t.t.t.t.t.t.t.t.t.t.t.t.t.t.t.t.t.t.t.t.t.t.t.t.t.t.t.t.t.t.t.t.t.t.t.t.t.t.t.t.t.t.z.z.z.z.z.t.t.t.t.t.t.z.t.t.z.z.z.z.z.z.t.z.z.z.z.z.z.z.z.z.z.z.z.z.z.z.z.z.z.z.F.z.z.F.z.F.F.F.z.F.S.S.z.z.z.U.P.P.P.U.P.P.P.P.P.P.P.P.I.P.P.P.P.P.P.P.P.P.P.P.P.J.J.P.Y.Y.J.J.P.P.P.P.P.P.P.P.P.P.P.P.P.U.U.U.U.U.U.U.J.J.U.U.P.P.P.P.T.T.T.T.E.E.E.E.I.I.T.T.T.T.T.E.T.T.T.T.T.T.T.T.I.P.P.R.R.R.J.J.I.P.R.I.J.J.J.J.J.J.J.J.P.J.J.J.P.P.P.P.P.P.P.P.P.P.P.P.",
"q.q.q.q.e.e.e.e.q.q.e.e.e.e.e.e.e.e.e.e.e.e.q.q.q.q.q.q.q.q.q.q.q.q.q.q.e.e.e.q.e.e.q.q.q.q.q.q.q.e.e.e.e.e.q.q.e.e.e.e.e.e.e.e.q.q.e.e.e.e.e.e.e.e.q.q.e.q.e.e.e.e.e.e.e.e.e.e.e.e.q.e.e.e.e.e.e.e.e.e.e.e.e.e.e.e.e.q.q.e.e.e.q.q.q.q.e.e.e.e.e.e.e.e.e.e.e.e.e.e.e.e.e.e.e.e.e.e.e.e.e.e.e.e.e.e.e.e.e.e.e.e.e.e.e.e.e.e.e.e.e.e.e.e.e.e.e.e.e.e.e.e.e.e.e.e.e.e.e.e.e.e.e.e.e.e.e.e.e.e.e.e.e.e.e.e.e.t.t.t.t.t.t.e.e.e.e.e.e.e.e.e.e.e.e.e.e.e.e.e.e.e.e.e.t.t.e.e.e.t.t.t.t.t.t.t.t.t.t.t.t.t.t.t.t.t.t.t.t.t.t.t.t.t.t.t.t.t.t.t.t.t.t.t.t.t.t.t.t.t.t.t.t.t.t.t.t.t.t.t.t.t.t.t.t.t.t.t.t.t.t.t.z.z.t.t.z.z.t.t.t.t.t.t.t.t.t.z.z.z.z.z.z.z.z.z.z.z.z.z.z.z.z.z.z.z.z.z.z.z.z.z.F.F.z.z.z.z.z.F.z.F.z.F.z.z.z.z.P.P.P.P.N.N.P.P.P.P.P.P.N.N.N.N.P.P.N.P.P.F.F.P.P.P.P.P.Y.Y.J.J.P.P.P.P.P.P.P.P.P.P.P.P.P.P.U.U.U.U.U.U.J.P.U.U.P.P.P.P.T.T.T.T.E.E.E.E.I.I.T.T.T.T.T.T.T.T.T.T.T.T.T.T.I.P.P.R.R.J.J.P.P.P.I.I.J.J.P.P.J.J.J.J.P.J.J.J.P.P.P.P.P.P.P.P.P.P.P.P.",
"q.q.q.q.q.q.q.q.q.q.e.e.e.e.e.e.q.q.q.q.q.q.q.q.q.q.q.q.q.q.q.q.e.e.q.q.e.e.e.e.q.q.q.q.q.q.q.e.q.q.q.e.e.e.e.q.e.e.e.e.e.e.e.e.q.q.q.q.e.e.e.e.e.e.q.q.q.e.q.e.q.e.e.e.e.e.e.q.q.q.q.e.e.e.e.e.e.e.e.e.e.e.e.e.e.q.q.q.q.e.e.e.q.q.q.q.e.e.q.q.e.e.e.e.e.e.e.e.e.e.e.e.e.e.e.e.e.e.e.e.q.q.q.q.e.e.e.e.e.e.e.e.e.e.e.e.e.e.e.e.e.e.e.e.e.e.e.e.e.e.e.e.e.e.e.e.e.e.e.e.e.e.e.e.e.e.e.e.e.e.e.e.e.e.e.e.t.t.t.t.t.t.e.e.e.e.e.e.e.e.e.e.e.e.e.e.e.e.e.e.e.e.e.e.t.e.e.e.e.t.t.t.t.t.t.t.t.t.t.t.t.t.t.t.t.t.t.t.t.t.t.t.t.t.t.t.t.t.t.t.t.t.t.t.t.t.t.t.t.t.t.t.t.t.t.t.t.t.t.t.t.t.t.t.t.t.t.t.t.t.t.t.t.t.t.t.z.z.z.t.t.t.t.t.t.t.t.z.z.z.z.z.z.z.z.z.z.z.z.z.z.z.z.z.z.z.z.z.z.z.z.z.F.z.z.z.z.z.z.F.z.z.z.z.z.z.z.z.U.P.P.P.N.N.N.N.P.P.N.P.N.N.N.N.P.P.N.P.P.F.F.F.F.P.P.P.P.P.J.J.P.P.J.J.P.P.U.P.U.U.P.P.P.P.P.P.P.P.P.P.J.J.U.U.P.P.P.P.T.T.T.T.T.T.T.T.N.N.T.T.T.T.T.T.T.T.T.T.T.T.T.T.I.T.T.T.T.Y.Y.P.P.P.P.P.P.P.P.P.P.J.P.P.P.P.Y.Y.J.J.P.P.P.J.J.J.J.J.J.J.",
"q.q.q.q.q.q.q.q.q.q.e.e.e.e.e.e.q.q.q.q.q.q.q.q.q.q.q.q.q.q.q.q.e.e.e.e.e.e.e.q.e.q.q.8.8.q.q.e.q.q.q.q.e.e.q.q.e.e.e.e.e.e.e.e.q.q.q.q.q.q.e.e.e.q.q.q.q.e.q.q.q.e.e.e.e.e.e.q.q.q.q.q.e.e.e.e.e.e.e.e.e.e.e.e.q.e.e.q.q.e.e.q.q.q.q.q.e.q.q.q.e.e.e.e.e.e.e.e.e.e.e.e.e.e.e.e.e.e.e.e.e.e.e.e.e.e.e.e.e.e.e.e.e.e.e.e.e.e.e.e.e.e.e.e.e.e.e.e.e.e.e.e.e.e.e.e.e.e.e.e.e.e.e.e.e.e.e.e.e.e.e.e.e.e.e.e.t.t.t.t.t.t.e.e.e.e.e.e.e.e.e.e.e.e.e.e.e.e.e.e.e.e.e.e.t.e.e.e.e.t.t.t.t.t.t.t.t.t.t.t.t.t.t.t.t.t.t.t.t.t.t.t.t.t.t.t.t.t.t.t.t.t.t.t.t.t.t.t.t.t.t.t.t.t.t.t.t.t.t.t.t.t.t.t.t.t.t.t.t.t.t.t.t.t.t.t.z.t.t.t.t.t.t.t.t.t.t.z.z.z.z.z.z.z.z.z.z.z.z.z.z.z.z.z.z.z.z.z.z.z.z.z.F.z.z.z.z.z.z.z.z.z.z.z.F.z.z.z.z.P.P.P.N.N.N.N.N.N.N.N.N.N.N.N.P.P.N.P.z.F.F.F.F.P.P.P.P.P.P.J.P.J.J.J.P.P.U.U.U.U.U.P.P.P.P.P.P.P.P.P.J.J.U.U.U.P.P.P.T.T.T.T.T.T.T.T.I.N.T.T.T.T.T.T.T.T.T.T.T.T.T.T.T.T.U.T.T.Y.Y.P.P.P.P.P.P.P.P.P.P.P.P.P.P.P.Y.Y.J.J.P.P.P.P.J.J.J.J.J.J.",
"q.q.q.q.e.e.e.e.q.q.q.q.e.e.e.e.8.8.q.q.q.q.q.q.q.e.e.e.e.e.e.e.e.e.q.q.q.e.e.e.e.e.q.q.q.q.e.e.q.q.q.q.e.e.e.e.q.q.e.e.e.e.e.e.e.e.e.q.q.q.q.q.q.q.q.q.q.q.q.q.q.q.e.e.e.e.e.e.e.e.e.e.e.e.q.q.q.q.q.e.q.q.q.e.e.e.e.q.q.q.q.q.q.q.q.q.e.e.e.e.q.q.e.e.e.q.8.8.e.e.q.q.e.e.e.e.q.q.q.q.q.q.e.e.e.e.e.e.e.e.e.e.e.e.e.e.e.e.e.e.e.e.e.e.e.e.e.e.e.e.e.e.e.e.e.e.e.e.e.e.e.e.e.e.e.e.e.e.e.e.e.e.q.e.e.e.e.t.t.t.e.e.e.e.e.e.e.e.e.e.e.e.e.e.e.e.e.e.e.e.e.e.e.e.e.e.e.e.e.t.t.t.t.t.t.t.t.t.t.t.t.t.t.t.t.t.t.t.t.t.t.t.t.t.t.t.t.t.t.t.t.t.t.t.t.t.t.t.t.t.t.t.t.t.t.t.t.t.t.t.t.t.t.t.t.t.t.t.t.t.t.t.t.t.t.t.t.t.t.t.t.z.z.z.t.t.z.z.z.z.z.z.z.z.z.z.z.z.z.z.z.z.z.z.z.z.z.z.z.z.F.U.U.U.F.z.F.F.F.F.F.F.F.F.z.z.U.U.U.U.U.U.P.P.P.P.P.P.N.N.N.N.N.N.N.N.N.z.z.F.F.t.F.F.F.P.P.P.J.Y.Y.Y.Y.J.P.U.U.U.P.P.P.P.P.P.P.P.P.P.P.P.P.P.P.P.P.P.I.I.I.I.I.I.T.I.I.I.I.I.I.I.I.I.I.I.T.T.T.T.T.T.T.T.T.T.T.T.T.T.T.T.P.P.U.U.U.P.P.P.J.J.J.P.P.P.Y.Y.P.P.P.P.J.J.J.J.J.J.P.P.",
"q.q.q.q.e.e.e.e.q.q.q.q.e.e.e.e.8.8.q.q.q.q.q.q.e.e.e.e.q.e.e.e.e.e.q.q.q.q.e.e.e.e.q.q.q.q.e.e.e.q.q.q.e.e.e.e.q.q.e.e.e.e.e.e.e.e.e.e.q.q.q.q.q.q.q.q.q.q.q.q.q.q.e.e.e.e.e.e.q.q.e.e.e.e.q.q.q.q.q.e.q.q.e.e.e.e.e.q.q.q.q.q.q.q.q.q.e.e.e.e.q.q.e.e.e.e.8.8.e.e.q.q.e.e.e.e.q.e.e.q.q.q.e.e.e.e.e.e.e.e.e.e.e.e.e.e.e.e.e.e.e.e.e.e.e.e.e.e.e.e.e.e.e.e.e.e.e.e.e.e.e.e.e.e.e.e.e.e.e.e.e.e.q.e.e.e.e.e.t.t.e.e.e.e.e.e.e.e.e.e.e.e.e.e.e.e.e.e.e.e.e.e.e.e.e.e.e.e.e.t.t.t.t.t.t.t.t.t.t.t.t.t.t.t.t.t.t.t.t.t.t.t.t.t.t.t.t.t.t.t.t.t.t.t.t.t.t.t.t.t.t.t.t.t.t.t.t.t.t.t.t.t.t.t.t.t.t.t.t.t.t.t.t.t.t.t.t.t.t.t.t.t.z.z.t.t.z.z.z.z.z.z.z.z.z.z.z.z.z.z.z.z.z.z.z.z.z.z.z.z.F.U.F.U.z.z.F.F.F.F.F.F.F.z.z.z.N.U.U.U.P.U.P.N.P.P.P.P.N.N.N.N.N.N.N.N.N.z.z.F.F.F.F.F.F.P.P.P.J.Y.Y.Y.J.J.P.U.U.U.P.P.P.P.P.P.P.P.P.P.P.P.P.P.P.P.P.P.I.I.I.I.I.I.T.T.I.I.I.I.T.T.I.I.I.I.T.T.T.T.T.T.T.T.T.T.T.T.T.T.T.T.P.P.U.U.U.P.P.P.J.J.J.J.P.P.J.J.J.P.P.P.J.J.J.J.J.J.P.P.",
"q.q.q.q.e.e.q.e.q.q.8.8.e.e.e.e.q.q.q.q.q.q.e.e.q.e.e.e.q.q.q.q.e.e.q.q.e.e.e.e.e.e.q.q.q.q.q.e.q.e.e.e.e.q.q.q.q.q.q.e.q.q.q.q.e.e.e.e.q.q.q.q.q.q.q.q.q.q.q.q.q.q.q.e.q.q.q.q.q.q.q.q.e.e.q.q.q.e.q.e.e.q.e.e.q.q.e.q.q.q.q.q.q.q.q.q.q.q.q.q.q.q.8.8.e.9.e.e.q.e.q.q.e.q.q.q.e.e.e.e.q.e.e.e.e.e.e.e.q.q.e.e.e.e.e.e.e.e.e.e.e.e.e.e.e.e.e.e.e.e.e.e.e.e.e.e.e.e.e.e.e.e.e.e.e.e.e.e.e.e.e.e.q.q.e.e.e.e.t.e.e.e.e.e.e.e.e.e.e.e.e.e.e.e.e.e.e.e.e.e.e.e.e.e.e.e.e.e.e.e.t.t.t.t.t.t.t.t.t.t.e.e.t.t.t.t.t.t.t.t.t.t.t.t.t.t.t.t.t.t.t.t.t.t.t.t.t.t.t.t.t.t.t.t.t.t.t.t.t.t.t.t.t.t.t.t.t.t.t.t.t.t.t.t.t.t.z.z.z.z.t.t.t.t.t.z.z.z.z.z.z.z.z.z.z.z.z.z.z.z.z.z.z.z.z.z.z.z.z.z.z.z.F.F.z.z.F.F.F.F.F.z.z.z.z.F.P.U.P.P.P.P.N.N.N.N.N.N.N.N.P.P.P.P.N.N.N.P.P.F.F.F.F.F.F.P.P.P.P.P.Y.Y.J.J.P.P.U.U.U.U.U.U.P.P.P.P.P.P.U.U.I.I.I.I.I.I.I.I.I.I.T.I.T.T.I.I.I.I.I.T.I.I.I.I.T.T.T.T.T.T.T.T.Y.Y.Y.Y.Y.Y.Y.Y.P.P.U.U.P.P.P.P.J.J.J.J.P.P.P.P.J.Y.P.P.J.J.J.J.J.P.P.P.",
"q.q.q.q.q.q.q.q.8.8.8.8.8.8.8.8.q.q.q.q.q.q.e.e.q.q.q.e.q.e.e.q.e.e.q.q.e.e.e.e.e.q.q.q.8.q.q.e.q.q.q.e.e.e.q.q.q.q.q.e.q.q.q.q.e.e.e.q.q.q.q.8.q.q.q.q.q.q.q.q.q.q.q.e.q.q.q.q.q.q.q.q.e.e.q.q.q.e.e.e.e.e.e.e.q.q.e.q.q.q.q.q.q.q.q.q.q.q.q.q.q.q.9.9.e.e.e.e.q.q.q.q.e.e.e.q.e.e.e.e.e.e.e.e.q.q.e.e.e.e.e.e.e.e.e.e.e.e.e.e.e.e.e.e.e.e.e.e.e.e.e.e.e.e.e.e.e.e.e.e.e.e.e.e.e.e.e.e.e.e.e.e.q.q.e.e.e.e.e.e.e.e.e.e.e.e.e.e.e.e.e.e.e.e.e.e.e.e.e.e.e.e.e.e.e.e.e.e.e.e.e.t.e.e.e.t.t.t.t.t.t.t.t.t.t.t.t.t.t.t.t.t.t.t.t.t.t.t.t.t.t.t.t.t.t.t.t.t.t.t.t.t.t.t.t.t.t.t.t.t.t.t.t.t.t.t.t.t.t.t.t.t.t.t.t.t.z.z.z.z.t.t.t.t.t.z.z.z.z.z.z.t.z.z.z.z.z.z.z.z.z.z.z.z.z.z.z.z.z.z.z.z.z.z.z.z.F.F.F.F.z.z.z.z.z.F.P.P.P.P.P.P.N.N.N.N.N.N.N.N.N.P.P.N.N.N.N.P.P.F.F.F.F.F.F.P.F.P.P.P.P.P.J.J.P.P.P.P.U.U.U.U.P.P.P.P.P.U.U.U.I.I.I.I.I.I.I.I.I.I.I.I.I.I.I.I.I.I.I.I.I.I.I.I.T.T.T.I.I.I.I.I.Y.Y.Y.Y.Y.Y.T.T.P.P.U.U.P.P.P.P.J.J.J.J.P.P.P.P.Y.Y.P.P.P.P.J.J.P.P.P.P.",
"q.q.q.q.q.q.q.q.q.q.8.8.8.8.8.8.q.q.q.q.q.q.e.e.q.q.q.q.e.e.e.e.e.e.e.e.e.q.q.q.e.q.q.q.q.q.q.e.q.q.q.q.e.e.e.q.e.e.e.e.q.q.e.e.q.q.q.q.q.8.8.8.8.8.8.q.8.8.8.q.q.q.q.q.q.e.e.e.e.e.e.q.q.q.q.q.q.e.e.e.e.e.q.q.q.q.q.e.q.q.q.q.q.q.q.q.q.q.q.q.q.q.9.9.9.9.e.e.q.q.q.q.e.e.e.e.e.e.e.e.e.e.e.e.q.q.q.e.e.e.e.e.q.q.e.e.q.q.q.q.q.e.e.e.e.e.e.e.q.q.q.q.e.e.e.e.q.e.e.e.e.e.e.e.e.e.e.e.e.e.e.e.q.q.e.e.e.e.e.e.e.e.e.e.e.e.e.e.e.e.e.e.e.e.e.e.e.e.e.e.e.e.e.e.e.e.e.e.e.e.e.e.e.e.e.e.e.e.e.e.e.e.e.e.e.e.e.e.e.e.e.t.t.t.t.t.t.t.t.t.t.t.t.t.t.t.t.t.t.t.t.t.t.t.t.t.t.t.t.t.t.t.t.t.t.t.t.t.t.t.t.t.t.t.t.t.z.z.t.t.t.t.t.t.t.t.t.z.z.z.t.t.z.z.z.z.z.z.z.z.z.z.z.z.z.z.z.z.z.z.z.z.z.z.z.z.F.z.z.z.z.z.z.z.z.F.N.N.z.P.P.P.N.N.N.N.N.N.N.N.N.N.P.P.N.N.N.P.P.P.P.F.F.F.F.P.F.P.P.P.P.J.P.P.P.P.U.U.U.P.P.P.P.P.P.P.P.P.U.U.T.T.I.I.I.I.I.I.I.I.U.U.U.U.P.P.I.I.T.T.I.I.I.I.I.I.I.I.I.I.I.I.Y.Y.Y.Y.T.T.T.T.U.U.U.U.U.U.U.U.U.S.S.S.S.S.S.S.S.S.S.S.S.S.S.S.U.U.U.U.",
"q.q.q.q.q.q.q.q.q.q.8.8.8.8.8.8.q.q.q.q.q.q.e.e.q.q.q.q.q.e.e.e.q.q.q.q.q.q.q.q.q.q.8.8.q.q.q.q.q.q.q.q.q.e.e.e.q.q.q.q.q.q.q.q.q.q.q.q.8.8.8.8.8.8.8.8.8.8.8.8.q.q.q.q.q.q.e.e.e.e.e.e.q.q.q.e.q.e.e.e.e.e.q.q.q.q.q.e.q.q.q.q.q.q.q.q.q.q.q.q.q.q.9.e.9.9.e.q.q.q.q.q.q.e.e.e.q.q.q.q.q.q.q.q.q.q.q.e.e.e.e.e.q.q.q.e.q.q.q.q.q.q.q.e.e.e.e.e.q.q.q.q.e.e.e.e.q.q.q.e.e.e.e.e.e.e.e.e.e.e.e.e.q.q.q.e.e.e.e.e.e.e.e.e.e.e.e.e.e.e.e.e.e.e.e.e.e.e.e.e.e.e.e.e.e.e.e.e.e.e.e.e.e.e.e.e.e.e.e.t.e.e.e.e.e.e.e.e.e.e.e.t.t.t.t.t.t.t.t.t.t.t.t.t.t.t.t.t.t.t.t.t.t.t.t.t.t.t.t.t.t.t.t.t.t.t.t.t.t.t.t.t.t.t.t.t.t.z.t.t.z.z.t.t.t.t.t.t.z.z.t.t.z.z.z.z.z.z.z.z.z.z.z.z.z.z.z.z.z.z.z.z.z.z.z.z.F.F.F.F.z.z.z.z.z.z.z.z.z.z.z.U.P.P.N.N.N.N.N.N.N.N.P.P.N.N.N.P.P.P.P.F.F.F.F.F.F.F.P.P.P.P.P.P.P.P.U.U.P.P.P.P.P.P.P.P.P.P.U.U.T.T.T.T.T.T.T.T.I.I.P.P.U.U.P.P.I.T.T.T.I.I.I.I.I.I.I.I.I.I.I.I.Y.Y.Y.Y.T.T.T.T.U.U.U.U.U.U.U.U.U.S.S.S.S.S.S.S.S.S.S.S.S.S.S.S.U.U.U.U.",
"q.q.q.q.q.q.q.q.q.q.8.8.8.8.8.8.q.q.q.q.q.q.e.e.8.q.q.q.q.e.e.e.q.q.q.q.q.q.q.q.q.q.q.q.q.q.q.q.q.q.q.q.q.e.e.e.q.q.q.q.q.q.q.q.q.q.q.q.8.8.8.8.8.8.8.8.q.q.q.q.e.e.q.q.e.e.e.e.e.e.e.e.q.q.e.e.q.e.e.e.e.e.q.q.q.q.q.q.q.q.q.q.q.q.q.q.e.e.e.e.q.q.e.e.9.8.8.8.q.q.q.q.q.q.e.e.q.q.q.q.q.q.q.q.q.q.q.q.e.e.e.q.q.q.e.e.e.e.q.e.q.q.e.e.e.e.e.e.e.e.q.q.e.e.e.q.q.q.e.e.e.e.e.e.e.e.e.e.e.e.e.e.q.q.q.q.e.e.e.e.e.e.e.e.e.e.e.e.e.e.e.e.e.e.e.e.e.e.e.e.e.e.e.e.e.e.e.e.e.e.e.e.e.e.e.e.e.e.t.t.e.e.e.e.e.e.e.e.e.e.e.t.t.t.t.t.e.e.t.t.t.t.t.t.t.t.t.t.t.t.t.t.t.t.t.t.t.t.t.t.t.t.t.t.t.t.t.t.t.t.t.t.t.t.t.t.t.t.t.t.z.z.z.z.t.t.t.t.t.z.z.z.z.z.z.z.z.z.z.z.z.z.z.z.z.z.z.z.z.z.z.z.z.z.z.z.F.F.F.F.z.z.F.F.z.z.z.z.z.z.z.z.P.P.P.P.N.N.N.N.P.P.P.P.P.P.P.P.P.P.P.F.F.F.F.F.F.F.P.P.P.P.P.P.P.P.P.U.P.P.P.P.P.P.P.P.P.P.P.U.T.T.T.T.T.T.T.T.I.I.P.P.U.P.P.P.P.P.U.U.P.P.P.P.P.P.U.U.P.U.P.P.U.U.U.U.U.U.U.U.U.U.U.U.U.U.U.U.U.S.S.S.S.S.S.S.S.S.S.S.S.S.S.S.U.U.U.U.",
"q.q.q.q.q.q.q.q.q.q.8.8.8.8.8.8.q.q.q.q.q.q.e.e.8.8.q.q.q.q.e.e.q.q.q.q.q.q.q.q.q.q.q.q.q.q.q.q.q.q.q.q.q.q.e.e.q.q.q.q.q.q.q.q.q.q.q.8.8.8.8.8.8.8.8.8.8.q.q.q.e.e.q.e.e.e.e.e.e.e.e.q.q.q.e.e.q.e.q.e.e.e.q.q.q.q.q.q.q.q.q.q.q.q.q.q.q.q.q.q.q.q.e.e.9.8.8.8.q.q.q.q.q.q.q.e.q.q.q.q.q.q.q.q.q.q.e.q.q.e.e.q.q.q.e.e.e.e.e.e.q.e.e.e.e.e.e.e.e.e.e.e.e.e.e.q.q.q.e.e.e.e.e.e.e.e.e.e.e.e.e.e.q.q.q.q.e.e.e.e.e.e.e.e.e.e.e.e.e.e.e.e.e.e.e.e.e.e.e.e.e.e.e.e.e.e.e.e.e.e.e.e.e.e.e.e.e.e.t.t.e.e.e.e.e.e.e.e.e.e.e.e.t.t.t.t.e.e.e.e.t.t.t.t.t.t.t.t.t.t.t.t.e.e.e.e.e.e.e.e.t.t.t.t.t.t.t.t.t.t.t.t.t.t.t.t.t.t.t.t.z.z.z.z.t.t.t.t.t.t.z.z.z.z.z.z.z.z.z.z.z.z.z.z.z.z.z.z.z.z.z.z.z.z.z.z.F.F.F.F.F.F.F.F.z.z.z.z.z.z.z.z.P.P.P.P.N.P.N.P.P.P.P.P.P.P.P.P.P.P.P.F.F.F.F.F.F.F.P.P.P.P.P.P.P.P.U.U.P.P.P.P.P.P.P.P.P.P.P.P.T.T.T.U.T.U.T.U.I.P.P.P.U.U.P.P.P.P.U.U.U.P.P.P.P.P.P.U.U.U.P.P.U.U.T.U.T.U.U.U.U.U.U.U.U.U.U.U.U.S.S.S.S.S.S.S.S.S.S.S.S.S.S.S.U.U.U.U.",
"e.8.8.8.8.8.8.8.8.8.8.8.8.8.8.9.8.8.8.8.8.8.8.8.9.9.q.q.q.q.q.q.q.q.q.q.q.q.q.q.8.8.8.8.8.8.8.8.q.q.q.q.q.q.q.q.q.q.q.q.q.q.q.q.q.q.q.q.q.q.8.q.8.8.8.8.8.q.q.q.e.e.e.q.q.q.q.q.e.e.q.q.q.q.e.e.q.q.q.q.q.q.q.q.e.e.e.e.q.q.q.q.q.q.q.q.e.e.e.e.e.q.q.q.q.q.q.e.q.q.q.q.q.q.q.q.q.q.q.q.q.q.q.q.q.q.q.e.q.e.q.q.q.q.q.q.q.e.q.q.e.q.q.q.e.q.q.q.e.e.e.e.q.q.q.q.q.q.q.q.e.e.e.e.e.e.e.e.e.e.e.e.e.e.e.e.e.e.e.e.e.e.e.e.e.e.e.e.e.e.e.e.e.e.e.e.e.e.e.e.e.e.e.e.e.e.e.e.e.e.e.e.e.e.e.e.e.e.e.e.e.e.e.e.e.e.e.e.e.e.e.e.e.e.e.e.e.t.t.t.t.t.t.t.t.t.t.t.t.t.e.e.e.e.e.e.e.e.e.e.e.e.e.t.t.t.t.t.t.t.t.t.t.t.t.t.t.t.t.t.t.t.t.t.t.z.t.t.t.z.z.z.t.t.z.z.z.z.z.z.z.z.z.z.z.z.z.z.z.z.z.z.z.z.z.z.z.z.z.z.z.z.F.F.F.z.z.z.z.z.z.F.F.f.f.f.f.f.f.f.f.f.f.P.P.P.P.P.P.P.P.P.f.f.f.f.f.f.f.P.P.P.P.P.P.P.J.P.P.f.f.P.J.J.J.J.P.P.P.P.P.U.U.U.U.U.U.U.U.U.U.U.U.U.U.U.P.P.P.P.P.P.P.P.P.P.P.P.P.P.P.P.I.I.I.I.I.I.I.I.I.I.P.P.P.U.U.U.J.J.J.J.J.J.P.J.P.P.P.P.P.P.P.P.F.F.F.P.",
"8.8.8.8.8.8.8.8.8.8.8.8.8.8.8.8.8.8.8.8.8.8.8.8.9.9.9.q.q.q.q.q.8.8.q.q.q.q.q.q.8.8.8.8.8.8.8.8.q.q.q.q.q.q.q.q.q.q.q.q.q.q.q.q.q.q.q.q.q.q.8.8.q.8.8.8.8.q.q.q.e.e.e.e.q.q.q.q.e.e.q.q.q.q.e.e.q.q.q.q.q.q.q.q.q.e.e.q.q.q.q.e.q.q.q.q.e.e.e.q.e.q.q.8.q.q.q.e.q.q.q.q.q.q.q.q.q.q.q.8.q.q.q.q.q.q.q.q.q.q.q.q.q.q.q.q.q.q.q.e.q.q.q.q.e.e.q.q.e.q.e.e.q.q.q.q.q.q.q.q.e.e.e.e.e.e.e.e.e.e.e.e.e.e.e.e.e.e.e.e.e.e.e.e.e.e.e.e.e.e.e.e.e.e.e.e.e.e.e.e.e.e.e.e.e.e.e.e.e.e.e.e.e.e.e.e.e.e.e.e.e.e.e.e.e.e.e.e.e.e.e.e.e.e.e.e.e.t.t.t.t.t.t.t.t.t.t.t.t.t.e.e.e.e.e.e.e.e.e.e.e.e.e.t.t.t.t.t.t.t.t.t.t.t.t.t.t.t.t.t.t.t.t.t.t.z.z.t.t.t.z.z.t.t.t.z.z.z.z.z.z.z.z.z.z.z.z.z.z.z.z.z.z.z.z.z.z.z.z.z.z.z.F.F.F.z.z.z.z.z.z.F.t.f.f.f.f.f.f.f.f.f.f.f.P.P.P.P.P.P.P.P.f.f.f.f.f.f.P.P.P.P.P.P.P.P.J.P.P.f.f.P.P.J.J.J.P.P.P.P.U.U.U.U.U.U.U.U.U.U.U.U.U.U.U.U.P.P.U.U.P.P.P.P.P.P.P.P.P.P.P.P.I.I.I.I.I.T.I.I.I.I.P.P.P.U.U.U.Y.Y.J.J.P.P.P.P.P.P.P.P.P.P.P.P.F.F.F.P.",
"8.8.8.8.8.8.8.8.8.8.8.8.8.8.8.8.8.8.8.8.8.8.8.8.9.9.q.q.q.q.q.q.8.q.8.q.q.q.q.q.8.8.8.8.8.8.8.8.q.q.q.q.q.q.q.q.q.q.q.q.q.q.q.q.q.q.q.q.q.q.q.q.q.q.q.q.8.q.e.q.e.e.e.e.e.e.q.q.q.q.q.q.q.q.e.e.q.q.q.q.q.e.q.q.q.q.q.q.q.q.q.e.q.q.e.q.e.e.q.q.e.q.q.8.q.q.q.e.8.8.8.8.8.8.8.8.q.q.8.8.8.8.q.q.q.q.8.8.q.q.q.q.q.q.q.q.q.q.q.e.e.e.q.q.e.e.e.q.e.e.e.e.e.e.q.q.e.q.e.e.e.e.e.e.e.e.e.e.e.e.e.e.e.e.e.e.e.e.e.e.e.e.e.e.e.e.e.e.e.e.e.e.e.e.e.e.e.e.e.e.e.e.e.e.e.e.e.e.e.e.e.e.e.e.e.e.e.e.e.e.e.e.e.e.e.e.e.e.e.e.e.e.e.e.e.e.e.e.t.t.t.t.t.t.t.t.t.t.t.t.t.e.e.e.e.e.e.e.e.e.e.e.e.t.t.t.t.t.t.t.t.t.t.t.t.t.t.t.t.t.t.t.t.t.t.t.t.t.t.t.t.z.t.t.t.z.z.z.z.z.z.z.z.z.z.z.z.z.z.z.z.z.z.F.z.z.z.z.z.F.z.F.z.U.z.z.z.z.z.z.z.z.t.F.F.F.F.F.F.F.F.F.F.F.P.P.P.P.P.P.P.P.F.F.F.F.F.F.P.P.P.P.P.P.P.P.Y.P.F.F.F.P.P.P.J.J.P.J.P.P.U.U.U.U.U.U.U.U.U.U.U.U.U.U.U.U.P.P.P.U.U.U.P.P.P.P.U.U.P.P.P.P.I.I.I.I.I.I.T.I.I.I.P.P.P.P.U.U.J.Y.P.P.P.P.P.P.P.P.P.P.P.P.P.P.F.F.F.P.",
"8.8.8.8.8.8.8.8.8.8.8.8.8.8.8.8.8.8.8.8.8.8.8.8.9.9.q.q.q.q.q.q.8.8.8.q.q.8.8.8.8.8.8.8.8.8.8.8.q.q.q.q.q.q.q.q.q.q.q.q.q.q.q.q.q.q.q.q.q.q.q.q.q.q.q.q.8.q.e.e.e.e.e.e.e.e.e.q.q.q.q.q.q.q.e.e.q.q.q.q.e.e.q.q.q.q.q.e.q.q.q.q.e.e.e.e.e.e.q.q.e.q.q.8.8.q.q.e.8.8.8.8.8.8.8.8.q.q.8.8.8.q.q.q.8.8.8.8.q.q.q.q.q.q.q.q.q.q.q.e.e.e.e.e.e.e.e.e.e.e.e.e.e.e.e.q.e.e.e.e.e.e.e.e.e.e.e.e.e.e.e.e.e.e.e.e.e.e.e.e.e.e.e.e.e.e.e.e.e.e.e.e.e.e.e.e.e.e.e.e.e.e.e.e.e.e.e.e.e.e.e.e.e.e.e.e.e.e.e.e.e.e.e.e.e.e.e.e.e.e.e.e.e.e.e.e.e.e.e.e.t.t.t.t.t.t.t.t.t.t.t.t.e.e.e.e.e.e.e.e.e.e.e.t.t.t.t.t.t.t.t.t.t.t.t.t.t.t.t.t.t.t.t.t.t.t.t.t.t.t.t.z.t.t.t.t.z.z.z.z.z.z.z.z.z.z.z.z.z.z.z.z.z.z.z.z.z.z.z.F.z.z.F.U.z.z.z.z.z.z.z.z.t.F.F.F.F.F.F.F.F.F.F.F.F.F.P.P.F.F.F.F.F.F.F.F.F.F.F.P.P.P.P.F.F.P.P.P.F.F.P.P.P.P.J.Y.Y.J.P.P.U.U.U.U.U.U.U.U.U.U.U.U.U.U.U.U.P.P.P.U.U.P.P.P.U.U.U.U.P.P.P.P.I.I.I.I.T.I.I.I.I.I.P.P.P.P.U.U.J.J.P.P.P.P.P.P.P.P.P.P.P.P.P.P.F.F.F.P.",
"8.8.8.8.8.8.q.q.e.e.8.8.8.8.8.8.8.8.8.8.8.8.8.8.8.8.e.e.q.q.q.q.q.q.q.q.q.q.q.q.8.8.8.8.8.8.8.8.q.q.q.q.q.q.q.q.8.8.q.q.q.q.q.q.q.q.q.q.q.q.q.q.q.q.q.q.q.q.e.e.e.e.e.e.e.e.e.e.e.e.q.q.q.q.e.e.q.q.q.q.q.q.q.q.q.q.q.q.q.q.q.e.e.e.e.e.q.q.q.q.e.q.q.8.8.q.q.q.8.q.q.q.q.q.q.q.q.q.q.q.q.q.q.q.q.q.q.q.q.q.q.q.q.q.q.e.e.e.e.e.e.e.e.e.e.e.e.e.e.e.e.e.e.e.e.e.e.e.e.e.e.e.e.e.e.e.e.e.e.e.e.e.e.e.e.e.e.e.e.e.e.e.e.e.e.e.e.e.e.e.e.e.e.e.e.e.e.e.e.e.e.e.e.e.e.e.e.e.e.e.e.e.e.e.e.e.e.e.e.e.e.e.e.e.e.e.e.e.e.e.e.e.e.e.e.e.e.e.e.e.t.t.t.t.e.t.t.t.t.t.t.t.e.e.e.e.e.e.e.e.e.e.e.t.t.t.e.e.e.t.t.t.t.t.t.t.t.t.t.t.t.t.t.t.t.t.t.t.z.z.z.z.t.t.t.z.t.z.z.z.z.z.z.z.z.z.z.z.z.z.z.z.z.z.z.z.z.z.z.z.z.z.z.z.z.z.z.z.z.z.z.z.t.t.F.P.F.F.F.F.F.F.F.F.F.F.F.P.F.F.F.F.P.P.F.F.F.F.P.P.P.P.F.F.F.P.J.P.F.F.P.P.P.P.P.P.P.P.P.P.U.U.U.U.U.U.U.U.U.U.U.U.U.U.U.U.P.P.P.P.U.U.U.U.P.P.U.U.P.P.P.P.I.I.I.I.I.I.I.T.P.P.P.P.P.P.P.P.P.P.P.P.J.J.P.P.P.P.P.P.P.P.F.F.F.F.F.P.",
"8.8.8.e.e.e.q.q.e.e.e.e.e.8.8.8.e.e.e.e.9.9.e.e.8.8.e.e.q.q.q.q.q.q.q.q.q.q.q.q.q.q.q.q.8.q.q.q.q.q.q.q.q.q.q.q.q.8.q.q.q.q.q.q.q.q.q.q.q.q.q.q.q.q.q.q.q.q.e.e.e.e.e.e.e.e.e.e.e.e.q.q.e.q.q.e.q.q.q.q.q.q.q.q.q.q.q.q.q.q.q.q.e.e.e.e.q.e.q.q.e.q.q.8.8.q.q.q.q.q.q.q.q.q.q.q.q.q.q.q.q.q.q.q.q.q.8.8.q.q.q.q.e.e.q.q.q.q.q.q.e.e.q.q.e.e.e.e.e.e.e.e.e.e.e.e.e.q.e.e.e.e.e.e.e.e.e.e.e.e.e.e.e.e.e.e.e.e.e.e.e.e.e.e.e.e.e.e.e.e.e.e.e.e.e.e.q.q.q.q.e.e.e.e.e.e.e.e.e.e.e.e.e.e.e.e.e.e.e.e.e.e.e.e.e.e.e.e.e.e.e.e.e.e.e.e.e.e.e.e.e.e.t.t.e.e.t.t.t.t.t.t.e.e.e.e.e.e.e.e.e.e.e.t.t.e.t.t.e.e.e.t.t.t.t.t.t.t.t.t.t.t.t.t.t.t.t.t.t.t.z.t.t.t.t.z.t.t.t.z.z.z.z.z.z.z.z.z.z.z.z.z.z.z.z.z.z.z.z.z.z.z.z.z.z.z.z.z.z.z.z.z.t.t.F.F.F.F.F.F.f.F.F.F.F.F.F.F.F.F.F.F.P.P.F.F.P.P.P.P.P.P.F.F.F.F.P.P.F.F.P.P.P.P.P.P.P.P.P.P.U.U.U.U.U.U.U.U.U.U.U.U.U.U.U.U.P.P.P.P.P.U.P.U.P.P.U.U.P.P.P.P.I.I.I.I.I.I.T.I.P.P.P.P.P.P.P.P.P.P.P.P.J.P.P.P.P.P.P.P.P.P.F.F.F.F.F.P.",
"8.8.8.e.9.9.q.q.q.q.e.9.e.8.8.8.9.9.e.e.9.9.9.9.8.8.q.q.9.9.q.q.e.e.9.9.9.9.q.q.e.e.9.9.9.9.e.e.e.e.e.e.8.8.9.9.8.8.9.9.e.e.e.e.e.e.e.e.q.e.q.q.e.e.q.q.q.q.e.e.e.e.q.q.q.q.e.q.e.e.q.q.e.q.q.e.e.e.q.q.q.q.q.q.e.e.q.q.q.q.q.q.q.q.e.e.e.e.e.e.e.q.q.8.8.q.q.e.e.e.e.e.e.e.e.e.q.q.q.q.q.q.q.q.q.q.q.q.q.q.q.q.e.q.q.q.q.q.q.q.q.q.e.q.e.e.e.e.e.e.e.e.e.e.e.e.q.q.q.q.e.e.e.e.e.e.e.e.e.e.e.e.e.e.e.e.e.e.e.e.e.e.e.e.e.e.e.e.e.e.e.e.e.e.e.e.e.e.e.e.e.e.e.e.e.e.e.e.e.e.e.e.e.e.e.e.e.e.e.e.e.e.e.e.e.e.e.e.e.e.e.e.e.e.e.e.e.e.e.e.e.e.e.t.e.e.e.t.t.t.t.e.e.e.e.e.e.e.e.e.e.e.e.t.t.t.t.t.e.e.e.t.t.t.t.t.t.t.t.t.t.t.t.t.t.t.t.t.t.t.t.t.t.t.t.z.z.t.z.z.z.z.z.z.z.z.z.z.t.z.z.z.z.z.z.z.z.t.t.t.t.z.z.z.z.z.z.z.z.z.z.z.t.t.F.F.F.F.F.F.f.f.F.F.F.F.F.F.F.F.F.F.P.F.F.F.P.P.P.P.P.P.F.F.t.F.P.P.F.F.P.P.P.P.P.P.P.P.P.P.U.U.U.U.U.U.U.U.U.U.U.U.U.U.U.U.F.F.P.P.P.P.P.P.P.P.P.P.P.P.P.P.I.I.I.I.I.I.P.P.P.P.U.P.U.U.P.P.J.P.Y.Y.J.Y.P.P.P.F.F.F.P.P.P.P.F.F.F.P.",
"8.8.8.e.9.9.q.q.q.q.9.9.e.8.8.8.9.e.e.e.8.8.9.9.8.8.e.e.9.9.q.q.e.e.9.9.9.q.q.q.e.e.e.9.9.9.e.e.e.e.e.e.8.8.9.9.9.8.9.e.e.e.e.e.e.e.e.e.e.e.q.q.q.e.e.q.q.q.e.e.e.e.q.q.q.q.q.q.e.e.q.q.q.q.q.q.e.q.q.q.q.q.q.q.e.e.e.q.q.q.q.q.q.q.e.e.e.e.e.e.e.q.q.8.8.q.q.e.q.q.q.q.q.q.q.q.q.q.q.q.q.q.q.q.q.q.q.q.q.q.q.q.e.e.q.q.q.q.q.q.q.q.q.q.e.e.e.e.e.e.e.e.e.e.e.e.q.q.q.q.e.e.e.e.e.e.e.e.e.e.e.e.e.e.e.e.e.e.e.e.e.e.e.e.e.e.e.e.e.e.e.e.e.e.e.e.e.e.e.e.e.e.e.e.e.e.e.e.e.e.e.e.e.e.e.e.e.e.e.e.e.e.e.e.e.e.e.e.e.e.e.e.e.e.e.e.e.e.e.e.e.e.e.t.e.e.e.t.t.t.t.e.e.e.e.e.e.e.e.e.e.e.e.t.t.t.t.t.e.e.e.e.t.t.t.t.t.t.t.t.t.t.t.t.t.t.t.t.t.t.t.t.t.t.t.t.z.z.z.t.z.z.z.z.z.z.z.z.t.t.z.z.z.z.z.z.t.t.t.t.t.t.t.t.z.z.z.t.t.z.z.z.t.t.f.F.F.F.F.F.f.f.F.F.F.F.F.F.t.F.F.F.F.F.F.F.P.P.P.P.P.F.F.F.t.F.P.F.F.F.P.P.P.P.P.P.P.P.P.P.U.U.U.U.U.U.U.U.U.U.U.U.U.U.U.U.F.F.P.P.P.P.P.P.P.P.P.P.P.P.P.P.I.I.I.I.I.I.P.P.P.P.U.U.U.U.U.P.J.J.J.Y.Y.Y.P.P.P.P.P.P.P.P.P.P.F.F.F.P.",
"8.8.8.8.e.e.q.q.q.q.q.8.8.8.8.8.q.q.q.q.q.q.q.q.8.8.8.8.8.8.q.q.e.9.9.9.e.e.e.e.q.q.q.q.q.q.q.q.9.e.e.e.9.9.9.9.e.e.9.8.8.9.9.e.q.q.q.e.q.e.q.q.e.e.q.q.q.q.e.e.e.q.q.q.q.q.q.e.e.q.q.q.e.q.q.q.e.e.q.q.q.q.q.q.q.q.q.q.q.q.q.q.q.q.e.e.e.e.e.q.e.e.q.q.q.q.e.e.e.q.q.q.e.e.e.e.q.q.e.e.q.e.e.e.q.q.q.q.q.q.q.q.q.q.q.q.q.q.q.q.e.q.q.q.e.e.e.e.e.e.e.e.e.e.e.e.e.e.e.e.e.e.e.e.e.e.e.e.e.e.e.e.e.e.e.e.e.e.e.e.e.e.e.e.e.e.e.e.e.e.e.e.e.e.e.e.e.e.e.e.e.e.e.e.e.e.e.e.e.e.e.e.e.e.e.e.e.e.e.e.e.e.e.e.e.e.e.e.e.e.e.e.e.e.e.e.e.e.e.e.e.e.e.e.e.e.e.e.t.t.t.t.t.t.t.t.t.t.t.t.t.t.t.e.t.t.t.t.t.t.t.t.t.t.t.t.t.t.t.t.t.t.z.z.t.t.t.t.t.t.t.t.t.t.t.z.z.z.z.z.z.z.z.z.z.z.z.z.z.z.z.z.z.z.z.z.z.z.z.z.z.z.z.z.z.z.z.z.z.z.z.z.z.z.z.F.z.S.S.z.z.z.z.z.z.z.z.z.z.z.z.F.S.S.F.z.F.F.U.U.U.U.S.S.z.z.F.U.U.U.U.U.U.U.U.U.U.U.U.U.U.U.U.U.U.U.U.U.F.F.F.F.F.z.z.z.t.F.F.F.P.J.Y.Y.J.J.J.J.J.J.J.Y.T.T.T.T.P.P.P.P.P.P.P.P.P.J.P.J.P.P.P.P.P.F.P.P.F.P.P.P.P.P.P.P.P.P.P.P.",
"8.8.8.8.e.e.q.q.q.q.9.9.9.9.8.8.q.q.q.q.q.q.q.q.8.9.8.8.9.8.q.q.e.e.9.9.e.e.e.e.q.q.q.q.q.q.q.q.9.e.e.e.9.9.9.9.e.e.9.8.8.9.9.e.q.q.q.q.e.e.e.q.e.e.q.q.q.q.e.e.e.q.q.q.q.q.q.q.e.q.q.q.e.q.q.q.e.e.q.q.q.q.q.q.e.e.e.e.e.e.e.e.q.q.e.e.e.e.q.q.e.e.q.q.q.q.e.e.e.q.q.q.e.e.e.e.q.q.e.e.q.q.e.e.q.q.q.q.e.e.e.e.e.e.e.e.e.e.e.q.e.q.q.q.e.e.e.e.e.e.e.e.e.e.e.e.e.e.e.e.e.e.e.e.e.e.e.e.e.e.e.e.e.e.e.e.e.e.e.e.e.e.e.e.e.e.e.e.e.e.e.e.e.e.e.e.e.e.e.e.e.e.e.e.e.e.e.e.e.e.e.e.e.e.e.e.e.e.e.e.e.e.e.e.e.e.e.e.e.e.e.e.e.e.e.e.e.e.e.e.e.e.e.e.e.e.t.e.t.t.t.t.t.t.t.t.t.t.t.t.t.t.t.e.t.t.t.t.t.t.t.t.t.t.t.t.t.t.t.t.t.t.t.t.t.t.t.t.t.t.t.t.t.t.z.z.t.t.z.z.z.z.z.z.z.z.z.z.z.z.z.z.z.z.z.z.z.z.z.z.z.z.z.z.z.z.z.z.z.z.z.z.z.z.z.F.z.z.z.z.z.z.z.z.z.z.z.z.z.z.z.F.U.U.F.z.F.F.U.U.U.U.S.U.z.z.F.F.U.U.U.U.U.U.U.U.U.U.U.U.U.U.U.U.U.U.U.U.F.F.F.F.F.z.z.z.F.F.F.F.P.P.Y.Y.J.J.J.J.P.P.J.J.P.T.T.T.P.P.P.U.U.U.P.P.P.J.J.J.P.P.P.P.F.F.P.P.P.P.P.P.P.P.P.P.P.P.P.P.",
"8.8.8.8.9.9.e.q.q.9.e.e.9.q.q.8.9.8.8.9.q.q.q.q.9.9.e.e.e.e.q.q.9.9.9.9.9.9.9.9.9.9.9.9.9.9.9.9.9.9.e.e.9.9.9.9.e.e.e.9.9.e.9.e.q.q.q.e.e.e.e.e.e.e.q.q.q.q.e.e.e.e.q.q.q.q.e.e.e.q.q.q.q.q.q.q.e.q.q.q.q.q.q.q.q.q.q.q.q.q.q.q.q.e.e.e.q.q.q.q.e.e.q.q.q.q.e.e.e.e.q.q.e.e.e.e.q.q.e.e.e.e.q.q.q.q.e.e.e.e.e.e.q.q.e.e.e.e.q.q.e.e.q.q.e.e.e.e.e.e.e.e.e.e.e.e.e.e.e.e.e.e.e.e.e.e.e.e.e.e.e.e.e.e.e.e.e.e.e.e.e.e.e.e.e.e.e.e.e.e.e.e.e.e.e.e.e.e.e.e.e.e.e.e.e.e.e.e.e.e.e.e.e.e.e.e.e.e.e.e.e.e.e.e.e.e.e.e.e.e.e.e.e.e.e.e.e.e.e.e.e.e.e.e.e.e.e.e.t.t.t.t.t.t.t.t.t.t.t.t.t.t.e.t.t.t.t.t.t.t.t.t.e.e.t.t.t.t.t.t.t.t.t.t.t.t.t.t.t.t.t.t.t.t.t.t.t.t.t.z.z.z.z.z.z.z.z.z.z.z.z.z.z.z.z.z.z.z.z.z.z.z.z.z.z.z.z.z.z.z.z.z.z.z.z.F.z.z.z.z.z.z.z.z.z.z.z.z.z.z.F.S.U.S.S.z.F.F.F.F.F.F.S.S.z.F.z.F.F.U.U.U.S.S.S.S.F.F.F.F.F.F.F.F.F.F.F.F.U.F.U.P.F.U.z.z.F.F.F.F.P.P.P.Y.P.J.J.P.P.P.P.P.P.P.P.P.P.P.U.U.Y.Y.Y.P.J.J.J.J.P.P.P.P.P.P.P.P.F.P.P.P.P.P.P.P.F.P.P.P.",
"8.8.8.8.8.9.9.e.e.e.e.e.9.q.q.q.8.8.9.9.q.q.q.q.9.e.e.e.e.e.q.q.9.9.9.9.9.9.9.9.9.9.9.9.9.9.9.9.9.9.e.e.9.9.9.e.e.e.e.9.9.e.e.e.e.e.e.e.e.e.e.e.e.e.q.q.q.q.e.e.e.q.q.q.q.q.e.e.e.q.q.q.q.e.q.q.q.q.q.q.q.q.q.q.q.q.q.q.q.q.q.q.q.q.e.e.q.q.q.q.e.e.q.q.q.q.e.e.e.e.q.q.q.q.e.e.q.e.e.e.e.e.e.e.e.e.e.e.e.e.e.e.q.q.e.e.e.e.q.q.e.e.q.q.e.e.e.e.e.e.e.e.e.e.e.e.e.e.e.e.e.e.e.e.e.e.e.e.e.e.e.e.e.e.e.e.e.e.e.e.e.e.e.e.e.e.e.e.e.e.e.e.e.e.e.e.e.e.e.e.e.e.e.e.e.e.e.e.e.e.e.e.e.e.e.e.e.e.e.e.e.e.e.e.e.e.e.e.e.e.e.e.e.e.e.e.e.e.e.e.e.e.e.e.e.e.e.t.t.t.t.t.t.t.t.t.t.t.t.t.t.t.t.t.t.t.t.t.t.t.t.t.e.e.e.t.t.t.t.t.t.t.t.t.t.t.t.t.t.t.t.t.t.t.t.t.t.t.t.t.z.z.z.z.z.z.z.z.t.t.t.t.t.z.z.z.z.z.z.z.z.z.z.z.z.z.z.z.z.z.z.z.t.z.z.z.F.z.z.z.z.z.z.z.z.z.z.z.z.z.z.S.S.S.S.z.U.F.F.F.F.F.S.U.z.z.F.F.F.F.U.U.U.U.U.S.F.F.F.F.F.F.F.F.F.F.F.F.z.U.U.U.U.F.z.z.F.F.F.F.P.P.P.P.P.J.J.P.P.P.P.P.P.P.P.P.P.P.U.U.Y.Y.Y.J.J.J.Y.J.P.P.P.F.P.P.P.P.P.F.P.P.P.P.P.P.F.F.F.P.",
"8.8.8.8.8.9.q.q.9.9.9.e.9.9.9.9.e.q.e.e.q.q.q.q.q.e.e.e.e.e.q.q.9.9.9.9.9.9.9.9.9.9.9.9.9.9.9.9.9.9.9.9.9.9.e.e.e.9.9.9.9.9.9.e.e.q.e.q.e.e.e.e.e.e.q.q.q.q.q.e.e.e.q.q.q.q.e.e.e.q.q.q.q.e.q.q.q.q.q.q.q.q.q.q.q.q.q.q.q.q.q.q.e.e.q.q.e.e.e.e.q.q.q.q.e.e.q.q.e.e.e.e.e.q.q.q.q.e.e.e.e.e.e.e.e.e.e.e.e.e.e.e.e.e.e.e.e.e.e.e.e.e.e.e.e.e.e.e.e.e.e.e.e.e.e.e.e.e.e.e.e.e.e.e.e.e.e.e.e.e.e.e.e.e.e.e.e.e.e.e.e.e.e.e.e.e.e.e.e.e.e.e.e.e.e.t.e.e.e.e.e.e.e.e.e.e.e.e.e.e.e.e.t.t.t.t.t.t.e.t.e.e.e.e.e.e.e.e.e.e.e.e.e.e.e.e.e.e.e.e.t.t.e.e.e.t.t.t.t.t.t.t.t.t.t.t.t.t.t.t.t.t.t.t.t.t.t.t.t.t.t.t.t.t.t.t.t.t.t.t.t.t.t.t.t.t.t.t.t.t.t.t.t.t.t.t.z.t.t.t.z.z.z.z.z.z.z.z.t.t.t.t.t.z.z.z.z.z.z.z.z.z.z.z.z.z.z.z.z.z.z.z.t.z.z.z.z.z.z.z.z.z.z.z.F.F.F.z.z.z.z.S.S.S.U.z.U.F.F.z.z.U.U.U.z.F.F.F.F.F.F.U.F.F.S.S.S.F.F.F.U.U.U.U.F.F.F.F.z.F.F.U.U.F.F.F.F.F.F.F.F.F.P.P.F.F.F.F.F.F.F.P.P.P.P.P.P.P.J.Y.P.P.P.P.F.F.F.F.P.P.P.F.P.P.P.P.P.P.P.P.P.P.P.P.F.F.F.F.",
"8.8.8.8.8.8.8.8.8.e.9.q.9.9.9.q.e.q.e.e.q.q.q.q.8.8.e.e.9.e.e.q.9.9.9.9.9.9.9.9.9.9.9.9.9.9.9.9.9.9.9.9.9.e.e.e.e.9.9.9.9.9.9.e.e.e.e.e.e.q.q.q.e.e.q.q.q.q.q.q.e.e.q.q.q.q.e.e.e.q.q.q.q.e.q.q.q.q.q.q.q.q.q.q.q.q.q.q.q.q.q.q.e.q.q.q.e.e.e.e.q.q.q.q.e.e.q.q.e.e.e.e.q.q.q.q.e.e.e.e.q.q.e.e.e.e.e.e.e.e.e.e.e.e.e.e.e.e.q.q.e.e.e.e.e.e.e.e.e.e.e.e.e.e.e.e.e.e.e.e.e.e.e.e.e.e.e.e.e.e.e.e.e.e.e.e.e.e.e.e.e.e.e.e.e.e.e.e.e.e.e.e.e.t.t.t.e.e.e.e.e.e.e.e.e.e.e.e.e.e.e.e.t.t.t.t.t.t.e.t.e.e.e.e.e.e.e.e.e.e.e.e.e.e.e.e.e.e.e.t.t.t.e.e.e.t.t.t.t.t.t.t.t.t.t.t.t.t.t.t.t.t.t.t.t.t.t.t.t.t.t.t.t.t.t.t.t.t.t.t.t.t.t.t.t.t.t.t.t.t.t.t.t.t.t.t.t.t.t.t.t.t.t.t.t.t.t.t.t.t.t.t.t.z.z.z.z.z.z.z.z.z.z.z.z.z.z.z.z.z.z.z.z.z.z.z.z.z.z.z.z.z.z.z.F.F.z.z.z.z.z.S.S.S.U.z.U.F.z.z.z.z.U.U.S.F.F.F.F.F.F.F.F.F.S.S.U.F.F.F.U.U.U.U.F.F.F.F.z.F.F.U.U.U.U.F.F.F.F.F.F.F.F.P.F.F.F.F.P.F.F.F.P.P.P.P.P.P.Y.Y.P.P.P.P.F.F.F.F.P.P.F.F.P.P.P.P.F.F.F.F.F.F.F.F.F.F.F.F.",
"8.8.8.8.8.8.8.8.8.8.q.q.e.e.q.q.8.8.8.8.9.9.9.9.8.8.9.9.9.9.e.q.9.9.9.9.9.9.9.9.9.9.9.9.9.9.9.9.9.9.9.e.9.e.e.e.e.e.e.9.9.9.9.e.q.e.e.e.e.q.q.q.q.q.q.q.q.q.e.q.e.e.e.q.q.e.e.e.e.q.q.q.q.e.q.q.q.q.q.q.e.e.q.q.e.e.e.e.e.e.e.e.e.e.q.q.q.e.e.e.e.e.q.q.e.e.q.q.q.q.q.q.q.q.e.e.e.e.e.q.q.q.e.e.e.e.e.e.e.e.e.e.e.e.e.e.e.e.e.e.q.q.q.q.e.e.e.e.e.e.e.e.e.e.e.e.e.e.e.e.e.e.e.e.e.e.e.e.e.e.e.e.e.e.e.e.e.e.e.e.e.e.e.e.e.e.e.e.e.e.e.e.e.t.t.t.e.e.e.e.e.e.e.e.e.e.e.e.e.e.e.e.t.t.t.t.t.t.t.t.t.t.e.t.t.t.e.t.e.e.e.e.e.e.e.e.e.e.e.t.t.t.t.e.e.t.t.t.t.t.t.t.t.t.t.t.t.t.t.t.t.t.t.t.t.t.t.t.t.t.t.t.t.t.t.t.t.t.t.t.t.t.t.t.t.t.t.t.t.t.t.t.t.t.t.t.t.t.t.t.t.t.t.t.t.t.t.t.t.t.t.t.t.z.z.z.z.z.z.z.z.z.z.z.z.z.z.z.z.z.z.z.z.z.z.z.z.z.z.z.z.z.z.z.z.z.n.n.z.z.z.S.S.S.U.n.U.S.z.z.z.z.S.U.S.S.S.S.S.S.S.S.z.z.n.n.S.n.z.z.z.z.z.z.z.z.z.z.z.F.F.U.U.U.U.U.F.F.F.F.F.F.F.F.F.F.F.F.F.F.P.F.U.U.P.P.P.P.P.P.P.P.F.F.F.F.F.F.P.P.P.P.P.P.P.P.F.F.F.F.F.F.F.F.F.F.F.F.",
"e.8.8.8.8.8.8.8.8.8.8.q.q.q.q.q.8.8.8.8.9.9.9.9.9.9.9.8.9.9.e.e.e.e.e.e.9.9.9.e.9.9.9.9.9.9.9.9.9.9.9.e.9.e.e.e.e.9.e.9.9.9.9.e.q.q.e.e.e.q.q.q.q.q.q.q.q.q.e.q.e.e.e.e.q.e.e.e.e.q.q.q.q.e.q.q.q.q.q.q.e.e.e.q.q.q.q.q.q.q.q.q.e.e.q.q.q.e.e.e.e.e.q.q.q.e.q.q.q.q.q.q.q.q.e.e.e.e.e.e.q.q.q.e.q.q.q.e.q.q.q.q.e.e.e.e.e.e.e.e.q.q.q.q.e.e.e.e.e.e.e.e.e.e.e.e.e.e.e.e.e.e.e.e.e.e.e.e.e.e.e.e.e.e.e.e.e.e.e.e.e.e.e.e.e.e.e.e.e.e.e.e.t.t.t.t.e.e.e.e.e.e.e.e.e.e.e.e.e.e.e.e.t.t.t.t.t.t.t.t.t.t.t.t.e.e.e.t.t.e.e.e.e.e.e.e.e.e.e.t.t.t.t.e.t.t.t.t.t.t.t.t.t.t.t.t.t.t.t.t.t.t.t.t.t.t.t.t.t.t.t.t.t.t.t.t.t.t.t.t.t.t.t.t.t.t.t.t.t.t.t.t.t.t.t.t.t.t.t.t.t.t.t.t.t.t.t.t.t.t.t.t.t.t.z.z.z.z.z.z.z.z.z.z.z.z.z.z.z.z.z.z.z.z.z.z.z.z.z.z.z.z.z.z.z.n.n.n.z.z.z.S.S.S.U.z.U.U.z.z.z.z.S.U.S.S.S.S.S.S.S.S.z.z.n.n.n.n.z.n.z.z.z.z.z.z.z.z.z.F.F.U.U.U.U.U.F.F.F.F.F.F.P.F.F.F.F.F.P.F.F.F.U.U.U.U.P.P.P.P.P.P.F.F.F.F.F.F.P.P.P.P.P.P.P.P.F.F.F.F.F.F.F.F.F.F.F.F.",
"8.8.8.8.8.8.8.8.8.8.e.e.e.e.q.q.8.8.8.9.9.9.9.e.8.9.9.9.9.9.9.8.q.q.q.q.q.q.8.q.8.8.8.8.8.8.8.8.8.e.e.e.q.9.9.e.e.e.9.9.9.9.e.e.e.e.e.9.9.9.e.e.q.e.9.8.8.9.q.e.e.e.q.q.e.e.e.e.q.q.q.e.e.q.e.e.q.q.q.q.q.e.e.e.q.q.q.q.e.e.e.e.q.q.q.q.q.q.q.q.q.q.q.q.q.q.q.q.q.q.e.e.e.q.q.q.e.q.q.q.q.e.e.e.q.q.q.q.e.e.e.e.e.e.e.e.e.e.e.e.e.e.e.e.e.e.e.e.e.e.e.e.e.e.e.e.e.e.e.e.e.e.e.e.e.e.e.e.e.e.e.e.e.e.e.e.e.e.e.e.e.e.e.e.e.e.e.e.e.e.e.e.e.e.e.e.e.e.e.e.e.e.e.e.e.e.e.e.e.e.e.e.e.t.t.t.t.t.t.t.t.t.t.t.t.t.t.t.e.e.e.e.t.t.e.e.e.e.t.t.t.t.e.t.t.t.t.t.t.t.t.t.t.t.t.t.t.t.t.t.t.t.t.t.t.t.t.t.t.t.t.t.t.t.t.t.t.t.t.t.t.t.t.t.t.t.t.t.t.t.t.t.t.t.t.t.t.t.t.t.t.t.t.t.t.t.t.t.t.t.t.z.z.z.z.z.z.z.z.z.z.z.z.z.z.z.z.z.z.z.z.z.z.z.z.z.z.z.z.z.t.z.z.F.z.F.U.z.F.z.z.z.z.z.z.z.z.z.z.z.z.z.F.F.S.S.S.S.F.F.F.F.F.P.F.F.F.F.F.F.F.F.F.N.z.z.S.S.U.U.U.U.U.U.U.U.F.F.F.H.F.F.F.F.H.H.H.H.H.H.H.P.P.P.P.Y.Y.Y.Y.P.P.P.J.J.P.P.P.P.P.P.P.P.P.P.F.P.F.F.F.F.F.F.F.S.F.f.f.f.",
"8.8.8.8.8.8.8.8.8.8.8.e.e.e.9.q.8.8.8.8.e.e.e.e.8.9.9.9.9.9.8.q.q.q.q.q.q.q.q.8.q.q.8.8.8.8.8.8.8.e.e.e.q.e.9.9.e.e.9.9.9.9.e.e.e.e.e.e.9.9.e.e.q.e.8.8.8.9.q.e.e.e.e.q.q.e.e.e.q.q.q.e.e.q.q.e.q.q.q.q.q.q.e.e.q.q.q.q.e.e.q.e.q.q.q.q.q.q.q.q.q.q.q.q.q.q.q.q.e.q.e.e.q.q.q.q.e.q.q.q.q.q.e.e.q.q.q.q.e.e.q.e.q.q.q.q.q.q.e.e.e.e.e.e.e.e.e.e.e.e.e.e.e.e.e.e.e.e.e.e.e.e.e.e.e.e.e.e.e.e.e.e.e.e.e.e.e.e.e.e.e.e.e.e.e.e.e.e.e.e.e.e.e.e.e.e.e.e.e.e.e.e.e.e.e.e.e.e.e.e.e.e.e.e.t.t.t.t.t.t.t.t.t.t.t.t.t.t.e.e.t.t.t.t.t.t.e.t.t.t.t.t.e.e.t.t.t.t.t.t.t.t.t.t.t.t.t.t.t.t.t.t.t.t.t.t.t.t.t.t.t.t.t.t.t.t.t.t.t.t.t.t.t.t.t.t.t.t.t.t.t.t.t.t.t.t.t.t.t.t.t.t.t.t.t.t.t.t.t.t.t.z.t.z.z.z.z.z.z.z.z.z.z.z.z.z.z.z.z.z.z.z.z.z.z.z.z.z.z.z.t.z.z.F.z.z.z.z.F.F.z.z.z.z.z.z.z.z.z.z.z.z.z.F.S.S.S.S.F.F.F.F.P.P.S.F.F.F.F.F.F.F.F.F.F.z.S.S.U.U.U.U.U.U.U.U.F.F.F.H.F.F.F.F.F.F.F.H.F.F.F.F.P.P.P.Y.Y.Y.P.P.J.P.J.J.P.P.P.P.P.P.P.P.P.P.F.F.F.F.F.F.F.F.H.H.F.f.f.f.",
"8.8.8.8.8.8.8.8.8.8.8.e.8.9.9.9.9.8.9.e.e.e.e.e.e.9.9.9.9.9.8.q.q.q.q.q.q.q.q.q.q.q.8.8.8.8.8.8.8.9.e.e.q.9.e.e.e.e.9.9.q.q.e.e.e.e.e.e.9.e.e.e.e.e.8.8.9.e.q.q.e.e.q.q.q.q.e.e.q.q.q.e.e.e.e.e.q.q.q.q.q.q.q.q.q.q.q.q.q.q.q.q.q.q.q.q.q.q.q.q.q.q.q.q.q.q.q.q.e.e.e.e.e.e.q.q.e.e.q.q.q.q.q.e.q.q.q.q.q.q.q.q.e.e.e.e.e.e.e.q.e.e.e.e.e.e.e.e.e.e.e.e.e.e.e.e.e.e.e.e.e.e.e.e.e.e.e.e.e.e.e.e.e.e.e.e.e.e.e.e.e.e.e.e.e.e.e.e.e.e.e.e.e.e.e.e.e.e.e.e.e.e.e.e.e.e.e.e.e.e.e.e.e.e.t.t.t.t.t.t.t.t.t.e.t.t.t.t.t.t.t.t.t.t.t.t.t.t.t.t.t.t.t.t.t.t.t.t.t.t.t.t.t.t.t.t.t.t.t.t.t.t.t.t.t.t.t.t.t.t.t.t.t.t.t.t.t.t.t.t.t.t.t.t.t.t.t.t.t.t.t.t.t.t.t.t.t.t.t.t.t.t.t.t.t.t.t.t.t.t.t.t.t.z.z.z.z.z.z.z.z.z.z.z.z.z.z.z.z.z.z.z.z.z.z.z.z.z.z.z.t.z.z.z.z.z.z.z.U.U.U.U.U.U.F.F.z.z.z.z.z.F.F.F.F.F.F.F.F.F.F.F.S.S.S.S.n.S.F.F.F.F.F.F.F.U.U.S.U.U.U.U.U.U.U.U.F.F.F.F.F.F.P.P.F.F.F.F.F.F.F.F.P.P.P.P.Y.Y.J.Y.J.J.J.J.J.J.P.P.P.P.P.P.P.P.P.P.F.F.F.F.F.F.S.F.F.F.F.F.",
"8.8.8.8.8.8.8.8.8.8.8.8.9.9.8.9.9.9.e.e.e.e.q.q.e.e.e.e.e.9.9.e.q.q.q.q.q.q.q.q.q.q.8.8.8.8.8.8.8.9.e.e.q.e.e.e.q.e.9.9.8.q.e.e.e.e.e.e.9.9.e.e.e.e.9.9.9.9.q.q.e.e.q.q.q.q.e.e.q.q.q.q.q.e.e.e.q.q.q.q.q.q.q.q.q.q.q.q.q.q.q.q.q.q.q.q.q.q.q.q.q.q.q.q.q.q.q.q.e.e.e.e.e.e.q.q.e.e.e.e.q.q.q.q.q.q.q.q.e.q.q.q.e.e.e.e.e.e.e.q.e.e.e.e.e.e.e.e.e.e.e.e.e.e.e.e.e.e.e.e.e.e.e.e.e.e.e.e.e.e.e.e.e.e.e.e.e.e.e.e.e.e.e.e.e.e.e.e.e.e.e.e.e.e.e.e.e.e.e.e.e.e.e.e.e.e.e.e.e.e.e.e.e.e.e.e.t.t.t.t.t.e.e.e.t.t.t.t.t.t.t.t.t.t.t.t.t.t.t.t.t.t.t.t.t.t.t.t.t.t.t.t.t.t.t.t.t.t.t.t.t.t.t.t.t.t.t.t.t.t.t.t.t.t.t.t.t.t.t.t.t.t.t.t.t.t.t.t.t.t.t.t.t.t.t.t.t.t.t.t.t.t.t.t.t.t.t.t.t.t.t.t.t.t.t.t.z.z.z.z.z.z.z.z.t.t.t.z.t.t.t.t.z.z.z.z.z.z.z.z.t.z.z.z.F.z.z.z.U.U.U.U.U.U.U.F.z.z.z.z.z.F.F.z.z.F.F.F.F.F.F.U.S.S.S.S.n.n.F.F.F.F.F.F.U.U.U.U.F.U.U.U.U.U.U.F.F.F.F.F.F.F.P.P.F.F.F.F.F.F.F.F.F.P.J.J.J.J.J.Y.J.J.J.J.Y.P.P.P.P.P.P.P.P.P.P.P.F.F.F.F.F.F.S.F.F.F.F.F.",
"8.8.8.8.8.8.8.8.8.8.8.8.8.e.q.e.e.e.e.e.e.e.e.e.e.e.9.9.9.9.e.e.q.q.q.q.q.q.q.q.q.q.8.8.8.8.8.8.8.8.e.e.q.e.e.e.e.e.8.8.8.8.e.e.e.e.e.e.e.e.e.e.9.9.8.8.q.e.q.q.e.e.e.e.q.q.e.e.q.q.q.e.q.q.q.e.q.q.e.e.q.q.q.q.q.q.q.q.q.q.q.q.q.q.q.q.q.q.q.q.q.q.q.q.q.q.q.q.e.e.e.e.e.e.e.e.q.e.e.e.q.q.q.q.e.e.e.e.e.e.e.e.e.q.q.q.q.q.q.q.e.e.e.e.e.e.e.e.e.e.e.e.e.e.e.e.e.e.e.e.e.e.e.e.e.e.e.e.e.e.e.e.e.e.e.e.e.e.e.e.e.e.e.e.e.e.e.e.e.e.e.e.e.e.e.e.e.e.e.e.e.e.e.e.e.e.e.e.e.e.e.e.e.e.e.e.t.t.t.t.e.e.e.e.e.e.e.e.e.t.t.t.t.t.t.t.t.t.t.t.t.t.t.e.t.t.t.t.t.t.t.t.t.t.t.t.t.t.t.t.t.t.t.t.t.t.t.t.t.t.t.t.t.t.t.t.t.t.t.t.t.t.t.t.t.t.t.t.t.t.t.t.t.t.t.t.t.t.t.t.t.t.t.t.t.t.t.t.t.t.t.t.t.t.t.t.z.z.z.z.z.z.z.z.z.z.z.z.t.t.z.z.z.z.z.z.z.z.z.z.t.z.z.z.z.z.z.z.F.z.z.z.F.z.z.z.z.z.z.z.z.z.z.z.z.z.U.U.U.U.U.U.U.U.U.n.n.P.F.F.U.U.U.F.F.F.F.F.F.F.U.U.U.U.F.F.F.F.F.F.F.F.F.F.F.F.F.F.F.F.F.F.F.P.P.P.P.P.J.P.J.J.P.P.Y.Y.Y.J.P.P.P.P.P.P.P.P.F.S.F.F.F.F.S.F.F.F.F.F.",
"8.8.8.8.8.8.8.8.8.8.8.8.8.8.8.e.8.8.e.e.8.8.e.e.e.e.e.e.e.9.e.q.q.q.q.q.q.q.q.q.q.q.e.e.e.e.e.e.8.8.e.e.q.e.e.e.e.e.8.8.8.8.e.e.8.8.8.8.e.8.8.8.9.9.8.e.e.e.e.e.q.q.q.q.q.q.q.q.q.q.q.e.q.q.q.q.e.q.q.q.e.e.q.q.q.q.q.q.q.q.e.q.q.q.q.q.q.q.q.q.q.q.q.q.q.q.q.q.e.e.e.q.e.e.e.e.q.q.e.e.e.q.q.q.e.e.e.e.e.e.q.q.e.e.q.q.q.q.q.q.e.e.e.e.e.e.e.e.e.e.e.e.e.e.e.e.e.e.e.e.e.e.e.e.e.e.e.e.e.e.e.e.e.e.e.e.e.e.e.e.e.e.e.e.e.e.e.e.e.e.e.e.e.e.e.e.e.e.e.e.e.e.e.e.e.e.e.e.e.e.e.e.e.e.e.e.e.e.t.t.e.e.e.e.e.e.e.e.t.e.t.t.t.t.t.t.t.e.t.t.t.t.t.e.t.t.t.t.t.t.t.t.t.t.t.t.t.t.t.t.t.t.t.t.t.t.t.t.t.t.t.t.t.t.t.t.t.t.t.t.t.t.t.t.t.t.t.t.t.t.t.t.t.t.t.t.t.t.t.t.t.t.t.t.t.t.t.t.t.t.t.t.t.t.t.t.t.t.t.t.t.t.t.t.z.z.z.z.t.t.z.z.z.z.z.z.z.z.z.z.z.z.z.z.z.z.z.z.z.z.z.z.z.z.z.z.z.z.z.z.z.z.z.z.z.z.z.U.U.U.U.U.U.U.U.n.S.U.F.F.U.U.S.S.F.F.F.F.F.F.U.U.U.U.F.F.F.F.F.F.F.F.F.F.F.F.F.F.F.F.F.F.F.F.P.P.P.P.P.P.Y.J.P.P.Y.Y.J.J.P.P.P.P.P.P.P.P.S.S.F.F.F.F.S.S.F.F.F.F.",
"8.8.8.8.8.8.8.8.8.8.8.8.8.8.8.8.8.8.8.8.8.8.9.9.e.e.e.e.e.e.e.q.e.q.q.q.q.q.e.e.q.q.e.e.8.e.8.8.8.9.e.e.q.e.9.e.e.e.9.9.9.9.e.e.9.9.9.9.e.e.8.8.e.9.9.e.e.e.e.e.8.8.8.8.8.9.9.9.9.9.e.e.e.q.e.e.e.e.q.q.e.e.e.q.q.q.q.q.q.q.q.q.q.q.q.q.q.q.q.q.q.q.q.q.q.q.q.q.e.e.q.q.q.q.e.e.q.q.q.q.e.q.q.q.e.e.e.e.e.e.q.q.q.q.q.e.e.e.e.e.e.e.e.e.e.e.e.e.e.e.e.e.e.e.e.e.e.e.e.e.t.e.e.e.e.e.e.e.e.e.e.e.e.e.e.e.e.e.e.e.e.e.e.e.e.e.e.e.e.e.e.e.e.e.e.e.e.e.e.e.e.e.e.e.e.e.e.e.e.e.e.e.e.e.e.e.e.e.e.t.e.e.e.e.e.e.e.e.e.e.t.t.t.t.t.t.e.e.t.t.t.t.e.e.t.t.t.t.t.t.t.t.t.t.t.t.t.t.t.t.t.t.t.t.t.t.t.t.t.t.t.t.t.t.t.t.t.t.t.t.t.t.t.t.t.t.t.t.t.t.t.t.t.t.t.t.t.t.t.t.t.t.t.t.t.t.t.t.t.t.t.t.t.t.t.t.t.t.t.t.t.t.t.t.t.z.t.t.t.t.z.z.z.z.z.z.z.z.z.z.z.z.z.z.z.z.z.t.z.z.z.z.z.z.z.z.z.z.F.F.U.F.z.z.z.z.z.U.S.U.U.U.P.F.z.n.F.F.F.F.U.U.n.n.F.F.P.P.F.F.F.U.U.F.F.F.F.F.F.F.F.F.F.F.F.F.F.F.F.F.F.F.F.F.P.P.P.P.P.P.Y.Y.P.P.P.P.J.J.P.P.F.F.P.P.P.P.S.F.F.F.F.S.S.S.F.F.F.F.",
"8.8.8.8.8.8.8.8.8.8.8.8.8.8.8.8.8.8.8.8.8.8.8.8.e.e.e.9.e.e.e.q.e.q.q.q.q.e.e.e.q.q.9.e.8.8.8.8.8.9.e.e.q.e.e.e.e.e.9.9.9.9.e.e.8.9.9.9.e.e.8.8.e.9.e.e.e.e.e.e.9.8.8.8.8.9.9.9.9.9.9.e.e.e.e.q.e.e.e.q.e.e.e.q.q.q.q.q.q.q.q.q.q.q.q.q.q.q.q.q.q.q.q.q.q.q.q.q.e.e.q.q.q.q.q.q.q.q.q.q.q.q.q.q.e.e.e.e.e.e.e.e.e.e.e.e.e.e.e.q.e.e.e.e.e.e.e.e.e.e.e.e.e.e.e.e.e.e.e.e.t.e.e.e.e.e.e.e.e.e.e.e.e.e.e.e.e.e.e.e.e.e.e.e.e.e.e.e.e.e.e.e.e.e.e.e.e.e.e.e.e.e.e.e.e.e.e.e.e.e.e.e.e.e.e.e.e.e.e.t.e.e.e.e.e.e.e.e.e.e.e.e.t.t.t.t.t.t.t.t.t.t.t.t.t.t.t.t.t.t.t.t.t.t.t.t.t.t.t.t.t.t.t.t.t.t.t.t.t.t.t.t.t.t.t.t.t.t.t.t.t.t.t.t.t.t.t.t.t.t.t.t.t.t.t.t.t.t.t.t.t.t.t.t.t.t.t.t.t.t.t.t.t.t.t.t.t.t.t.t.t.t.t.t.t.t.t.t.t.t.z.z.z.z.z.z.z.z.z.z.z.z.z.z.z.z.z.t.t.t.z.z.t.t.t.t.z.z.F.U.U.F.z.z.z.z.z.U.S.U.U.U.F.F.F.F.F.F.F.F.U.U.S.z.z.z.U.U.z.F.F.U.U.F.F.z.F.F.F.F.F.F.F.F.P.P.P.P.P.P.P.P.F.F.P.P.P.P.P.P.J.J.P.P.P.P.P.J.P.P.P.F.P.P.P.P.S.F.F.F.S.S.S.S.F.F.F.F.",
"8.8.8.8.8.8.8.8.8.8.8.8.8.8.8.8.8.8.8.8.8.e.9.9.9.9.9.9.e.e.e.q.q.q.q.q.e.e.e.e.q.q.8.9.9.e.8.8.8.9.e.e.9.e.e.e.e.e.e.e.e.e.e.e.8.8.8.8.8.9.9.9.9.8.8.8.e.e.e.e.8.8.e.e.e.9.e.e.e.e.e.e.q.q.q.q.e.e.e.e.9.9.e.e.q.q.q.q.q.q.q.q.q.q.q.q.q.q.q.q.q.q.q.q.q.q.q.q.e.q.q.q.q.q.q.q.e.e.e.e.e.e.e.e.e.e.e.q.q.q.q.q.e.e.e.e.e.e.e.e.e.e.e.e.e.e.e.e.q.e.e.e.e.e.e.e.e.e.e.e.e.e.e.e.e.e.e.e.e.e.e.e.e.e.e.e.e.e.e.e.e.e.e.e.e.e.e.e.e.e.e.e.e.e.e.e.e.e.e.e.e.e.e.e.e.e.e.e.e.e.e.e.e.e.e.e.e.e.e.e.e.e.e.e.e.e.e.e.e.t.t.t.t.t.t.t.t.t.t.t.e.e.t.t.t.t.t.t.t.t.t.t.t.t.t.t.t.t.t.t.t.t.t.t.t.t.t.t.t.t.t.t.t.t.t.t.t.t.t.t.t.t.t.t.t.t.t.t.t.t.t.t.t.t.t.t.t.t.t.t.t.t.t.t.t.t.t.t.t.t.t.t.t.t.t.t.t.t.t.t.t.t.t.t.t.t.t.t.t.t.t.z.t.t.z.z.z.z.z.z.z.z.z.z.z.z.z.z.z.z.z.z.z.z.z.z.z.z.z.F.U.F.F.z.z.z.P.F.F.F.U.U.U.U.U.U.U.U.U.U.S.U.U.F.F.F.U.U.U.n.n.n.F.F.F.F.F.F.F.P.P.P.P.P.P.P.P.J.Y.Y.P.P.P.P.F.P.P.P.P.F.P.P.P.P.P.P.P.P.P.P.P.P.P.P.F.F.F.F.F.F.S.S.S.S.F.F.F.F.",
"8.8.8.8.8.8.8.8.8.8.8.8.8.8.8.8.8.8.8.8.8.e.9.e.9.9.9.e.e.e.e.q.q.q.q.q.e.e.e.e.q.q.8.8.e.e.9.9.8.8.8.e.9.e.e.e.e.e.e.e.e.e.e.e.8.8.8.8.e.e.9.9.9.8.8.8.e.e.e.e.8.8.e.e.9.9.e.e.9.9.e.e.e.q.q.q.e.e.e.e.9.9.e.e.q.q.q.q.q.q.q.q.q.q.q.q.q.q.q.q.q.q.q.q.q.q.q.q.e.e.q.q.q.q.q.q.e.e.e.e.e.e.e.e.e.e.q.q.q.q.q.q.e.e.e.e.e.e.e.e.e.e.e.e.e.e.e.e.q.e.e.e.e.e.e.e.e.e.e.e.e.e.e.e.e.e.e.e.e.e.e.e.e.e.e.e.e.e.e.e.e.e.e.e.e.e.e.e.e.e.e.e.e.e.e.e.e.e.e.e.e.e.e.e.e.e.e.e.e.e.e.e.e.e.e.e.e.e.e.e.e.e.e.e.e.e.e.e.e.t.t.t.t.t.t.t.t.t.t.t.t.t.t.t.t.t.t.t.t.t.t.t.t.t.t.t.t.t.t.t.t.t.t.t.t.t.t.t.t.t.t.t.t.t.t.t.t.t.t.t.t.t.t.t.t.t.t.t.t.t.t.t.t.t.t.t.t.t.t.t.t.t.t.t.t.t.t.t.t.t.t.t.t.t.t.t.t.t.t.t.t.t.t.t.t.t.t.t.t.t.z.t.t.t.t.z.z.z.z.z.z.z.z.z.z.z.z.z.z.z.z.z.z.z.z.z.z.z.z.F.U.U.z.z.z.z.z.F.F.F.F.U.U.U.U.U.U.U.U.U.S.S.F.F.F.F.n.z.U.n.n.U.F.F.F.S.F.F.P.P.P.P.P.P.P.P.P.J.Y.Y.P.J.P.F.F.P.P.P.P.F.P.P.P.P.P.P.P.F.P.P.P.P.P.P.F.F.F.F.F.F.S.S.S.S.F.F.F.F.",
"8.8.8.8.8.8.8.8.8.8.8.8.8.8.8.8.8.8.8.8.8.e.e.e.9.e.e.e.e.e.9.q.q.q.q.q.q.q.e.q.q.q.9.e.e.e.9.9.8.9.8.e.9.9.e.q.e.e.9.9.9.9.e.e.9.8.e.e.e.e.e.e.e.e.8.8.e.9.e.e.9.9.e.e.9.9.9.9.9.9.e.e.e.e.e.e.e.e.e.e.9.9.e.e.e.e.e.e.e.e.e.q.q.q.q.q.q.q.q.q.q.q.q.q.q.q.q.q.e.q.q.q.q.q.e.e.q.e.e.e.e.e.e.q.q.q.q.q.e.e.e.e.e.e.e.e.e.e.e.e.e.e.e.e.e.e.e.e.e.q.e.e.e.e.e.e.e.e.e.e.e.e.e.e.e.e.e.e.e.e.e.e.e.e.e.e.e.e.e.e.e.e.e.e.e.e.e.e.e.e.e.e.e.e.e.e.e.e.e.e.e.e.e.e.e.e.e.e.e.e.e.e.e.e.e.e.e.e.e.e.e.e.e.e.e.e.e.e.e.e.t.t.t.t.t.t.t.t.t.t.t.t.t.t.t.t.t.t.t.t.t.t.t.t.t.t.t.t.t.t.t.t.t.t.t.t.t.t.t.t.t.t.t.t.t.t.t.t.t.t.t.t.t.t.t.t.t.t.t.t.t.t.t.t.t.t.t.t.t.t.t.t.t.t.t.t.t.t.t.t.t.t.t.t.t.t.t.t.t.t.t.t.t.t.t.t.t.t.t.t.t.t.t.t.t.z.z.z.z.z.z.z.z.z.z.z.z.z.z.z.z.z.z.z.z.z.z.z.z.z.U.P.F.F.z.z.z.F.F.F.U.U.F.F.F.F.F.F.F.F.F.S.S.S.F.F.F.F.P.F.F.F.F.F.S.S.F.F.P.P.P.P.P.P.P.P.P.P.Y.J.J.J.P.P.P.P.P.P.F.F.P.P.P.P.P.P.F.P.P.P.P.P.P.P.P.P.F.S.S.F.S.S.S.S.F.F.F.F.",
"8.8.8.8.8.8.8.8.8.8.8.8.8.8.8.8.8.8.8.8.8.e.e.e.e.e.e.e.e.e.e.q.q.q.q.q.q.q.q.q.q.q.9.e.e.e.9.9.8.8.9.e.e.e.8.e.e.e.9.9.9.9.9.e.9.9.9.e.e.e.e.e.8.8.8.8.8.8.8.8.9.9.e.e.9.9.9.9.9.9.9.e.e.e.e.e.9.9.e.e.e.9.e.e.e.e.e.e.e.e.e.q.q.q.q.q.q.q.q.q.q.q.q.q.q.q.q.q.e.q.q.q.q.e.e.e.q.e.e.e.e.e.e.q.q.q.q.q.e.e.e.e.e.e.e.e.e.e.e.e.e.e.e.e.e.e.e.e.e.q.q.q.e.e.e.e.e.e.e.e.e.e.e.e.e.e.e.e.e.e.e.e.e.e.e.e.e.e.e.e.e.e.e.e.e.e.e.e.e.e.e.e.e.e.e.e.e.e.e.e.e.e.e.e.e.e.e.e.e.e.e.e.e.e.e.e.e.e.e.e.e.e.e.e.e.e.e.e.e.e.e.e.t.t.t.t.t.t.t.t.t.t.t.t.t.t.t.t.t.t.t.t.t.t.t.t.t.t.t.t.t.t.t.t.t.t.t.t.t.t.t.t.t.t.t.t.t.t.t.t.t.t.t.t.t.t.t.t.t.t.t.t.t.t.t.t.t.t.t.t.t.t.t.t.t.t.t.t.t.t.t.t.t.t.t.t.t.t.t.t.t.t.t.t.t.t.t.t.t.t.t.t.t.t.t.t.z.z.z.z.z.z.z.z.z.z.z.z.z.z.z.z.z.z.z.z.z.z.z.z.z.z.z.F.z.z.z.z.F.F.U.U.F.F.F.F.F.F.F.F.S.S.S.F.F.F.F.F.F.F.F.F.F.F.S.S.F.F.P.P.P.P.P.F.P.P.P.J.Y.Y.J.J.P.P.P.P.P.P.P.P.P.P.P.P.P.P.F.P.P.P.P.P.P.P.P.P.S.S.S.S.S.S.S.S.F.F.F.F.",
"8.8.8.8.8.8.8.8.8.8.8.8.8.8.8.8.8.8.8.8.8.9.9.8.e.e.e.e.e.e.e.q.e.q.q.q.q.q.q.e.q.q.e.e.9.8.9.9.8.8.9.9.e.e.e.e.e.e.e.e.9.9.e.e.e.e.e.e.9.e.e.e.8.8.8.8.8.8.8.8.9.9.9.9.9.9.e.e.e.e.e.e.9.9.9.9.9.9.9.e.e.e.e.e.e.e.e.e.e.e.e.e.q.q.q.q.q.q.q.q.q.q.q.q.q.q.q.q.e.e.q.q.q.q.e.e.q.q.e.e.e.e.q.q.q.e.e.q.q.q.e.e.q.q.e.e.e.e.q.e.e.e.e.e.e.e.e.e.e.e.q.q.e.e.e.e.e.e.e.e.e.e.e.e.e.e.e.e.e.e.e.e.e.e.e.e.e.e.e.e.e.e.e.e.e.e.e.e.e.e.e.e.e.e.e.e.e.e.e.e.e.e.e.e.e.e.e.e.e.e.e.e.e.e.e.e.e.e.e.e.e.e.e.e.e.e.e.e.e.e.e.e.t.t.t.t.t.e.e.e.t.t.t.t.e.t.t.t.t.t.t.t.t.t.t.t.t.t.t.t.t.t.t.t.t.t.t.t.t.t.t.t.t.t.t.t.t.t.t.t.t.t.t.t.t.t.t.t.t.t.t.t.t.t.t.t.t.t.t.t.t.t.t.t.t.t.t.t.t.t.t.t.t.t.t.t.t.t.t.t.t.t.t.t.t.t.t.t.t.t.z.z.t.t.z.z.t.z.z.z.z.z.z.z.z.z.z.z.z.z.z.z.z.z.z.z.z.z.z.z.z.z.F.z.z.z.z.z.z.U.U.U.U.U.U.U.F.F.F.F.N.z.z.F.F.F.P.U.F.F.F.F.F.F.F.S.F.P.P.P.P.P.F.F.J.P.J.J.P.P.P.P.P.P.P.P.P.P.P.P.P.P.P.P.P.P.P.P.P.P.F.P.P.P.P.P.S.S.S.S.S.S.S.S.S.F.F.F.",
"8.8.8.8.8.8.8.8.8.8.8.8.8.8.8.8.8.8.8.8.8.9.9.8.e.e.e.e.e.e.e.q.q.q.q.q.q.q.q.q.q.q.e.e.e.9.9.8.8.8.8.e.9.9.e.e.8.8.8.8.8.8.8.8.e.9.e.e.9.e.e.e.8.8.8.8.8.8.8.8.9.9.9.9.e.9.e.e.e.e.9.e.9.9.9.e.9.9.e.e.e.9.e.e.e.e.e.e.e.e.e.e.q.q.q.q.q.q.q.q.q.q.q.q.q.q.q.q.e.e.q.q.q.q.e.e.q.q.e.e.e.e.q.q.e.e.e.e.q.q.e.e.q.q.e.e.q.e.q.q.e.e.e.e.e.e.e.e.q.q.e.e.e.e.e.e.e.e.e.e.e.e.e.e.e.e.e.e.e.e.e.e.e.e.e.e.e.e.e.e.e.e.e.e.e.e.e.e.e.e.e.e.e.e.e.e.e.e.e.e.e.e.e.e.e.e.e.e.e.e.e.e.e.e.e.e.e.e.e.e.e.e.e.e.e.e.e.e.e.e.e.e.e.e.e.t.t.t.e.e.t.t.t.t.e.e.e.t.t.t.t.t.t.t.t.t.t.t.t.t.t.t.t.t.t.t.t.t.t.t.t.t.t.t.t.t.t.t.t.t.t.t.t.t.t.t.t.t.t.t.t.t.t.t.t.t.t.t.t.t.t.t.t.t.t.t.t.t.t.t.t.t.t.t.t.t.t.t.t.t.t.t.t.t.t.t.t.t.t.t.t.z.t.t.t.z.t.t.t.z.z.z.z.z.z.z.z.z.z.z.z.z.z.z.z.z.z.z.z.z.z.z.z.z.z.z.z.z.z.z.F.U.U.U.U.U.F.F.F.F.n.U.F.F.F.F.F.U.F.F.F.F.F.F.F.S.P.P.P.P.P.P.F.F.J.J.J.J.J.P.P.P.P.P.P.P.P.P.P.P.P.P.P.P.P.P.P.P.P.P.P.P.P.P.P.P.S.S.S.S.S.S.S.S.S.F.F.F.",
"8.8.8.8.8.8.8.8.8.8.8.8.8.8.8.8.8.8.8.8.8.e.8.8.9.9.e.e.e.e.e.e.q.q.q.q.q.q.q.q.q.q.q.8.9.9.e.9.8.8.8.e.9.e.e.8.8.8.9.9.e.e.9.9.8.8.8.8.9.9.e.e.8.8.8.8.8.8.8.8.9.9.9.9.9.9.e.e.9.e.9.9.9.e.e.e.e.e.e.e.9.9.9.e.e.e.9.e.9.9.e.e.q.q.q.q.q.q.q.q.q.q.q.q.q.q.q.q.e.e.e.e.q.e.e.e.q.q.q.e.e.q.q.q.e.e.e.e.q.q.q.e.q.e.e.e.q.q.q.q.e.e.e.e.e.e.e.e.q.q.e.e.e.q.q.e.e.e.e.e.e.e.e.e.e.e.e.e.e.e.e.e.e.e.e.e.q.q.q.q.e.e.e.e.e.e.e.e.e.e.e.e.e.e.e.e.e.e.e.e.e.e.e.e.e.e.e.e.e.e.e.e.e.e.e.e.e.e.e.e.e.e.e.e.e.e.e.e.e.e.e.e.e.e.e.e.t.t.t.t.t.t.t.t.e.e.e.t.t.t.t.t.t.t.t.t.t.t.t.t.t.t.t.t.t.t.t.t.t.t.t.t.t.t.t.t.t.t.t.t.t.t.t.t.t.t.t.t.t.t.t.t.t.t.t.t.t.t.t.t.t.t.t.t.t.t.t.t.t.t.t.t.t.t.t.t.t.t.t.t.t.t.t.t.t.t.t.t.t.z.z.z.t.t.t.z.t.t.t.t.z.z.z.z.z.z.z.z.z.z.z.z.z.z.z.z.z.z.z.z.z.F.z.z.z.z.z.F.z.z.z.z.z.z.z.z.z.z.z.z.n.n.F.F.F.F.U.U.U.n.F.F.F.F.F.F.P.P.P.P.P.P.P.z.P.P.U.U.U.U.P.P.P.P.P.F.P.P.P.F.P.P.P.P.F.F.P.P.P.P.P.P.P.P.P.P.S.S.S.S.S.S.S.S.S.S.S.S.",
"8.8.8.8.8.8.8.8.8.8.8.8.8.8.8.8.8.8.8.8.8.e.8.8.9.9.e.e.e.e.e.e.q.q.q.q.q.q.q.q.q.q.e.8.8.8.e.e.8.8.8.e.9.9.9.8.8.8.9.9.e.e.e.e.8.8.8.8.8.8.e.e.8.8.8.8.8.8.8.8.9.9.9.9.9.e.q.e.9.9.9.9.9.9.9.e.e.e.e.e.9.9.9.e.e.e.9.9.9.9.9.e.q.q.q.q.q.q.q.q.q.q.q.q.q.q.q.q.e.e.e.e.q.q.e.e.q.q.e.e.e.e.q.q.e.e.e.e.q.q.q.e.e.e.e.e.q.q.q.q.e.e.e.e.e.e.e.e.q.q.q.e.e.e.q.e.e.e.e.e.e.q.q.q.e.e.e.e.e.e.e.e.e.e.e.e.e.e.e.q.e.e.e.e.e.e.e.e.e.e.e.e.e.e.e.e.e.e.e.e.e.e.e.e.e.e.e.e.e.e.e.e.e.e.e.e.e.e.e.e.e.e.e.e.e.e.e.e.e.e.e.e.e.e.e.e.t.t.t.t.t.t.t.t.e.e.e.e.t.t.t.t.t.t.t.t.t.t.t.t.t.t.t.t.t.t.t.t.t.t.t.t.t.t.t.t.t.t.t.t.t.t.t.t.t.t.t.t.t.t.t.t.t.t.t.t.t.t.t.t.t.t.t.t.t.t.t.t.t.t.t.t.t.t.t.t.t.t.t.t.t.t.t.t.t.t.t.t.z.z.z.z.t.t.t.t.t.t.t.t.z.z.z.z.z.z.z.z.z.z.z.z.z.z.z.z.z.z.z.z.z.z.z.z.z.z.z.z.z.z.z.z.z.z.z.z.z.z.z.z.F.F.F.F.F.F.U.U.U.n.z.z.F.F.F.F.P.P.P.P.P.P.P.z.P.U.U.U.U.U.P.P.P.P.F.F.P.P.P.F.P.P.P.P.F.F.P.P.P.P.P.P.P.P.P.P.S.S.S.S.S.S.S.S.S.S.S.S.",
"8.8.8.8.8.8.8.8.8.8.8.8.8.8.8.8.8.8.8.8.8.8.8.8.e.e.9.8.8.9.9.e.e.q.e.9.9.9.e.e.e.e.q.q.q.q.e.e.8.8.e.e.e.e.e.e.q.q.q.q.q.q.q.8.8.8.8.e.e.9.9.8.8.8.8.8.8.8.8.8.8.8.8.8.8.8.8.8.8.8.9.q.9.q.q.q.8.e.q.q.q.q.q.q.q.q.q.q.q.q.q.q.q.q.q.q.q.q.q.q.q.q.q.q.q.q.q.q.e.e.e.e.q.q.q.q.q.q.e.e.e.q.q.q.q.q.e.e.e.e.q.q.e.e.e.q.q.e.e.e.q.e.e.e.q.q.q.q.e.q.q.q.e.e.e.e.e.e.e.e.q.q.q.q.e.e.e.e.e.e.e.e.e.e.e.e.e.e.e.e.e.e.e.e.e.e.e.e.e.e.e.e.e.e.e.e.e.e.e.e.e.e.e.e.e.e.e.e.e.e.e.e.e.e.e.e.e.e.e.e.e.e.e.e.e.e.e.e.e.e.e.e.e.e.e.e.e.e.e.t.t.t.t.t.t.t.t.t.t.t.t.t.e.t.t.t.t.t.t.t.t.t.t.t.t.t.t.t.e.e.e.e.t.t.t.t.t.t.t.t.t.t.t.t.t.t.t.t.t.t.t.t.t.t.t.t.t.t.t.t.t.t.t.t.t.t.t.t.t.t.t.t.t.t.t.t.t.t.t.t.t.t.t.t.t.t.t.t.z.z.z.z.z.z.t.t.t.z.z.z.t.t.z.z.z.z.z.z.z.z.z.z.z.z.z.z.z.z.z.z.z.z.z.z.z.z.z.z.F.z.z.z.z.z.z.F.F.F.z.z.F.F.S.S.F.F.S.S.F.F.F.F.F.F.F.F.F.f.f.P.P.P.P.P.P.P.P.P.P.P.P.P.P.F.H.H.H.H.F.P.F.P.P.P.F.H.H.P.P.U.S.S.S.S.S.S.U.U.U.U.U.U.U.U.F.F.F.F.",
"8.8.8.8.8.8.8.8.8.8.8.8.8.8.8.8.8.8.8.8.8.8.8.8.e.e.9.9.8.8.9.9.e.e.e.9.9.9.q.8.e.e.q.q.q.q.e.e.8.8.8.e.e.e.e.e.q.q.q.q.q.q.q.8.8.8.8.e.e.e.9.8.8.8.8.8.8.8.8.8.8.8.8.8.8.8.8.8.8.8.8.9.9.9.9.q.8.e.9.q.q.q.q.q.q.q.q.q.q.q.q.q.q.q.q.q.q.q.q.q.q.q.q.q.q.q.q.q.e.e.e.e.q.q.q.q.q.q.e.e.e.q.q.q.q.q.q.e.e.q.q.q.e.e.e.q.q.e.e.e.q.e.e.e.q.q.q.q.e.q.q.q.e.e.e.e.e.e.e.e.e.q.q.q.e.e.e.e.e.e.e.e.e.e.e.e.e.e.e.e.e.e.e.e.e.e.e.e.e.e.e.e.e.e.e.e.e.e.e.e.e.e.e.e.e.e.e.e.e.e.e.e.e.e.e.e.e.e.e.e.e.e.e.e.e.e.e.e.e.e.e.e.e.e.e.e.e.e.e.t.t.t.t.t.t.t.t.t.t.t.t.t.e.t.t.t.t.t.t.t.t.t.t.t.t.t.t.t.e.e.e.e.t.t.t.t.t.t.t.t.t.t.t.t.t.t.t.t.t.t.t.t.t.t.t.t.t.t.t.t.t.t.t.t.t.t.t.t.t.t.t.t.t.t.t.t.t.t.t.t.t.t.t.t.t.t.t.t.z.z.z.z.z.t.t.t.t.z.z.z.t.t.z.z.z.z.z.z.z.z.z.z.z.z.z.z.z.z.z.z.z.z.z.z.z.z.z.z.F.F.z.z.z.z.F.F.F.F.z.z.F.F.F.S.F.F.F.S.F.F.S.S.F.F.F.F.F.f.f.P.P.P.P.P.P.P.P.P.P.P.P.P.F.F.H.F.H.H.J.P.F.F.P.P.H.H.H.F.G.G.S.S.S.S.S.S.U.U.U.U.U.U.U.U.F.F.F.F.",
"8.8.8.8.8.8.8.8.8.8.8.8.8.8.8.8.8.8.8.8.8.8.8.8.e.e.e.9.e.e.e.e.e.e.e.e.9.8.8.8.8.9.q.q.q.q.8.8.8.8.8.9.8.8.9.9.8.8.8.8.8.8.8.8.8.8.8.e.9.9.8.8.8.8.8.8.8.8.8.8.8.8.8.8.8.8.8.8.8.8.8.q.q.q.q.q.8.e.e.q.q.q.q.9.q.q.q.q.q.q.q.q.q.q.q.q.q.q.q.q.q.q.q.q.q.q.q.q.e.q.e.e.q.q.e.q.q.q.e.e.e.e.q.q.q.q.e.e.e.e.q.q.e.e.q.q.q.e.e.e.q.q.e.e.e.e.q.q.e.e.q.q.e.e.e.e.e.e.e.e.e.q.q.q.e.e.e.e.e.e.e.e.e.e.e.e.e.e.e.e.e.e.e.e.e.e.e.e.e.e.e.e.e.e.e.e.e.e.e.e.e.e.e.e.e.e.e.e.e.e.e.e.e.e.e.e.e.e.e.e.e.e.e.e.e.e.e.e.e.e.e.e.e.e.e.e.e.e.e.t.t.t.t.t.t.e.t.t.t.t.e.e.e.t.t.t.t.t.t.t.t.t.t.t.e.t.e.t.e.e.e.e.t.t.t.t.t.t.t.t.t.t.t.t.t.t.t.t.t.t.t.t.t.t.t.t.t.t.t.t.t.t.t.t.t.t.t.t.t.t.t.t.t.t.t.t.t.t.t.t.t.t.t.t.t.t.t.t.z.t.t.z.z.z.t.t.t.t.z.z.t.t.z.z.z.z.z.z.z.z.z.z.z.z.z.z.z.z.z.z.z.z.z.z.z.z.z.z.z.z.z.z.z.z.z.z.z.z.z.z.F.F.F.S.F.F.F.F.F.S.S.S.S.S.F.F.F.F.F.P.P.P.P.F.F.F.P.P.P.P.P.P.F.F.F.F.P.P.P.P.F.F.F.F.F.F.F.F.G.G.S.S.S.S.S.S.U.U.U.U.U.U.U.U.F.F.F.F.",
"8.8.8.8.8.8.8.8.8.8.8.8.8.8.8.8.8.8.8.8.8.8.8.8.8.8.8.8.8.8.8.8.8.8.8.8.8.8.8.8.8.9.9.q.q.e.e.8.8.8.8.8.8.8.8.8.8.8.8.8.8.8.8.8.8.8.e.e.q.q.8.8.8.8.8.8.8.8.8.8.8.8.8.8.8.8.8.8.8.8.8.8.q.q.q.q.8.8.e.q.q.q.q.q.q.q.q.q.q.q.q.q.q.q.q.q.q.q.q.q.q.q.q.q.q.q.q.q.q.q.e.e.e.q.e.e.q.q.e.e.e.e.q.q.q.q.e.e.e.e.q.q.e.e.q.q.q.q.e.e.q.q.e.e.e.e.q.e.e.e.q.q.e.e.e.e.e.e.e.e.e.e.q.q.e.e.e.e.e.e.e.e.e.e.e.e.e.e.e.e.e.e.e.e.e.e.e.e.e.e.e.e.e.e.e.e.e.e.e.e.e.e.e.e.e.e.e.e.e.e.e.e.e.e.e.e.e.e.e.e.e.e.e.e.e.e.e.e.e.e.e.e.e.e.e.e.e.e.e.t.t.t.t.t.t.e.e.e.t.t.e.t.e.t.t.t.t.t.t.t.t.t.t.t.e.t.t.t.e.e.e.e.t.t.t.t.t.t.t.t.t.t.t.t.t.t.t.t.t.t.t.t.t.t.t.t.t.t.t.t.t.t.t.t.t.t.t.t.t.t.t.t.t.t.t.t.t.t.t.t.t.t.t.t.t.t.t.t.t.t.t.t.z.z.t.t.t.t.z.z.t.t.z.z.z.z.z.z.z.z.z.z.z.z.z.z.t.z.z.z.F.z.z.z.z.z.z.z.z.z.z.z.z.z.z.z.z.z.z.z.F.F.F.F.F.F.F.F.F.S.S.S.S.F.F.F.F.F.F.P.P.P.P.P.F.F.P.P.F.F.F.P.F.F.F.F.P.P.P.P.F.F.F.F.F.F.F.F.G.G.S.S.S.S.S.S.U.U.U.U.U.U.U.U.F.F.F.F.",
"8.8.8.8.8.8.8.8.8.8.8.8.8.8.8.8.8.8.8.8.8.8.8.8.8.8.8.8.8.8.8.8.8.8.8.8.8.8.8.8.8.9.e.q.q.e.9.8.8.8.8.8.8.9.9.9.8.8.8.8.8.8.8.9.9.9.9.q.q.q.e.e.8.8.8.8.8.8.8.8.8.8.8.8.8.8.8.8.8.8.8.8.8.q.q.q.8.8.8.9.q.q.8.8.q.q.q.q.q.q.q.q.q.q.q.q.q.q.q.q.q.q.q.q.q.q.q.q.q.q.q.q.e.e.e.e.e.e.e.e.e.e.e.e.q.e.e.e.e.e.e.q.e.e.q.q.e.e.e.e.q.q.q.e.e.e.e.e.e.e.e.e.e.e.e.e.e.e.e.e.e.q.q.q.e.e.e.e.e.e.e.e.e.e.e.e.e.e.e.e.e.e.e.e.e.e.e.e.e.e.e.e.e.e.e.e.e.e.e.e.e.e.e.e.e.e.e.e.e.e.e.e.e.e.e.e.e.e.e.e.e.e.e.e.e.e.e.e.e.e.e.e.e.e.e.e.e.e.e.t.e.e.t.t.t.t.e.e.e.t.t.t.t.t.t.t.t.t.t.t.t.t.t.t.t.t.t.t.e.e.e.e.t.t.t.t.t.t.t.t.t.t.t.t.t.t.t.t.t.t.t.t.t.t.t.t.t.t.t.t.t.t.t.t.t.t.t.t.t.t.t.t.t.t.t.t.t.t.t.t.t.t.t.t.t.t.t.t.t.t.t.t.z.t.t.t.t.t.t.z.t.z.z.z.z.z.z.z.z.z.z.z.z.z.z.z.t.z.z.z.z.z.z.z.z.z.z.z.z.F.F.F.F.F.F.z.z.z.F.F.z.F.F.F.F.F.F.F.S.S.S.S.S.S.F.F.F.F.F.P.P.P.P.P.P.P.P.P.F.F.P.P.F.F.F.F.P.F.F.F.P.F.F.F.F.F.F.F.S.S.S.S.S.S.S.S.U.U.U.U.U.U.U.U.F.F.S.S.",
"8.8.8.8.8.8.8.8.8.8.8.8.8.8.8.8.8.8.8.8.8.8.8.8.8.8.8.8.8.8.8.8.8.8.8.8.8.8.8.8.8.8.e.e.e.e.8.8.8.8.8.8.8.8.8.e.8.8.8.8.8.8.8.9.9.q.q.q.q.q.q.e.9.9.8.8.8.8.8.8.8.8.8.8.8.8.8.8.8.8.8.8.8.8.8.q.8.8.8.8.e.9.9.8.q.q.q.q.q.q.q.q.q.q.q.q.q.q.q.q.q.q.q.q.q.q.q.q.q.q.q.q.e.e.e.e.e.e.e.e.e.e.e.e.q.e.e.e.e.e.q.q.q.q.q.q.q.q.q.q.q.q.e.e.e.e.e.e.e.e.e.e.e.e.e.e.e.e.e.e.e.e.e.e.e.e.e.e.e.e.e.e.e.e.e.e.e.e.e.e.e.e.e.e.e.e.e.e.e.e.e.e.e.e.e.e.e.e.e.e.e.e.e.e.e.e.e.e.e.e.e.e.e.e.e.e.e.e.e.e.e.e.e.e.e.e.e.e.e.e.e.e.e.e.e.e.e.e.e.t.t.t.t.t.t.t.t.t.t.t.t.t.t.t.e.e.e.t.t.t.t.t.t.t.t.t.t.t.e.e.e.e.t.t.t.t.t.t.t.t.t.t.t.t.t.t.t.t.t.t.t.t.t.t.t.t.t.t.t.t.t.t.t.t.t.t.t.t.t.t.t.t.t.t.t.t.t.t.t.t.t.t.t.t.t.t.t.t.t.t.t.t.z.z.t.t.t.t.t.t.t.t.z.z.z.z.z.z.z.z.z.z.z.z.z.z.t.z.z.z.z.z.z.z.z.z.z.z.z.F.F.F.F.F.F.z.z.z.z.F.z.z.z.F.F.F.F.F.F.S.S.S.S.S.F.F.F.F.F.P.P.P.P.P.P.P.P.P.P.F.P.P.P.F.F.F.F.F.F.F.F.P.F.F.F.F.F.F.F.F.F.F.F.F.F.F.U.U.U.U.U.U.U.U.F.F.S.S.",
"8.8.8.8.8.8.8.8.8.8.8.8.8.8.8.8.8.8.8.8.8.8.8.8.8.8.8.8.8.8.8.8.8.8.8.8.8.8.8.8.9.8.q.e.9.9.8.8.8.8.8.8.8.8.8.8.8.8.8.8.8.8.9.9.9.q.9.q.q.q.q.q.9.9.e.e.e.e.8.8.8.8.8.8.8.8.8.8.8.8.8.8.8.8.8.8.8.8.8.e.e.e.8.8.q.q.q.q.q.q.q.q.q.q.q.q.q.q.q.q.q.q.q.q.q.q.q.q.e.e.e.e.e.e.q.q.e.e.e.e.e.e.e.e.e.e.e.e.e.e.e.e.q.q.q.q.q.q.q.q.e.e.e.e.e.e.q.q.q.q.q.q.e.e.e.e.e.e.e.e.e.e.e.e.e.e.e.e.e.e.e.e.e.e.e.e.e.e.e.e.e.e.e.e.e.e.e.e.e.e.e.e.e.e.e.e.e.e.e.e.e.e.e.e.e.e.e.e.e.e.e.e.e.e.e.e.e.e.e.e.e.e.e.e.e.e.e.e.e.e.e.e.e.e.e.e.e.e.e.t.e.e.t.t.t.t.t.t.t.t.t.t.t.e.e.e.e.t.t.t.t.t.t.t.t.t.t.t.e.e.e.e.t.t.t.t.t.t.t.t.t.t.t.t.t.t.t.t.t.t.t.t.t.t.t.t.t.t.t.t.t.t.t.t.t.t.t.t.t.t.t.t.t.t.t.t.t.t.t.t.t.t.t.t.t.t.t.t.t.t.z.z.t.t.t.t.t.t.t.t.z.z.z.z.z.z.z.z.z.z.z.z.z.z.z.z.t.z.z.z.z.z.z.z.z.z.z.z.z.z.F.F.F.F.z.z.z.z.F.F.z.H.H.H.H.H.H.H.H.H.F.S.F.F.F.F.F.F.F.P.P.P.P.P.P.P.P.P.P.P.P.P.P.P.F.F.F.F.F.F.F.P.F.F.F.F.F.F.F.F.S.F.S.S.F.F.U.U.U.U.U.U.U.U.F.F.S.S.",
"8.8.8.8.8.8.8.8.8.8.8.8.8.8.8.8.8.8.8.8.8.8.8.8.8.8.8.8.8.8.8.8.8.8.8.8.8.8.8.8.8.8.q.e.9.9.8.8.8.8.8.8.8.8.8.8.8.8.8.8.8.8.9.9.9.q.q.q.q.q.q.q.9.9.e.e.e.e.8.9.8.8.8.8.8.8.8.8.8.8.8.8.8.8.8.8.8.8.8.e.e.e.8.8.q.q.q.q.q.q.q.q.q.q.q.q.q.q.q.q.q.q.q.q.q.q.q.q.e.e.e.e.e.q.q.q.e.e.e.e.e.e.e.e.e.e.e.e.e.e.e.e.q.q.q.q.q.q.q.q.e.e.e.e.e.e.e.q.q.q.q.q.e.e.e.e.e.e.e.e.e.e.e.e.e.e.e.e.e.e.e.e.e.e.e.e.e.e.e.e.e.e.e.e.e.e.e.e.e.e.e.e.e.e.e.e.e.e.e.e.e.e.e.e.e.e.e.e.e.e.e.e.e.e.e.e.e.e.e.e.e.e.e.e.e.e.e.e.e.e.e.e.e.e.e.e.e.e.e.t.t.t.t.t.t.t.t.t.t.t.t.t.t.e.e.e.e.e.t.t.t.t.t.t.t.t.t.t.e.e.e.e.t.t.t.t.t.t.t.t.t.t.t.t.t.t.t.t.t.t.t.t.t.t.t.t.t.t.t.t.t.t.t.t.t.t.t.t.t.t.t.t.t.t.t.t.t.t.t.t.t.t.t.t.t.t.t.t.t.t.z.z.t.t.t.t.t.t.t.t.z.z.z.z.z.z.z.z.z.z.z.z.z.z.z.z.z.z.z.z.z.z.z.z.z.z.z.z.z.z.F.F.z.z.z.z.z.z.z.F.z.H.H.H.H.H.H.H.H.H.F.F.F.F.F.F.F.F.F.P.P.P.P.P.P.P.P.P.P.P.P.P.P.P.F.F.F.F.F.F.P.F.F.F.F.F.F.F.F.F.S.S.S.S.F.F.U.U.U.U.U.U.U.U.F.F.S.S.",
"8.8.8.8.8.8.8.8.8.8.8.8.8.8.8.8.8.8.8.8.8.8.8.8.8.8.8.8.8.8.8.8.8.8.8.8.8.8.8.8.8.8.8.8.8.8.8.8.e.8.8.8.8.8.8.8.8.8.8.8.9.q.q.q.q.q.q.q.q.q.q.q.q.q.q.q.e.e.e.9.8.8.8.8.8.8.8.8.8.8.8.8.8.8.8.8.8.8.8.8.8.e.9.9.q.q.q.q.q.q.q.q.q.q.q.q.q.q.q.q.q.q.q.q.e.e.e.q.e.e.q.q.e.e.e.e.e.e.e.e.e.e.e.e.q.q.e.e.e.e.e.e.q.q.q.q.q.q.q.q.q.q.q.e.e.e.e.e.q.q.q.q.e.e.e.e.e.e.e.e.e.e.e.e.e.e.e.e.e.e.e.e.e.e.e.e.e.e.e.e.e.e.e.e.e.e.e.e.e.e.e.e.e.e.e.e.e.e.e.e.e.e.e.e.e.e.e.e.e.e.e.e.e.e.e.e.e.e.e.e.e.e.e.e.e.e.e.e.e.e.e.e.e.e.e.e.e.e.e.t.t.t.t.t.t.t.t.t.t.t.t.t.t.e.e.e.e.e.t.t.t.t.t.t.t.t.t.t.e.e.e.e.t.t.t.t.t.t.t.t.t.t.t.t.t.t.t.t.t.t.t.t.t.t.t.t.t.t.t.t.t.t.t.t.t.t.t.t.t.t.t.t.t.t.t.t.t.t.t.t.t.t.t.t.t.t.t.t.t.t.z.z.t.t.t.t.t.t.t.t.t.t.z.z.z.z.z.z.z.z.z.z.z.z.z.z.z.z.z.z.z.z.F.F.z.z.z.U.U.U.F.z.z.z.z.z.z.z.z.F.F.H.H.H.H.H.H.H.H.H.F.F.F.H.S.S.U.U.U.U.U.U.U.U.U.U.U.U.U.U.U.U.U.S.S.S.S.S.S.S.S.S.S.S.S.S.S.S.G.S.S.F.F.F.F.F.U.U.U.U.U.U.U.U.F.F.F.F.",
"8.8.8.8.8.8.8.8.8.8.8.8.8.8.8.8.8.8.8.8.8.8.8.8.8.8.8.8.8.8.8.8.8.8.8.8.8.8.8.8.8.8.8.8.8.8.8.8.e.8.8.8.8.8.8.e.8.8.8.8.q.q.q.q.q.q.e.q.q.q.q.q.q.q.q.q.e.e.9.9.8.8.8.8.8.8.8.8.8.8.8.8.8.8.8.8.8.8.8.8.e.e.9.9.q.q.q.q.q.q.q.q.q.q.q.q.q.q.q.q.q.q.q.q.e.e.e.q.e.e.q.q.e.e.e.e.e.e.e.e.e.e.e.e.q.q.e.e.e.e.e.e.q.q.q.q.q.q.q.q.q.q.e.e.e.e.e.e.q.q.q.q.e.e.e.e.e.e.e.e.e.e.e.e.e.e.e.e.e.e.e.e.e.e.e.e.e.e.e.e.e.e.e.e.e.e.e.e.e.e.e.e.e.e.e.e.e.e.e.e.e.e.e.e.e.e.e.e.e.e.e.e.e.e.e.e.e.e.e.e.e.e.e.e.e.e.e.e.e.e.e.e.e.e.e.e.e.e.e.t.t.t.t.t.t.t.t.t.t.t.t.t.t.e.e.e.e.e.t.t.t.t.t.t.t.t.t.t.e.e.e.e.t.t.t.t.t.t.t.t.t.t.t.t.t.t.t.t.t.t.t.t.t.t.t.t.t.t.t.t.t.t.t.t.t.t.t.t.t.t.t.t.t.t.t.t.t.t.t.t.t.t.t.t.t.t.t.t.t.t.z.z.z.z.t.t.t.t.t.t.t.z.z.z.z.z.z.z.z.z.z.z.z.z.z.z.z.z.z.z.z.z.F.F.z.z.z.U.U.U.z.z.z.z.z.z.z.z.z.F.H.H.H.H.H.H.H.H.H.H.F.F.H.H.S.S.S.U.U.U.U.U.U.U.U.U.U.U.U.U.U.U.S.S.S.S.S.S.S.S.S.S.S.S.S.S.S.S.S.S.S.F.F.F.F.F.U.U.U.U.U.U.U.U.F.F.F.F.",
"8.8.8.8.8.8.8.8.8.8.8.8.8.8.8.8.8.8.8.8.8.8.8.8.8.8.8.8.e.e.8.8.8.8.8.8.8.8.8.8.8.8.8.8.8.8.8.8.8.8.8.8.8.8.8.q.8.8.8.8.q.q.q.q.9.9.e.q.q.q.q.q.q.q.q.q.e.e.q.8.8.8.8.8.8.8.8.8.8.8.8.8.8.8.8.8.8.8.8.8.e.e.e.9.q.q.q.q.q.q.q.q.q.q.q.q.q.q.q.q.e.q.q.q.q.q.q.q.e.q.q.q.e.e.e.e.e.e.e.e.e.e.e.e.q.q.q.e.q.q.e.q.q.q.q.q.q.q.q.q.q.q.q.q.q.q.e.e.q.q.e.e.e.e.e.e.e.e.e.e.e.e.e.e.e.e.e.e.e.e.e.e.e.e.e.e.e.e.e.e.e.e.e.e.e.e.e.e.e.e.e.e.e.e.e.e.e.e.e.e.e.e.e.e.e.e.e.e.e.e.e.e.e.e.e.e.e.e.e.e.e.e.e.e.e.e.e.e.e.e.e.e.e.e.e.e.e.e.e.t.t.t.t.t.t.t.t.t.t.e.t.t.t.e.e.e.e.e.t.t.t.t.t.t.t.t.t.t.e.e.e.e.t.t.t.t.t.t.t.t.t.t.t.t.t.t.t.t.t.t.t.t.t.t.t.t.t.z.t.t.t.t.t.t.t.t.t.t.t.t.t.t.t.t.t.t.t.t.t.t.t.t.t.t.t.t.t.t.t.t.t.z.z.z.z.z.z.z.t.t.z.z.z.z.z.z.z.z.z.z.z.z.z.z.z.z.z.z.z.z.z.z.z.F.z.z.z.z.U.U.z.F.F.F.z.z.z.z.z.F.H.H.H.H.H.H.H.H.H.H.H.H.H.H.S.S.F.U.U.U.U.U.U.U.U.U.U.U.U.U.U.U.S.S.S.S.S.S.S.S.S.S.S.S.S.S.S.S.G.G.F.F.F.F.F.F.F.U.U.U.U.U.U.U.F.F.F.F.",
"8.8.8.8.8.8.8.8.8.8.8.8.8.8.8.8.8.8.8.8.8.8.8.8.8.8.8.e.e.e.8.8.8.8.8.8.8.8.8.8.8.8.8.8.8.8.8.8.8.8.8.8.8.8.q.9.8.8.8.e.q.q.q.q.q.q.q.q.q.q.q.q.q.q.q.q.e.e.e.8.8.8.8.8.8.8.8.8.8.8.8.8.8.8.8.8.8.8.8.9.e.e.e.q.q.q.q.q.q.q.q.q.q.q.q.q.q.q.q.q.e.q.q.q.q.q.q.q.e.q.q.q.e.e.e.e.e.e.e.e.e.e.e.e.q.q.q.q.q.q.q.q.q.q.q.q.q.q.q.q.q.q.q.q.q.q.e.e.e.e.e.e.e.e.e.e.e.e.e.e.e.e.e.e.e.e.e.e.e.e.e.e.e.e.e.e.e.e.e.e.e.e.e.e.e.e.e.e.e.e.e.e.e.e.e.e.e.e.e.e.e.e.e.e.e.e.e.e.e.e.e.e.e.e.e.e.e.e.e.e.e.e.e.e.e.e.e.e.e.e.e.e.e.e.e.e.e.e.e.t.t.t.t.t.t.t.t.t.e.e.t.t.t.e.e.e.e.e.t.t.t.t.t.t.t.t.t.t.e.e.e.e.t.t.t.t.t.t.t.t.t.t.t.t.t.t.t.t.t.t.t.t.t.t.t.t.t.t.t.t.t.t.t.t.t.t.t.t.t.t.t.t.t.t.t.t.t.t.t.t.t.t.t.t.t.t.t.t.t.t.z.z.z.z.z.z.z.z.z.t.z.z.z.z.z.z.z.z.z.z.z.z.z.z.z.z.z.z.z.z.z.z.z.z.z.z.z.z.z.z.z.F.F.F.z.z.z.z.z.F.H.H.H.H.H.H.H.H.H.H.H.H.H.H.H.S.F.F.F.U.U.U.U.U.U.U.U.U.U.U.U.U.S.S.S.S.S.S.S.S.S.S.S.S.S.S.S.S.G.G.F.F.F.F.F.F.F.F.F.U.U.U.U.U.F.F.F.S.",
"8.8.8.8.8.8.8.8.8.8.8.8.8.8.8.8.8.8.8.8.8.8.8.8.8.8.8.e.e.e.e.8.8.8.8.8.8.8.8.8.8.8.8.8.8.8.8.8.8.8.8.8.e.e.9.9.8.e.9.9.8.q.q.q.q.q.q.q.q.q.q.q.9.9.q.e.e.e.9.8.8.8.8.8.8.8.8.8.8.8.8.8.8.8.8.8.9.q.q.9.9.q.q.q.q.q.q.q.q.q.8.9.q.q.e.e.q.q.q.q.e.e.q.q.q.q.q.q.e.e.q.q.e.e.e.e.e.e.e.e.e.e.e.e.e.e.e.e.e.e.e.e.q.q.q.q.q.q.q.q.q.q.q.q.q.q.e.e.e.e.e.e.e.e.e.e.e.e.e.e.e.e.e.e.e.e.e.e.e.e.e.e.e.e.e.e.e.e.e.e.e.e.e.e.e.e.e.e.e.e.e.e.e.e.e.e.e.e.e.e.e.e.e.e.e.e.e.e.e.e.e.e.e.e.e.e.e.e.e.e.e.e.e.e.e.e.e.e.e.e.e.e.e.e.e.e.e.e.e.t.t.t.t.e.e.t.t.t.e.e.e.t.e.e.e.e.e.t.t.t.t.t.t.t.t.t.t.t.e.e.e.e.t.t.t.t.t.t.t.t.t.t.t.t.t.t.t.t.t.t.t.t.t.t.t.t.t.t.t.t.t.t.t.t.t.t.t.t.t.t.t.t.t.t.t.t.t.t.t.t.t.t.t.t.t.t.t.t.z.z.z.t.z.z.z.z.z.z.z.t.t.t.z.z.z.z.z.z.z.z.z.z.z.z.z.z.z.z.z.z.z.z.z.z.z.z.z.z.z.z.F.z.F.F.z.z.z.z.z.F.H.H.H.H.H.H.H.H.H.H.H.H.H.H.H.G.F.S.F.F.U.U.U.U.U.U.U.U.U.U.U.U.S.S.S.S.S.S.S.S.S.S.S.S.S.S.S.S.G.G.F.F.F.F.F.F.F.F.U.U.U.U.U.U.F.S.S.S.",
"e.e.9.9.8.8.e.e.8.8.8.8.8.8.8.8.8.8.8.8.8.8.8.8.8.8.e.e.e.e.9.9.8.8.8.8.8.8.8.8.8.8.8.8.8.8.8.8.8.8.8.e.q.q.e.9.e.e.9.e.q.q.q.q.q.q.q.q.q.q.q.q.9.9.q.q.9.e.9.9.e.e.e.e.9.9.9.8.8.8.8.8.e.e.e.e.q.q.9.9.q.q.q.q.q.q.q.q.8.9.9.9.e.e.e.e.q.q.e.q.e.e.q.q.q.q.q.q.e.q.q.q.e.e.e.e.e.e.e.e.e.e.e.e.e.e.e.e.e.e.e.e.e.e.e.e.q.q.q.q.q.q.q.q.q.q.e.q.e.e.e.e.e.e.e.e.e.e.e.e.e.e.e.e.e.e.e.e.e.e.e.e.e.e.e.e.e.e.e.e.e.e.e.e.e.e.e.e.e.e.e.e.e.e.e.e.e.e.e.e.e.e.e.e.e.e.e.e.e.e.e.e.e.e.e.e.e.e.e.e.e.e.e.e.e.e.e.e.e.e.e.e.e.e.e.e.e.e.e.t.t.t.t.e.e.e.t.t.e.t.t.t.e.e.t.t.t.t.t.t.t.t.t.t.t.t.t.t.e.e.e.e.t.t.t.t.t.t.t.t.t.t.t.t.t.t.t.t.t.t.t.t.t.t.t.t.t.t.t.t.t.t.t.t.t.t.t.t.t.t.t.t.t.t.t.t.t.t.t.t.t.t.t.t.t.t.t.t.z.z.z.t.z.z.z.z.z.z.t.t.t.t.z.z.z.z.z.z.z.z.z.z.z.z.z.z.z.z.z.z.z.z.z.z.z.z.z.z.z.z.z.z.F.F.z.z.z.z.z.F.H.H.H.H.H.H.H.H.H.H.H.H.H.H.H.G.F.F.F.F.F.U.U.U.F.F.F.F.F.F.F.F.F.F.F.F.S.S.F.S.S.S.F.F.F.F.S.S.S.G.F.F.F.F.F.F.F.F.F.F.U.U.U.U.S.S.F.S.",
"e.e.e.e.8.8.8.e.8.8.8.8.8.8.8.8.8.8.8.8.8.8.8.8.8.8.8.9.q.9.9.9.8.8.8.8.8.8.8.8.8.8.8.8.8.8.8.8.8.8.8.q.9.9.9.9.9.9.9.9.9.q.q.q.q.q.q.q.q.q.q.q.9.q.q.q.9.9.9.9.9.e.e.e.e.e.e.e.q.q.e.e.e.e.e.e.q.q.q.q.q.q.q.q.q.q.q.q.e.e.8.8.e.e.q.q.q.q.e.q.e.q.q.q.q.e.q.q.e.e.q.q.e.e.e.e.e.e.e.e.e.e.e.e.e.e.e.e.e.e.e.e.e.e.e.e.e.e.e.e.q.e.q.q.q.q.q.e.q.q.q.q.e.e.e.e.e.e.e.e.e.e.e.e.e.e.e.e.e.e.e.e.e.e.e.e.e.e.e.e.e.e.e.e.e.e.e.e.e.e.e.e.e.e.e.e.e.e.e.e.e.e.e.e.e.e.e.e.e.e.e.e.e.e.e.e.e.e.e.e.e.e.e.e.e.e.e.e.e.e.e.e.e.e.e.e.e.e.e.t.t.t.t.e.t.t.t.t.t.t.t.t.e.e.t.t.t.t.t.t.t.t.t.t.t.t.t.t.t.t.t.t.t.t.t.t.t.t.t.t.t.t.t.t.t.t.t.t.t.t.t.t.t.t.t.t.t.t.t.t.t.t.t.t.t.t.t.t.t.t.t.t.t.t.t.t.t.t.t.t.t.t.t.t.t.t.t.t.z.z.t.t.z.z.t.t.t.t.t.t.t.t.z.z.z.z.z.z.z.z.z.z.z.z.z.z.t.z.z.z.z.z.z.z.z.z.z.z.z.F.z.z.F.z.z.z.F.F.F.F.H.H.H.H.H.H.H.H.H.H.H.H.H.H.H.G.F.S.S.S.S.U.U.U.S.S.S.S.S.S.S.S.S.S.S.S.S.S.S.S.S.S.S.S.S.S.S.S.S.S.F.F.F.F.F.F.z.F.F.F.U.U.U.U.F.F.F.F.",
"e.q.e.e.8.8.9.9.8.8.8.8.8.8.8.8.8.8.8.8.8.8.8.8.8.8.8.8.q.9.8.8.8.8.8.8.8.8.8.8.8.8.8.8.8.8.8.8.8.8.8.q.q.q.q.9.e.e.9.q.q.q.q.q.q.q.q.q.q.e.q.e.9.e.q.e.9.9.9.9.e.e.e.e.e.e.e.e.e.q.q.e.e.e.e.e.e.e.e.q.q.q.q.q.q.q.q.e.e.e.8.8.e.e.q.e.q.e.e.q.q.q.q.q.e.e.q.q.e.e.q.q.e.e.e.e.e.e.e.e.e.e.e.e.e.e.e.e.e.e.e.e.e.e.e.q.q.q.e.e.e.q.q.q.q.e.e.e.q.q.q.q.e.e.e.e.e.e.e.e.e.e.e.e.e.e.e.e.e.e.e.e.e.e.e.e.e.e.e.e.e.e.e.e.e.e.e.e.e.e.e.e.e.e.e.e.e.e.e.e.e.e.e.e.e.e.e.e.e.e.e.e.e.e.e.e.e.e.e.e.e.e.e.e.e.e.e.e.e.e.e.e.e.e.e.e.e.e.e.t.t.t.t.t.t.t.t.t.t.t.t.t.e.e.t.t.t.t.t.t.t.t.t.t.t.t.t.t.t.t.t.t.t.t.t.t.t.t.t.t.t.t.t.t.t.t.t.t.t.t.t.t.t.t.t.t.t.t.t.t.t.t.t.t.t.t.t.t.t.t.t.t.t.t.t.t.t.t.t.t.t.t.t.t.t.t.t.t.z.z.t.t.t.t.t.t.t.t.t.t.t.t.z.z.z.z.z.z.z.z.z.z.z.z.z.z.t.t.z.z.z.z.z.z.t.z.z.z.F.z.z.z.z.z.z.z.F.F.F.F.H.H.H.H.H.H.H.H.H.H.H.H.H.H.S.S.F.F.S.S.S.S.U.S.S.S.S.S.S.S.S.S.S.S.S.S.S.S.S.S.S.S.S.S.S.S.S.S.S.S.F.F.F.F.F.F.z.z.F.F.U.F.U.U.F.F.F.F.",
"q.q.q.q.q.q.q.q.q.q.e.e.9.9.8.8.e.e.e.e.8.q.8.e.9.e.8.q.8.q.8.e.8.8.8.8.8.8.8.8.8.q.8.q.e.e.e.e.9.9.9.9.e.e.e.e.9.9.9.9.e.e.e.e.q.q.e.e.e.e.q.q.q.q.e.e.e.q.q.q.e.e.q.q.e.e.e.e.e.e.q.q.q.e.e.e.e.e.e.e.e.e.q.q.q.e.e.e.e.e.e.e.e.e.e.e.e.e.e.e.e.e.e.e.e.e.e.e.e.e.e.e.e.e.e.e.e.e.e.e.e.e.e.e.e.e.e.e.e.e.e.e.e.e.e.e.e.e.e.e.e.e.q.e.e.e.e.e.e.e.e.e.e.e.e.e.e.e.e.e.e.e.e.e.e.e.e.e.e.e.e.e.e.e.e.e.e.e.e.e.e.e.e.e.e.e.e.e.e.e.e.e.e.e.e.e.e.e.e.e.e.e.e.e.e.e.e.e.e.e.e.e.e.e.e.e.e.e.e.e.e.e.e.e.e.e.e.e.e.e.e.e.e.e.e.e.e.t.t.t.t.t.t.t.t.t.t.t.t.t.t.t.t.t.t.t.t.t.t.t.t.t.t.t.t.t.t.t.t.t.t.t.t.t.t.t.t.t.t.t.t.t.t.t.t.t.t.t.t.t.t.t.t.t.t.t.t.t.t.t.t.t.t.t.t.t.t.t.t.t.t.t.t.t.t.t.t.t.t.t.t.t.t.t.t.t.t.t.t.t.t.t.t.t.t.t.t.z.z.z.t.z.z.z.z.z.z.z.z.z.z.z.z.z.z.z.z.z.z.z.z.z.z.z.z.z.z.z.z.z.z.z.z.z.z.z.z.z.z.F.H.H.z.z.z.H.H.H.H.H.S.S.S.H.H.H.F.F.F.F.F.F.S.F.F.H.F.H.F.H.F.F.S.S.F.F.F.F.S.S.z.F.U.U.U.U.U.S.F.F.F.F.F.F.S.S.S.S.S.F.F.F.F.F.F.F.F.F.",
"q.q.q.q.q.q.q.q.q.q.8.e.9.9.8.8.e.e.e.e.8.8.e.e.e.e.8.q.8.q.e.e.8.8.8.8.8.8.q.q.e.q.q.q.e.e.e.e.e.e.e.e.e.e.e.e.e.e.e.e.e.e.e.e.q.q.q.e.e.q.q.q.q.q.e.e.e.q.q.q.q.e.q.q.e.q.e.e.e.e.q.q.q.e.e.e.q.q.e.e.e.e.q.q.q.q.e.e.q.q.e.e.e.e.e.e.e.e.e.e.e.e.e.e.e.e.e.e.e.e.q.e.e.q.e.e.e.e.e.e.e.e.e.e.e.e.e.e.e.e.e.e.e.e.e.e.e.e.e.e.e.e.e.e.e.e.e.e.e.e.e.e.e.e.e.e.e.e.e.e.e.e.e.e.e.e.e.e.e.e.e.e.e.e.e.e.e.e.e.e.e.e.e.e.e.e.e.e.e.e.e.e.e.e.e.e.e.e.e.e.e.e.e.e.e.e.e.e.e.e.e.e.e.e.e.e.e.e.e.e.e.e.e.e.e.e.e.e.e.e.e.e.e.e.e.e.e.t.t.t.t.t.t.t.t.t.t.t.t.e.t.t.t.t.t.t.t.t.t.t.t.t.t.t.t.t.t.t.t.t.t.t.t.t.t.t.t.t.t.t.t.t.t.t.t.t.t.t.t.t.t.t.t.t.t.t.t.t.t.t.t.t.t.t.t.t.t.t.t.t.t.t.t.t.t.t.t.t.t.t.t.t.t.t.t.t.t.t.t.t.t.t.t.t.t.t.t.t.z.z.t.z.z.z.z.z.z.z.z.z.z.z.z.z.z.z.z.z.z.z.z.z.z.z.z.z.z.z.z.z.z.z.z.z.z.z.z.z.z.F.H.H.z.z.z.H.H.H.H.H.S.S.S.S.H.H.F.F.F.F.H.H.S.S.H.H.H.H.H.H.H.H.S.U.S.F.F.F.S.S.z.F.U.U.U.U.U.U.F.F.F.F.S.S.S.S.S.S.S.F.F.F.F.F.F.F.S.S.",
"q.q.q.q.q.q.q.q.q.q.e.e.9.9.8.8.q.e.e.e.8.8.8.8.e.e.e.e.e.e.e.e.q.e.e.q.e.e.e.e.e.e.e.e.e.e.e.e.e.e.e.e.e.e.e.e.e.e.e.e.e.e.e.e.q.q.e.e.e.e.q.q.q.q.e.e.e.e.q.q.e.q.q.q.q.q.q.q.e.q.q.q.e.e.e.e.q.q.q.q.e.e.q.q.e.e.e.e.q.q.q.q.e.e.e.e.e.e.e.e.e.e.e.e.e.e.e.e.q.q.q.q.q.q.q.q.e.e.e.e.e.e.e.e.e.e.e.e.e.e.e.e.e.e.e.e.e.e.e.e.e.e.e.e.e.e.e.e.e.e.e.e.e.e.e.e.e.e.e.e.e.e.e.e.e.e.e.e.e.e.e.e.e.e.e.e.e.e.e.e.e.e.e.e.e.e.e.e.e.e.e.e.e.e.e.e.e.e.e.e.e.e.e.e.e.e.e.e.e.e.e.e.e.e.e.e.e.e.e.e.e.e.e.e.e.e.e.e.e.e.e.e.e.e.e.e.e.e.t.t.t.t.t.t.t.t.t.t.t.e.t.t.t.t.t.t.t.t.t.t.t.t.t.t.t.t.t.t.t.t.t.t.t.t.t.t.t.t.t.t.t.t.t.t.t.t.t.t.t.t.t.t.t.t.t.t.t.t.t.t.t.t.t.t.t.t.t.t.t.t.t.t.t.t.t.t.t.t.t.t.t.t.t.t.t.t.t.t.t.t.t.t.t.t.t.t.t.t.t.z.t.z.z.z.z.z.z.z.z.z.z.z.z.z.z.z.z.z.z.z.z.z.z.z.z.z.z.z.z.z.z.z.z.z.z.z.z.z.z.F.H.H.H.z.z.H.H.H.H.H.H.H.H.H.H.H.S.S.H.H.H.H.H.S.F.H.H.H.H.H.F.F.S.F.F.F.F.F.S.S.z.F.U.U.U.U.U.U.F.S.S.S.S.S.Y.Y.S.S.S.F.F.F.F.F.F.S.S.S.",
"q.q.q.q.e.e.e.e.q.q.e.e.e.e.e.e.e.e.e.e.e.e.e.e.e.e.e.e.e.e.e.e.q.e.e.q.e.e.e.e.e.e.e.e.e.q.q.e.e.e.e.e.e.e.e.e.e.e.e.e.e.e.e.e.q.q.e.e.e.e.q.q.q.q.e.e.e.e.q.q.e.q.q.q.q.q.q.q.e.e.q.q.e.e.e.e.q.q.q.q.e.e.q.q.e.e.e.e.q.q.q.q.e.e.e.e.e.e.e.e.e.e.e.e.e.e.e.e.q.q.q.q.q.q.q.q.e.e.e.e.e.e.e.e.e.e.e.e.e.e.e.e.e.e.e.e.e.e.e.e.e.e.e.e.e.e.e.e.e.e.e.e.e.e.e.e.e.e.e.e.e.e.e.e.e.e.e.e.e.e.e.e.e.e.e.e.e.e.e.e.e.e.e.e.e.e.e.e.e.e.e.e.e.e.e.e.e.e.e.e.e.e.e.e.e.e.e.e.e.e.e.e.e.e.e.e.e.e.e.e.e.e.e.e.e.e.e.e.e.e.e.e.e.e.e.e.e.e.e.e.t.t.t.t.t.t.t.t.t.t.t.t.t.t.t.t.t.t.t.t.t.t.t.t.t.t.t.t.t.t.e.e.t.t.t.t.t.t.t.t.t.t.t.t.t.t.t.t.t.t.t.t.t.t.t.t.t.t.t.t.t.t.t.t.t.t.t.t.t.t.t.t.t.t.t.t.t.t.t.t.t.t.t.t.t.t.t.t.t.t.t.t.t.t.t.t.t.t.t.z.t.z.t.z.z.z.z.t.t.t.t.t.t.t.t.t.z.z.z.z.z.z.z.z.z.z.z.z.z.z.z.z.z.z.z.z.z.z.F.F.H.H.H.z.H.H.H.H.H.H.H.H.H.H.H.H.S.H.H.H.H.H.S.S.F.H.H.H.H.H.H.F.F.F.F.F.F.F.S.S.z.F.U.U.U.U.U.U.S.S.S.S.Y.Y.Y.Y.S.S.S.S.S.S.F.F.F.S.S.S.",
"q.q.q.q.q.q.q.e.q.e.e.e.e.e.e.e.e.e.e.e.e.e.e.e.e.e.e.e.e.e.e.e.e.e.8.q.q.q.8.8.e.e.e.e.e.e.e.e.e.e.e.e.e.e.e.e.e.e.e.e.e.e.e.e.e.e.e.e.e.e.e.e.e.e.e.e.e.e.e.e.e.e.e.e.e.e.e.e.e.e.e.e.e.e.e.e.e.e.e.e.e.e.e.e.e.e.e.e.e.e.e.e.e.e.e.e.e.e.e.e.e.e.e.e.e.e.e.e.e.e.e.e.e.e.e.e.e.e.e.e.e.e.e.e.e.e.e.e.e.e.e.e.e.e.e.e.e.e.e.e.e.e.e.e.e.e.e.e.e.e.e.e.e.e.e.e.q.e.e.e.e.e.e.e.e.e.e.e.e.e.e.e.e.e.e.e.e.e.e.e.e.e.e.e.e.e.e.e.e.e.e.e.e.e.e.e.e.e.e.e.e.e.e.e.e.e.e.e.e.e.e.e.e.e.e.e.e.e.e.e.e.e.e.e.e.e.e.e.e.e.e.e.e.e.e.e.e.e.e.e.t.t.t.t.e.e.t.t.t.t.t.t.e.t.t.t.t.t.t.t.t.t.t.t.t.t.t.t.t.t.e.t.t.t.t.t.t.t.t.t.t.t.t.t.t.t.t.t.t.t.t.t.t.t.t.t.t.t.t.t.t.t.t.t.t.t.t.t.t.t.t.t.t.t.t.t.t.t.t.t.t.t.t.t.t.t.t.t.t.t.t.t.t.t.t.t.t.t.z.z.t.t.z.z.z.z.t.t.z.z.z.z.t.t.z.z.z.z.z.z.z.z.z.z.z.z.z.z.z.z.z.z.z.F.F.F.z.z.z.F.H.H.H.H.H.H.H.H.H.H.H.H.H.H.H.H.H.H.H.H.H.H.H.H.F.F.H.H.H.H.F.F.F.F.F.F.F.F.F.S.F.F.S.S.Y.S.S.S.S.S.S.S.Y.Y.Y.Y.S.S.S.S.S.S.S.S.F.H.S.H.",
"q.q.q.q.q.q.e.e.q.q.e.e.e.e.e.e.e.e.e.e.e.e.e.e.e.e.e.e.e.e.e.e.e.e.q.q.q.q.8.8.e.e.e.e.e.q.q.q.e.e.e.e.e.e.e.e.e.e.e.e.e.e.e.e.e.e.e.e.e.e.e.e.e.e.e.e.e.e.e.e.e.e.e.e.e.e.e.e.e.e.e.e.e.e.e.e.e.e.e.e.e.e.e.e.e.e.e.e.e.e.e.e.e.e.e.e.e.e.e.e.e.e.e.e.e.e.e.e.e.e.e.e.e.e.e.e.e.e.e.e.e.e.e.e.e.e.e.e.e.e.e.e.e.e.e.e.e.e.e.e.e.e.e.e.e.e.e.e.e.e.e.e.e.e.e.e.e.q.e.e.e.e.e.e.e.e.e.e.e.e.e.e.e.e.e.e.e.e.e.e.e.e.e.e.e.e.e.e.e.e.e.e.e.e.e.e.e.e.e.e.e.e.e.e.e.e.e.e.e.e.e.e.e.e.e.e.e.e.e.e.e.e.e.e.e.e.e.e.e.e.e.e.e.e.e.e.e.e.e.e.e.e.t.t.t.e.t.t.e.t.t.t.e.e.e.t.t.e.t.t.t.t.t.t.t.t.t.t.t.t.e.e.t.t.t.t.t.t.t.t.t.t.t.t.t.t.t.t.t.t.t.t.t.t.t.t.t.t.t.t.t.t.t.t.t.t.t.t.t.t.t.t.t.t.t.t.t.t.t.t.t.t.t.t.t.t.t.t.t.t.t.t.t.t.t.t.t.t.z.t.t.t.z.z.z.z.t.t.z.z.z.z.t.t.t.z.z.z.z.z.z.z.z.z.z.z.z.z.z.z.z.z.F.F.z.z.z.z.z.F.H.H.H.z.H.H.H.H.H.H.H.H.H.H.H.H.F.F.H.H.H.H.H.H.F.F.H.H.H.H.F.F.F.F.F.F.F.F.F.F.F.F.S.S.Y.S.S.S.S.S.S.S.S.S.Y.Y.S.S.S.S.S.S.Y.G.H.H.H.H.",
"q.q.q.q.q.q.q.e.e.e.e.e.e.e.e.e.e.e.e.e.e.e.e.e.e.e.e.e.e.e.e.e.e.e.e.e.e.e.e.e.e.e.e.q.q.q.q.q.e.e.e.e.e.e.e.e.e.e.e.e.e.e.e.e.e.e.e.e.e.e.e.e.e.e.e.e.e.e.e.e.e.e.e.e.e.e.e.e.e.e.e.e.e.e.e.e.e.e.e.e.e.e.e.e.e.e.e.e.e.e.e.e.e.e.e.e.e.e.e.e.e.e.e.e.e.e.e.e.e.e.e.e.e.e.e.e.e.e.e.e.e.e.e.e.e.e.e.e.e.e.e.e.e.e.e.e.e.e.e.e.e.e.e.e.e.e.e.e.e.e.e.e.e.e.e.e.q.q.q.e.e.e.e.e.e.e.e.e.e.e.e.e.e.e.e.e.e.e.e.e.e.e.e.e.e.e.e.e.e.e.e.e.e.e.e.e.e.e.e.e.e.e.e.e.e.e.e.e.e.e.e.e.e.e.e.e.e.e.e.e.e.e.e.e.e.e.e.e.e.e.e.e.e.e.e.e.e.e.e.e.e.e.e.t.t.t.t.t.e.t.t.t.e.e.e.t.e.t.t.t.t.t.t.t.t.t.e.t.t.t.t.t.t.t.t.t.t.t.t.t.t.t.t.t.t.t.t.t.t.t.t.t.t.t.t.t.t.t.t.t.t.t.t.t.t.t.t.t.t.t.t.t.t.t.t.t.t.t.t.t.t.t.t.t.t.t.t.t.t.t.t.t.t.t.t.t.t.t.t.t.t.t.t.z.t.t.t.t.z.z.t.t.t.t.z.z.z.z.z.z.z.z.z.z.z.z.z.z.z.z.z.z.z.z.z.z.z.z.z.z.z.H.H.H.H.H.H.H.H.H.H.H.H.H.H.H.F.F.F.F.H.S.H.H.S.S.S.S.G.G.G.S.S.S.F.F.F.F.F.F.F.F.U.S.G.S.S.S.F.F.F.F.S.S.S.S.S.S.S.S.Y.Y.Y.G.H.H.H.H.",
"q.q.q.q.q.q.q.e.e.e.e.e.e.e.e.e.e.e.e.e.e.e.e.e.e.e.e.e.e.e.e.e.e.e.e.e.e.e.e.e.e.e.e.q.q.q.q.e.e.e.e.e.e.e.e.e.e.e.e.e.e.e.e.e.e.e.e.e.e.e.e.e.e.e.e.e.e.e.e.e.e.e.e.e.e.e.e.e.e.e.e.e.e.e.e.e.e.e.e.e.e.e.e.e.e.e.e.e.e.e.e.e.e.e.e.e.e.e.e.e.e.e.e.e.e.e.e.e.e.e.e.e.e.e.e.e.e.e.e.e.e.e.e.e.e.e.e.e.e.e.e.e.e.e.e.e.e.e.e.e.e.e.e.e.e.e.e.e.e.e.e.e.e.e.e.e.q.e.q.q.e.e.e.e.e.e.e.e.e.e.e.e.e.e.e.e.e.e.e.e.e.e.e.e.e.e.e.e.e.e.e.e.e.e.e.e.e.e.e.e.e.e.e.e.e.e.e.e.e.e.e.e.e.e.e.e.e.e.e.e.e.e.e.e.e.e.e.e.e.e.e.e.e.e.e.e.e.e.e.e.e.e.e.t.t.t.t.t.e.e.t.t.e.e.e.e.e.t.t.t.t.t.t.t.t.e.e.t.t.t.t.t.t.t.t.t.t.t.t.t.t.t.t.t.t.t.t.t.t.t.t.t.t.t.t.t.t.t.t.t.t.t.t.t.t.t.t.t.t.t.t.t.t.t.t.t.t.t.t.t.t.t.t.t.t.t.t.t.t.t.t.t.t.t.t.t.t.t.t.t.t.t.t.t.t.t.t.t.t.t.t.t.t.t.z.z.z.z.z.z.z.z.z.z.z.z.z.z.z.z.z.z.z.z.z.z.z.z.z.z.z.H.H.H.H.H.H.H.H.H.H.H.H.H.H.H.F.F.F.F.S.S.F.F.S.S.S.S.G.G.G.G.S.S.F.F.F.F.F.F.F.S.S.S.G.S.S.S.F.F.S.F.S.S.S.S.S.S.S.S.Y.Y.Y.G.H.H.H.H.",
"q.q.q.q.e.e.e.e.e.e.e.e.e.e.e.e.e.e.e.e.e.e.e.e.e.e.e.e.e.e.e.e.e.q.q.8.8.8.e.e.e.e.e.e.e.e.e.e.e.e.e.e.e.e.e.e.e.e.e.e.e.e.e.e.e.e.e.e.e.e.e.e.e.e.e.e.e.e.e.e.e.e.e.e.e.e.e.e.e.e.e.e.e.e.e.e.e.e.e.e.e.e.e.e.e.e.e.e.e.e.e.e.e.e.e.e.e.e.e.e.e.e.e.e.e.e.e.e.e.e.e.e.e.e.e.e.e.e.e.e.e.e.e.e.e.e.e.e.e.e.e.e.e.e.e.e.e.e.e.e.e.e.e.e.e.e.e.e.e.e.e.e.e.e.e.e.e.e.e.e.e.e.e.e.e.e.e.e.e.e.e.e.e.e.e.e.e.e.e.e.e.e.e.e.e.e.e.e.e.e.e.e.e.e.e.e.e.e.e.e.e.e.e.e.e.e.e.e.e.e.e.e.e.e.e.e.e.e.e.e.e.e.e.e.e.e.e.e.e.e.e.e.e.e.e.e.e.e.e.e.e.e.e.e.e.e.e.e.t.t.e.t.t.t.t.t.t.t.t.t.t.t.t.e.e.e.t.t.t.t.t.t.t.t.t.t.t.e.t.t.t.t.t.t.t.t.t.t.t.t.t.t.t.t.t.t.t.t.t.t.t.t.t.t.z.t.t.t.t.t.t.t.t.t.t.t.t.t.t.t.t.t.t.t.t.z.z.z.t.t.t.t.t.t.t.t.t.t.t.t.t.t.t.t.t.t.t.t.z.z.z.t.t.t.z.z.t.t.z.z.z.z.z.z.t.t.t.z.z.z.z.F.z.z.z.z.z.z.z.z.z.H.H.H.H.H.H.H.H.H.H.H.H.F.F.F.H.H.H.H.H.H.F.F.G.G.G.G.G.G.G.G.F.F.F.F.F.F.F.F.F.F.S.S.S.S.F.F.F.F.F.F.F.S.S.S.F.F.F.S.S.S.S.G.H.H.H.H.",
"q.q.q.q.e.e.e.e.e.e.e.e.e.e.e.e.e.e.e.e.e.e.e.e.e.e.e.e.e.e.e.e.e.q.e.e.q.8.e.e.e.e.e.e.e.e.e.e.e.e.e.e.e.e.e.e.e.e.e.e.e.e.e.e.e.e.e.e.e.e.e.e.e.e.e.e.e.e.e.e.e.e.e.e.e.e.e.e.e.e.e.e.e.e.e.e.e.e.e.e.e.e.e.e.e.e.e.e.e.e.e.e.e.e.e.e.e.e.e.e.e.e.e.e.e.e.e.e.e.e.e.e.e.e.e.e.e.e.e.e.e.e.e.e.e.e.e.e.e.e.e.e.e.e.e.e.e.e.e.e.e.e.e.e.e.e.e.e.e.e.e.e.e.e.e.e.e.e.e.e.e.e.e.e.e.e.e.e.e.e.e.e.e.e.e.e.e.e.e.e.e.e.e.e.e.e.e.e.e.e.e.e.e.e.e.e.e.e.e.e.e.e.e.e.e.e.e.e.e.e.e.e.e.e.e.e.e.e.e.e.e.e.e.e.e.e.e.e.e.e.e.e.e.e.e.e.e.e.e.e.e.e.e.e.e.e.e.e.t.e.e.t.t.t.t.t.t.t.t.t.t.t.t.e.t.t.t.t.t.t.t.t.t.t.t.t.t.e.t.t.t.t.t.t.t.t.t.t.t.t.t.t.t.t.t.t.t.t.t.t.t.t.t.t.t.t.t.t.t.t.t.t.t.t.t.t.t.t.t.t.t.t.t.t.t.z.z.z.t.t.t.t.t.t.t.t.t.t.t.t.t.t.t.t.t.t.t.t.z.z.z.t.t.t.z.t.t.t.t.z.z.z.z.z.t.t.t.z.z.z.z.F.z.z.z.z.z.z.z.z.z.H.H.H.H.H.H.H.H.H.H.H.H.F.F.F.F.F.H.H.H.H.F.F.G.G.G.G.G.G.G.G.F.F.F.F.F.F.F.F.F.F.S.S.S.S.F.F.F.S.F.F.F.S.S.S.F.F.S.S.S.S.S.G.H.H.H.H.",
"q.q.q.q.e.e.e.e.e.e.e.e.e.e.e.e.e.e.e.e.e.e.e.e.e.e.e.e.e.e.e.e.e.e.e.e.e.e.e.e.e.e.e.e.e.e.e.e.e.e.e.e.e.e.e.e.e.e.e.e.e.e.e.e.e.e.e.e.e.e.e.e.e.e.e.e.e.e.e.e.e.e.e.e.e.e.e.e.e.e.e.e.e.e.e.e.e.e.e.e.e.e.e.e.e.e.e.e.e.e.e.e.e.e.e.e.e.e.e.e.e.e.e.e.e.e.e.e.e.e.e.e.e.e.e.e.e.e.e.e.e.e.e.e.e.e.e.e.e.e.e.e.e.e.e.e.e.e.e.e.e.e.e.e.e.e.e.e.e.e.e.e.e.e.e.e.e.e.e.e.e.e.e.e.e.e.e.e.e.e.e.e.q.e.e.e.e.e.e.e.e.e.e.e.e.e.e.e.e.e.e.e.e.e.e.e.e.e.e.e.e.e.e.e.e.e.e.e.e.e.e.e.e.e.e.e.e.e.e.e.e.e.e.e.e.e.e.e.e.e.e.e.e.e.e.e.e.e.e.e.e.e.e.e.e.e.e.e.t.t.t.t.t.t.t.t.e.e.t.t.t.t.t.t.t.t.t.t.t.t.e.e.t.t.t.e.t.t.t.t.t.t.t.t.t.t.t.t.t.t.t.t.t.t.t.t.t.t.t.t.t.t.t.t.t.t.t.t.t.t.t.t.t.t.t.t.t.t.t.t.t.t.t.t.t.t.z.z.t.t.t.t.t.t.t.t.t.t.t.t.t.t.t.t.z.z.t.z.z.z.t.t.t.t.t.t.t.t.t.z.z.z.z.z.t.t.t.z.z.z.z.z.z.z.z.z.z.z.z.z.z.z.z.F.F.F.z.z.F.F.F.F.F.F.F.F.F.F.F.F.H.S.F.F.G.G.G.G.G.G.G.G.F.F.F.F.F.F.F.F.F.F.G.G.S.S.S.F.F.F.F.F.S.S.S.S.F.S.S.S.S.S.U.G.H.H.H.H.",
"q.q.q.q.e.e.e.e.e.e.e.e.e.e.e.e.e.e.e.e.e.e.e.e.e.e.e.e.e.e.e.e.e.e.e.8.e.e.e.e.e.e.e.e.e.e.e.e.e.e.e.e.e.e.e.e.e.e.e.e.e.e.e.e.e.e.e.e.e.e.e.e.e.e.e.e.e.e.e.e.e.e.e.e.e.e.e.e.e.e.e.e.e.e.e.e.e.e.e.e.e.e.e.e.e.e.e.e.e.e.e.e.e.e.e.e.e.e.e.e.e.e.e.e.e.e.e.e.e.e.e.e.e.e.e.e.e.e.e.e.e.e.e.e.e.e.e.e.e.e.e.e.e.e.e.e.e.e.e.e.e.e.e.e.e.e.e.e.e.e.e.e.e.e.e.e.e.e.e.e.e.e.e.e.e.e.e.e.e.e.e.e.e.e.e.e.e.e.e.e.e.e.e.e.e.e.e.e.e.e.e.e.e.e.e.e.e.e.e.e.e.e.e.e.e.e.e.e.e.e.e.e.e.e.e.e.e.e.e.e.e.e.e.e.e.e.e.e.e.e.e.e.e.e.e.e.e.e.e.e.e.e.e.e.e.e.e.e.t.t.t.t.t.t.t.t.e.e.e.t.t.t.t.t.t.t.t.t.t.t.e.e.t.t.t.e.t.t.t.t.t.t.t.t.t.t.t.t.t.t.t.t.t.t.t.t.t.t.t.t.t.t.t.t.t.t.t.t.t.t.t.t.t.t.t.t.t.t.t.t.t.t.t.t.t.t.z.z.t.t.t.z.t.t.t.t.t.t.t.t.t.t.t.t.z.z.z.z.z.z.t.t.t.t.t.t.t.t.t.t.z.z.z.z.t.t.z.z.z.z.z.z.z.z.z.z.z.z.z.z.z.z.z.F.F.F.z.z.F.F.F.F.F.F.F.F.F.F.F.S.S.S.F.F.F.G.G.G.G.G.G.F.F.F.F.F.F.F.F.F.F.F.G.G.S.S.F.F.F.F.F.F.S.S.S.S.S.S.S.S.Y.U.Y.G.H.H.H.H.",
"q.q.q.q.e.e.e.e.e.e.e.e.e.e.e.e.e.e.e.e.e.e.e.e.e.e.e.e.e.e.e.e.e.e.e.8.e.e.e.e.e.e.e.e.e.e.e.e.e.e.e.e.e.e.e.e.e.e.e.e.e.e.e.e.e.e.e.e.e.e.e.e.e.e.e.e.e.e.e.e.e.e.e.e.e.e.e.e.e.e.e.e.e.e.e.e.e.e.e.e.e.e.e.e.e.e.e.e.e.e.e.e.e.e.e.e.e.e.e.e.e.e.e.e.e.e.e.e.e.e.e.e.e.e.e.e.e.e.e.e.e.e.e.e.e.e.e.e.e.e.e.e.e.e.e.e.e.e.e.e.e.e.e.e.e.e.e.e.e.e.e.e.e.e.e.e.e.e.e.e.e.e.e.e.e.e.e.e.e.e.e.e.e.e.e.e.e.e.e.e.e.e.e.e.e.e.e.e.e.e.e.e.e.e.e.e.e.e.e.e.e.e.e.e.e.e.e.e.e.e.e.e.e.e.e.e.e.e.e.e.e.e.e.e.e.e.e.e.e.t.t.t.t.t.t.t.t.t.t.e.t.t.t.t.e.e.e.e.t.t.t.t.t.t.t.t.t.t.t.t.t.t.e.t.e.e.t.t.t.t.e.t.t.t.t.e.t.t.t.t.t.t.t.t.t.t.t.t.t.t.t.t.t.t.t.t.t.t.t.t.t.t.t.t.t.t.t.t.t.t.t.t.t.t.t.t.t.t.t.t.t.t.t.t.t.t.t.t.z.z.z.z.t.t.t.t.t.t.t.t.t.t.t.t.z.z.t.t.t.t.t.t.z.t.t.t.t.t.t.z.t.z.z.z.t.z.z.z.z.z.z.z.z.z.z.z.z.z.z.z.z.z.z.F.F.F.F.F.F.F.F.F.F.F.F.F.H.H.H.S.F.F.F.F.F.F.G.G.G.G.F.F.H.H.H.S.F.H.H.H.H.H.G.G.G.G.H.H.F.F.F.S.S.S.S.Y.S.S.S.S.Y.Y.Y.G.H.H.H.H.",
"q.q.q.q.e.e.e.e.e.e.e.e.e.e.e.e.e.e.e.e.e.e.e.e.e.e.e.e.e.e.e.e.e.e.e.e.e.e.e.e.e.e.e.e.e.e.e.e.e.e.e.e.e.e.e.e.e.e.e.e.e.e.e.e.e.e.e.e.e.e.e.e.e.e.e.e.e.e.e.e.e.e.e.e.e.e.e.e.e.e.e.e.e.e.e.e.e.e.e.e.e.e.e.e.e.e.e.e.e.e.e.e.e.e.e.e.e.e.e.e.e.e.e.e.e.e.e.e.e.e.e.e.e.e.e.e.e.e.e.e.e.e.e.e.e.e.e.e.e.e.e.e.e.e.e.e.e.e.e.e.e.e.e.e.e.e.e.e.e.e.e.e.e.e.e.e.e.e.e.e.e.e.e.e.e.e.e.e.e.e.e.e.e.e.e.e.e.e.e.e.e.e.e.e.e.e.e.e.e.e.e.e.e.e.e.e.e.e.e.e.e.e.e.e.e.e.e.e.e.e.e.e.e.e.e.e.e.e.e.e.e.e.e.e.e.e.e.e.e.t.t.t.t.t.t.t.t.t.t.e.t.t.t.t.e.e.e.e.t.t.t.t.t.t.t.t.t.t.t.t.t.t.e.t.e.e.t.t.t.t.e.e.t.t.t.t.t.t.t.t.t.t.t.t.t.t.t.t.t.t.t.t.t.t.t.t.t.t.t.t.t.t.t.t.t.t.t.t.t.t.t.t.t.t.t.t.t.t.t.t.t.t.t.t.t.t.t.t.z.z.z.z.t.t.t.t.t.t.t.t.t.t.t.t.z.z.t.t.t.t.t.t.z.t.t.t.t.t.t.z.t.t.t.z.z.z.z.z.z.z.z.z.z.z.z.z.z.z.z.z.z.z.z.F.F.F.F.F.F.F.F.F.F.F.F.F.H.H.S.S.F.F.F.F.F.F.G.G.S.S.F.F.H.H.H.S.F.F.H.H.H.H.G.G.G.G.H.H.F.S.S.S.S.Y.Y.Y.S.S.Y.Y.Y.Y.Y.Y.G.H.H.H.",
"q.q.q.q.e.e.e.e.e.e.e.e.e.e.e.e.e.e.e.e.e.e.e.e.e.e.e.e.e.e.e.e.e.e.e.e.e.e.e.e.e.e.e.e.e.e.e.e.e.e.e.e.e.e.e.e.e.e.e.e.e.e.e.e.e.e.e.e.e.e.e.e.e.e.e.e.e.e.e.e.e.e.e.e.e.e.e.e.e.e.e.e.e.e.e.e.e.e.e.e.e.e.e.e.e.e.e.e.e.e.e.e.e.e.e.e.e.e.e.e.e.e.e.e.e.e.e.e.e.e.e.e.e.e.e.e.e.e.e.e.e.e.e.e.e.e.e.e.e.e.e.e.e.e.e.e.e.e.e.e.e.e.e.e.e.e.e.e.e.e.e.e.e.e.e.e.e.e.e.e.e.e.e.e.e.e.e.e.e.e.e.e.e.e.e.e.e.e.e.e.e.e.e.e.e.e.e.e.e.e.e.e.e.e.e.e.e.e.e.e.e.e.e.e.e.e.e.e.e.e.e.e.e.e.e.e.e.e.e.e.e.e.e.e.e.e.e.e.e.e.t.t.t.t.t.t.t.t.t.t.t.t.t.t.e.e.e.e.t.t.e.t.t.t.t.t.t.t.t.t.t.t.t.t.t.t.t.t.t.t.t.t.t.t.t.t.t.t.t.t.t.t.t.t.t.t.t.t.t.t.t.t.t.t.t.t.t.t.t.t.t.t.t.t.t.t.t.t.t.t.t.t.t.t.t.t.t.t.t.t.t.t.t.t.z.z.t.z.z.z.t.t.t.t.t.t.t.t.t.t.t.t.t.t.t.t.t.t.t.t.z.z.z.z.t.t.t.t.t.z.t.t.t.t.z.z.z.z.z.z.z.z.z.z.z.z.z.z.z.z.z.z.z.F.F.F.F.F.F.F.F.F.F.F.F.F.H.H.H.F.F.F.H.F.H.H.H.G.S.F.H.H.G.G.S.S.S.S.S.S.F.H.S.S.G.G.H.H.S.S.S.S.S.Y.Y.Y.S.G.Y.Y.Y.Y.Y.Y.G.G.G.S.",
"q.q.q.q.e.e.e.e.e.e.e.e.e.e.e.e.e.e.e.e.e.e.e.e.e.e.e.e.e.e.e.e.e.e.e.e.e.e.e.e.e.e.e.e.e.e.e.e.e.e.e.e.e.e.e.e.e.e.e.e.e.e.e.e.e.e.e.e.e.e.e.e.e.e.e.e.e.e.e.e.e.e.e.e.e.e.e.e.e.e.e.e.e.e.e.e.e.e.e.e.e.e.e.e.e.e.e.e.e.e.e.e.e.e.e.e.e.e.e.e.e.e.e.e.e.e.e.e.e.e.e.e.e.e.e.e.e.e.e.e.e.e.e.e.e.e.e.e.e.e.e.e.e.e.e.e.e.e.e.e.e.e.e.e.e.e.e.e.e.e.e.e.e.e.e.e.e.e.e.e.e.e.e.e.e.e.e.e.e.e.e.e.e.e.e.e.e.e.e.e.e.e.e.e.e.e.e.e.e.e.e.e.e.e.e.e.e.e.e.e.e.e.e.e.e.e.e.e.e.e.e.e.e.e.e.e.e.e.e.e.e.e.e.e.e.e.e.e.e.e.t.t.t.t.t.t.t.t.t.t.t.t.t.t.e.e.e.e.e.e.e.t.t.t.e.e.t.t.t.t.t.t.t.t.t.t.t.t.t.t.t.t.t.t.t.t.t.t.t.t.t.t.t.t.t.t.t.t.t.t.t.t.t.t.t.t.t.t.t.t.t.t.t.t.t.t.t.t.t.t.t.t.t.t.t.t.t.t.t.t.t.t.t.t.z.z.z.z.t.t.t.t.t.t.t.t.t.t.t.t.t.t.t.t.t.t.t.t.t.z.z.z.z.z.t.t.t.t.t.t.t.t.t.t.z.z.z.z.z.z.z.z.z.z.z.z.z.z.z.z.z.z.z.F.F.F.F.F.z.z.F.F.F.F.F.F.H.H.H.F.F.F.H.H.H.H.H.G.S.H.H.H.G.H.S.S.S.H.S.H.F.H.S.S.S.S.H.H.S.S.S.S.Y.Y.Y.Y.S.G.Y.Y.Y.Y.Y.Y.G.H.G.H.",
"e.e.e.e.e.e.e.e.e.e.e.e.e.e.e.e.e.e.e.e.e.e.e.e.e.e.e.e.e.e.e.e.e.e.e.e.e.e.e.e.e.e.e.e.e.e.e.e.e.e.e.e.e.e.e.e.e.e.e.e.e.e.e.e.q.q.e.e.e.e.e.e.e.e.e.e.e.e.e.e.e.e.e.e.e.e.e.e.e.e.e.e.e.e.e.e.e.e.e.e.e.e.e.e.e.e.e.e.e.e.e.e.e.e.e.e.e.e.e.e.e.e.e.e.e.e.e.e.e.e.e.e.e.e.e.e.e.e.e.e.e.e.e.e.e.e.e.e.e.e.e.e.e.e.e.e.e.e.e.e.e.e.e.e.e.e.e.e.q.q.e.e.e.e.e.e.e.e.e.e.e.e.e.e.e.e.e.e.e.e.e.e.e.e.e.e.e.e.e.e.e.e.e.e.e.e.e.e.e.e.e.e.e.e.e.e.e.e.e.e.e.e.e.e.e.e.e.e.e.e.e.e.e.e.e.e.e.e.e.e.e.e.e.e.e.e.e.e.t.t.t.t.t.t.t.t.t.t.t.t.t.e.t.t.t.t.e.e.t.t.t.t.t.t.t.t.t.t.t.e.t.t.t.t.t.t.t.t.t.t.e.e.t.t.t.t.t.t.t.t.t.t.t.t.t.t.t.t.t.t.t.t.t.t.t.t.t.t.t.t.t.t.t.t.t.t.t.t.t.t.t.t.t.t.t.t.t.t.t.t.t.t.t.t.t.t.t.t.t.t.t.t.t.t.t.t.t.t.t.t.t.t.t.t.t.t.t.t.z.z.t.t.t.t.t.t.t.t.t.t.t.t.z.t.z.z.z.z.z.z.z.z.z.z.z.z.z.z.z.z.z.z.z.F.F.z.z.z.F.F.F.F.F.F.H.H.F.F.F.F.F.F.F.F.H.F.S.S.G.S.S.G.H.H.G.H.H.H.H.H.G.H.G.H.G.H.H.H.S.U.U.U.U.U.U.U.U.U.U.U.U.U.U.Y.H.H.H.H.",
"e.e.e.e.e.e.e.e.e.e.e.e.e.e.e.e.e.e.e.e.e.e.e.e.e.e.e.e.e.e.e.e.e.e.e.e.e.e.e.e.e.e.e.e.e.e.e.e.e.e.e.e.e.e.e.e.e.e.e.e.e.e.e.e.q.q.e.e.e.e.e.e.e.e.e.e.e.e.e.e.e.e.e.e.e.e.e.e.e.e.e.e.e.e.e.e.e.e.e.e.e.e.e.e.e.e.e.e.e.e.e.e.e.e.e.e.e.e.e.e.e.e.e.e.e.e.e.e.e.e.e.e.e.e.e.e.e.e.e.e.e.e.e.e.e.e.e.e.e.e.e.e.e.e.e.e.e.e.e.e.e.e.e.e.e.e.e.e.q.e.e.e.e.e.e.e.e.e.e.e.e.e.e.e.e.e.e.e.e.e.e.e.e.e.e.e.e.e.e.e.e.e.e.e.e.e.e.e.e.e.e.e.e.e.e.e.e.e.e.e.e.e.e.e.e.e.e.e.e.e.e.e.e.e.e.e.e.e.e.e.e.e.e.e.e.e.e.e.t.t.t.t.t.t.t.t.t.t.t.t.e.e.t.t.t.t.t.e.e.t.t.t.t.t.t.t.t.t.e.e.t.t.t.t.t.t.t.t.t.e.t.t.t.t.t.t.t.t.t.t.t.t.t.t.t.t.t.t.t.t.t.t.t.t.t.t.t.t.t.t.t.t.t.t.t.t.t.t.t.t.t.t.t.t.t.t.t.t.t.t.t.t.t.t.t.t.t.t.t.t.t.t.t.t.t.t.t.t.t.t.t.t.t.t.t.t.t.t.z.z.t.t.t.t.t.t.t.t.t.t.t.t.z.z.z.z.z.z.z.z.z.z.z.z.z.z.z.z.z.z.z.z.z.z.z.z.z.z.F.F.F.F.F.S.H.H.F.F.F.F.F.F.F.F.H.F.S.S.G.S.G.G.G.H.H.H.H.H.H.H.H.H.H.H.H.H.H.H.S.U.U.U.U.U.U.U.U.U.U.U.U.U.U.Y.H.H.H.H.",
"e.e.e.e.e.e.e.e.e.e.e.e.e.e.e.e.e.e.e.e.e.e.e.e.e.e.e.e.e.e.e.e.e.e.e.e.e.e.e.e.e.e.e.e.e.e.e.e.e.e.e.e.e.e.e.e.e.e.e.e.e.e.e.e.e.e.e.e.e.e.e.e.e.e.e.e.e.e.e.e.e.e.e.e.e.e.e.e.e.e.e.e.e.e.e.e.e.e.e.e.e.e.e.e.e.e.e.e.e.e.e.e.e.e.e.e.e.e.e.e.e.e.e.e.e.e.e.e.e.e.e.e.e.e.e.e.e.e.e.e.e.e.e.e.e.e.e.e.e.e.e.e.e.e.e.e.e.e.e.e.e.e.e.e.e.e.e.e.e.e.e.e.e.e.e.e.e.e.e.e.e.e.e.e.e.e.e.e.e.e.e.e.e.e.e.e.e.e.e.e.e.e.e.e.e.e.e.e.e.e.e.e.e.e.e.e.e.e.e.e.e.e.e.e.e.e.e.e.e.e.e.e.e.e.e.e.e.e.e.e.e.e.e.e.e.e.e.e.t.t.t.t.e.e.t.e.t.t.t.t.t.t.t.t.t.t.t.e.e.t.t.t.t.t.t.t.t.t.t.t.t.t.t.t.t.e.t.t.t.t.t.t.t.t.t.t.t.t.t.t.t.t.t.t.t.t.t.t.t.t.t.t.t.t.t.t.t.t.t.t.t.t.t.t.t.z.t.t.t.t.t.t.t.t.t.t.t.t.t.t.t.t.t.t.t.t.t.t.t.t.t.t.t.t.t.t.t.t.t.t.t.t.t.t.t.t.t.t.z.z.z.t.z.z.t.z.t.t.t.z.t.z.z.z.z.z.z.z.z.z.z.z.z.z.z.z.z.F.z.z.z.z.z.z.z.z.z.z.F.F.F.F.F.S.F.F.H.S.F.F.F.F.H.H.H.H.S.S.G.G.G.G.G.G.S.S.H.H.H.H.H.H.G.H.G.G.G.G.S.U.U.U.U.U.U.U.U.U.U.U.U.U.U.Y.H.H.H.H.",
"e.e.e.e.e.e.e.e.e.e.e.e.e.e.e.e.e.e.e.e.e.e.e.e.e.e.e.e.e.e.e.e.e.e.e.e.e.e.e.e.e.e.e.e.e.e.e.e.e.e.e.e.e.e.e.e.e.e.e.e.e.e.e.e.e.e.e.e.e.e.e.e.e.e.e.e.e.e.e.e.e.e.e.e.e.e.e.e.e.e.e.e.e.e.e.e.e.e.e.e.e.e.e.e.e.e.e.e.e.e.e.e.e.e.e.e.e.e.e.e.e.e.e.e.e.e.e.e.e.e.e.e.e.e.e.e.e.e.e.e.e.e.e.e.e.e.e.e.e.e.e.e.e.e.e.e.e.e.e.e.e.e.e.e.e.e.e.e.e.e.e.e.e.e.e.e.e.e.e.e.e.e.e.e.e.e.e.e.e.e.e.e.e.e.e.e.t.e.e.e.e.e.e.e.e.e.e.e.e.e.e.e.e.e.e.e.e.e.e.e.e.e.e.e.e.e.e.e.e.e.e.e.e.e.e.e.e.e.e.e.e.e.e.e.e.e.e.e.t.t.t.t.e.e.e.e.t.t.t.e.t.t.t.t.t.t.e.e.e.e.t.t.t.t.t.t.t.t.t.t.t.t.t.t.e.e.t.t.t.t.t.t.t.t.t.t.t.t.t.t.t.t.t.t.t.t.t.t.t.t.t.t.t.t.t.t.t.t.t.t.t.t.t.t.t.t.t.t.t.t.t.t.t.t.t.t.t.t.t.t.t.t.t.t.t.t.t.t.t.t.t.t.t.t.t.t.t.t.t.t.t.t.t.t.t.t.t.z.z.z.z.t.z.z.z.z.t.z.z.t.z.z.z.z.z.z.z.z.z.z.z.z.z.z.z.z.z.z.z.z.z.z.z.z.z.z.z.z.F.F.F.F.F.F.F.F.H.S.S.F.F.F.H.H.H.H.S.S.G.G.G.G.G.G.S.S.G.H.G.H.G.H.G.G.G.G.G.G.S.U.U.U.U.U.U.U.U.U.U.U.U.U.U.Y.H.H.H.H.",
"e.e.e.e.e.e.e.e.e.e.e.e.e.e.e.e.e.e.e.e.e.e.e.e.e.e.e.e.e.e.e.e.e.e.e.e.e.e.e.e.e.e.e.e.e.e.e.e.e.e.e.e.e.e.e.e.e.e.e.e.e.e.e.e.e.e.e.e.e.e.e.e.e.e.e.e.e.e.e.e.e.e.e.e.e.e.e.e.e.e.e.e.e.e.e.e.e.e.e.e.e.e.e.e.e.e.e.e.e.e.e.e.e.e.e.e.e.e.e.e.e.e.e.e.e.e.e.e.e.e.e.e.e.e.e.e.e.e.e.e.e.e.e.e.e.e.e.e.e.e.e.e.e.e.e.e.e.e.e.e.e.e.e.e.e.e.e.e.e.e.e.e.e.e.e.e.e.e.e.e.e.e.e.e.e.e.e.e.e.e.e.e.e.e.e.e.e.e.e.e.e.e.e.e.e.e.e.e.e.e.e.e.e.e.e.e.e.e.e.e.e.e.e.e.e.e.e.e.e.e.e.e.e.e.e.e.e.e.e.e.e.e.e.e.e.e.e.e.e.e.e.e.e.e.e.e.t.t.t.e.e.e.t.t.t.t.e.e.e.e.t.t.t.t.t.t.t.t.t.t.t.t.t.t.t.t.t.t.t.t.t.t.t.t.t.t.t.t.t.t.t.t.t.t.t.t.t.t.t.t.t.t.t.t.t.t.t.t.t.t.t.t.t.t.t.t.t.t.t.t.t.t.t.t.t.t.t.t.t.t.t.t.t.t.t.t.t.t.t.t.t.t.t.t.t.t.t.t.t.t.t.t.t.t.t.t.z.z.z.z.z.z.z.t.t.t.t.t.t.t.z.z.z.z.z.z.z.z.z.z.z.z.z.z.z.z.z.z.z.z.z.z.z.z.z.z.F.F.F.F.F.z.z.F.F.S.H.H.F.F.F.F.H.H.H.F.G.G.G.G.G.G.S.S.S.S.S.S.S.S.G.G.Y.G.Y.G.Y.Y.U.U.U.U.U.U.U.U.U.U.U.U.U.U.U.U.Y.G.Y.H.",
"e.e.e.e.e.e.e.e.e.e.e.e.e.e.e.e.e.e.e.e.e.e.e.e.e.e.e.e.e.e.e.e.e.e.e.e.e.e.e.e.e.e.e.e.e.e.e.e.e.e.e.e.e.e.e.e.e.e.e.e.e.e.e.e.e.e.e.e.e.e.e.e.e.e.e.e.e.e.e.e.e.e.e.e.e.e.e.e.e.e.e.e.e.e.e.e.e.e.e.e.e.e.e.e.e.e.e.e.e.e.e.e.e.e.e.e.e.e.e.e.e.e.e.e.e.e.e.e.e.e.e.e.e.e.e.e.e.e.e.e.e.e.e.e.e.e.e.e.e.e.e.e.e.e.e.e.e.e.e.e.e.e.e.e.e.e.e.e.e.e.e.e.e.e.e.e.e.e.e.e.e.e.e.e.e.e.e.e.e.e.e.e.e.e.e.e.e.e.e.e.e.e.e.e.e.e.e.e.e.e.e.e.e.e.e.e.e.e.e.e.e.e.e.e.e.e.e.e.e.e.e.e.e.e.e.e.e.e.e.e.e.e.e.e.e.e.e.e.e.e.e.e.e.e.e.e.t.t.t.e.e.t.t.t.t.e.e.e.e.e.e.t.t.t.t.t.t.t.t.t.t.t.t.t.t.t.t.t.t.t.t.t.t.t.t.t.t.t.t.t.t.t.t.t.t.t.t.t.t.t.t.t.t.t.t.t.t.t.t.t.t.t.t.t.t.t.t.t.t.t.t.t.t.t.t.t.t.t.t.t.t.t.t.t.t.t.t.t.t.t.t.t.t.t.t.t.t.t.t.t.t.t.t.t.t.t.z.z.z.z.z.z.z.z.t.t.t.t.t.z.z.z.z.z.z.z.z.z.z.z.z.z.z.z.z.z.z.z.z.z.z.z.z.F.z.F.F.F.F.F.F.F.F.F.F.F.H.H.F.F.S.F.H.H.H.F.G.G.G.G.G.G.S.S.S.S.S.S.S.S.G.G.Y.Y.Y.Y.Y.Y.U.U.U.U.U.U.U.U.U.U.U.U.U.U.U.U.Y.Y.Y.J.",
"e.e.e.e.e.e.e.e.e.e.e.e.e.e.e.e.e.e.e.e.e.e.e.e.e.e.e.e.e.e.e.e.e.e.e.e.e.e.e.e.e.e.e.e.e.e.e.e.e.e.e.e.e.e.e.e.e.e.e.e.e.e.e.e.e.e.e.e.e.e.e.e.e.e.e.e.e.e.e.e.e.e.e.e.e.e.e.e.e.e.e.e.e.e.e.e.e.e.e.e.e.e.e.e.e.e.e.e.e.e.e.e.e.e.e.e.e.e.e.e.e.e.e.e.e.e.e.e.e.e.e.e.e.e.e.e.e.e.e.e.e.e.e.e.e.e.e.e.e.e.e.e.e.e.e.e.e.e.e.e.e.e.e.e.e.e.e.e.e.e.e.e.e.e.e.e.e.e.e.e.e.e.e.e.e.e.e.e.e.e.e.e.e.e.e.e.e.e.e.e.e.e.e.e.e.e.e.e.e.e.e.e.e.e.e.e.e.e.e.e.e.e.e.e.e.e.e.e.e.e.e.e.e.e.e.e.e.e.e.e.e.e.e.e.e.e.e.e.e.e.e.e.e.e.e.e.t.t.t.t.t.e.t.t.t.e.e.e.e.e.e.t.e.e.t.t.t.t.e.e.t.t.t.t.t.t.t.t.t.t.t.t.t.t.t.t.t.t.t.t.t.t.t.t.t.t.t.t.t.t.t.t.t.t.t.t.t.t.t.t.t.t.t.t.t.t.t.t.t.t.t.t.t.t.t.t.t.t.t.t.t.t.t.t.t.t.t.t.t.t.t.t.t.t.t.t.t.t.t.t.t.t.t.t.t.z.z.z.t.t.z.z.t.t.t.t.t.t.t.z.z.z.z.z.z.z.z.z.z.z.z.z.t.z.z.z.z.z.z.z.z.z.z.z.z.z.F.F.F.F.F.F.F.F.F.F.S.F.F.F.S.S.S.S.F.F.S.S.Y.S.S.S.U.U.U.U.U.U.U.U.U.U.U.U.U.U.U.U.U.U.U.U.U.U.U.U.U.U.U.U.U.U.U.U.J.J.P.P.",
"e.e.e.e.e.e.e.e.e.e.e.e.e.e.e.e.e.e.e.e.e.e.e.e.e.e.e.e.e.e.e.e.e.e.e.e.e.e.e.e.e.e.e.e.e.e.e.e.e.e.e.e.e.e.e.e.e.e.e.e.e.e.e.e.e.e.e.e.e.e.e.e.e.e.e.e.e.e.e.e.e.e.e.e.e.e.e.e.e.e.e.e.e.e.e.e.e.e.e.e.e.e.e.e.e.e.e.e.e.e.e.e.e.e.e.e.e.e.e.e.e.e.e.e.e.e.e.e.e.e.e.e.e.e.e.e.e.e.e.e.e.e.e.e.e.e.e.e.e.e.e.e.e.e.e.e.e.e.e.e.e.e.e.e.e.e.e.e.e.e.e.e.e.e.e.e.e.e.e.e.e.e.e.e.e.e.e.e.e.e.e.e.e.e.e.e.e.e.e.e.e.e.e.e.e.e.e.e.e.e.e.e.e.e.e.e.e.e.e.e.e.e.e.e.e.e.e.e.e.e.e.e.e.e.e.e.e.e.e.e.e.e.e.e.e.e.e.e.e.e.e.e.e.e.e.e.t.t.t.t.t.t.t.t.e.e.e.e.e.e.e.e.t.t.t.t.t.t.e.e.t.t.t.t.t.t.t.t.t.t.t.t.t.t.t.t.t.t.t.t.t.t.t.t.t.t.t.t.t.t.t.t.t.t.t.t.t.t.t.t.t.t.t.t.t.t.t.t.t.t.t.t.t.t.t.t.t.t.t.t.t.t.t.t.t.t.t.t.t.t.t.t.t.t.t.t.t.t.t.t.t.t.t.t.t.z.z.z.t.t.t.t.t.t.t.t.t.t.z.z.z.z.z.z.z.z.z.z.z.z.z.z.t.t.z.z.z.z.z.z.z.z.z.z.z.z.z.z.F.F.F.F.F.F.F.F.F.F.F.F.S.S.S.S.F.F.S.S.Y.S.S.S.U.U.U.U.U.U.U.U.U.U.U.U.U.U.U.U.U.U.U.U.U.U.U.U.U.U.U.U.U.U.U.U.P.P.P.P.",
"e.e.q.q.e.e.e.e.e.e.e.e.e.e.e.e.e.e.e.e.e.e.e.e.e.e.e.e.e.e.e.e.e.e.e.e.e.e.e.e.e.e.e.e.e.e.q.q.e.e.e.e.e.e.e.e.e.e.e.e.e.e.e.e.e.e.e.e.e.e.e.e.e.e.e.e.e.e.e.e.e.e.e.e.e.e.e.e.e.e.e.e.e.e.e.e.e.e.e.e.e.e.e.e.e.e.e.e.e.e.e.e.e.e.e.e.e.e.e.e.e.e.e.e.e.e.e.e.e.e.e.e.e.e.e.t.t.e.e.e.e.e.e.e.e.e.e.e.e.e.e.e.e.e.e.e.e.e.e.e.e.e.e.e.e.e.e.e.e.e.e.e.t.e.e.e.e.e.e.e.e.e.e.e.e.e.e.e.e.e.e.e.e.e.e.e.e.e.e.e.e.e.e.e.e.e.e.e.e.e.e.e.e.e.e.e.e.e.e.e.e.e.e.e.e.e.e.e.e.e.e.e.e.e.e.e.e.e.e.e.e.e.e.e.e.e.e.e.e.e.e.e.e.e.e.e.e.e.e.t.t.t.t.t.t.t.e.e.e.e.t.t.t.t.t.t.t.t.t.t.t.t.t.t.t.t.t.t.t.t.t.t.t.t.t.t.t.t.t.t.t.t.t.t.t.t.t.t.t.t.t.t.t.t.t.t.t.t.t.t.t.t.t.t.t.t.t.t.t.t.t.t.t.t.t.z.t.t.t.t.t.t.t.t.t.t.t.t.t.t.t.t.t.t.t.t.t.t.t.t.t.t.t.t.z.z.t.t.t.t.t.t.t.t.t.z.z.z.z.z.z.z.z.z.z.z.z.z.z.z.z.z.t.t.z.z.t.t.t.t.z.z.z.F.z.P.U.z.F.F.F.F.S.S.F.F.F.F.F.F.F.F.F.F.F.F.F.S.S.S.F.F.U.U.U.U.U.U.U.U.U.U.U.U.U.Y.Y.Y.U.U.U.U.U.U.U.U.U.U.U.U.U.U.U.U.P.P.P.P.",
"e.q.q.e.e.e.e.e.e.e.e.e.e.e.e.e.e.e.e.e.e.e.e.e.e.e.e.e.e.e.e.e.e.e.e.e.e.e.e.e.e.e.e.e.e.e.e.q.e.e.e.e.e.e.e.e.e.e.e.e.e.e.e.e.e.e.e.e.e.e.e.e.e.e.e.e.e.e.e.e.e.e.e.e.e.e.e.e.e.e.e.e.e.e.e.e.e.e.e.e.e.e.e.e.e.e.e.e.e.e.e.e.e.e.e.e.e.e.e.e.e.e.e.e.e.e.e.e.e.e.e.e.e.e.e.e.e.e.e.e.e.e.e.e.e.e.e.e.e.e.e.e.e.e.e.e.e.e.e.e.e.e.e.e.e.e.e.e.e.e.e.e.e.e.e.e.e.e.e.e.e.e.e.e.e.e.e.e.e.e.e.e.e.e.e.e.e.e.e.e.e.e.e.e.e.e.e.e.e.e.e.e.e.e.e.e.e.e.e.e.e.e.e.e.e.e.e.e.e.e.e.e.e.e.e.e.e.e.e.e.e.e.e.e.e.e.e.e.e.e.e.e.e.e.e.e.e.e.e.t.t.t.t.t.t.t.e.e.e.e.t.t.t.t.t.t.t.t.t.t.t.t.t.t.t.t.t.t.t.t.t.t.t.t.t.t.t.t.t.t.t.t.t.t.t.t.t.t.t.t.t.t.t.t.t.t.t.t.t.t.t.t.t.t.t.t.t.t.t.t.t.t.t.t.t.z.t.t.t.t.t.t.t.t.t.t.t.t.t.t.t.t.t.t.t.t.t.t.t.t.t.t.t.t.z.t.t.t.t.t.t.t.t.t.z.z.z.z.z.z.z.z.z.z.z.z.z.z.z.z.z.z.t.t.t.z.t.t.t.t.z.z.z.z.z.P.U.z.z.F.F.F.S.S.F.F.F.F.F.F.S.F.F.F.F.F.F.S.S.S.F.F.U.U.U.U.U.U.U.U.U.U.U.U.U.U.Y.Y.U.U.U.U.U.U.U.U.U.U.U.U.U.U.U.U.P.J.P.P.",
"e.e.q.e.e.e.e.e.e.e.e.e.e.e.e.e.e.e.e.e.e.e.e.e.e.e.e.e.e.e.e.e.e.e.e.e.e.e.e.e.e.e.e.e.e.e.e.e.e.e.e.e.e.e.e.e.e.e.e.e.e.e.e.e.e.e.e.e.e.e.e.e.e.e.e.e.e.e.e.e.e.e.e.e.e.e.e.e.e.e.e.e.e.e.e.e.e.e.e.e.e.e.e.e.e.e.e.e.e.e.e.e.e.e.e.e.e.e.e.e.e.e.e.e.e.e.e.e.e.e.e.e.e.e.e.e.e.e.e.e.e.e.e.e.e.e.e.e.e.e.e.e.e.e.e.e.e.e.e.e.e.e.e.e.e.e.e.e.e.e.e.e.t.e.e.e.e.e.e.e.e.e.e.e.e.e.e.e.e.e.e.e.e.e.e.e.e.e.e.e.e.e.e.e.e.e.e.e.e.e.e.e.e.e.e.e.e.e.e.e.e.e.e.e.e.e.e.e.e.e.e.e.e.e.e.e.e.e.e.e.e.e.e.e.e.e.e.e.e.e.e.e.e.e.e.e.e.e.e.t.t.t.t.t.t.e.e.e.e.e.t.t.e.t.t.t.e.e.t.t.t.t.t.t.t.t.t.t.t.t.t.t.t.t.t.t.t.t.t.t.t.t.t.t.t.t.t.t.t.t.t.t.t.t.t.t.t.t.t.t.t.t.t.t.t.t.t.t.t.t.t.t.t.t.t.t.t.t.t.t.t.t.t.t.t.t.t.t.t.t.t.t.t.t.t.t.t.t.t.t.t.t.t.t.z.z.t.t.z.z.t.t.t.t.t.t.t.t.z.z.z.z.z.z.z.z.z.z.z.z.z.z.z.z.z.z.z.z.z.z.z.z.z.z.z.z.z.z.z.F.F.F.F.F.F.F.F.F.S.F.S.S.F.F.F.F.F.S.S.S.S.F.U.U.U.U.U.U.U.U.U.U.U.U.U.U.U.Y.U.U.U.U.U.U.U.U.U.U.U.U.U.U.U.U.J.J.J.J.",
"e.e.e.e.e.e.e.e.e.e.e.e.e.e.e.e.e.e.e.e.e.e.e.e.e.e.e.e.e.e.e.e.e.e.e.e.e.e.e.e.e.e.e.e.e.e.e.e.e.e.e.e.e.e.e.e.e.e.e.e.e.e.e.e.e.e.e.e.e.e.e.e.e.e.e.e.e.e.e.e.e.e.e.e.e.e.e.e.e.e.e.e.e.e.e.e.e.e.e.e.e.e.e.e.e.e.e.e.e.e.e.e.e.e.e.e.e.e.e.e.e.e.e.e.e.e.e.e.e.e.e.e.e.e.e.e.e.e.e.e.e.e.e.e.e.e.e.e.e.e.e.e.e.e.e.e.e.e.e.e.e.e.e.e.e.e.e.e.e.e.e.e.t.e.e.e.e.e.e.e.e.e.e.e.e.e.e.e.e.e.e.e.e.e.e.e.e.e.e.e.e.e.e.e.e.e.e.e.e.e.e.e.e.e.e.e.e.e.e.e.e.e.e.e.e.e.e.e.e.e.e.e.e.e.e.e.e.e.e.e.e.e.e.e.e.e.e.e.e.e.e.e.e.e.e.e.e.e.e.t.t.t.t.t.t.e.e.e.e.t.e.t.e.t.t.t.e.t.t.t.t.t.t.t.t.t.t.t.t.t.t.t.t.t.t.t.t.t.t.t.t.t.t.t.t.t.t.t.t.t.t.t.t.t.t.t.t.t.t.t.t.t.t.t.t.t.t.t.t.t.t.t.t.t.t.t.t.t.t.t.t.t.t.t.t.t.t.t.t.t.t.t.t.t.t.t.t.t.t.t.t.t.t.t.z.z.t.t.z.z.z.t.t.t.t.t.t.t.z.z.z.z.z.z.z.z.z.z.z.z.z.z.z.z.z.z.z.z.z.z.z.z.z.z.z.z.z.z.z.F.F.F.F.F.F.H.F.F.S.S.S.S.F.F.F.F.S.S.S.S.S.S.U.U.U.U.U.U.U.U.U.U.U.U.U.U.U.U.U.U.U.U.U.U.U.U.U.U.U.U.U.U.U.U.J.J.J.J.",
"e.e.e.e.e.e.e.e.e.e.e.e.e.e.e.e.e.e.e.e.e.e.e.e.e.e.e.e.e.e.e.e.e.e.e.e.e.e.e.e.e.e.e.e.e.e.e.e.e.e.e.e.e.e.e.e.e.e.e.e.e.e.e.e.e.e.e.e.e.e.e.e.e.e.e.e.e.e.e.e.e.e.e.e.e.e.e.e.e.e.e.e.e.e.e.e.e.e.e.e.e.e.e.e.e.e.e.e.e.e.e.e.e.e.e.e.e.e.e.e.e.e.e.e.e.e.e.e.e.e.e.e.e.e.e.e.e.e.e.e.e.e.e.e.e.e.e.e.e.e.e.e.e.e.e.e.e.e.e.e.e.e.e.e.e.e.e.e.e.e.e.e.e.e.e.e.e.e.e.e.e.e.e.e.e.e.e.e.e.e.e.e.e.e.e.e.e.e.e.e.e.e.e.e.e.e.e.e.e.e.e.e.e.e.e.e.e.e.e.e.e.e.e.e.e.e.e.e.e.e.e.e.e.e.e.e.e.e.e.e.e.e.e.e.e.e.e.e.e.e.e.e.e.e.e.e.e.e.e.t.t.t.t.t.e.e.e.e.e.t.t.t.e.e.t.t.t.t.t.t.t.t.t.t.t.t.t.t.t.t.t.t.t.t.t.t.t.t.t.t.t.t.t.t.t.t.t.t.t.t.t.t.t.t.t.t.t.t.t.t.t.t.t.t.t.t.t.t.t.t.t.t.t.t.t.t.t.t.t.t.t.t.t.t.t.t.t.t.t.t.t.t.t.t.t.t.t.t.t.t.t.t.t.t.t.t.t.t.z.z.t.t.t.t.t.t.t.t.z.z.z.z.z.z.z.z.z.z.z.z.z.z.z.z.z.z.z.z.z.z.z.z.z.z.z.z.z.z.z.z.F.F.F.F.H.H.F.S.S.S.U.P.F.F.F.F.U.U.U.U.U.U.S.S.S.S.S.S.S.S.S.S.S.S.U.U.U.Y.U.U.U.U.U.U.U.U.U.U.U.U.U.U.U.U.P.P.J.J.",
"e.e.e.e.e.e.e.e.e.e.e.e.e.e.e.e.e.e.e.e.e.e.e.e.e.e.e.e.e.e.e.e.e.e.e.e.e.e.e.e.e.e.e.e.e.e.e.e.e.e.e.e.e.e.e.e.e.e.e.e.e.e.e.e.e.e.e.e.e.e.e.e.e.e.e.e.e.e.e.e.e.e.e.e.e.e.e.e.e.e.e.e.e.e.e.e.e.e.e.e.e.e.e.e.e.e.e.e.e.e.e.e.e.e.e.e.e.e.e.e.e.e.e.e.e.e.e.e.e.e.e.e.e.e.e.e.e.e.e.e.e.e.e.e.e.e.e.e.e.e.e.e.e.e.e.e.e.e.e.e.e.e.e.e.e.e.e.e.e.e.e.e.t.e.e.e.e.e.e.e.e.e.e.e.e.e.e.e.e.e.e.e.e.e.e.e.e.e.e.e.e.e.e.e.e.e.e.e.e.e.e.e.e.e.e.e.e.e.e.e.e.e.e.e.e.e.e.e.e.e.e.e.e.e.e.e.e.e.e.e.e.e.e.e.e.e.e.e.e.e.e.e.e.e.e.e.e.e.e.t.t.t.t.t.e.e.e.e.t.t.t.t.t.t.t.t.e.e.t.t.t.t.t.t.t.t.t.t.t.t.t.t.t.t.t.t.t.t.t.t.t.t.t.t.t.t.t.t.t.t.t.t.t.t.t.t.t.t.t.t.t.t.t.t.t.t.t.t.t.t.t.t.t.t.t.t.t.t.t.t.t.t.t.t.t.t.t.t.t.t.t.t.t.t.t.t.t.t.t.t.t.t.t.t.z.z.t.t.z.z.t.t.t.t.z.z.t.t.z.z.z.z.z.z.z.z.z.z.z.z.z.z.z.z.z.z.z.z.z.z.z.z.F.F.z.z.z.z.z.z.F.F.F.F.H.H.F.S.S.S.U.U.F.F.F.F.U.U.U.U.U.U.S.S.S.S.S.S.S.S.F.S.S.S.S.S.U.Y.U.U.U.U.U.U.U.U.U.U.U.U.U.U.U.U.P.P.J.J.",
"e.e.e.e.e.e.e.e.e.e.e.e.e.e.e.e.e.e.e.e.e.e.e.e.e.e.e.e.e.e.e.e.e.e.e.e.e.e.e.e.q.e.e.e.e.e.e.e.e.e.e.e.e.e.e.e.e.e.e.e.e.e.e.e.e.e.e.e.e.e.e.e.e.e.e.e.e.e.e.e.e.e.e.e.e.e.e.e.e.e.e.e.e.e.e.e.e.e.e.e.e.e.e.e.e.e.e.e.e.e.e.e.e.e.e.e.e.e.e.e.e.e.e.e.e.e.e.e.e.e.e.e.e.e.e.e.e.e.e.e.e.e.e.e.e.e.e.e.e.e.e.e.e.e.e.e.e.e.e.e.e.e.e.e.e.e.e.e.e.e.e.e.t.e.e.e.e.e.e.e.e.e.e.e.e.e.e.e.e.e.e.e.e.e.e.e.e.e.e.e.e.e.e.e.e.e.e.e.e.e.e.e.e.e.e.e.e.e.e.e.e.e.e.e.e.e.e.e.e.e.e.e.e.e.e.e.e.e.e.e.e.e.e.e.e.e.e.e.e.e.e.e.e.e.e.e.e.e.e.t.t.t.t.t.e.e.e.t.t.t.t.t.t.t.t.t.e.t.t.t.t.t.t.t.t.t.t.t.t.t.t.t.t.t.t.t.t.t.t.t.t.t.t.t.t.t.t.t.t.t.t.t.t.t.t.t.t.t.t.t.t.t.t.t.t.t.t.t.t.t.t.t.t.t.t.t.t.t.t.t.t.t.t.t.t.t.t.t.t.t.t.t.t.t.t.t.t.t.t.t.t.t.t.t.z.z.z.z.z.t.t.t.z.z.z.z.t.t.z.z.z.z.z.z.z.z.z.z.z.z.z.z.z.z.z.z.z.z.z.z.z.z.F.z.z.z.z.z.z.z.F.F.F.F.H.H.F.F.S.F.F.F.F.F.F.F.U.U.U.U.U.U.S.G.G.G.G.G.G.G.F.F.S.S.G.S.G.Y.U.U.U.U.U.U.U.U.U.U.U.U.U.U.U.U.J.H.G.G.",
"e.e.e.e.e.e.e.e.e.e.e.e.e.e.e.e.e.e.e.e.e.e.e.e.e.e.e.e.e.e.e.e.e.e.e.e.e.e.e.e.q.q.e.e.e.e.e.e.e.e.e.e.e.e.e.e.e.e.e.e.e.e.e.e.e.e.e.e.e.e.e.e.e.e.e.e.e.e.e.e.e.e.e.e.e.e.e.e.e.e.e.e.e.e.e.e.e.e.e.e.e.e.e.e.e.e.e.e.e.e.e.e.e.e.e.e.e.e.e.e.e.e.e.e.e.e.e.e.e.e.e.e.e.e.e.e.e.e.e.e.e.e.e.e.e.e.e.e.e.e.e.e.e.e.e.e.e.e.e.e.e.e.e.e.e.e.e.e.e.e.e.e.t.e.e.e.e.e.e.e.e.e.e.e.e.e.e.e.e.e.e.e.e.e.e.e.e.e.e.e.e.e.e.e.e.e.e.e.e.e.e.e.e.e.e.e.e.e.e.e.e.e.e.e.e.e.e.e.e.e.e.e.e.e.e.e.e.e.e.e.e.e.e.e.e.e.e.e.e.e.e.e.e.e.e.e.e.e.e.t.t.t.t.t.e.e.e.t.t.t.t.e.t.t.t.t.t.t.t.t.t.t.t.t.t.t.t.t.t.t.t.t.t.t.t.t.t.t.t.t.t.t.t.t.t.t.t.t.t.t.t.t.t.t.t.t.t.t.t.t.t.t.t.t.t.t.t.t.t.t.t.t.t.t.t.t.t.t.t.t.t.t.t.t.t.t.t.t.t.t.t.t.t.t.t.t.t.t.t.t.t.t.t.t.z.z.z.z.t.t.t.t.z.z.z.z.t.t.z.z.z.z.z.z.z.t.z.z.z.z.z.z.z.z.z.z.z.z.z.z.z.z.F.z.z.z.z.z.z.z.z.F.F.F.H.H.F.F.F.F.F.F.F.F.F.U.U.U.U.U.U.U.S.H.G.H.G.H.G.H.F.F.F.F.G.F.S.J.U.P.U.P.U.U.U.U.U.U.U.U.U.U.U.U.Y.G.Y.G.",
"e.q.q.e.e.e.q.q.e.e.e.e.e.e.e.e.e.e.e.e.e.e.e.e.e.e.e.e.e.e.e.e.e.e.e.e.e.e.e.e.e.e.e.e.e.e.e.e.e.e.e.e.e.e.e.e.e.e.e.e.e.e.e.e.e.e.e.e.e.e.e.e.e.e.e.e.e.e.e.e.e.e.e.e.e.e.e.e.e.e.e.e.e.e.e.e.e.e.e.e.e.e.e.e.e.e.e.e.e.e.e.e.e.e.e.e.e.e.e.e.e.e.e.e.e.e.e.e.e.e.e.e.e.e.e.e.e.e.e.e.e.e.e.e.e.e.e.e.e.e.e.e.e.e.e.e.e.e.e.e.e.e.e.e.e.e.e.e.e.e.e.e.e.e.e.e.e.e.e.e.e.e.e.e.e.e.e.e.e.e.e.e.e.e.e.e.e.e.e.e.e.e.e.e.e.e.e.e.e.e.e.e.e.e.e.e.e.e.e.e.e.e.e.e.e.e.e.e.e.e.e.e.e.e.e.e.e.e.e.e.e.e.e.e.e.e.e.e.e.e.e.e.e.e.e.e.e.e.t.t.t.t.e.e.e.e.e.e.t.t.t.e.t.t.t.t.t.t.t.t.t.t.t.t.t.t.t.t.t.t.t.t.t.t.t.t.t.t.t.t.t.t.t.t.t.t.t.t.t.t.t.t.t.t.t.t.t.t.t.t.t.t.t.t.t.t.t.t.t.t.t.t.t.t.t.t.t.t.t.t.t.t.t.t.t.t.t.t.t.t.t.t.t.t.t.t.t.t.t.t.t.t.t.t.t.t.t.t.z.z.z.z.t.t.t.t.t.t.z.z.z.z.z.z.t.t.t.t.t.f.f.f.z.z.z.z.N.N.N.z.z.z.z.z.z.z.z.z.z.z.z.F.F.F.H.f.f.f.F.f.F.F.F.F.F.P.P.P.U.U.T.U.Y.J.H.H.H.H.H.H.H.H.H.H.F.P.P.P.P.P.P.P.P.P.P.P.J.P.J.J.U.U.U.U.U.Y.U.Y.",
"e.q.q.q.e.e.e.q.e.e.e.e.e.e.e.e.q.e.e.e.e.e.e.e.e.e.e.e.e.e.e.e.e.e.e.e.e.e.e.e.e.e.e.e.e.e.e.e.e.e.e.e.e.e.e.e.e.e.e.e.e.e.e.e.e.e.e.e.e.e.e.e.e.e.e.e.e.e.e.e.e.e.e.e.e.e.e.e.e.e.e.e.e.e.e.e.e.e.e.e.e.e.e.e.e.e.e.e.e.e.e.e.e.e.e.e.e.e.e.e.e.e.e.e.e.e.e.e.e.e.e.e.e.e.e.e.e.e.e.e.e.e.e.e.e.e.e.e.e.e.e.e.e.e.e.e.e.e.e.e.e.e.e.e.e.e.e.e.e.e.e.e.e.e.e.e.e.e.e.e.e.e.e.e.e.e.e.e.e.e.e.e.e.e.e.e.e.e.e.e.e.e.e.e.e.e.e.e.e.e.e.e.e.e.e.e.e.e.e.e.e.e.e.e.e.e.e.e.e.e.e.e.e.e.e.e.e.e.e.e.e.e.e.e.e.e.e.e.e.e.e.e.e.e.e.e.e.e.t.t.t.t.e.e.e.e.e.e.t.t.t.e.t.t.t.t.e.t.t.t.t.t.t.t.t.t.t.t.t.t.t.t.t.t.t.t.t.t.t.t.t.t.t.t.t.t.t.t.t.t.t.t.t.t.t.t.t.t.t.t.t.t.t.t.t.t.t.t.t.t.t.t.t.t.t.t.t.t.t.t.t.t.t.t.t.t.t.t.t.t.t.t.t.t.t.t.t.t.t.t.t.t.t.t.t.t.t.t.z.z.z.z.t.t.t.z.t.t.t.z.z.z.z.F.t.t.t.t.t.f.f.f.z.z.z.z.N.N.n.n.z.H.z.z.z.z.z.z.z.z.z.F.F.F.H.f.f.f.f.f.f.f.F.F.F.P.P.P.U.U.T.U.Y.J.H.H.H.H.H.H.H.H.H.H.P.P.P.P.P.P.P.P.P.P.P.P.J.Y.P.J.U.U.U.U.U.U.U.U.",
"e.e.q.q.e.e.e.q.e.e.e.e.e.e.e.e.e.e.e.e.e.q.e.e.e.e.e.e.e.e.e.e.e.e.e.e.e.e.e.e.e.e.e.e.e.e.e.e.e.e.e.e.e.e.e.e.e.e.e.e.e.e.e.e.e.e.e.e.e.e.e.e.e.e.e.e.e.e.e.e.e.e.e.e.e.e.e.e.e.e.e.e.e.e.e.e.e.e.e.e.e.e.e.e.e.e.e.e.e.e.e.e.e.e.e.e.e.e.e.e.e.e.e.e.e.e.e.e.e.e.e.e.e.e.e.e.e.e.e.e.e.e.e.e.e.e.e.e.e.e.e.e.e.e.e.e.e.e.e.e.e.e.e.e.e.e.e.e.e.e.e.e.e.e.e.e.e.e.e.e.e.e.e.e.e.e.e.e.e.e.e.e.e.e.e.e.e.e.e.e.e.e.e.e.e.e.e.e.e.e.e.e.e.e.e.e.e.e.e.e.e.e.e.e.e.e.e.e.e.e.e.e.e.e.e.e.e.e.e.e.e.e.e.e.e.e.e.e.e.e.e.e.e.e.e.e.e.e.t.t.t.t.e.e.e.e.e.e.t.t.t.t.t.t.t.t.e.e.t.t.t.t.t.t.t.t.t.t.t.t.t.t.t.t.t.t.t.t.t.t.t.t.t.t.t.t.t.t.t.t.t.t.t.t.t.t.t.t.t.t.t.t.t.t.t.t.t.t.t.t.t.t.t.t.t.t.t.t.t.t.t.t.t.t.t.t.t.t.t.t.t.t.t.t.t.t.t.t.t.t.t.t.t.t.t.t.t.t.z.z.t.t.t.t.z.z.t.t.t.z.z.z.z.t.t.t.t.t.t.t.H.z.z.z.z.z.z.z.n.n.z.H.H.H.z.z.z.z.z.z.t.F.F.F.H.H.H.H.H.H.H.H.F.F.F.F.U.U.U.U.U.U.Y.Y.H.H.H.H.H.H.H.H.H.H.F.F.P.P.P.P.P.P.J.J.P.P.U.Y.U.U.U.U.U.U.U.U.U.U.",
"u.e.q.q.e.e.e.q.e.e.e.e.e.e.e.e.e.e.e.e.e.e.e.e.e.e.e.e.e.e.e.e.e.e.e.e.e.e.e.e.e.e.e.e.e.e.e.e.e.e.e.e.e.e.e.e.e.e.e.e.e.e.e.e.e.e.e.e.e.e.e.e.e.e.e.e.e.e.e.e.e.e.e.e.e.e.e.e.e.e.e.e.e.e.e.e.e.e.e.e.e.e.e.e.e.e.e.e.e.e.e.e.e.e.e.e.e.e.e.e.e.e.e.e.e.e.e.e.e.e.e.e.e.e.e.e.e.e.e.e.e.e.e.e.e.e.e.e.e.e.e.e.e.e.e.e.e.e.e.e.e.e.e.e.e.e.e.e.e.e.e.e.e.e.e.e.e.e.e.e.e.e.e.e.e.e.e.e.e.e.e.e.e.e.e.e.e.e.e.e.e.e.e.e.e.e.e.e.e.e.e.e.e.e.e.e.e.e.e.e.e.e.e.e.e.e.e.e.e.e.e.e.e.e.e.e.e.e.e.e.e.e.e.e.e.e.e.e.e.e.e.e.e.e.e.e.e.e.t.t.t.t.e.e.e.e.e.e.t.t.t.t.t.t.t.t.e.e.t.t.t.t.t.t.t.t.t.t.t.t.t.t.t.t.t.t.t.t.t.t.t.t.t.t.t.t.t.t.t.t.t.t.t.t.t.t.t.t.t.t.t.t.t.t.t.t.t.t.t.t.t.t.t.t.t.t.t.t.t.t.t.t.t.t.t.t.t.t.t.t.t.t.t.t.t.t.t.t.t.t.t.t.t.t.t.t.t.z.t.t.t.t.t.t.z.z.t.t.t.t.z.z.z.z.t.t.t.t.t.t.z.z.t.z.z.z.z.z.n.z.H.H.H.H.z.F.z.z.z.z.f.F.F.H.H.H.H.H.H.H.H.H.F.F.F.P.U.U.U.U.U.U.Y.Y.H.H.H.H.H.H.H.H.H.H.F.F.P.P.P.P.P.P.J.J.J.P.P.P.U.U.U.U.U.U.U.U.U.U.",
"u.u.e.q.q.e.e.e.e.e.e.e.e.e.e.e.e.e.e.e.e.e.e.e.e.e.e.e.e.e.e.e.e.e.e.e.e.e.e.e.e.e.e.e.e.e.e.e.e.e.e.e.e.e.e.e.e.e.e.e.e.e.e.e.e.e.e.e.e.e.e.e.e.e.e.e.e.e.e.e.e.e.e.e.e.e.e.e.e.e.e.e.e.e.e.e.e.e.e.e.e.e.e.e.e.e.e.e.e.e.e.e.e.e.e.e.e.e.e.e.e.e.e.e.e.e.e.e.e.e.e.e.e.e.e.e.e.e.e.e.e.e.e.e.e.e.e.e.e.e.e.e.e.e.e.e.e.e.e.e.e.e.e.e.e.e.e.e.e.e.e.e.e.e.e.e.e.e.e.e.e.e.e.e.e.e.e.e.e.e.e.e.e.e.e.e.e.e.e.e.e.e.e.e.e.e.e.e.e.e.e.e.e.e.e.e.e.e.e.e.e.e.e.e.e.e.e.e.e.e.e.e.e.e.e.e.e.e.e.e.e.e.e.e.e.e.e.e.e.t.t.t.t.t.t.t.e.e.t.t.t.t.e.e.e.e.e.e.t.t.t.t.e.t.t.t.t.t.t.t.e.t.t.t.t.t.t.t.t.t.t.t.t.t.t.t.t.t.t.e.t.t.t.t.t.t.t.t.t.t.t.t.t.t.t.t.t.t.t.t.t.t.t.t.t.t.t.t.t.t.t.t.t.t.t.t.t.t.t.t.t.t.t.t.t.t.t.t.t.t.t.t.t.t.t.t.t.t.t.t.t.t.t.t.t.t.z.z.t.t.t.t.z.z.z.z.t.t.t.z.t.z.z.z.t.t.t.t.z.z.z.z.z.z.z.z.z.z.z.H.H.H.f.f.F.F.F.F.f.t.t.f.t.H.H.H.H.H.H.H.H.H.H.H.S.S.U.Y.Y.Y.Y.S.J.J.J.H.H.H.H.H.H.H.H.H.F.F.P.P.P.P.P.P.P.P.P.P.U.U.U.U.U.U.U.U.U.P.P.P.",
"r.e.e.q.e.e.e.e.e.e.e.e.e.e.e.e.e.e.e.e.e.e.e.e.e.e.e.e.e.e.e.e.e.e.e.e.e.e.e.e.e.e.e.e.e.e.e.e.e.e.e.e.e.e.e.e.e.e.e.e.e.e.e.e.e.e.e.e.e.e.e.e.e.e.e.e.e.e.e.e.e.e.e.e.e.e.e.e.e.e.e.e.e.e.e.e.e.e.e.e.e.e.e.e.e.e.e.e.e.e.e.e.e.e.e.e.e.e.e.e.e.e.e.e.e.e.e.e.e.e.e.e.e.e.e.e.e.e.e.e.e.e.e.e.e.e.e.e.e.e.e.e.e.e.e.e.e.e.e.e.e.e.e.e.e.e.e.e.e.e.e.e.e.e.e.e.e.e.e.e.e.e.e.e.e.e.e.e.e.e.e.e.e.e.e.e.e.e.e.e.e.e.e.e.e.e.e.e.e.e.e.e.e.e.e.e.e.e.e.e.e.e.e.e.e.e.e.e.e.e.e.e.e.e.e.e.e.e.e.e.e.e.e.e.e.e.e.e.e.t.t.t.t.t.t.t.e.e.t.t.t.t.e.e.e.e.e.e.t.t.t.t.e.t.t.t.t.t.t.t.e.e.e.t.t.t.t.t.t.t.t.t.t.t.t.t.t.e.t.t.t.t.t.t.t.t.t.t.t.t.t.t.t.t.t.t.t.t.t.t.t.t.t.t.t.t.t.t.t.t.t.t.t.t.t.t.t.t.t.t.t.t.t.t.t.t.t.t.t.t.t.t.t.t.t.t.t.t.t.t.t.t.t.t.t.t.z.z.t.t.t.t.t.t.z.z.t.t.t.z.t.t.z.z.t.t.t.t.z.z.z.z.z.z.z.z.H.H.H.f.H.f.f.f.F.F.F.F.t.t.f.f.f.H.H.H.F.F.F.H.H.H.H.H.F.S.S.U.G.S.S.F.J.J.J.J.H.H.H.H.H.H.H.H.F.F.P.P.P.P.P.P.I.P.P.P.U.U.U.U.U.U.U.U.P.P.P.J.",
"r.e.e.q.e.e.e.e.e.e.e.e.e.e.e.e.e.e.e.e.e.e.e.e.e.e.e.e.e.e.e.e.e.e.e.e.e.e.e.e.e.e.e.e.e.e.e.e.e.e.e.e.e.e.e.e.e.e.e.e.e.e.e.e.e.e.e.e.e.e.e.e.e.e.e.e.e.e.e.e.e.e.e.e.e.e.e.e.e.e.e.e.e.e.e.e.e.e.e.e.e.e.e.e.e.e.e.e.e.e.e.e.e.e.e.e.e.e.e.e.e.e.e.e.e.e.e.e.e.e.e.e.e.e.e.e.e.e.e.e.e.e.e.e.e.e.e.e.e.e.e.e.e.e.e.e.e.e.e.e.e.e.e.e.e.e.e.e.e.e.e.e.e.e.e.e.e.e.e.e.e.e.e.e.e.e.e.e.e.e.e.e.e.e.e.e.e.e.e.e.e.e.e.e.e.e.e.e.e.e.e.e.e.e.e.e.e.e.e.e.e.e.e.e.e.e.e.e.e.e.e.e.e.e.e.e.e.e.e.e.e.e.e.e.e.e.e.e.e.e.t.t.t.t.t.t.e.e.t.t.t.t.e.e.e.e.e.e.t.t.t.t.t.t.t.t.t.t.t.t.e.e.e.t.e.e.t.t.t.t.t.t.t.t.e.t.t.t.t.e.t.t.t.t.t.t.t.t.t.t.t.t.t.t.t.t.t.t.t.t.t.t.t.t.t.t.t.t.t.t.t.t.t.t.t.t.t.t.t.t.t.t.t.t.t.t.t.t.t.t.t.t.t.t.t.t.t.t.t.t.t.t.t.t.t.z.z.z.z.z.t.t.t.t.t.t.t.t.t.z.t.t.t.t.z.H.z.z.z.z.z.z.t.t.t.t.H.H.f.t.H.f.f.f.F.F.F.F.F.t.t.t.H.H.H.H.F.F.F.F.F.F.f.t.F.F.F.F.F.F.F.F.P.P.P.J.J.H.H.H.F.F.F.F.F.F.P.P.I.I.I.P.I.I.I.I.T.U.U.U.U.U.U.U.P.P.J.J.",
"r.u.e.e.e.e.u.e.e.e.e.e.e.e.e.e.e.e.e.e.e.e.e.e.e.e.e.e.e.e.e.e.e.e.e.e.e.e.e.e.e.e.e.e.e.e.e.e.e.e.e.e.e.e.e.e.e.e.e.e.e.e.e.e.e.e.e.e.e.e.e.e.e.e.e.e.e.e.e.e.e.e.e.e.e.e.e.e.e.e.e.e.e.e.e.e.e.e.e.e.e.e.e.e.e.e.e.e.e.e.e.e.e.e.e.e.e.e.e.e.e.e.e.e.e.e.e.e.e.e.e.e.e.e.e.e.e.e.e.e.e.e.e.e.e.e.e.e.e.e.e.e.e.e.e.e.e.e.e.e.e.e.e.e.e.e.e.e.e.e.e.e.e.e.e.e.e.e.e.e.e.e.e.e.e.e.e.e.e.e.e.e.e.e.e.e.e.e.e.e.e.e.e.e.e.e.e.e.e.e.e.e.e.e.e.e.e.e.e.e.e.e.e.e.e.e.e.e.e.e.e.e.e.e.e.e.e.e.e.e.e.e.e.e.e.e.e.e.e.e.t.t.t.t.t.t.e.e.t.t.t.t.e.e.e.e.e.e.t.t.t.t.t.t.t.t.t.t.t.t.e.e.e.e.e.t.t.t.t.t.t.t.e.e.t.t.t.t.t.t.t.t.t.t.t.t.t.t.t.t.t.t.t.t.t.t.t.t.t.t.t.t.t.t.t.t.t.t.t.t.t.t.t.t.t.t.t.t.t.t.t.t.t.t.t.t.t.t.t.t.t.t.t.t.t.t.t.t.t.t.t.t.t.t.t.z.z.z.z.t.t.t.t.t.t.t.t.t.t.t.t.t.t.t.z.z.z.z.z.z.z.z.t.t.t.t.t.z.f.f.f.f.f.f.F.F.F.F.F.t.f.t.z.H.H.F.F.F.F.F.z.f.t.t.F.F.F.P.P.F.F.f.I.I.I.P.P.J.J.J.F.F.F.F.F.F.P.P.N.V.N.N.T.I.I.I.T.T.T.U.U.U.U.U.P.P.J.J.",
"y.r.u.q.q.e.e.e.e.e.e.e.e.e.e.e.e.e.e.e.e.e.e.e.e.e.e.e.e.e.e.e.e.e.e.e.e.e.e.e.e.e.e.e.e.e.e.e.e.e.e.e.e.e.e.e.e.e.e.e.e.e.e.e.e.e.e.e.e.e.e.e.e.e.e.e.e.e.e.e.e.e.e.e.e.e.e.e.e.e.e.e.e.e.e.e.e.e.e.e.e.e.e.e.e.e.e.e.e.e.e.e.e.e.e.e.e.e.e.e.e.e.e.e.e.e.e.e.e.e.e.e.e.e.e.q.e.e.e.e.e.e.e.e.e.e.e.e.e.e.e.e.e.e.q.q.e.e.e.e.e.e.e.e.e.e.e.e.e.e.e.e.e.e.e.e.e.e.e.e.e.e.e.e.e.e.e.e.e.e.e.e.e.e.e.e.e.e.e.e.e.e.e.e.e.e.e.e.e.e.e.e.e.e.e.e.e.e.e.e.e.e.e.e.e.e.e.e.e.e.e.e.e.e.e.e.e.e.e.e.e.e.e.e.e.e.e.e.e.e.t.t.t.t.t.t.t.t.t.e.e.t.t.t.t.t.t.t.t.t.t.t.t.t.t.t.t.t.t.t.t.t.t.t.t.t.t.t.t.t.e.e.t.t.t.t.t.t.t.t.t.t.t.t.t.t.t.t.t.t.t.t.t.t.t.t.t.t.t.t.t.t.t.t.t.t.t.t.t.t.t.t.t.t.t.t.t.t.t.t.z.t.t.t.t.t.t.t.t.t.t.t.t.t.t.t.t.t.t.t.t.t.t.t.t.t.t.t.t.t.t.t.t.t.t.z.z.z.z.t.t.t.t.t.f.t.f.P.U.U.P.N.N.N.t.t.t.t.t.f.f.f.t.t.t.f.f.f.H.f.f.f.H.H.S.F.U.U.P.F.F.F.P.f.t.t.f.f.P.f.P.g.E.E.E.I.R.R.P.f.J.f.F.f.f.f.P.g.y.i.E.E.E.N.N.I.N.I.I.I.I.I.I.P.P.P.Y.Y.",
"i.y.r.u.e.e.e.e.e.e.e.e.e.e.e.e.e.e.e.e.e.e.e.e.e.e.e.e.e.e.e.e.e.e.e.e.e.e.e.e.e.e.e.e.e.e.e.e.e.e.e.e.e.e.e.e.e.e.e.e.e.e.e.e.e.e.e.e.e.e.e.e.e.e.e.e.e.e.e.e.e.e.e.e.e.e.e.e.e.e.e.e.e.e.e.e.e.e.e.e.e.e.e.e.e.e.e.e.e.e.e.e.e.e.e.e.e.e.e.e.e.e.e.e.e.e.e.e.e.e.e.e.e.e.e.e.e.e.e.e.e.e.e.e.e.e.e.e.e.e.e.e.e.e.q.q.e.e.e.e.e.e.e.e.e.e.e.e.e.e.e.e.e.e.e.e.e.e.e.e.e.e.e.e.e.e.e.e.e.e.e.e.e.e.e.e.e.e.e.e.e.e.e.e.e.e.e.e.e.e.e.e.e.e.e.e.e.e.e.e.e.e.e.e.e.e.e.e.e.e.e.e.e.e.e.e.e.e.e.e.e.e.e.e.e.e.e.e.e.t.t.t.t.t.t.t.t.t.t.e.t.t.t.t.t.t.t.e.t.t.t.t.e.e.t.t.t.t.e.e.t.t.t.t.e.e.t.t.t.e.e.e.t.t.t.t.t.t.t.e.t.t.t.t.t.t.t.t.t.t.t.t.t.t.t.t.t.t.t.t.t.t.t.t.t.t.t.t.t.t.t.t.t.t.t.t.t.t.t.t.t.t.t.t.t.t.t.t.t.t.t.t.t.t.t.t.t.t.t.t.t.t.t.t.t.t.t.t.t.t.t.t.t.t.z.z.z.z.z.z.z.t.t.t.t.e.t.t.N.I.N.y.N.N.y.y.t.t.t.t.t.t.t.t.t.f.f.f.f.f.f.f.H.H.S.F.P.N.N.y.y.t.y.f.y.y.y.f.g.g.g.g.E.E.E.E.E.E.R.g.R.g.R.g.I.g.I.g.i.g.W.W.E.E.E.E.E.E.E.E.E.R.T.T.P.J.U.Y.",
"V.V.V.y.y.u.e.e.e.e.e.e.e.e.e.e.e.e.e.e.e.e.e.e.e.e.e.e.e.e.e.e.e.e.e.e.e.e.e.e.e.e.e.e.e.e.e.e.e.e.e.e.e.e.e.e.e.e.e.e.e.e.e.e.e.e.e.e.e.e.e.e.e.e.e.e.e.e.e.e.e.e.e.e.e.e.e.e.e.e.e.e.e.e.e.e.e.e.e.e.e.e.e.e.e.e.e.e.e.e.e.e.e.e.e.e.e.e.e.e.e.e.e.e.e.e.e.e.e.e.e.e.e.e.e.e.e.e.e.e.e.e.e.e.e.e.e.e.e.e.e.e.e.e.e.e.e.e.e.e.e.e.e.e.e.e.e.e.e.e.e.e.e.e.e.e.e.e.e.e.e.e.e.e.e.e.e.e.e.e.e.e.e.e.e.e.e.e.e.e.e.e.e.e.e.e.e.e.e.e.e.e.e.e.e.e.e.e.e.e.e.e.e.e.e.e.e.e.e.e.e.e.e.e.e.e.e.e.e.e.e.e.e.e.e.e.e.e.e.e.t.t.t.t.t.t.t.t.t.t.t.t.t.t.t.t.e.e.t.t.t.t.e.t.t.t.t.t.e.t.t.t.t.e.e.t.t.t.t.t.t.t.t.t.t.e.t.t.t.e.e.e.t.t.t.t.t.t.t.t.t.t.t.t.t.t.t.t.t.t.t.t.t.t.t.t.t.t.t.t.t.t.t.t.t.t.t.t.t.t.t.z.t.t.t.t.t.t.t.t.t.t.t.t.t.t.t.t.t.t.t.t.t.t.t.t.t.t.t.t.t.t.z.t.z.z.z.z.z.z.z.t.t.t.e.e.u.r.N.E.E.E.V.V.i.y.y.y.r.y.u.y.y.y.f.f.f.f.t.t.t.f.z.F.F.F.N.y.y.y.y.y.y.y.y.y.y.i.g.g.g.g.W.W.Q.W.W.Q.E.E.E.E.E.E.E.E.E.W.W.W.Q.Q.Q.W.W.W.W.E.E.E.E.E.E.E.I.P.I.P.",
"V.V.V.V.y.y.e.e.e.e.e.e.e.e.e.e.e.e.e.e.e.e.e.e.e.e.e.e.e.e.e.e.e.e.e.e.e.e.e.e.e.e.e.e.e.e.e.e.e.e.e.e.e.e.e.e.e.e.e.e.e.e.e.e.e.e.e.e.e.e.e.e.e.e.e.e.e.e.e.e.e.e.e.e.e.e.e.e.e.e.e.e.e.e.e.e.e.e.e.e.e.e.e.e.e.e.e.e.e.e.e.e.e.e.e.e.e.e.e.e.e.e.e.e.e.e.e.e.e.e.e.e.e.e.e.e.e.e.e.e.e.e.e.e.e.e.e.e.e.e.e.e.e.e.e.e.e.e.e.e.e.e.e.e.e.e.e.e.e.e.e.e.e.e.e.e.e.e.e.e.e.e.e.e.e.e.e.e.e.e.e.e.e.e.e.e.e.e.e.e.e.e.e.e.e.e.e.e.e.e.e.e.e.e.e.e.e.e.e.e.e.e.e.e.e.e.e.e.e.e.e.e.e.e.e.e.e.e.e.e.e.e.e.e.e.e.e.e.e.e.e.e.t.t.t.t.t.t.t.t.t.t.t.t.t.t.t.t.t.t.e.e.e.t.t.t.t.t.t.t.t.t.t.e.t.t.t.t.t.t.t.t.t.t.t.t.t.t.e.e.e.t.t.t.t.t.t.t.t.t.t.t.t.t.t.t.t.t.t.t.t.t.t.t.t.t.t.t.t.t.t.t.t.t.t.t.t.t.t.t.t.t.t.t.t.t.t.t.t.t.t.t.t.t.t.t.t.t.t.t.t.t.t.t.t.t.t.t.t.t.t.t.z.z.z.z.t.t.z.z.z.z.t.t.t.u.u.y.E.Q.^.^.W.W.W.i.i.i.y.y.u.u.y.y.y.f.f.f.t.t.t.t.z.z.S.P.y.y.y.y.y.y.i.i.g.g.g.h.h.h.h.h.!.!.^.!.^.^.Q.Q.Q.Q.Q.Q.Q.Q.Q.Q.!.!.!.!.^.^.^.Q.W.W.W.E.E.E.E.E.I.R.R.I.",
"V.V.V.V.B.y.u.e.e.e.t.t.t.t.e.e.e.e.e.e.e.e.e.e.e.e.e.e.e.e.e.e.e.e.e.e.e.e.e.e.e.e.e.e.e.e.e.e.e.e.e.e.e.e.e.e.e.e.e.e.e.e.e.e.e.e.e.e.e.e.e.e.e.e.e.e.e.e.e.e.e.e.e.e.e.e.e.e.e.e.e.e.e.e.e.e.e.e.e.e.e.e.e.e.e.e.e.e.e.e.e.e.e.e.e.e.e.e.e.e.e.e.e.e.e.e.e.e.e.e.e.e.e.e.e.e.e.e.e.e.e.e.e.e.e.e.e.e.e.e.e.e.e.e.e.e.e.e.e.e.e.e.e.e.e.e.e.e.e.e.e.e.e.e.e.e.e.e.e.e.e.e.e.e.e.e.e.e.e.e.e.e.e.e.e.e.e.e.e.e.e.e.e.e.e.e.e.e.e.e.e.e.e.e.e.e.e.e.e.e.e.e.e.e.e.e.e.e.e.e.e.e.e.e.e.e.e.e.e.e.e.e.e.e.e.e.e.e.e.e.e.e.t.t.t.t.t.e.e.t.e.e.t.t.t.t.t.e.t.t.t.e.t.t.t.t.t.t.t.t.t.t.t.e.t.t.t.t.t.t.t.t.t.t.t.t.t.t.t.t.t.t.t.t.t.t.t.t.t.t.t.t.t.t.t.t.t.t.t.t.t.t.t.t.t.t.t.t.t.t.t.t.t.t.t.t.t.t.t.t.t.t.t.t.t.t.t.t.t.t.t.t.t.t.t.t.t.t.t.t.t.t.z.t.t.t.t.z.t.t.t.t.t.t.t.t.t.t.z.z.t.t.t.t.t.y.y.i.W.!.^.^.^.~.!.!.h.p.p.i.i.y.y.y.y.y.f.t.t.t.t.f.z.F.n.U.N.g.g.g.E.E.W.W.W.h.h.h.j.j.!.!.~.~.^.^.^.^.^.^.^.^.Q.Q.^.^.^.^.^.^.^.^.^.^.^.^.!.Q.Q.W.W.E.E.g.E.I.I.I.",
"V.V.V.V.y.y.u.e.e.e.t.t.e.t.e.e.e.e.e.e.e.e.e.e.e.e.e.e.e.e.e.e.e.e.e.e.e.e.e.e.e.e.e.e.e.e.e.e.e.e.e.e.e.e.e.e.e.e.e.e.e.e.e.e.e.e.e.e.e.e.e.e.e.e.e.e.e.e.e.e.e.e.e.e.e.e.e.e.e.e.e.e.e.e.e.e.e.e.e.e.e.e.e.e.e.e.e.e.e.e.e.e.e.e.e.e.e.e.e.e.e.e.e.e.e.e.e.e.e.e.e.e.e.e.e.e.e.e.e.e.e.e.e.e.e.e.e.e.e.e.e.e.e.e.e.e.e.e.e.e.e.e.e.e.e.e.e.e.e.e.e.e.e.e.e.e.e.e.e.e.e.e.e.e.e.e.e.e.e.e.e.e.e.e.e.e.e.e.e.e.e.e.e.e.e.e.e.e.e.e.e.e.e.e.e.e.e.e.e.e.e.e.e.e.e.e.e.e.e.e.e.e.e.e.e.e.e.e.e.e.e.e.e.e.e.e.e.e.e.e.e.e.e.e.t.t.t.t.e.t.t.e.t.t.t.t.e.e.t.t.t.t.t.t.t.t.t.t.t.t.t.t.t.t.e.t.t.t.t.t.t.t.t.t.t.t.t.t.t.t.t.t.t.t.t.t.t.t.t.t.t.t.t.t.t.t.t.t.t.t.t.t.t.t.t.t.t.t.t.t.t.t.t.t.t.t.t.t.t.t.t.t.t.t.t.t.t.t.t.t.t.t.t.t.t.t.t.t.t.t.t.t.t.z.t.t.t.t.t.t.t.z.t.t.t.t.t.t.t.t.t.t.t.t.y.y.i.h.!.^.^./././.~.~.!.!.j.j.h.g.g.y.y.y.y.t.t.f.f.f.F.F.n.T.E.g.E.W.W.Q.Q.W.^.^.^.^.~.~.~.~././.^.^.^.^.^.^.^.^.^.^.^.^.^.^.^.^.~.~.^.^.^.!.!.^.^.^.Q.W.W.E.E.E.E.I.",
"i.i.i.y.y.y.r.e.e.e.e.t.e.e.e.e.e.e.e.e.e.e.e.e.e.e.e.e.e.e.e.e.e.e.e.e.e.e.e.e.e.e.e.e.e.e.e.e.e.e.e.e.e.e.e.e.e.e.e.e.e.e.e.e.e.e.e.e.e.e.e.e.e.e.e.e.e.e.e.e.e.e.e.e.e.e.e.e.e.e.e.e.e.e.e.e.e.e.e.e.e.e.e.e.e.e.e.e.e.e.e.e.e.e.e.e.e.e.e.e.e.e.e.e.e.e.e.e.q.e.e.e.e.e.e.e.e.e.e.e.e.e.e.e.e.e.e.e.e.e.e.e.e.e.e.e.e.e.e.e.e.e.e.e.e.e.e.e.e.e.e.e.e.e.e.e.e.e.e.e.e.e.e.e.e.e.e.e.e.e.e.e.e.e.e.e.e.e.e.e.e.e.e.e.e.e.e.e.e.e.e.e.e.e.e.e.e.e.e.e.e.e.e.e.e.e.e.e.e.e.e.e.e.e.e.e.e.e.e.e.e.e.e.e.e.e.e.e.e.e.e.e.e.e.e.e.t.t.t.t.t.t.t.t.t.t.t.t.t.t.t.t.e.e.t.t.t.t.t.e.t.t.t.t.e.e.t.t.t.t.t.e.t.t.t.t.t.t.t.t.t.t.t.t.t.t.t.t.t.t.t.t.t.t.t.t.t.t.t.t.t.t.t.t.t.t.t.t.t.t.t.t.t.t.t.t.t.t.t.t.t.t.t.t.t.t.t.t.t.t.t.t.t.t.t.t.t.t.t.t.z.t.z.z.t.t.t.t.t.t.t.z.t.t.t.t.z.t.t.t.t.t.z.y.y.i.g.W.^.^./././././././.~.~.~.!.W.g.g.y.y.y.f.f.f.F.F.N.U.T.T.E.E.W.Q.Q.^.^.^.^.~.~.~././././././././.^.~.~.!.j.j.!.!.!.^.^.~.^.~.~.~.~.~.^.!.^.^.^.^.Q.Q.W.W.E.E.E.E.",
"r.r.r.r.r.r.y.y.e.e.e.e.e.e.e.e.e.e.e.e.e.e.e.e.e.e.e.e.e.e.e.e.e.e.e.e.e.e.e.e.e.e.e.e.e.e.e.e.e.e.e.e.e.e.e.e.e.e.e.e.e.e.e.e.e.e.e.e.e.e.e.e.e.e.e.e.e.e.e.e.e.e.e.e.e.e.e.e.e.e.e.e.e.e.e.e.e.e.e.e.e.e.e.e.e.e.e.e.e.e.e.e.e.e.e.e.e.e.e.e.e.e.e.e.e.e.e.e.q.q.e.e.e.e.e.e.e.e.e.e.e.e.e.e.e.e.e.e.e.e.e.e.e.e.e.e.e.e.e.e.e.e.e.e.e.e.e.e.e.e.e.e.e.e.e.e.e.e.e.e.e.e.e.e.e.e.e.e.e.e.e.e.e.e.e.e.e.e.e.e.e.e.e.e.e.e.e.e.e.e.e.e.e.e.e.e.e.e.e.e.e.e.e.e.e.e.e.e.e.e.e.e.e.e.e.e.e.e.e.e.e.e.e.e.e.e.e.e.e.e.e.e.e.e.e.e.t.t.t.t.t.t.t.t.t.t.t.t.t.t.t.t.t.e.t.t.t.t.e.e.t.t.t.t.t.e.t.t.t.t.t.e.t.t.t.t.t.t.t.t.t.t.t.t.t.t.t.t.t.t.t.t.t.t.t.t.t.t.t.t.t.t.t.t.t.t.t.t.t.t.t.t.t.t.t.t.t.t.t.t.t.t.t.t.t.t.t.t.t.t.t.t.t.t.t.t.t.t.t.t.z.z.z.z.t.t.t.t.t.t.t.t.t.t.t.t.t.t.t.u.u.t.y.y.i.h.h.!.^./././././././././././.^.^.W.g.i.y.y.y.y.y.y.g.N.N.V.E.E.W.W.!.^.^.^.~.~.~././././././././././.^.~.!.!.j.j.j.!.!.~.~.~.^.~.~.~.~.~.~.!.!.!.!.^.W.W.W.W.W.E.E.E.",
"N.r.r.r.r.r.r.y.r.r.t.e.e.e.e.e.e.e.e.e.e.e.e.e.e.e.e.e.e.e.e.e.e.e.e.e.e.e.e.e.e.e.e.e.e.e.e.e.e.e.e.e.e.e.e.e.e.e.e.e.e.e.e.e.e.e.e.e.e.e.e.e.e.e.e.e.e.e.e.e.e.e.e.e.e.e.e.e.e.e.e.e.e.e.e.e.e.e.e.e.e.e.e.e.e.e.e.e.e.e.e.e.e.e.e.e.e.e.e.e.e.e.e.e.e.e.e.e.e.e.e.e.e.e.e.e.e.e.e.e.e.e.e.e.e.e.e.e.e.e.e.e.e.e.e.e.e.e.e.e.e.e.e.e.e.e.e.e.e.e.e.e.e.e.e.e.e.e.e.e.e.e.e.e.e.e.e.e.e.e.e.e.e.e.e.e.e.e.e.e.e.e.e.e.e.e.e.e.e.e.e.e.e.e.e.e.e.e.e.e.e.e.e.e.e.e.e.e.e.e.e.e.e.e.e.e.e.e.e.e.e.e.e.e.e.e.e.e.e.e.e.e.e.e.e.e.e.e.e.e.t.t.t.t.t.t.t.t.e.e.t.t.t.t.t.t.t.t.t.t.t.t.t.t.t.t.t.t.t.t.t.t.t.t.t.t.t.t.t.t.t.t.t.t.t.t.t.t.t.t.t.t.t.t.t.t.t.t.t.t.t.t.t.t.t.t.t.t.t.t.t.t.t.t.t.t.t.t.t.t.t.t.t.t.t.t.t.t.t.t.t.t.t.t.e.e.t.t.t.t.t.t.t.t.t.t.t.t.e.e.t.t.t.t.t.u.u.u.u.u.u.i.g.h.h.j.j.k././././././././././././.~.!.!.W.h.h.i.i.a.a.i.p.C.C.C.C.j.j.~.~./././././././././././././././.~.~.~.^.!.!.!.!.!.!.~.~.~.~.~.~.~.~.^.~.!.j.!.!.!.!.!.h.W.W.W.E.E.",
"y.r.r.e.e.r.e.r.r.r.t.e.e.t.e.e.e.e.e.e.t.t.e.e.e.e.e.e.e.e.e.e.e.e.e.e.e.e.e.e.e.e.e.e.e.e.e.e.e.e.e.e.e.e.e.e.e.e.e.e.e.e.e.e.e.e.e.e.e.e.e.e.e.e.e.e.e.e.e.e.e.e.e.e.e.e.e.e.e.e.e.e.e.e.e.e.e.e.e.e.e.e.e.e.e.e.e.e.e.e.e.e.e.e.e.e.e.e.e.e.e.e.e.e.e.e.e.e.e.e.e.e.e.e.e.e.e.e.e.e.e.e.e.e.e.e.e.e.e.e.e.e.e.e.e.e.e.e.e.e.e.e.e.e.e.e.e.e.e.e.e.e.e.e.e.e.e.e.e.e.e.e.e.e.e.e.e.e.e.e.e.e.e.e.e.e.e.e.e.e.e.e.e.e.e.e.e.e.e.e.e.e.e.e.e.e.e.e.e.e.e.e.e.e.e.e.e.e.e.e.e.e.e.e.e.e.e.e.e.e.e.e.e.e.e.e.e.e.e.e.e.e.e.e.e.e.e.e.e.e.t.t.t.t.t.t.t.t.e.e.t.t.t.t.t.e.e.t.t.t.t.t.t.t.t.t.t.t.t.t.t.t.t.t.t.t.e.t.t.t.t.t.t.t.t.t.t.t.t.t.t.t.t.t.t.t.t.t.t.t.t.t.t.t.t.t.t.t.t.t.t.t.t.t.t.t.t.t.t.t.t.t.t.t.t.t.t.t.t.t.t.t.e.t.e.e.t.t.t.f.t.t.t.t.t.t.t.t.t.t.y.y.y.y.y.y.u.u.u.a.a.h.h.j.j.k.k.l./././././././././././././.^.~.!.!.W.h.h.p.p.p.C.A.!.A.!.j.k.~./././././././././././././././.~.~.~.~.!.j.!.!.!.~.~.^.~.~.~.~.~.~.~.^.~.!.!.!.!.!.j.j.j.W.Q.W.W.W.",
"r.r.e.e.e.e.e.e.r.r.t.e.e.e.e.e.e.e.e.t.t.e.e.e.e.e.e.e.e.e.e.e.e.e.e.e.e.e.e.e.e.e.e.e.e.e.e.e.e.e.e.e.e.e.e.e.e.e.e.e.e.e.e.e.e.e.e.e.e.e.e.e.e.e.e.e.e.e.e.e.e.e.e.e.e.e.e.e.e.e.e.e.e.e.e.e.e.e.e.e.e.e.e.e.e.e.e.e.e.e.e.e.e.e.e.e.e.e.e.e.e.e.e.e.e.e.e.e.e.e.e.e.e.e.e.e.e.e.e.e.e.e.e.e.e.e.e.e.e.e.e.e.e.e.e.e.e.e.e.e.e.e.e.e.e.e.e.e.e.e.e.e.e.e.e.e.e.e.e.e.e.e.e.e.e.e.e.e.e.e.e.e.e.e.e.e.e.e.e.e.e.e.e.e.e.e.e.e.e.e.e.e.e.e.e.e.e.e.e.e.e.e.e.e.e.e.e.e.e.e.e.e.e.e.e.e.e.e.e.e.e.e.e.e.e.e.e.e.e.e.e.e.e.e.e.e.e.e.e.e.t.t.t.t.e.e.t.e.e.e.t.t.t.t.t.e.e.t.t.t.e.t.t.t.t.e.e.t.t.t.t.t.t.t.e.e.e.t.t.t.t.t.t.t.t.t.t.t.t.t.t.t.t.t.t.t.t.t.t.t.t.t.t.t.t.t.t.t.t.t.t.t.t.t.t.t.t.t.t.t.t.t.t.t.t.t.t.t.t.t.t.t.e.e.t.t.t.t.t.t.t.t.t.t.t.t.t.y.y.y.y.g.g.g.g.g.g.i.i.h.h.h.j.j.k.k.k././././././././././././././.^.~.~.!.!.!.!.h.h.!.!.!.~.~.~.k.k.~././././././././././././././.~.k.k.j.j.!.h.!.!.^.^.^.~.^.~.~.~.~.~.^.^.^.^.!.!.!.W.h.W.W.W.Q.Q.W.W.",
"r.r.r.r.r.r.e.e.r.r.t.t.t.t.e.e.e.e.t.t.t.t.e.e.e.e.e.e.e.e.e.e.e.e.e.e.e.e.e.e.e.e.e.e.e.e.e.e.e.e.e.e.e.e.e.e.e.e.e.e.e.e.e.e.e.e.e.e.e.e.e.e.e.e.e.e.e.e.e.e.e.e.e.e.e.e.e.e.e.e.e.e.e.e.e.e.e.e.e.e.e.e.e.e.e.e.e.e.e.e.e.e.e.e.e.e.e.e.e.e.e.e.e.e.e.e.e.e.e.e.e.e.e.e.e.e.e.e.e.e.e.e.e.e.e.e.e.e.e.e.e.e.e.e.e.e.e.e.e.e.e.e.e.e.e.e.e.e.e.e.e.e.e.e.e.e.e.e.e.e.e.e.e.e.e.e.e.e.e.e.e.e.e.e.e.e.e.e.e.e.e.e.e.e.e.e.e.e.e.e.e.e.e.e.e.e.e.e.e.e.e.e.e.e.e.e.e.e.e.e.e.e.e.e.e.e.e.e.e.e.e.e.e.e.e.e.e.e.e.e.e.e.e.e.e.e.e.e.e.e.t.t.t.t.e.e.e.e.e.t.t.t.t.t.e.e.e.e.t.t.e.e.t.t.t.t.e.t.t.e.e.e.t.t.t.e.e.t.t.t.t.t.t.t.e.e.e.t.t.t.t.t.t.t.t.t.t.t.t.t.t.t.t.t.t.t.t.t.t.t.t.t.t.t.t.t.t.t.t.t.t.t.t.t.t.t.t.t.t.t.t.t.t.e.t.t.t.t.t.t.t.t.t.t.t.t.y.r.y.y.g.g.g.g.W.h.h.h.h.h.j.j.j.j.~.~.~./././././././.l.l.l.l./././.~.~.~.~.~.~.~.!.!.!.!.~.~./.~.~./././././././././././././././.~.k.j.j.j.j.h.h.W.!.!.^.^.^.~.!.~.!.!.!.~.^.^.^.!.W.h.h.h.h.W.W.^.Q.W.W.",
"y.y.y.N.N.y.y.t.e.e.t.e.e.e.t.e.e.e.t.t.t.e.e.e.e.e.e.e.e.e.e.e.e.e.e.e.e.e.e.e.e.e.e.e.e.e.e.e.e.e.e.e.e.e.e.e.e.e.e.e.e.e.e.e.e.e.e.e.e.e.e.e.e.e.e.e.e.e.e.e.e.e.e.e.e.e.e.e.e.e.e.e.e.e.e.e.e.e.e.e.e.e.e.e.e.e.e.e.e.e.e.e.e.e.e.e.e.e.e.e.e.e.e.e.e.e.e.e.e.e.e.e.e.e.e.e.e.e.e.e.e.e.e.e.e.e.e.e.e.e.e.e.e.e.e.e.e.e.e.e.e.e.e.e.e.e.e.e.e.e.e.e.e.e.e.e.e.e.e.e.e.e.e.e.e.e.e.e.e.e.e.e.e.e.e.e.e.e.e.e.e.e.e.e.e.e.e.e.e.e.e.e.e.e.e.e.e.e.e.e.e.e.e.e.e.e.e.e.e.e.e.e.e.e.e.e.e.e.e.e.e.e.e.e.e.e.e.e.e.t.t.t.t.t.t.t.e.e.e.e.t.t.t.t.e.t.t.t.t.e.t.t.t.t.e.e.e.e.t.t.t.t.t.t.t.t.t.t.t.t.e.e.t.t.t.t.t.t.t.t.t.t.t.t.t.t.t.t.t.t.t.t.t.t.t.t.t.t.t.t.t.t.t.t.t.t.t.t.t.t.t.t.t.t.t.t.t.t.t.t.t.t.t.t.t.t.t.t.t.t.t.t.t.t.t.t.t.t.t.t.t.t.t.t.y.y.y.y.i.i.g.g.W.h.W.h.j.j.j.j.j.j.~.~.~.k.k.k./././././.l.l.l.l.l.l.l.~./.~.~.~.~.~.~.~.~.~.~.~.~./././.l././././././././././././././.~.~.j.j.!.!.h.h.h.W.Q.!.!.!.!.!.!.!.!.!.^.^.^.!.!.W.h.h.h.W.W.Q.^.!.W.W.",
"y.N.N.N.N.N.N.y.e.e.t.e.e.e.t.e.e.e.e.e.e.e.e.e.e.e.e.e.e.e.e.e.e.e.e.e.e.e.e.e.e.e.e.e.e.e.e.e.e.e.e.e.e.e.e.e.e.e.e.e.e.e.e.e.e.e.e.e.e.e.e.e.e.e.e.e.e.e.e.e.e.e.e.e.e.e.e.e.e.e.e.e.e.e.e.e.e.e.e.e.e.e.e.e.e.e.e.e.e.e.e.e.e.e.e.e.e.e.e.e.e.e.e.e.e.e.e.e.e.e.e.e.e.e.e.e.e.e.e.e.e.e.e.e.e.e.e.e.e.e.e.e.e.e.e.e.e.e.e.e.e.e.e.e.e.e.e.e.e.e.e.e.e.e.e.e.e.e.e.e.e.e.e.e.e.e.e.e.e.e.e.e.e.e.e.e.e.e.e.e.e.e.e.e.e.e.e.e.e.e.e.e.e.e.e.e.e.e.e.e.e.e.e.e.e.e.e.e.e.e.e.e.e.e.e.e.e.e.e.e.e.e.e.e.e.e.e.e.e.t.t.t.t.t.t.t.e.e.e.e.t.t.t.t.t.t.t.t.e.e.t.t.t.e.e.e.e.e.e.t.t.t.t.t.t.t.t.t.t.t.e.t.t.t.t.t.t.t.t.t.t.t.t.t.t.t.t.t.t.t.t.t.t.t.t.t.t.t.t.t.t.t.t.t.t.t.t.t.t.t.t.t.t.t.t.t.t.t.t.t.t.t.t.t.t.t.t.t.t.t.t.t.t.t.t.t.t.t.t.t.t.t.y.N.N.N.N.V.i.p.h.h.W.j.j.j.j.j.j.j.k.k.~.~.k.k.k.k.k.l.~./.l.l.l.l.l.l.l.l././././.~././././.~.~.d.d.d./.~././././././././././././././././.~.!.j.j.!.W.h.h.h.h.W.W.W.W.!.!.W.W.C.W.Q.!.!.W.W.W.g.g.g.E.W.W.Q.W.W.W.",
"r.y.N.N.N.N.y.y.e.e.t.e.t.t.e.e.e.e.e.e.e.e.e.e.e.e.e.e.e.e.e.e.e.e.e.e.e.e.e.e.e.e.e.e.e.e.e.e.e.e.e.e.e.e.e.e.e.e.e.e.e.e.e.e.e.e.e.e.e.e.e.e.e.e.e.e.e.e.e.e.e.e.e.e.e.e.e.e.e.e.e.e.e.e.e.e.e.e.e.e.e.e.e.e.e.e.e.e.e.e.e.e.e.e.e.e.e.e.e.e.e.e.e.e.e.e.e.e.e.e.e.e.e.e.e.e.e.e.e.e.e.e.e.e.e.e.e.e.e.e.e.e.e.e.e.e.e.e.e.e.e.e.e.e.e.e.e.e.e.e.e.e.e.e.e.e.e.e.e.e.e.e.e.e.e.e.e.e.e.e.e.e.e.e.e.e.e.e.e.e.e.e.e.e.e.e.e.e.e.e.e.e.e.e.e.e.e.e.e.e.e.e.e.e.e.e.e.e.e.e.e.e.e.e.e.e.e.e.e.e.e.e.e.e.e.e.e.e.e.e.t.t.t.t.t.t.e.e.e.e.t.t.t.t.t.t.t.t.e.t.t.t.t.e.e.e.e.e.e.t.t.t.e.e.t.t.t.t.t.t.t.t.t.t.t.t.t.t.t.t.t.t.t.t.t.t.t.e.t.t.t.t.t.t.t.t.t.t.t.t.t.t.t.t.t.t.t.t.t.t.t.t.t.t.t.t.t.t.e.e.u.u.t.t.t.t.t.t.z.t.t.t.t.t.t.t.t.t.t.t.t.y.y.g.E.E.E.E.p.p.!.j.!.!.!.!.j.j.k.k.k.k.k.k.~.k.j.k.d.k.k.l.l.l.l.l.l.l.k.~././././././././././.~.l.l.l.~.~./././././././././././././././.l.~.!.j.h.h.h.W.W.W.W.E.W.W.W.W.W.W.W.C.W.W.Q.W.W.W.E.E.g.g.E.E.W.Q.W.h.h.",
"r.e.y.N.N.y.r.r.r.e.t.e.t.e.e.e.e.e.e.e.e.e.e.e.e.e.e.e.e.e.e.e.e.e.e.e.e.e.e.e.e.e.e.e.e.e.e.e.e.e.e.e.e.e.e.e.e.e.e.e.e.e.e.e.e.e.e.e.e.e.e.e.e.e.e.e.e.e.e.e.e.e.e.e.e.e.e.e.e.e.e.e.e.e.e.e.e.e.e.e.e.e.e.e.e.e.e.e.e.e.e.e.e.e.e.e.e.e.e.e.e.e.e.e.e.e.e.e.e.e.e.e.e.e.e.e.e.e.e.e.e.e.e.e.e.e.e.e.e.e.e.e.e.e.e.e.e.e.e.e.e.e.e.e.e.e.e.e.e.e.e.e.e.e.e.e.e.e.e.e.e.e.e.e.e.e.e.e.e.e.e.e.e.e.e.e.e.e.e.e.e.e.e.e.e.e.e.e.e.e.e.e.e.e.e.e.e.e.e.e.e.e.e.e.e.e.e.e.e.e.e.e.e.e.e.e.e.e.e.e.e.e.e.e.e.e.e.e.e.e.t.t.t.t.t.t.e.e.e.e.t.t.t.e.t.t.t.t.t.t.t.t.e.e.e.e.e.e.e.e.t.t.e.e.t.t.t.t.t.t.t.t.t.t.t.t.t.t.t.t.t.t.t.t.t.t.t.t.t.t.t.e.t.t.t.t.t.t.t.t.t.t.t.t.t.t.t.t.t.t.t.t.t.y.t.t.t.t.t.e.u.e.t.t.t.t.t.t.z.t.t.t.t.t.t.t.t.t.t.t.y.y.y.N.E.E.E.W.j.j.j.!.~.~.~.~.k.j.k.k.~.~.~.k.~.j.j.j.d.d.d.l.~.k.l.k.l.k.k.~.l./././././././././.~.l.l.l.l./.l./././././././././././././.l.k.j.!.h.h.h.h.W.h.g.g.g.g.E.W.W.W.W.E.g.E.W.W.W.E.E.E.g.g.g.E.E.E.W.h.h.h.",
"e.e.r.r.r.r.e.e.e.e.e.t.t.e.e.e.e.e.e.e.e.e.e.e.e.e.e.e.e.e.e.e.e.e.e.e.e.e.e.e.e.e.e.e.e.e.e.e.e.e.e.e.e.e.e.e.e.e.e.e.e.e.e.e.e.e.e.e.e.e.e.e.e.e.e.e.e.e.e.e.e.e.e.e.e.e.e.e.e.e.e.e.e.e.e.e.e.e.e.e.e.e.e.e.e.e.e.e.e.e.e.e.e.e.e.e.e.e.e.e.e.e.e.e.e.e.e.e.e.e.e.e.e.e.e.e.e.e.e.e.e.e.e.e.e.e.e.e.e.e.e.e.e.e.e.e.e.e.e.e.e.e.e.e.e.e.e.e.e.e.e.e.e.e.e.e.e.e.e.e.e.e.e.e.e.e.e.e.e.e.e.e.e.e.e.e.e.e.e.e.e.e.e.e.e.e.e.e.e.e.e.e.e.e.e.e.e.e.e.e.e.e.e.e.e.e.e.e.e.e.e.e.e.e.e.e.e.e.e.e.e.e.e.e.e.e.e.e.e.e.t.t.t.t.t.t.t.t.t.t.t.t.e.e.t.t.t.t.e.e.e.t.e.e.e.e.e.e.e.e.t.t.t.t.t.t.e.e.e.e.t.t.t.t.e.e.t.t.t.t.t.t.t.t.e.e.t.t.t.t.e.e.t.t.t.t.t.t.t.t.t.t.t.t.t.t.t.t.t.t.t.u.r.y.y.y.t.t.y.t.u.u.u.u.t.t.t.t.z.t.z.t.t.t.t.t.t.t.t.t.y.y.g.E.E.W.W.W.!.!.~.~.~.k.k.j.j.j.k.~.k.k.k.k.~.j.j.j.j.k.k.k.~.k.l.k.l.k.~.k.l.l.l./././././././.~.l.l.l.d.~.l.l././././././././././././.k.~.j.h.h.h.h.h.g.g.E.g.i.i.i.E.E.E.i.i.E.E.E.E.E.E.E.E.E.E.E.E.E.E.W.W.W.W.",
"e.e.e.r.r.r.e.e.e.e.e.t.t.e.e.e.e.e.e.e.e.e.e.e.e.e.e.e.e.e.e.e.e.e.e.e.e.e.e.e.e.e.e.e.e.e.e.e.e.e.e.e.e.e.e.e.e.e.e.e.e.e.e.e.e.e.e.e.e.e.e.e.e.e.e.e.e.e.e.e.e.e.e.e.e.e.e.e.e.e.e.e.e.e.e.e.e.e.e.e.e.e.e.e.e.e.e.e.e.e.e.e.e.e.e.e.e.e.e.e.e.e.e.e.e.e.e.e.e.e.e.e.e.e.e.e.e.e.e.e.e.e.e.e.e.e.e.e.e.e.e.e.e.e.e.e.e.e.e.e.e.e.e.e.e.e.e.e.e.e.e.e.e.e.e.e.e.e.e.e.e.e.e.e.e.e.e.e.e.e.e.e.e.e.e.e.e.e.e.e.e.e.e.e.e.e.e.e.e.e.e.e.e.e.e.e.e.e.e.e.e.e.e.e.e.e.e.e.e.e.e.e.e.e.e.e.e.e.e.e.e.e.e.e.e.e.e.e.e.t.t.t.t.t.t.t.t.t.t.t.t.t.e.e.t.t.t.t.e.e.e.t.t.e.e.e.e.e.e.t.t.t.t.t.t.t.t.e.t.e.t.t.t.t.e.e.t.t.t.t.t.t.t.t.e.e.t.t.t.t.e.e.t.t.t.t.t.t.t.t.t.t.t.t.t.t.t.t.t.t.u.y.y.y.y.y.y.y.y.t.u.t.t.u.t.t.t.t.t.t.z.z.t.t.t.t.t.t.t.t.y.y.g.E.W.W.W.W.!.~.~.~.k.k.k.k.j.j.~.~.~.k.~.j.j.j.j.j.j.k.~.~.~.~.~.k.k.k.k.k.~.k.l.l././././././.~.l.l.l.~.~.l.l././././././././././.~.~.~.j.h.h.h.h.h.g.g.g.E.E.i.i.V.E.E.E.y.y.g.E.E.E.E.g.g.E.E.E.E.E.E.E.E.W.W.W.",
"e.e.e.r.r.e.e.e.e.e.e.t.t.e.e.e.e.e.e.e.e.e.e.e.e.e.e.e.e.e.e.e.e.e.e.e.e.e.e.e.e.e.e.e.e.e.e.e.e.e.e.e.e.e.e.e.e.e.e.e.e.e.e.e.e.e.e.e.e.e.e.e.e.e.e.e.e.e.e.e.e.e.e.e.e.e.e.e.e.e.e.e.e.e.e.e.e.e.e.e.e.e.e.e.e.e.e.e.e.e.e.e.e.e.e.e.e.e.e.e.e.e.e.e.e.e.e.e.e.e.e.e.e.e.e.e.e.e.e.e.e.e.e.e.e.e.e.e.e.t.e.e.e.e.e.e.e.e.e.e.e.e.e.e.e.e.e.e.e.e.e.e.e.e.e.e.e.e.e.e.e.e.e.e.e.e.e.e.e.e.e.e.e.e.e.e.e.e.e.e.e.e.e.e.e.e.e.e.e.e.e.e.e.e.e.e.e.e.e.e.e.e.e.e.e.e.e.e.e.e.e.e.e.e.e.e.e.e.e.e.e.e.e.e.e.e.e.e.e.e.t.t.t.t.t.t.t.t.t.t.t.t.t.e.t.t.t.t.e.e.t.t.t.e.e.e.e.e.e.t.t.t.t.t.t.t.t.t.t.t.t.t.t.t.t.t.t.t.t.t.t.t.t.t.t.t.t.t.t.t.t.t.t.t.t.t.t.t.t.t.z.t.t.t.t.t.t.t.t.t.y.y.y.y.g.g.y.y.y.y.y.u.t.u.t.t.t.t.z.z.z.z.t.t.u.u.t.t.r.u.y.y.i.E.W.Q.W.!.~.~.~.~.!.!.j.j.!.!.!.!.!.j.!.j.j.j.j.j.~.~.~.~.~.~.~.k.j.j.j.j.k.k.k.k./././././.~.l.d.d.d.~.~.k.k.~././././././.~.~.~.~.~.j.j.h.h.h.h.g.g.g.g.E.E.E.E.E.E.E.E.y.I.N.I.I.I.I.I.I.I.I.I.I.I.I.E.g.E.E.E.",
"e.e.e.e.e.e.e.e.e.e.e.e.e.e.e.e.e.e.e.e.e.e.e.e.e.e.e.e.e.e.e.e.e.e.e.e.e.e.e.e.e.e.e.e.e.e.e.e.e.e.e.e.e.e.e.e.e.e.e.e.e.e.e.e.e.e.e.e.e.e.e.e.e.e.e.e.e.e.e.e.e.e.e.e.e.e.e.e.e.e.e.e.e.e.e.e.e.e.e.e.e.e.e.e.e.e.e.e.e.e.e.e.e.e.e.e.e.e.e.e.e.e.e.e.e.e.e.e.e.e.e.e.e.e.e.e.e.e.e.e.e.e.e.e.e.e.e.e.e.e.e.e.e.e.e.e.e.e.e.e.e.e.e.e.e.e.e.e.e.e.e.e.e.e.e.e.e.e.e.e.e.e.e.e.e.e.e.e.e.e.e.e.e.e.e.e.e.e.e.e.e.e.e.e.e.e.e.e.e.e.e.e.e.e.e.e.e.e.e.e.e.e.e.e.e.e.e.e.e.e.e.e.e.e.e.e.e.e.e.e.e.e.e.e.e.e.e.e.e.e.e.e.t.t.t.t.t.t.t.t.t.t.e.e.e.e.t.t.t.t.t.t.t.t.e.e.e.e.t.t.t.t.t.t.t.t.t.t.t.t.t.t.t.t.t.t.t.t.t.t.t.t.t.t.t.t.t.t.t.t.t.t.t.t.t.z.N.N.z.t.z.z.t.t.t.t.t.t.u.u.y.y.y.g.g.g.g.g.y.y.y.y.t.u.t.t.t.t.z.z.z.z.t.t.u.u.t.t.r.y.y.y.i.E.W.W.!.!.~.~.~.!.!.j.j.j.j.j.j.j.j.j.h.h.h.j.j.j.~.~.~.~.~.~.~.j.j.j.j.j.k.j.k.k.~.~.~.~.~.~.d.d.d.~.~.~.~.k.~.~.~./././.~.~.!.j.!.h.h.h.h.h.h.h.E.g.E.E.W.E.E.E.E.E.E.E.N.I.I.I.I.P.I.I.f.I.I.I.I.I.I.I.E.g.g.E.",
"e.e.r.r.e.r.e.e.e.e.e.e.e.e.e.e.e.e.e.e.e.e.e.e.e.e.e.e.e.e.e.e.e.e.e.e.e.e.e.e.e.e.e.e.e.e.e.e.e.e.e.e.e.e.e.e.e.e.e.e.e.e.e.e.e.e.e.e.e.e.e.e.e.e.e.e.e.e.e.e.e.e.e.e.e.e.e.e.e.e.e.e.e.e.e.e.e.e.e.e.e.e.e.e.e.e.e.e.e.e.e.e.e.e.e.e.e.e.e.e.e.e.e.e.e.e.e.e.e.e.e.e.e.e.e.e.e.e.e.e.e.e.e.e.e.e.e.e.e.e.e.e.e.e.e.e.e.e.e.e.e.e.e.e.e.e.e.e.e.e.e.e.e.e.e.e.e.e.e.e.e.e.e.e.e.e.e.e.e.e.e.e.e.e.e.e.e.e.e.e.e.e.e.e.e.e.e.e.e.e.e.e.e.e.e.e.e.e.e.e.e.e.e.e.e.e.e.e.e.e.e.e.e.e.e.e.e.e.e.e.e.e.e.e.e.e.e.e.e.e.e.e.t.t.t.t.e.e.e.e.e.e.e.e.e.t.t.t.t.t.t.t.t.t.e.e.e.e.t.t.t.t.t.t.t.t.t.t.t.t.t.t.t.t.t.t.t.t.t.t.t.t.t.t.t.t.t.t.t.t.t.t.t.y.y.N.N.N.N.z.z.z.t.t.t.t.t.t.u.u.y.y.y.y.g.g.g.g.g.y.y.y.y.t.t.t.t.t.z.z.z.z.t.t.t.t.u.y.y.y.y.y.i.g.W.W.W.!.!.!.!.!.!.j.p.p.h.p.p.p.p.p.h.p.h.h.j.j.!.!.!.!.~.~.k.j.j.j.j.j.j.j.j.j.~.~.~.~.~.~.~.!.!.!.!.!.!.~.~.~.~.~.~.~.~.!.!.h.h.h.h.g.h.W.W.W.W.W.W.E.W.E.E.E.E.E.E.E.I.I.I.I.P.I.I.I.N.N.N.I.N.I.I.E.g.g.E.E.",
"e.e.e.r.e.e.e.e.e.e.e.e.e.e.e.e.e.e.e.e.e.e.e.e.e.e.e.e.e.e.e.e.e.e.e.e.e.e.e.e.e.e.e.e.e.e.e.e.e.e.e.e.e.e.e.e.e.e.e.e.e.e.e.e.e.e.e.e.e.e.e.e.e.e.e.e.e.e.e.e.e.e.e.e.e.e.e.e.e.e.e.e.e.e.e.e.e.e.e.e.e.e.e.e.e.e.e.e.e.e.e.e.e.e.e.e.e.e.e.e.e.e.e.e.e.e.e.e.e.e.e.e.e.e.e.e.e.e.e.e.e.e.e.e.e.e.e.e.e.e.e.e.e.e.e.e.e.e.e.e.e.e.e.e.e.e.e.e.e.e.e.e.e.e.e.e.e.e.e.e.e.e.e.e.e.e.e.e.e.e.e.e.e.e.e.e.e.e.e.e.e.e.e.e.e.e.e.e.e.e.e.e.e.e.e.e.e.e.e.e.e.e.e.e.e.e.e.e.e.e.e.e.e.e.e.e.e.e.e.e.e.e.e.e.e.e.e.e.e.e.e.e.e.e.t.t.e.e.e.e.e.e.e.e.e.t.t.t.t.t.t.t.t.t.t.e.e.t.t.t.t.t.t.t.t.t.t.t.t.t.t.t.t.t.t.t.t.t.t.t.t.t.t.t.t.t.t.t.t.t.t.t.t.t.t.N.N.N.N.t.z.t.t.t.t.t.t.t.u.r.r.y.y.y.i.i.i.g.y.y.y.r.y.y.t.t.t.t.z.z.z.z.z.t.t.t.y.y.y.y.y.y.i.i.p.W.j.!.!.!.!.!.j.h.p.p.p.p.p.h.h.h.W.h.h.h.j.j.j.j.j.j.~.!.j.j.j.j.j.j.j.j.j.j.j.!.A.A.A.!.A.!.!.!.!.!.!.!.!.!.!.!.^.~.!.!.h.h.g.g.g.g.W.W.W.W.W.W.W.W.E.E.V.V.E.E.V.E.T.I.I.P.P.P.P.I.N.N.N.N.N.I.I.T.N.g.E.E.",
"e.e.e.r.r.e.e.e.e.e.e.e.e.e.e.e.e.e.e.e.e.e.e.e.e.e.e.e.e.e.e.e.e.e.e.e.e.e.e.e.e.e.e.e.e.e.e.e.e.e.e.e.e.e.e.e.e.e.e.e.e.e.e.e.e.e.e.e.t.t.e.e.e.e.e.e.e.e.e.e.e.e.e.e.e.e.e.e.e.e.e.e.e.e.e.e.e.e.e.e.e.e.e.e.e.e.e.e.e.e.e.e.e.e.e.e.e.e.e.e.e.e.e.e.e.e.e.e.e.e.e.e.e.e.e.e.e.e.e.e.e.e.e.e.e.e.e.e.e.e.e.e.e.e.e.e.e.e.e.e.e.e.e.e.e.e.e.e.e.e.e.e.e.e.e.e.e.e.e.e.e.e.e.e.e.e.e.e.e.e.e.e.e.e.e.e.e.e.e.e.e.e.e.e.e.e.e.e.e.e.e.e.e.e.e.e.e.e.e.e.e.e.e.e.e.e.e.e.e.e.e.e.e.e.e.e.e.e.e.e.e.e.e.e.e.e.e.e.e.e.e.e.e.e.e.e.e.e.e.e.e.e.e.e.t.t.t.t.t.t.t.t.t.t.t.e.e.t.t.t.e.t.t.t.t.t.t.t.t.e.t.t.t.t.t.t.t.t.t.t.t.t.t.t.t.t.t.t.t.t.t.t.t.t.t.t.N.y.z.z.t.t.t.t.t.t.t.t.u.r.r.r.r.y.y.y.y.y.y.y.y.r.y.t.t.t.t.t.z.z.z.z.z.z.y.y.y.y.y.y.y.y.i.i.p.p.p.p.!.!.!.h.p.p.p.p.i.i.i.i.i.g.g.h.h.h.p.p.j.j.j.j.~.!.j.j.A.p.p.h.h.h.h.h.!.A.A.A.!.A.A.!.!.W.W.!.!.!.!.!.A.!.!.!.W.W.h.g.g.g.g.g.g.g.g.g.g.g.E.E.E.V.V.V.V.V.V.N.T.U.U.P.N.N.N.P.N.N.N.N.T.T.T.T.N.I.E.E.",
"e.e.e.e.e.e.e.e.e.e.e.e.e.e.e.e.e.e.e.e.e.e.e.e.e.e.e.e.e.e.e.e.e.e.e.e.e.e.e.e.e.e.e.e.e.e.e.e.e.e.e.e.e.e.e.e.e.e.e.e.e.e.e.e.e.e.e.e.t.t.e.e.e.e.e.e.e.e.e.e.e.e.e.e.e.e.e.e.e.e.e.e.e.e.e.e.e.e.e.e.e.e.e.e.e.e.e.e.e.e.e.e.e.e.e.e.e.e.e.e.e.e.e.e.e.e.e.e.e.e.e.e.e.e.e.e.e.e.e.e.e.e.e.e.e.e.e.e.e.e.e.e.e.e.e.e.e.e.e.e.e.e.e.e.e.e.e.e.e.e.e.e.e.e.e.e.e.e.e.e.e.e.e.e.e.e.e.e.e.e.e.e.e.e.e.e.e.e.e.e.e.e.e.e.e.e.e.e.e.e.e.e.e.e.e.e.e.e.e.e.e.e.e.e.e.e.e.e.e.e.e.e.e.e.e.e.e.e.e.e.e.e.e.e.e.e.e.e.e.e.e.e.e.e.e.e.e.e.e.e.e.e.e.e.t.t.t.t.t.t.t.t.t.t.t.t.t.t.t.t.e.e.t.t.t.t.t.t.t.e.e.t.t.t.t.t.t.t.t.t.t.t.t.t.t.t.t.t.t.t.t.t.t.t.t.y.y.N.N.t.t.t.t.t.t.t.e.t.u.u.r.r.r.r.y.y.y.y.y.y.y.y.y.t.t.t.t.t.z.z.z.z.z.N.y.y.y.N.y.y.y.y.i.i.i.p.p.p.W.W.W.W.C.p.p.i.i.a.a.i.i.g.g.g.h.h.p.p.p.j.j.!.!.!.j.p.p.p.p.p.h.h.h.h.h.W.C.p.W.W.W.W.W.W.W.W.!.!.A.C.C.p.C.W.W.h.i.g.g.g.E.E.i.i.i.i.i.i.V.V.E.V.V.V.V.E.V.N.P.P.z.t.y.y.N.N.N.N.N.N.I.I.T.I.I.I.E.E.",
"e.e.e.e.e.e.e.e.e.e.e.e.e.e.e.e.q.q.e.e.e.e.e.e.e.e.e.e.e.e.e.e.e.e.e.e.e.e.e.e.e.e.e.e.e.e.e.e.e.e.e.e.e.e.e.e.e.e.e.e.e.e.e.e.e.e.e.e.e.e.e.e.e.e.e.e.e.e.e.e.e.e.e.e.e.e.e.e.e.e.e.e.e.e.e.e.e.e.e.e.e.e.e.e.e.e.e.e.e.e.e.e.e.e.e.e.e.e.e.e.e.e.e.e.e.e.e.e.e.e.e.e.e.e.e.e.e.e.e.e.e.e.e.e.e.e.e.e.e.e.e.e.e.e.e.e.e.e.e.e.e.e.e.e.e.e.e.e.e.e.e.e.e.e.e.e.e.e.e.e.e.e.e.e.e.e.e.e.e.e.e.e.e.e.e.e.e.e.e.e.e.e.e.e.e.e.e.e.e.e.e.e.t.t.t.t.e.e.e.e.e.e.e.e.t.t.t.e.e.e.e.t.e.t.t.t.e.e.e.e.e.e.e.e.e.e.e.e.e.e.e.e.e.e.e.e.e.e.e.e.e.e.e.e.e.e.e.e.e.e.e.t.t.t.t.t.e.e.e.e.e.t.t.t.t.t.t.t.t.t.t.t.t.t.t.t.t.t.t.t.t.t.t.t.t.y.y.r.r.y.y.y.y.y.y.r.r.r.y.t.t.t.t.t.t.t.t.t.t.u.u.u.t.t.t.t.t.t.t.t.t.t.t.t.t.t.t.t.z.z.z.z.N.N.y.y.y.N.N.y.y.y.y.i.i.i.p.p.C.C.C.W.W.V.i.i.a.i.i.i.i.g.g.g.g.h.p.h.h.h.j.!.!.!.!.p.p.i.p.W.W.h.g.g.g.W.g.g.g.E.E.W.E.W.W.W.W.C.C.C.W.h.E.g.E.g.E.g.E.i.i.i.y.y.i.g.E.E.E.V.V.V.E.E.V.E.E.I.f.f.f.P.P.P.I.P.g.g.E.E.E.E.g.g.E.E.E.E.",
"e.e.e.e.e.e.e.e.e.e.e.e.e.e.e.e.q.e.e.e.e.e.e.e.e.e.e.e.e.e.e.e.e.e.e.e.e.e.e.e.e.e.e.e.e.e.e.e.e.e.e.e.e.e.e.e.e.e.e.e.e.e.e.e.e.e.e.e.e.e.e.e.e.e.e.e.e.e.e.e.e.e.e.e.e.e.e.e.e.e.e.e.e.e.e.e.e.e.e.e.e.e.e.e.e.e.e.e.e.e.e.e.e.e.e.e.e.e.e.e.e.e.e.e.e.e.e.e.e.e.e.e.e.e.e.e.e.e.e.e.e.e.e.e.e.e.e.e.e.e.e.e.e.e.e.e.e.e.e.e.e.e.e.e.e.e.e.e.e.e.e.e.e.e.e.e.e.e.e.e.e.e.e.e.e.e.e.e.e.e.e.e.e.e.e.e.e.e.e.e.e.e.e.e.e.e.e.e.e.e.e.e.t.t.t.t.t.t.t.t.t.t.t.t.t.t.t.e.e.e.e.t.e.t.t.e.e.e.e.t.e.e.e.e.e.e.e.e.e.e.e.e.e.e.e.e.e.e.e.e.e.e.e.e.e.e.e.e.e.e.e.t.t.t.t.t.e.e.e.e.e.t.t.t.t.t.t.t.t.t.t.t.t.t.t.t.t.t.t.t.t.t.t.t.t.y.y.y.r.r.y.y.y.y.y.r.r.r.y.t.t.t.t.t.t.t.t.t.t.t.t.t.t.t.t.t.t.t.t.t.t.t.t.t.t.t.t.t.t.z.z.z.N.N.y.y.y.y.N.N.y.y.y.y.i.V.i.V.V.C.C.C.V.V.i.a.y.y.y.y.i.i.g.g.g.g.p.p.h.h.h.W.!.W.W.C.i.i.V.W.W.g.g.g.g.E.g.g.g.g.g.E.E.E.E.W.C.C.W.W.W.E.E.E.E.E.E.g.i.i.i.i.y.y.y.V.V.V.N.N.N.I.I.I.N.N.I.I.P.P.f.f.g.f.g.g.g.E.E.E.E.E.g.g.E.E.E.E.",
"e.e.e.e.e.e.e.e.e.e.e.e.e.e.e.e.e.e.e.e.e.e.e.e.e.e.e.e.e.e.e.e.e.e.e.e.e.e.e.e.e.e.e.e.e.e.e.e.e.e.e.e.e.e.e.e.e.e.e.e.e.e.e.e.e.e.e.e.e.e.e.e.e.e.e.e.e.e.e.e.e.e.e.e.e.e.e.e.e.e.e.e.e.e.e.e.e.e.e.e.e.e.e.e.e.e.e.e.e.e.e.e.e.e.e.e.e.e.e.e.e.e.e.e.e.e.e.e.e.e.e.e.e.e.e.e.e.e.e.e.e.e.e.e.e.e.e.e.e.e.e.e.e.e.e.e.e.e.e.e.e.e.e.e.e.e.e.e.e.e.e.e.e.e.e.e.e.e.e.e.e.e.e.e.e.e.e.e.e.e.e.e.e.e.e.e.e.e.e.e.e.e.e.e.e.e.e.e.e.e.e.e.t.t.t.t.t.t.t.t.t.t.t.t.t.e.e.e.e.e.t.t.e.e.e.e.e.e.t.t.e.e.e.e.e.e.e.e.e.e.e.e.e.e.e.e.e.e.e.e.e.e.e.e.t.t.e.e.e.e.e.t.e.e.e.e.t.t.t.t.e.t.t.t.t.t.t.t.t.t.t.t.t.t.t.t.t.t.t.t.t.t.t.t.t.t.t.t.t.t.t.t.t.t.y.t.t.t.t.t.t.t.t.t.t.t.t.t.t.t.t.t.t.t.t.t.t.t.t.t.t.t.t.t.t.t.t.t.t.t.t.t.N.N.z.z.y.y.y.y.y.y.y.y.i.V.V.V.V.C.C.V.V.V.i.y.y.y.y.y.i.i.i.i.g.g.g.h.h.h.h.h.W.W.W.C.i.i.V.V.E.g.i.i.g.g.g.g.g.g.g.g.g.g.E.E.C.C.W.W.W.E.E.i.g.g.g.y.y.y.i.i.y.y.y.y.V.y.y.y.y.y.y.y.y.y.y.I.I.P.g.g.I.I.I.I.E.E.E.E.W.W.h.g.E.E.E.E.",
"e.e.e.e.e.e.e.e.e.e.e.e.e.e.e.e.e.e.e.e.e.e.e.e.e.e.e.e.e.e.e.e.e.e.e.e.e.e.e.e.e.e.e.e.e.e.e.e.e.e.e.e.e.e.e.e.e.e.e.e.e.e.e.e.e.e.e.e.e.e.e.e.e.e.e.e.e.e.e.e.e.e.e.e.e.e.e.e.e.e.e.e.e.e.e.e.e.e.e.e.e.e.e.e.e.e.e.e.e.e.e.e.e.e.e.e.e.e.e.e.e.e.e.e.e.e.e.e.e.e.e.e.e.e.e.e.e.e.e.e.e.e.e.e.e.e.e.e.e.e.e.e.e.e.e.e.e.e.e.e.e.e.e.e.e.e.e.e.e.e.e.e.e.e.e.e.e.e.e.e.e.e.e.e.e.e.e.e.e.e.e.e.e.e.e.e.e.e.e.e.e.e.e.e.e.e.e.e.e.e.e.e.t.t.t.t.t.t.t.t.t.t.t.t.e.e.e.e.e.e.t.e.e.e.e.e.e.e.t.t.e.e.e.e.e.e.e.e.e.e.e.e.e.e.e.e.e.e.e.e.e.e.e.e.t.t.t.t.e.e.e.t.e.e.e.e.t.t.t.t.t.t.t.t.t.t.t.t.t.t.t.t.t.t.t.t.t.t.t.t.t.t.t.t.t.t.t.t.t.t.t.t.t.t.t.t.t.t.t.t.t.t.t.t.t.t.t.t.t.t.t.t.t.t.t.t.t.t.t.t.t.t.t.t.t.t.t.t.t.t.t.t.t.t.t.z.y.t.y.y.y.y.y.y.y.i.V.V.C.C.V.V.V.V.i.y.y.y.y.y.i.i.i.i.g.g.i.i.p.p.p.h.h.W.W.p.i.i.V.V.i.i.y.y.y.g.g.y.g.g.g.g.g.g.g.g.C.C.C.E.E.E.i.g.y.y.y.y.y.y.y.y.y.N.N.N.y.y.y.y.y.y.y.y.y.y.y.I.P.P.g.g.g.g.E.E.E.E.E.E.W.E.h.g.E.E.E.E.",
"e.e.e.e.e.e.e.e.e.e.e.e.e.e.e.e.e.e.e.e.e.e.e.e.e.e.e.e.e.e.e.e.e.e.e.e.e.e.e.e.e.e.e.e.e.e.e.e.e.e.e.e.e.e.e.e.e.e.e.e.e.e.e.e.e.e.e.e.e.e.e.e.e.e.e.e.e.e.e.e.e.e.e.e.e.e.e.e.e.e.e.e.e.e.e.e.e.e.e.e.e.e.e.e.e.e.e.e.e.e.e.e.e.e.e.e.e.e.e.e.e.e.e.e.e.e.e.e.e.e.e.e.e.e.e.e.e.e.e.e.e.e.e.e.e.e.e.e.e.e.e.e.e.e.e.e.e.e.e.e.e.e.e.e.e.e.e.e.e.e.e.e.e.e.e.e.e.e.e.e.e.e.e.e.e.e.e.e.e.e.e.e.e.e.e.e.e.e.e.e.e.e.e.e.e.e.e.e.e.e.e.e.t.t.t.t.t.t.t.t.t.t.t.t.e.e.e.e.e.e.e.e.e.e.e.e.e.e.e.t.e.e.e.e.e.e.e.e.e.e.e.e.e.e.e.e.e.e.e.e.e.e.e.e.e.e.e.e.e.e.e.e.e.e.e.e.t.t.t.t.t.t.t.t.t.t.t.e.t.t.t.t.t.t.t.t.t.t.t.t.t.t.t.t.t.t.t.t.t.t.t.t.t.t.t.t.t.t.t.t.t.t.t.t.t.t.t.t.t.t.t.t.t.t.t.t.t.t.t.t.t.t.t.t.t.t.t.t.t.t.t.t.t.t.t.t.t.t.t.y.y.y.y.y.y.y.y.V.V.V.V.V.V.V.i.y.y.r.y.y.y.y.i.i.g.g.i.i.p.p.p.p.p.h.C.p.i.i.i.i.y.y.y.y.y.y.f.f.y.y.f.g.g.g.g.i.i.V.V.V.V.E.i.y.y.y.y.y.y.y.y.y.E.E.I.N.N.N.N.N.y.y.y.y.y.y.N.N.y.y.g.g.g.g.g.g.E.W.W.W.W.W.W.W.E.E.E.E.",
"e.e.e.e.e.e.e.e.e.e.e.e.e.e.e.e.e.e.e.e.e.e.e.e.e.e.e.e.e.e.e.e.e.e.e.e.e.e.e.e.e.e.e.e.e.e.e.e.e.e.e.e.e.e.e.e.e.e.e.e.e.e.e.e.e.e.e.e.e.e.e.e.e.e.e.e.e.e.e.e.e.e.e.e.e.e.e.e.e.e.e.e.e.e.e.e.e.e.e.e.e.e.e.e.e.e.e.e.e.e.e.e.e.e.e.e.e.e.e.e.e.e.e.e.e.e.e.e.e.e.e.e.e.e.e.e.e.e.e.e.e.e.e.e.e.e.e.e.e.e.e.e.e.e.e.e.e.e.e.e.e.e.e.e.e.e.e.e.e.e.e.e.e.e.e.e.e.e.e.e.e.e.e.e.e.e.e.e.e.e.e.e.e.e.e.e.e.e.e.e.e.e.e.e.e.e.e.e.e.e.e.e.t.t.t.t.t.t.t.t.t.t.t.t.e.e.e.e.e.e.e.e.e.e.e.e.e.e.t.t.e.e.e.e.e.e.e.e.e.e.e.e.e.e.e.e.e.e.e.e.e.e.e.e.e.e.e.e.e.e.e.e.e.e.e.e.t.t.t.t.t.t.t.t.t.t.e.e.t.t.t.t.t.t.e.t.t.t.t.t.t.t.t.t.t.t.t.t.t.t.t.t.t.t.t.t.t.t.t.t.t.t.t.t.t.t.t.t.t.t.t.t.t.t.t.t.t.t.t.t.t.t.t.t.t.t.t.t.t.t.t.t.t.t.t.t.t.t.t.t.y.y.r.r.y.y.y.y.i.i.i.i.i.y.y.y.y.y.y.y.y.i.i.i.g.g.i.i.i.i.p.p.i.p.p.p.i.i.i.i.y.y.r.y.y.f.f.y.y.y.f.f.g.g.g.i.i.i.i.i.i.g.y.y.y.y.y.y.y.y.y.y.E.I.I.N.N.N.I.I.y.y.y.y.y.y.N.N.y.y.f.y.g.g.y.y.W.W.W.Q.Q.Q.W.W.E.E.E.E.",
"e.e.e.e.e.e.e.e.e.e.e.e.e.e.e.e.e.e.e.e.e.e.e.q.e.e.e.e.e.e.e.e.e.e.e.e.e.e.e.e.e.e.e.e.e.e.e.e.e.e.e.e.e.e.e.e.e.e.e.e.e.e.e.e.e.e.e.e.e.e.e.e.e.e.e.e.e.e.e.e.e.e.e.e.e.e.e.e.e.e.e.e.e.e.e.e.e.e.e.e.e.e.e.e.e.e.e.e.e.e.e.e.e.e.e.e.e.e.e.e.e.e.e.e.e.e.e.e.e.e.e.e.e.e.e.e.e.e.e.e.e.e.e.e.e.e.e.e.e.e.e.e.e.e.e.e.e.e.e.e.e.e.e.e.e.e.e.e.e.e.e.e.e.e.e.e.e.e.e.e.e.e.e.e.e.e.e.e.e.e.e.e.e.e.e.e.t.e.e.e.e.e.e.e.e.e.e.e.e.e.e.e.e.e.t.t.t.t.t.t.t.t.t.t.t.t.e.e.e.e.e.e.t.t.e.e.e.e.e.e.e.e.e.e.e.e.e.e.e.e.e.e.e.e.e.e.e.e.e.e.e.e.e.e.e.e.e.e.e.e.e.e.e.e.e.e.t.t.t.t.t.t.t.t.e.e.e.e.e.t.t.t.t.t.e.e.e.t.t.t.t.t.t.t.t.t.t.t.t.t.t.t.t.t.t.t.t.t.t.t.t.t.t.t.t.t.t.t.t.t.t.t.t.t.t.t.t.t.t.t.t.t.t.t.t.t.t.t.t.t.t.t.t.t.t.t.t.t.t.t.t.t.y.y.y.y.y.y.V.V.y.y.y.y.y.y.y.y.y.y.i.i.g.g.E.V.i.i.i.i.i.p.i.i.p.i.i.i.i.y.y.y.y.y.y.f.f.t.t.t.y.f.I.I.N.V.i.V.V.V.V.V.N.N.y.y.y.g.g.y.I.I.I.P.N.N.N.N.I.T.N.I.I.I.N.N.N.I.N.N.y.y.y.g.i.i.W.W.W.Q.Q.Q.Q.Q.W.W.E.E.",
"e.e.e.e.e.e.e.e.e.e.e.e.e.e.e.e.e.e.e.e.e.e.q.q.e.e.e.e.e.e.e.e.e.e.e.e.e.e.e.e.e.e.e.e.e.e.e.e.e.e.e.e.e.e.e.e.e.e.e.e.e.e.e.e.e.e.e.e.e.e.e.e.e.e.e.e.e.e.e.e.e.e.e.e.e.e.e.e.e.e.e.e.e.e.e.e.e.e.e.e.e.e.e.e.e.e.e.e.e.e.e.e.e.e.e.e.e.e.e.e.e.e.e.e.e.e.e.e.e.e.e.e.e.e.e.e.e.e.e.e.e.e.e.e.e.e.e.e.e.e.e.e.e.e.e.e.e.e.e.e.e.e.e.e.e.e.e.e.e.e.e.e.e.e.e.e.e.e.e.e.e.e.e.e.e.e.e.e.e.e.e.e.e.e.e.e.t.e.e.e.e.e.e.e.e.e.e.e.e.e.e.e.e.e.t.t.e.e.e.e.e.e.t.t.t.e.e.e.e.e.e.t.t.t.t.t.e.e.e.e.e.e.e.e.e.e.e.e.e.e.e.e.e.e.e.e.e.e.e.e.e.e.e.e.e.e.e.e.e.e.e.e.e.e.e.e.t.t.t.t.t.t.t.t.e.e.e.e.t.t.t.t.e.t.e.e.e.t.t.t.t.t.t.t.t.t.t.t.t.t.t.t.t.t.t.t.t.t.t.t.t.t.t.t.t.t.t.t.t.t.t.t.t.t.t.e.t.t.t.t.t.t.t.t.t.t.t.t.t.t.t.t.t.t.t.t.t.t.t.t.t.t.t.y.r.y.y.y.B.B.B.B.y.y.y.y.y.y.y.y.i.i.E.E.E.V.i.i.i.i.i.i.a.i.i.V.V.y.y.y.y.y.y.t.f.f.f.t.t.t.y.f.I.I.N.V.i.i.V.V.V.N.N.I.y.y.g.g.g.I.I.I.N.N.y.y.N.N.I.T.I.I.T.I.I.I.E.E.I.I.g.g.i.E.E.E.E.E.W.W.Q.Q.Q.Q.W.W.W.E.",
"e.e.e.e.e.e.e.e.e.e.e.e.e.e.e.e.e.e.e.e.e.e.e.e.e.e.e.e.e.e.e.e.e.e.e.e.e.e.e.e.e.e.e.e.e.e.e.e.e.e.e.e.e.e.e.e.e.e.e.e.e.e.e.e.e.e.e.e.e.e.e.e.e.e.e.e.e.e.e.e.e.e.e.e.e.e.e.e.e.e.e.e.e.e.e.e.e.e.e.e.e.e.e.e.e.e.e.e.e.e.e.e.e.e.e.e.e.e.e.e.e.e.e.e.e.e.e.e.e.e.e.e.e.e.e.e.e.e.e.e.e.e.e.e.e.e.e.e.e.e.e.e.e.e.e.e.e.e.e.e.e.e.e.e.e.e.e.e.e.e.e.e.e.e.e.e.e.e.e.e.e.e.e.e.e.e.e.e.e.e.e.e.e.e.e.e.e.e.e.e.e.e.e.e.e.e.e.e.e.t.t.e.e.e.e.e.e.e.e.e.e.e.e.t.t.t.e.e.e.t.t.t.t.t.t.t.e.e.e.e.e.e.e.e.e.e.e.e.e.e.e.e.e.e.e.e.e.e.e.e.e.e.e.e.e.e.e.e.e.e.e.e.e.e.t.t.t.t.t.t.t.t.t.t.e.t.e.t.e.e.t.t.t.t.t.e.e.t.t.t.t.t.t.t.t.t.t.t.t.t.t.t.t.t.t.t.t.t.t.t.t.t.t.t.t.t.t.t.t.t.t.t.t.t.t.t.t.t.t.t.t.t.t.t.t.t.t.t.t.t.t.t.t.t.e.e.e.t.t.t.t.t.t.t.t.y.y.y.B.B.N.N.N.N.y.y.y.y.y.y.y.g.i.i.i.i.i.i.a.a.i.i.a.i.i.i.i.y.y.y.y.u.u.t.t.t.t.f.f.t.t.f.f.P.I.I.V.V.V.V.N.N.I.I.t.f.f.f.y.f.y.y.N.z.t.t.t.N.P.I.I.I.I.I.I.I.N.N.y.y.i.i.E.E.E.E.W.W.W.W.W.W.W.W.W.E.E.E.",
"e.e.e.e.e.e.e.e.e.e.e.e.e.e.e.e.e.e.e.e.e.e.e.e.e.e.e.e.e.e.e.e.e.e.e.e.e.e.e.e.e.e.e.e.e.e.e.e.e.e.e.e.e.e.e.e.e.e.e.e.e.e.e.e.e.e.e.e.e.e.e.e.e.e.e.e.e.e.e.e.e.e.e.e.e.e.e.e.e.e.e.e.e.e.e.e.e.e.e.e.e.e.e.e.e.e.e.e.e.e.e.e.e.e.e.e.e.e.e.e.e.e.e.e.e.e.e.e.e.e.e.e.e.e.e.e.e.e.e.e.e.e.e.e.e.e.e.e.e.e.e.e.e.e.e.e.e.e.e.e.e.e.e.e.e.e.e.e.e.e.e.e.e.e.e.e.e.e.e.e.e.e.e.e.e.e.e.e.e.e.e.e.e.e.e.e.e.e.e.e.e.e.e.e.e.e.e.e.e.e.e.e.e.e.e.e.e.e.e.e.e.e.e.e.e.t.e.e.e.e.t.t.e.e.t.t.e.e.e.e.e.e.e.e.e.e.e.e.e.e.e.e.e.e.e.e.e.e.e.e.e.e.e.e.e.e.e.e.e.e.e.e.e.e.t.t.t.t.t.t.t.t.t.t.t.t.t.t.e.e.t.t.t.t.t.e.t.t.t.t.t.t.t.t.t.t.t.t.t.t.t.t.t.t.t.t.t.t.t.t.t.t.t.t.t.t.t.t.t.t.t.t.t.t.t.t.t.t.t.t.t.t.t.t.t.t.t.t.t.t.t.t.t.t.e.e.t.t.t.t.t.t.t.t.t.t.y.y.N.N.N.N.N.N.y.y.y.y.y.y.y.y.i.i.i.i.i.i.i.i.i.i.a.i.i.i.i.y.y.y.y.y.t.t.t.t.f.f.f.t.t.t.f.P.I.N.i.i.i.y.y.f.f.P.t.f.f.f.y.y.y.f.P.z.z.t.z.z.P.I.I.I.I.I.I.I.N.N.y.y.i.E.E.E.E.E.E.E.W.W.W.W.W.W.W.E.E.E.",
"e.e.e.e.e.e.e.e.e.e.e.e.e.e.e.e.e.e.e.e.e.e.e.e.e.e.e.e.e.e.e.e.e.e.e.e.e.e.e.e.e.e.e.e.e.e.e.e.e.e.e.e.e.e.e.e.e.e.e.e.e.e.e.e.e.e.e.e.e.e.e.e.e.e.e.e.e.e.e.e.e.e.e.e.e.e.e.e.e.e.e.e.e.e.e.e.e.e.e.e.e.e.e.e.e.e.e.e.e.e.e.e.e.e.e.e.e.e.e.e.e.e.e.e.e.e.e.e.e.e.e.e.e.e.e.e.e.e.e.e.e.e.e.e.e.e.e.e.e.e.e.e.e.e.e.e.e.e.e.e.e.e.e.e.e.e.e.e.e.e.e.e.e.e.e.e.e.e.e.e.e.e.e.e.e.e.e.e.e.e.e.e.e.e.e.e.e.e.e.e.e.e.e.e.e.e.e.e.e.e.e.e.e.e.e.e.t.t.e.e.e.e.e.e.e.e.e.e.e.e.t.e.e.e.e.e.e.e.e.e.e.e.e.e.e.e.e.e.e.e.e.e.e.e.e.e.e.e.e.e.e.e.e.e.e.e.e.t.t.t.e.e.t.t.t.t.t.t.t.t.t.t.t.t.t.t.t.t.e.e.e.t.t.t.t.t.t.t.t.t.t.t.t.t.t.t.t.t.t.t.t.t.t.t.t.t.t.t.t.t.t.t.t.t.t.t.t.t.t.t.t.t.t.t.t.t.t.t.t.t.t.t.t.t.t.t.t.t.t.t.t.t.t.t.t.t.t.t.t.t.t.t.t.t.t.t.t.y.N.N.y.y.y.y.y.y.t.t.y.y.y.y.y.y.i.i.i.i.i.i.i.a.a.i.i.i.y.N.N.y.y.y.t.t.t.t.f.f.f.f.N.N.N.N.N.N.N.N.N.N.N.N.P.P.t.f.F.F.F.z.N.N.F.F.F.F.F.P.P.P.I.I.N.N.I.I.N.N.y.y.g.E.E.E.E.E.g.g.g.g.g.g.g.g.E.E.E.E.",
"e.e.e.e.e.e.e.e.e.e.e.e.e.e.e.e.e.e.e.e.e.e.e.e.e.e.e.e.e.e.e.e.e.e.e.e.e.e.e.e.e.e.e.e.e.e.e.e.e.e.e.e.e.e.e.e.e.e.e.e.e.e.e.e.e.e.e.e.e.e.e.e.e.e.e.e.e.e.e.e.e.e.e.e.e.e.e.e.e.e.e.e.e.e.e.e.e.e.e.e.e.e.e.e.e.e.e.e.e.e.e.e.e.e.e.e.e.e.e.e.e.e.e.e.e.e.e.e.e.e.e.e.e.e.e.e.e.e.e.e.e.e.e.e.e.e.e.e.e.e.e.e.e.e.e.e.e.e.e.e.e.e.e.e.e.e.e.e.e.e.e.e.e.e.e.e.e.e.e.e.e.e.e.e.e.e.e.e.e.e.e.e.e.e.e.e.e.e.e.e.e.e.e.e.e.e.e.e.e.e.e.e.e.e.e.e.t.t.t.e.e.e.e.e.e.e.e.e.e.e.e.e.e.e.e.e.e.e.e.e.e.e.e.e.e.e.e.e.e.e.e.e.e.e.e.e.e.e.e.e.e.e.e.e.e.e.t.t.t.t.t.t.t.t.t.t.t.t.t.t.t.t.t.t.t.t.t.t.e.e.e.t.t.t.t.t.t.t.t.t.t.t.t.t.t.t.t.t.t.t.t.t.t.t.t.t.t.t.t.t.t.t.t.t.t.t.t.t.t.t.t.t.t.t.t.t.t.t.t.t.t.t.t.t.t.t.t.t.t.t.t.t.t.t.t.t.t.t.t.t.t.t.t.t.t.t.t.t.z.N.y.t.t.t.t.t.t.t.t.y.y.y.y.y.i.i.i.i.i.i.i.a.i.i.y.y.N.N.N.N.y.y.y.t.t.t.t.f.f.f.t.N.N.N.N.N.N.N.N.N.N.N.P.F.f.f.f.f.F.z.N.z.F.F.F.F.F.P.P.P.P.P.I.I.I.I.N.N.y.N.g.E.E.E.E.E.g.g.g.g.g.g.g.g.E.E.E.E.",
"e.e.e.e.e.e.e.e.e.e.e.e.e.e.e.e.e.e.e.e.e.e.e.e.e.e.e.e.e.e.e.e.e.e.e.e.e.e.e.e.e.e.e.e.e.e.e.e.e.e.e.e.e.e.e.e.e.e.e.e.e.e.e.e.e.e.e.e.e.e.e.e.e.e.e.e.e.e.e.e.e.e.e.e.e.e.e.e.e.e.e.e.e.e.e.e.e.e.e.e.e.e.e.e.e.e.e.e.e.e.e.e.e.e.e.e.e.e.e.e.e.e.e.e.e.e.e.e.e.e.e.e.e.e.e.e.e.e.e.e.e.e.e.e.e.e.e.e.e.e.e.e.e.e.e.e.e.e.e.e.e.e.e.e.e.e.e.e.e.e.e.e.e.e.e.e.e.e.e.e.e.e.e.e.e.e.e.e.e.e.e.e.e.e.e.e.e.e.e.e.e.e.e.e.e.e.e.e.e.e.e.e.e.e.e.e.t.t.e.e.e.e.t.e.e.e.e.e.e.e.e.e.e.e.e.e.e.t.t.t.e.e.e.e.e.e.e.e.e.e.e.e.e.e.e.e.e.e.e.e.e.e.e.e.e.e.t.t.t.t.t.t.t.t.y.y.y.y.y.y.t.t.t.e.e.e.e.e.e.e.e.e.e.t.t.t.t.e.t.t.t.t.t.t.t.t.t.t.t.t.t.t.t.t.t.t.t.t.t.t.t.t.t.t.t.t.t.t.t.t.t.t.t.t.t.t.t.t.t.t.t.t.t.t.t.t.t.t.t.t.t.t.t.t.t.t.t.t.t.t.t.t.t.t.t.t.t.t.z.z.z.z.t.t.t.t.t.t.t.y.y.y.y.y.y.y.i.i.i.i.i.i.i.i.y.y.N.N.N.N.N.N.N.t.t.z.z.z.z.z.z.z.N.N.N.N.N.N.N.N.N.N.F.F.f.f.f.f.F.F.F.F.F.H.F.F.S.S.S.S.P.P.U.U.N.N.N.N.y.N.g.E.E.E.E.E.g.g.g.g.g.g.g.g.E.E.E.E.",
"e.e.e.e.e.e.e.e.e.e.e.e.e.e.e.e.e.e.e.e.e.e.e.e.e.e.e.e.e.e.e.e.e.e.e.e.e.e.e.e.e.e.e.e.e.e.e.e.e.e.e.e.e.e.e.e.e.e.e.e.e.e.e.e.e.e.e.e.e.e.e.e.e.e.e.e.e.e.e.e.e.e.e.e.e.e.e.e.e.e.e.e.e.e.e.e.e.e.e.e.e.e.e.e.e.e.e.e.e.e.e.e.e.e.e.e.e.e.e.e.e.e.e.e.e.e.e.e.e.e.e.e.e.e.e.e.e.e.e.e.e.e.e.e.e.e.e.e.e.e.e.e.e.e.e.e.e.e.e.e.e.e.e.e.e.e.e.e.e.e.e.e.e.e.e.e.e.e.e.e.e.e.e.e.e.e.e.e.e.e.e.e.e.e.e.e.e.e.e.e.e.e.e.e.e.e.e.e.e.e.e.e.e.e.e.e.e.t.e.e.e.e.t.t.e.e.e.e.e.e.e.e.e.e.e.e.e.t.t.t.e.e.e.e.e.e.e.e.e.e.e.e.e.e.e.e.e.e.e.e.e.e.e.e.e.e.t.t.t.t.t.t.t.t.y.t.y.y.t.t.t.t.t.e.e.e.e.e.e.e.e.e.e.t.t.t.t.e.t.t.t.t.t.t.t.t.t.t.t.t.t.t.t.t.t.t.t.t.t.t.t.t.t.t.t.t.t.t.t.t.t.t.t.t.t.t.t.t.t.t.t.t.t.t.t.t.t.t.t.t.t.t.t.t.t.t.t.t.t.t.t.t.t.t.t.t.t.t.t.t.t.t.t.t.t.t.t.t.t.t.y.y.y.y.y.y.i.i.i.i.i.i.i.y.y.y.N.y.N.N.N.B.N.t.t.t.z.z.z.z.z.N.N.N.N.N.y.y.y.y.t.t.f.f.f.f.f.t.f.f.F.F.z.H.H.F.S.S.S.z.P.U.N.N.N.T.N.N.N.N.g.E.E.E.I.I.g.g.g.g.E.E.g.E.E.W.W.W.",
"e.e.e.e.e.e.e.e.e.e.e.e.e.e.e.e.e.e.e.e.e.e.e.e.e.e.e.e.e.e.e.e.e.e.e.e.e.e.e.e.e.e.e.e.e.e.e.e.e.e.e.e.e.e.e.e.e.e.e.e.e.e.e.e.e.e.e.e.e.e.e.e.e.e.e.e.e.e.e.e.e.e.e.e.e.e.e.e.e.e.e.e.e.e.e.e.e.e.e.e.e.e.e.e.e.e.e.e.e.e.e.e.e.e.e.e.e.e.e.e.e.e.e.e.e.e.e.e.e.e.e.e.t.e.e.e.e.e.e.e.e.e.e.e.e.e.e.e.e.e.e.e.e.e.e.e.e.e.e.e.e.e.e.e.e.e.e.e.e.e.e.e.e.e.e.e.e.e.e.e.e.e.e.e.e.e.e.e.e.e.e.e.e.e.e.e.e.e.e.e.e.e.e.e.e.e.e.e.e.e.e.e.q.e.e.e.e.e.e.e.e.e.e.e.e.e.e.e.t.t.e.t.e.e.e.e.e.e.t.t.e.e.e.e.e.e.e.e.e.e.e.e.e.e.e.e.e.e.e.e.e.e.e.e.e.e.e.t.e.t.t.t.t.t.t.t.z.t.t.t.t.t.t.t.e.e.e.e.t.e.e.e.e.e.t.t.t.t.t.t.t.t.t.t.t.t.t.t.t.t.t.t.t.t.t.t.t.t.t.t.t.t.t.t.t.t.t.t.t.t.t.t.t.t.t.t.t.t.t.t.t.t.t.t.t.t.t.t.t.t.t.t.t.z.t.t.t.t.t.t.t.t.t.t.t.t.t.t.t.t.t.t.t.t.t.t.t.t.t.t.y.y.y.y.y.y.a.a.a.i.i.i.i.i.y.y.N.y.N.N.N.B.N.N.t.t.z.z.z.z.z.z.N.N.N.N.y.y.y.y.t.t.f.f.f.t.t.t.t.t.t.F.z.z.H.H.F.F.z.z.z.z.N.N.N.T.T.N.N.y.y.g.g.g.g.g.g.g.g.g.g.E.g.g.E.W.W.W.",
"e.e.e.e.e.e.e.e.e.e.e.e.e.e.e.e.e.e.e.e.e.e.e.e.e.e.e.e.e.e.e.e.e.e.e.e.e.e.e.e.e.e.e.e.e.e.e.e.e.e.e.e.e.e.e.e.e.e.e.e.e.e.e.e.e.e.e.e.e.e.e.e.e.e.e.e.e.e.e.e.e.e.e.e.e.e.e.e.e.e.e.e.e.e.e.e.e.e.e.e.e.e.e.e.e.e.e.e.e.e.e.e.e.e.e.e.e.e.e.e.e.e.e.e.e.e.e.e.e.e.e.e.t.e.e.e.e.e.e.e.e.e.e.e.e.e.e.e.e.e.e.e.e.e.e.e.e.e.e.e.e.e.e.e.e.e.e.e.e.e.e.e.e.e.e.e.e.e.e.e.e.e.e.e.e.e.e.e.e.e.e.e.e.e.e.e.e.e.e.e.e.e.e.e.e.e.e.e.e.e.e.e.q.e.e.e.e.e.e.e.e.e.e.e.t.e.e.e.e.t.t.t.e.e.e.e.e.e.t.t.e.e.e.e.e.e.e.e.e.e.e.e.e.e.e.e.e.e.e.e.e.e.e.e.e.e.e.e.e.t.t.t.t.t.t.t.t.t.t.t.t.t.t.t.t.e.e.e.t.e.e.e.e.e.t.t.t.t.t.t.t.t.t.t.t.t.t.t.t.t.t.t.t.t.t.t.t.t.t.t.t.t.t.t.t.t.t.t.t.t.t.t.t.t.t.t.t.t.t.t.t.t.t.t.t.t.t.t.t.t.t.t.t.t.t.t.t.t.t.t.t.t.t.t.t.t.t.t.t.t.t.t.t.t.t.t.t.t.t.t.y.y.y.y.y.y.y.y.i.i.i.g.i.i.y.y.y.y.y.y.N.y.y.y.t.t.t.z.z.z.z.z.N.N.N.N.y.y.y.y.t.t.t.f.t.t.t.t.t.t.t.F.t.z.z.F.z.z.z.z.z.N.N.N.N.T.T.N.y.y.y.i.g.g.g.g.g.g.g.g.g.g.g.E.W.W.W.W.",
"e.e.e.e.e.e.e.e.e.e.e.e.e.e.e.e.e.e.e.e.e.e.e.e.e.e.e.e.e.e.e.e.e.e.e.e.e.e.e.e.e.e.e.e.e.e.e.e.e.e.e.e.e.e.e.e.e.e.e.e.e.e.e.e.e.e.e.e.e.e.e.e.e.e.e.e.e.e.e.e.e.e.e.e.e.e.e.e.e.e.e.e.e.e.e.e.e.e.e.e.e.e.e.e.e.e.e.e.e.e.e.e.e.e.e.e.e.e.e.e.e.e.e.e.e.e.e.e.e.e.e.e.e.e.e.e.e.e.e.e.e.e.e.e.e.e.e.e.e.e.e.e.e.e.e.e.e.e.e.e.e.e.e.e.e.e.e.e.e.e.e.e.e.e.e.e.e.e.e.e.e.e.e.e.e.e.e.e.e.e.e.e.e.e.e.e.e.e.e.e.e.e.e.e.e.e.e.e.e.e.e.e.e.e.e.e.e.e.t.t.t.t.t.t.t.t.t.e.e.e.e.e.e.e.e.e.t.t.t.t.t.t.t.t.e.t.t.t.e.e.e.e.e.e.e.e.e.e.e.e.e.e.e.e.e.e.e.t.t.t.t.t.t.t.t.t.t.t.t.t.t.t.t.t.t.t.t.e.e.e.e.e.e.e.e.e.t.t.t.t.e.e.e.t.t.t.t.t.t.t.t.t.t.t.t.t.t.t.t.t.t.t.t.t.t.t.t.t.t.t.t.t.t.t.t.t.t.t.t.t.t.t.t.t.t.t.t.t.t.t.t.t.t.t.t.t.t.t.t.t.t.t.t.t.t.t.t.t.t.t.t.t.t.t.t.t.t.t.t.t.z.y.N.N.y.y.y.y.y.y.y.y.N.N.y.y.y.y.y.y.y.y.y.y.y.u.t.t.t.t.y.y.y.y.N.N.N.z.z.N.N.N.N.z.z.z.t.t.t.z.N.z.y.y.y.N.N.N.N.N.t.y.y.y.y.y.N.N.y.y.i.i.i.i.i.y.i.i.i.i.i.g.g.g.W.W.W.W.",
"e.e.e.e.e.e.e.e.e.e.e.e.e.e.e.e.e.e.e.e.e.e.e.e.e.e.e.e.e.e.e.e.e.e.e.e.e.e.e.e.e.e.e.e.e.e.e.e.e.e.e.e.e.e.e.e.e.e.e.e.e.e.e.e.e.e.e.e.e.e.e.e.e.e.e.e.e.e.e.e.e.e.e.e.e.e.e.e.e.e.e.e.e.e.e.e.e.e.e.e.e.e.e.e.e.e.e.e.e.e.e.e.e.e.e.e.e.e.e.e.e.e.e.e.e.e.e.e.e.e.e.e.e.e.e.e.e.e.e.e.e.e.e.e.e.e.e.e.e.e.e.e.e.e.e.e.e.e.e.e.e.e.e.e.e.e.e.e.e.e.e.e.e.e.e.e.e.e.e.e.e.e.e.e.e.e.e.e.e.e.e.e.e.e.e.e.e.e.e.e.e.e.e.e.e.e.e.e.e.e.e.e.e.e.e.e.e.e.e.t.t.t.t.t.t.t.e.e.e.e.t.e.e.e.e.e.e.e.t.t.t.t.t.t.e.e.t.t.e.e.e.e.e.e.e.e.e.e.e.e.e.e.e.e.e.e.e.t.t.t.t.t.t.t.t.t.t.t.t.t.t.t.t.t.t.t.e.e.e.e.e.e.e.e.e.e.e.t.t.e.e.e.e.t.t.t.t.t.t.t.t.t.t.t.t.t.t.t.t.t.t.t.t.t.t.t.t.t.t.t.t.t.t.t.t.t.t.t.t.t.t.t.t.t.t.t.t.t.t.t.t.t.t.t.t.t.t.t.t.t.t.t.t.t.t.t.t.t.t.t.t.t.t.t.t.t.t.t.t.z.z.z.z.N.y.y.y.y.y.y.y.y.N.N.y.y.y.y.y.y.y.y.y.y.y.y.u.u.t.t.t.t.y.y.N.N.N.N.N.N.N.N.N.N.z.z.t.t.t.z.N.N.y.y.y.y.N.N.N.N.y.y.y.y.y.N.N.N.y.y.i.i.V.V.i.i.i.i.i.i.i.g.g.E.W.W.W.W.",
"e.e.e.e.e.e.e.e.e.e.e.e.e.e.e.e.e.e.e.e.e.e.e.e.e.e.e.e.e.e.e.e.e.e.e.e.e.e.e.e.e.e.e.e.e.e.e.e.e.e.e.e.e.e.e.e.e.e.e.e.e.e.e.e.e.e.e.e.e.e.e.e.e.e.e.e.e.e.e.e.e.e.e.e.e.e.e.e.e.e.e.e.t.t.e.e.e.e.e.e.e.e.e.e.e.e.e.e.e.e.e.e.e.e.e.e.e.e.e.e.e.e.e.e.e.e.e.e.e.e.e.e.e.e.e.e.e.e.e.e.e.e.e.e.e.e.e.e.e.e.e.e.e.e.e.e.e.e.e.e.e.e.e.e.e.e.e.e.e.e.e.e.e.e.e.e.e.e.e.e.e.e.e.e.e.e.e.e.e.e.e.e.e.e.e.e.e.e.e.e.e.e.e.e.e.e.e.e.e.e.e.e.e.e.e.e.e.e.e.t.t.t.t.t.t.e.e.e.e.e.e.e.e.e.e.e.e.t.t.t.e.e.t.t.e.e.t.t.e.e.e.e.e.e.e.e.e.e.e.e.e.e.e.e.e.e.e.t.t.t.t.t.t.t.t.t.t.t.t.t.t.t.t.t.t.t.e.e.e.e.e.e.e.e.e.e.e.e.e.e.e.e.t.t.t.t.t.t.t.t.t.t.t.t.t.t.t.t.t.t.t.t.t.t.t.t.t.t.t.t.t.t.t.t.t.t.t.t.t.t.t.t.t.t.t.t.t.t.t.t.t.t.t.t.t.t.t.t.t.t.t.t.t.t.t.t.t.t.t.t.t.t.t.t.t.t.z.z.t.z.t.z.z.z.y.y.y.y.y.y.N.N.N.N.N.N.y.y.y.y.y.y.y.y.y.y.y.t.t.t.t.t.t.N.N.N.z.z.N.N.z.z.z.z.N.z.t.t.t.z.N.N.y.y.y.y.N.N.N.N.N.N.N.N.N.N.N.N.N.N.V.V.V.V.i.i.i.i.i.i.g.g.g.E.W.W.W.W.",
"e.e.e.e.e.e.e.e.e.e.e.e.e.e.e.e.e.e.e.e.e.e.e.e.e.e.e.e.e.e.e.e.e.e.e.e.e.e.e.e.e.e.e.e.e.e.e.e.e.e.e.e.e.e.e.e.e.e.e.e.e.e.e.e.e.e.e.e.e.e.e.e.e.e.e.e.e.e.e.e.e.e.e.e.e.e.e.e.e.e.e.e.t.t.t.t.e.e.e.e.e.e.e.e.e.e.e.e.e.e.e.e.e.e.e.e.e.e.e.e.e.e.e.e.e.e.e.e.e.e.e.e.e.e.e.e.e.e.e.e.e.e.e.e.e.e.e.e.e.e.e.e.e.e.e.e.e.e.e.e.e.e.e.e.e.e.e.e.e.e.e.e.e.e.e.e.e.e.e.e.e.e.e.e.e.e.e.e.e.e.e.e.e.e.e.e.e.e.e.e.e.e.e.e.e.e.e.e.q.e.e.e.e.e.e.e.e.e.e.e.t.t.t.t.t.e.e.e.e.e.e.e.e.e.e.e.e.t.e.e.t.e.e.t.t.t.t.t.e.e.e.e.e.e.e.e.e.e.e.e.e.e.e.e.e.e.e.e.t.t.t.t.t.t.t.t.t.t.t.t.t.t.t.t.e.e.e.e.e.e.e.e.e.e.t.e.e.e.e.e.e.e.t.t.t.t.t.t.t.t.t.t.e.e.t.t.t.t.t.t.t.t.t.t.t.t.t.e.t.t.t.t.t.t.t.t.t.t.t.t.t.t.t.t.t.t.t.t.t.t.t.t.t.t.t.t.t.t.t.t.t.t.t.t.t.t.t.t.t.t.t.t.t.t.t.t.t.t.t.z.t.t.t.t.y.y.y.y.y.y.N.N.N.N.N.y.y.y.y.y.y.y.f.y.y.y.y.y.t.t.t.t.t.N.N.N.z.N.N.N.z.z.z.z.N.z.t.t.t.z.N.N.N.y.N.y.N.N.N.N.N.N.N.N.N.N.N.N.N.N.N.E.N.E.E.E.V.V.i.V.g.g.E.W.W.W.W.Q.",
"e.e.e.e.e.e.e.e.e.e.e.e.e.e.e.e.e.e.e.e.e.e.e.e.e.e.e.e.e.e.e.e.e.e.e.e.e.e.e.e.e.e.e.e.e.e.e.e.e.e.e.e.e.e.e.e.e.e.e.e.e.e.e.e.e.e.e.e.e.e.e.e.e.e.e.e.e.e.e.e.e.e.e.e.e.e.e.e.e.e.e.e.e.e.e.e.e.e.e.e.e.e.e.e.e.e.e.e.e.e.e.e.e.e.e.e.e.e.e.e.e.e.e.e.e.e.e.e.e.e.e.e.e.e.e.e.e.e.e.e.e.e.e.e.e.e.e.e.e.e.e.e.e.e.e.e.e.e.e.e.e.e.e.e.e.e.e.e.e.e.e.e.e.e.e.e.e.e.e.e.e.e.e.e.e.e.e.e.e.e.e.e.e.e.e.e.e.e.e.e.e.e.e.e.e.e.e.e.q.e.e.e.e.e.e.e.e.e.e.e.e.t.t.t.e.e.e.e.e.e.e.e.e.e.e.e.e.e.e.e.t.t.t.e.e.e.t.t.e.e.e.e.e.e.e.e.e.e.e.e.e.e.e.e.e.e.e.e.e.t.t.t.t.t.t.t.t.t.t.t.t.t.t.t.e.e.e.e.t.t.e.e.e.e.e.e.e.e.e.e.e.e.e.e.e.e.t.t.t.t.t.t.e.t.t.t.t.t.t.t.t.t.t.t.t.t.e.e.t.t.t.t.t.t.t.t.t.t.t.t.t.t.t.t.t.t.t.t.t.t.t.t.t.t.t.t.t.t.t.t.t.t.t.t.t.t.t.t.t.t.t.t.t.t.t.t.t.t.t.t.t.t.t.t.t.y.y.y.y.y.y.N.N.N.y.y.y.y.y.N.y.y.f.y.y.y.y.y.t.t.t.t.t.N.N.N.N.N.N.N.N.N.z.z.N.N.t.t.t.z.N.N.y.y.y.y.N.N.N.N.N.N.N.N.N.N.N.N.I.N.I.I.E.E.E.E.V.V.i.V.g.W.h.W.W.W.!.!.",
"e.e.e.e.e.e.e.e.e.e.e.e.e.e.e.e.e.e.e.e.e.e.e.e.e.e.e.e.e.e.e.e.e.e.e.e.e.e.e.e.e.e.e.e.e.e.e.e.e.e.e.e.e.e.e.e.e.e.e.e.e.e.e.e.e.e.e.e.e.e.e.e.e.e.e.e.e.e.e.e.e.e.e.e.e.e.e.e.e.e.e.e.e.e.e.e.e.e.e.e.e.e.e.e.e.e.e.e.e.e.e.e.e.e.e.e.e.e.e.e.e.e.e.e.e.e.e.e.e.e.e.e.e.e.e.e.e.e.e.e.e.e.e.e.e.e.e.e.e.e.e.e.e.e.e.e.e.e.e.e.e.e.e.e.e.e.e.e.e.e.e.e.e.e.e.e.e.e.e.e.e.e.e.e.e.e.e.e.e.e.e.e.e.e.e.e.e.e.e.e.e.e.e.e.e.e.e.e.e.e.e.e.e.e.e.e.e.e.e.e.e.e.e.t.e.e.e.e.e.e.e.e.e.e.e.e.e.e.e.e.t.t.t.t.e.e.t.t.e.e.e.e.e.e.e.e.e.e.e.e.e.e.e.e.e.e.e.e.e.e.e.e.t.t.t.t.t.t.e.e.t.t.e.e.e.e.e.e.t.t.e.e.e.e.e.e.e.e.e.e.e.e.e.e.t.e.t.t.t.t.t.t.e.e.e.t.t.t.t.t.t.t.t.e.t.t.e.t.t.t.t.t.t.t.t.t.t.t.t.t.t.t.t.t.t.t.t.t.t.t.t.t.t.t.t.t.t.t.t.t.t.t.t.t.t.t.t.t.t.t.t.t.t.t.t.t.t.t.t.t.t.t.t.t.t.y.y.y.y.y.y.y.N.y.y.y.y.y.y.N.y.y.y.y.y.y.y.t.t.t.t.t.t.N.N.N.z.N.N.N.N.z.z.z.N.N.t.t.t.z.N.N.y.y.y.y.N.N.N.N.I.N.N.N.N.N.N.N.y.I.I.I.E.E.E.E.E.E.V.E.p.W.W.W.W.W.!.!.",
"e.e.e.e.e.e.e.e.e.e.e.e.e.e.e.e.e.e.e.e.e.e.e.e.e.e.e.e.e.e.e.e.e.e.e.e.e.e.e.e.e.e.e.e.e.e.e.e.e.e.e.e.e.e.e.e.e.e.e.e.e.e.e.e.e.e.e.e.e.e.e.e.e.e.e.e.e.e.e.e.e.e.e.e.e.e.e.e.e.t.e.e.e.e.e.e.e.e.e.e.e.e.e.e.e.e.e.e.e.e.e.e.e.e.e.e.e.e.e.e.e.e.e.e.e.e.e.e.e.e.e.e.e.e.e.e.e.e.e.e.e.e.e.e.e.e.e.e.e.e.e.e.e.e.e.e.e.e.e.e.e.e.e.e.e.e.e.e.e.e.e.e.e.e.e.e.e.e.e.e.e.e.e.e.e.e.e.e.e.e.e.e.e.e.e.e.e.e.e.e.e.e.e.e.e.e.e.e.e.e.e.e.e.e.e.e.e.e.e.e.e.e.e.e.e.e.e.e.e.e.e.e.e.e.e.e.e.e.e.e.t.t.t.t.e.t.t.t.e.e.e.e.e.e.e.e.e.e.e.e.e.e.e.e.e.e.e.e.e.e.e.e.e.e.t.t.t.t.e.e.t.e.e.e.e.e.e.e.e.e.e.e.e.e.e.e.t.t.e.e.e.e.e.e.t.t.t.t.t.t.t.t.e.e.e.t.t.e.t.t.t.e.e.e.t.t.t.t.t.t.t.t.t.t.t.t.t.t.t.t.t.t.t.t.t.t.t.t.t.t.t.t.t.t.t.t.t.t.t.t.t.t.t.t.z.t.t.t.t.t.t.t.t.t.t.t.t.t.t.t.t.t.t.t.t.t.t.t.t.t.y.y.y.y.y.y.y.y.y.N.y.y.y.y.y.t.t.t.y.y.t.t.t.N.N.N.t.t.t.t.t.t.t.t.N.N.t.t.t.N.N.N.y.y.y.y.N.N.N.N.N.N.N.N.N.N.N.N.f.f.f.I.I.I.E.E.V.E.V.V.W.W.W.W.W.!.!.!.",
"e.e.e.e.e.e.e.e.e.e.e.e.e.e.e.e.e.e.e.e.e.e.e.e.e.e.e.e.e.e.e.e.e.e.e.e.e.e.e.e.e.e.e.e.e.e.e.e.e.e.e.e.e.e.e.e.e.e.e.e.e.e.e.e.e.e.e.e.e.e.e.e.e.e.e.e.e.e.e.e.e.e.e.e.e.e.e.e.t.t.e.e.e.e.e.e.e.e.e.e.e.e.e.e.e.e.e.e.e.e.e.e.e.e.e.e.e.e.e.e.e.e.e.e.e.e.e.e.e.e.e.e.e.e.e.e.e.e.e.e.e.e.e.e.e.e.e.e.e.e.e.e.e.e.e.e.e.e.e.e.e.e.e.e.e.e.e.e.e.e.e.e.e.e.e.e.e.e.e.e.e.e.e.e.e.e.e.e.e.e.e.e.e.e.e.e.e.e.e.e.e.e.e.e.e.e.e.e.e.e.e.e.t.t.t.t.e.e.e.e.e.e.e.e.e.e.e.e.e.e.e.e.e.e.e.e.e.e.e.e.t.t.t.t.e.t.t.t.e.e.e.e.e.e.e.e.e.e.e.e.e.e.e.e.e.e.e.e.e.e.e.e.e.e.t.t.t.t.e.e.t.e.e.e.e.e.e.e.e.e.e.e.e.e.e.t.t.t.t.e.e.e.e.e.t.t.t.t.t.t.t.t.e.e.e.e.e.t.t.t.t.t.e.e.t.t.t.t.t.t.t.t.t.t.t.t.t.t.t.t.t.t.t.t.t.t.t.t.t.t.t.t.t.t.t.t.t.t.t.t.t.t.t.t.z.t.t.t.t.t.t.t.t.t.t.t.t.t.t.t.t.t.t.t.t.t.t.t.t.t.y.y.y.y.y.y.y.y.y.N.y.y.y.y.t.t.t.t.y.y.t.t.t.N.N.N.t.t.t.t.t.t.t.t.N.N.t.t.t.z.N.N.y.y.y.y.N.N.N.N.N.N.N.N.N.N.y.N.y.y.f.P.I.I.I.E.E.E.E.V.W.W.W.W.W.!.!.!.",
"e.e.e.e.e.e.e.e.e.e.e.e.e.e.e.e.e.e.e.e.e.e.e.e.e.e.e.e.e.e.e.e.e.e.e.e.e.e.e.e.e.e.e.e.e.e.e.e.e.e.e.e.e.e.e.e.e.e.e.e.e.e.e.e.e.e.e.e.e.e.e.e.e.e.e.e.e.e.e.e.e.e.e.e.e.e.e.t.t.t.e.e.e.e.e.e.e.e.e.e.e.e.e.e.e.e.e.e.e.e.e.e.e.e.e.e.e.e.e.e.e.e.e.e.e.e.e.e.e.e.e.e.e.e.e.e.e.e.e.e.e.e.e.e.e.e.e.e.e.e.e.e.e.e.e.e.e.e.e.e.e.e.e.e.e.e.e.e.e.e.e.e.e.e.e.e.e.e.e.e.e.e.e.e.e.e.e.e.e.e.e.e.e.e.e.e.e.e.e.e.e.e.e.e.e.e.e.e.e.e.e.e.e.e.e.e.e.e.e.e.e.e.e.e.e.e.e.e.e.e.e.e.e.e.e.e.e.e.e.e.e.e.e.e.e.e.e.e.e.e.e.e.e.e.e.e.e.e.e.e.e.e.e.e.e.e.e.e.e.e.e.e.e.e.e.e.e.e.e.e.t.t.e.e.e.e.t.t.e.e.e.e.e.e.e.e.e.e.e.e.e.e.t.t.t.t.t.t.t.t.t.e.e.e.e.t.t.t.e.t.t.t.t.t.t.t.t.t.t.t.t.t.t.t.t.t.t.t.t.t.t.t.t.t.t.t.t.t.t.t.t.t.t.t.t.t.t.t.t.t.t.t.t.t.t.t.t.t.t.t.t.t.t.t.t.t.t.t.t.t.t.t.t.t.t.e.t.t.y.t.N.N.N.N.N.N.N.N.N.y.y.y.y.y.y.t.N.N.N.N.z.N.N.N.N.N.z.z.z.z.N.N.z.z.N.N.N.N.z.N.N.N.y.y.N.N.N.N.N.N.N.N.N.N.N.N.N.N.f.f.f.f.P.I.E.E.E.E.E.E.W.W.W.W.W.W.W.W.",
"e.e.e.e.e.e.e.e.e.e.e.e.e.e.e.e.e.e.e.e.e.e.e.e.e.e.e.e.e.e.e.e.e.e.e.e.e.e.e.e.e.e.e.e.e.e.e.e.e.e.e.e.e.e.e.e.e.e.e.e.e.e.e.e.e.e.e.e.e.e.e.e.e.e.e.e.e.e.e.e.e.e.e.e.e.e.e.e.t.t.e.e.e.e.e.e.e.e.e.e.e.e.e.e.e.e.e.e.e.e.e.e.e.e.e.e.e.e.e.e.e.e.e.e.e.e.e.e.e.e.e.e.e.e.e.e.e.e.e.e.e.e.e.e.e.e.e.e.e.e.e.e.e.e.e.e.e.e.e.e.q.e.e.e.e.e.e.e.e.e.e.e.e.e.e.e.e.e.e.e.e.e.e.e.e.e.e.e.e.e.e.e.e.e.e.e.e.e.e.e.e.e.e.e.e.e.e.e.e.e.e.e.e.e.e.e.e.e.e.e.e.e.e.e.e.e.e.e.e.e.e.e.e.e.e.e.e.e.e.e.e.e.e.e.e.e.e.e.e.e.e.e.e.e.e.e.e.e.e.e.e.e.e.e.e.e.e.e.e.e.e.e.e.e.e.e.e.t.e.e.t.t.e.e.e.e.t.t.t.t.t.t.t.t.t.t.t.t.e.e.e.e.t.t.t.t.t.e.t.t.t.e.e.e.e.t.t.t.t.t.t.t.t.t.t.t.t.t.t.t.t.t.t.t.t.t.t.t.t.t.t.t.t.t.t.t.t.t.t.t.t.t.t.t.t.t.t.t.t.t.t.t.t.t.t.t.t.t.t.t.t.t.t.t.t.t.t.t.t.t.t.t.t.t.t.t.t.t.y.y.N.N.z.z.z.z.N.N.N.N.y.y.y.y.t.t.y.N.N.N.z.z.N.N.N.N.z.z.z.z.N.N.z.z.N.N.N.N.z.N.N.N.y.y.N.N.N.N.N.N.N.N.N.N.N.N.N.N.f.f.f.f.P.I.E.E.E.E.E.E.E.W.W.W.W.W.W.W.",
"e.e.e.e.e.e.e.e.e.e.e.e.e.e.e.e.e.e.e.e.e.e.e.e.e.e.e.e.e.e.e.e.e.e.e.e.e.e.e.e.e.e.e.e.e.e.e.e.e.e.e.e.e.e.e.e.e.e.e.e.e.e.e.e.e.e.e.e.e.e.e.e.e.e.e.e.e.e.e.e.e.e.e.e.e.e.e.e.t.e.e.e.e.e.e.e.e.e.e.e.e.e.e.e.e.e.e.e.e.e.e.e.e.e.e.e.e.e.e.e.e.e.e.e.e.e.e.e.e.e.e.e.e.e.e.e.e.e.e.e.e.e.e.e.e.e.e.e.e.e.e.e.e.e.e.e.e.e.e.e.q.q.e.e.e.e.e.e.e.e.e.e.e.e.e.e.e.e.e.e.e.e.e.e.e.e.e.e.e.e.e.e.e.e.e.e.e.e.e.e.e.e.e.e.e.e.e.e.e.e.e.e.e.e.e.e.e.e.e.e.e.e.e.e.e.e.e.e.e.e.e.e.e.e.e.e.e.e.e.e.e.e.e.e.e.e.e.e.e.e.e.e.e.e.e.e.e.e.e.e.e.e.e.e.e.e.e.e.e.e.e.e.e.e.e.e.t.t.t.t.t.t.e.e.e.t.t.t.t.t.t.t.t.t.t.t.t.t.e.e.e.e.e.t.t.t.t.e.t.t.e.e.e.e.e.t.t.t.t.t.t.t.t.t.e.e.t.t.t.t.t.t.t.t.t.t.t.t.t.t.t.t.t.t.t.t.t.t.t.t.t.t.t.t.t.t.t.t.t.t.t.t.t.t.t.t.t.t.t.t.t.t.t.t.t.t.t.t.t.t.t.t.t.t.t.t.t.t.y.y.N.N.N.N.N.N.N.N.N.N.y.y.y.y.N.t.N.N.N.N.N.N.N.N.N.N.z.z.z.z.N.N.N.z.N.N.N.N.z.z.N.N.t.y.N.y.N.N.N.N.y.y.y.y.y.y.y.y.f.f.f.f.P.I.E.E.E.E.E.E.E.W.W.W.W.W.W.W.",
"e.e.e.e.e.e.e.e.e.e.e.e.e.e.e.e.e.e.e.e.e.e.e.e.e.e.e.e.e.e.e.e.e.e.e.e.e.e.e.e.e.e.e.e.e.e.e.e.e.e.e.e.e.e.e.e.e.e.e.e.e.e.e.e.e.e.e.e.e.e.e.e.e.e.e.e.e.e.e.e.e.e.e.e.t.e.e.e.t.e.e.e.e.e.e.e.e.e.e.e.e.e.e.e.e.e.e.e.e.e.e.e.e.e.e.e.e.e.e.e.e.e.e.e.e.e.e.e.e.e.e.e.e.e.e.e.e.e.e.e.e.e.e.e.e.e.e.e.e.e.e.e.e.e.e.e.e.e.e.e.q.q.e.e.e.e.e.e.e.e.e.e.e.e.e.e.e.e.e.e.e.e.e.e.e.e.e.e.e.e.e.e.e.e.e.e.e.e.e.e.e.e.e.e.e.e.e.e.e.e.e.e.e.e.e.e.e.e.e.e.e.e.e.e.e.e.e.e.e.e.e.e.e.e.e.e.e.e.e.e.e.e.e.e.e.e.e.e.e.e.e.e.e.e.e.e.e.e.e.e.e.e.e.e.e.e.e.e.e.e.e.e.e.e.e.e.t.t.t.t.t.t.t.e.t.t.t.t.t.t.t.t.t.t.t.t.t.t.e.e.e.e.e.t.t.t.e.e.e.e.e.e.e.e.e.t.t.t.t.t.t.t.t.e.e.e.t.t.t.t.t.t.t.t.t.t.t.t.t.t.t.t.t.t.t.t.t.t.t.t.t.t.t.t.t.t.t.t.t.t.t.t.t.t.t.t.t.t.t.t.t.t.t.t.t.t.t.t.t.t.t.t.t.t.t.t.t.t.N.N.N.N.N.N.N.N.N.N.N.N.y.y.t.t.t.t.N.N.N.N.N.N.z.N.N.N.z.z.z.N.N.N.N.z.z.z.N.N.N.N.N.N.t.t.t.y.N.y.y.N.y.y.y.y.y.y.y.y.P.f.f.I.P.I.E.E.E.E.E.E.g.E.E.W.W.W.W.W.",
"e.e.e.e.e.e.e.e.e.e.e.e.e.e.e.e.e.e.e.e.e.e.e.e.e.e.e.e.e.e.e.e.e.e.e.e.e.e.e.e.e.e.e.e.e.e.e.e.e.e.e.e.e.e.e.e.e.e.e.e.e.e.e.e.e.e.e.e.e.e.e.e.e.e.e.e.e.e.e.e.e.e.e.e.e.e.e.e.t.e.e.e.e.e.e.e.e.e.e.e.e.e.e.e.e.e.e.e.e.e.e.e.e.e.e.e.e.e.e.e.e.e.e.e.e.e.e.e.e.e.e.e.e.e.e.e.e.e.e.e.e.e.e.e.e.e.e.e.e.e.e.e.e.e.e.e.e.e.e.e.e.e.e.e.e.e.e.e.e.e.e.e.e.e.e.e.e.e.e.e.e.e.e.e.e.e.e.e.e.e.e.e.e.e.e.e.e.e.e.e.e.e.e.e.e.e.e.e.e.e.e.e.e.e.e.e.e.e.e.e.e.e.e.e.e.e.e.e.e.e.e.e.e.e.e.e.e.e.e.e.e.e.e.e.e.e.e.e.e.e.e.e.e.e.e.e.t.t.t.t.e.e.t.t.t.t.t.t.t.t.t.t.e.e.e.e.t.t.t.t.t.t.e.t.t.t.t.t.y.y.t.t.t.t.t.t.e.e.e.e.e.e.e.e.t.t.t.t.e.e.e.e.e.e.e.t.t.t.t.t.t.e.e.e.e.e.t.t.t.t.t.t.t.t.t.t.t.t.t.t.t.t.t.t.t.t.t.t.t.t.e.e.t.t.t.t.t.t.t.t.t.t.t.t.t.t.t.t.t.t.t.t.t.t.t.t.t.t.t.t.t.t.t.t.t.t.t.t.t.t.z.z.t.t.t.t.z.z.t.t.t.t.t.t.t.y.N.N.N.N.N.N.z.z.z.z.N.N.N.N.z.z.N.N.z.z.z.z.N.N.N.N.t.t.y.y.y.y.y.y.y.y.t.y.y.y.y.N.I.I.I.y.y.E.E.E.E.E.E.E.g.E.E.E.W.W.W.W.",
"e.e.e.e.e.e.e.e.e.e.e.e.e.e.e.e.e.e.e.e.e.e.e.e.e.e.e.e.e.e.e.e.e.e.e.e.e.e.e.e.e.e.e.e.e.e.e.e.e.e.e.e.e.e.e.e.e.e.e.e.e.e.e.e.e.e.e.e.e.e.e.e.e.e.e.e.e.e.e.e.e.e.e.e.e.e.e.t.t.e.e.e.e.e.e.e.e.e.e.e.e.e.e.e.e.e.e.e.e.e.e.e.e.e.e.e.e.e.e.e.e.e.e.e.e.e.e.e.e.e.e.e.e.e.e.e.e.e.e.e.e.e.e.e.e.e.e.e.e.e.e.e.e.e.e.e.e.e.e.e.e.e.e.e.e.e.e.e.e.e.e.e.e.e.e.e.e.e.e.e.e.e.e.e.e.e.e.e.e.e.e.e.e.e.e.e.e.e.e.e.e.e.e.e.e.e.e.e.e.e.e.e.e.e.e.e.e.e.e.e.e.e.e.e.e.e.e.e.e.e.e.e.e.e.e.e.e.e.e.e.e.e.e.e.e.e.e.e.e.e.e.e.e.e.e.e.t.t.t.t.e.t.t.t.t.t.t.t.t.t.t.t.e.e.e.e.t.t.t.t.t.t.e.e.t.t.t.t.y.t.t.t.t.t.e.e.e.e.e.e.e.e.e.e.t.t.e.e.e.e.e.e.e.e.e.t.t.t.t.t.e.e.t.e.e.e.t.t.t.t.t.t.t.t.t.t.t.t.t.t.t.t.t.t.t.t.t.t.t.t.e.e.t.t.t.t.t.t.t.t.t.t.t.t.t.t.t.t.t.t.t.t.t.t.t.t.t.t.t.t.t.t.t.t.t.t.t.t.t.t.z.z.t.t.t.t.t.t.t.t.t.t.t.t.t.t.t.N.z.N.z.N.z.z.N.z.N.N.N.N.z.z.N.N.z.z.z.z.z.z.N.N.y.y.y.y.y.y.y.y.y.y.t.y.y.N.N.N.I.I.N.N.N.E.g.E.E.E.E.E.g.g.E.E.W.W.W.W.",
"e.e.e.e.e.e.e.e.e.e.e.e.e.e.e.e.e.e.e.e.e.e.e.e.e.e.e.e.e.e.e.e.e.e.e.e.e.e.e.e.e.e.e.e.e.e.e.e.e.e.e.e.e.e.e.e.e.e.e.e.e.e.e.e.e.e.e.e.e.e.e.e.e.e.e.e.e.e.e.e.e.e.e.e.e.e.t.t.t.e.e.e.e.e.e.e.e.e.e.e.e.e.e.e.e.e.e.e.e.e.e.e.e.e.e.e.e.e.e.e.e.e.e.e.e.e.e.e.e.e.e.e.e.e.e.e.e.e.e.e.e.e.e.e.e.e.e.e.e.e.e.e.e.e.e.e.e.e.e.e.e.e.e.e.e.e.e.e.e.e.e.e.e.e.e.e.e.e.e.e.e.e.e.e.e.e.e.e.e.e.e.e.e.e.e.e.e.e.e.e.e.e.e.e.e.e.e.e.e.e.e.e.e.e.e.e.e.e.e.e.e.e.e.e.e.e.e.e.e.e.e.e.e.e.e.e.e.e.e.e.e.e.e.e.e.e.e.e.e.e.e.e.e.e.e.e.t.t.t.t.e.e.t.t.t.t.t.t.t.t.e.e.e.e.e.e.t.t.t.t.t.t.t.e.t.t.t.t.t.t.t.t.e.e.e.e.e.e.t.t.e.t.e.e.t.e.e.e.e.e.e.e.e.e.e.t.t.t.t.t.t.t.t.t.e.e.t.t.t.t.t.t.t.t.t.t.e.e.t.t.t.t.e.e.e.e.t.t.t.t.t.t.t.t.t.t.t.t.t.t.t.t.t.t.t.t.t.t.t.t.t.t.t.t.t.t.t.t.t.t.t.t.t.t.z.z.z.z.t.t.t.t.t.t.t.t.z.z.z.t.t.t.t.t.t.t.t.t.z.N.N.N.N.N.N.N.z.N.z.z.z.z.N.N.N.N.z.z.z.z.z.z.t.y.y.y.y.y.y.y.y.y.y.N.N.N.N.N.I.N.N.N.N.E.g.E.E.g.g.g.g.g.E.E.W.W.W.W.",
"e.e.e.e.e.e.e.e.e.e.e.e.e.e.e.e.e.e.e.e.e.e.e.e.e.e.e.e.e.e.e.e.e.e.e.e.e.e.e.e.e.e.e.e.e.e.e.e.e.e.e.e.e.e.e.e.e.e.e.e.e.e.e.e.e.e.e.e.e.e.e.e.e.e.e.e.e.e.e.e.e.e.e.e.e.t.t.t.t.e.e.e.e.e.e.e.e.e.e.e.e.e.e.e.e.e.e.e.e.e.e.e.e.e.e.e.e.e.e.e.e.e.e.e.e.e.e.e.e.e.e.e.e.e.e.e.e.e.e.e.e.e.e.e.e.e.e.e.e.e.e.e.e.e.e.e.e.e.e.e.e.e.e.e.e.t.t.t.e.e.e.e.e.e.e.e.e.e.e.e.e.e.e.e.e.e.e.e.e.e.e.e.e.e.e.e.e.e.e.e.e.e.e.e.e.e.e.e.e.e.e.e.e.e.e.e.e.e.e.e.e.e.e.e.e.e.e.e.e.e.e.e.e.e.e.e.e.e.e.e.e.e.e.e.e.e.e.e.e.e.e.e.e.e.e.e.t.t.t.e.e.e.t.t.t.t.t.t.t.t.e.e.e.e.e.e.t.t.t.t.t.t.t.t.t.t.t.t.t.t.t.t.e.e.e.e.e.e.t.t.e.t.e.e.t.e.e.e.e.e.e.e.e.e.e.t.t.t.e.e.t.t.t.t.t.t.t.t.t.t.t.t.t.t.t.t.e.e.t.t.t.t.e.e.e.e.t.t.t.t.t.t.t.t.t.t.t.t.t.t.t.t.t.t.t.t.t.t.t.t.t.t.t.t.t.t.t.t.t.t.t.t.t.t.z.z.z.z.t.t.t.t.t.t.t.t.z.z.t.t.t.t.t.t.t.t.t.z.N.z.N.N.N.N.N.z.z.z.z.z.z.z.N.N.N.z.z.z.z.z.z.z.t.t.t.y.t.t.y.t.t.y.y.N.N.N.N.N.I.N.N.N.N.V.g.E.g.g.g.g.g.g.E.E.E.W.W.W.",
"e.e.e.e.e.e.e.e.e.e.e.e.e.e.e.e.e.e.e.e.e.e.e.e.e.e.e.e.e.e.e.e.e.e.e.e.e.e.e.e.e.e.e.e.e.e.e.e.e.e.e.e.e.e.e.e.e.e.e.e.e.e.e.e.e.e.e.e.e.e.e.e.e.e.e.e.e.e.e.e.e.t.t.t.t.t.t.t.e.e.e.e.t.t.e.e.e.e.e.e.e.e.e.e.e.e.e.e.e.e.e.e.e.e.e.e.e.e.e.e.e.e.e.e.e.e.e.e.e.e.e.e.e.e.e.e.e.e.e.e.e.e.e.e.e.e.q.e.e.e.e.e.e.e.e.e.e.e.e.e.e.e.e.e.e.e.e.e.e.e.e.e.e.e.e.e.e.e.e.e.u.e.e.e.e.e.e.e.t.t.e.e.e.e.e.e.e.e.e.e.e.e.e.e.e.e.e.e.e.e.e.e.e.e.e.e.e.e.e.e.e.e.e.e.e.e.e.e.e.e.e.e.e.e.e.e.e.e.e.e.e.e.e.e.e.e.e.e.e.e.e.e.e.e.e.e.e.e.t.t.t.t.t.t.t.t.t.t.t.t.t.t.t.t.e.e.e.e.t.t.e.e.e.e.t.t.t.y.N.N.y.t.t.e.e.e.e.e.e.e.e.e.e.e.e.e.e.e.e.e.e.e.t.t.t.t.t.t.e.e.t.t.t.t.t.t.t.t.t.t.t.t.t.t.t.t.t.t.t.t.t.t.t.t.t.t.t.t.t.t.t.t.e.e.t.t.t.t.t.t.t.t.e.t.t.t.e.t.u.u.t.t.t.t.t.t.t.t.t.t.t.t.t.z.t.t.t.t.t.t.t.t.t.t.t.t.t.t.t.t.t.t.z.z.z.z.z.z.t.t.t.z.z.z.N.N.z.z.z.z.t.t.t.t.z.t.t.t.t.y.y.t.f.f.t.t.t.t.t.t.P.N.N.N.N.N.N.N.f.I.g.y.y.i.i.i.i.i.i.g.g.E.g.E.g.h.W.W.",
"e.e.e.e.e.e.e.e.e.e.e.e.e.e.e.e.e.e.e.e.e.e.e.e.e.e.e.e.e.e.e.e.e.e.e.e.e.e.e.e.e.e.e.e.e.e.e.e.e.e.e.e.e.e.e.e.e.e.e.e.e.e.e.e.e.e.e.e.e.e.e.e.e.e.e.e.e.e.e.e.e.e.t.t.t.t.t.t.e.e.e.e.t.t.e.e.e.e.e.e.e.e.e.e.e.e.e.e.e.e.e.e.e.e.e.e.e.e.e.e.e.e.e.e.e.e.e.e.e.e.e.e.e.e.e.e.e.e.e.e.e.e.e.e.e.q.e.e.e.e.e.e.e.e.e.e.e.e.e.e.e.e.e.e.e.e.e.e.e.e.e.e.e.e.e.e.e.e.e.e.u.u.e.e.e.e.e.e.e.e.e.e.e.e.e.e.e.e.e.e.e.e.e.e.e.e.e.e.e.e.e.e.e.e.e.e.e.e.e.e.e.e.e.e.e.e.e.e.e.e.e.e.e.e.e.e.e.e.e.e.e.e.e.e.e.e.e.e.e.e.e.e.e.e.e.e.e.e.t.t.t.t.t.t.t.t.t.t.t.t.t.t.t.t.t.e.e.e.e.t.e.e.e.e.t.t.y.y.N.N.t.t.t.e.e.e.e.e.e.t.e.e.e.t.t.t.t.t.t.t.t.t.t.t.t.t.t.t.e.e.t.t.t.t.t.t.t.t.t.t.t.t.t.t.t.t.t.t.t.t.t.t.t.t.t.t.t.t.t.t.t.t.e.e.t.t.t.t.t.t.t.t.t.t.t.t.e.u.t.u.t.t.t.t.t.t.t.t.t.t.t.t.t.t.t.t.t.t.t.t.t.t.t.t.t.t.t.t.t.t.t.t.z.z.z.z.z.z.t.t.t.t.z.z.N.N.z.z.z.z.t.t.t.t.z.t.y.y.y.y.y.t.f.f.t.t.t.t.f.F.P.P.N.N.N.N.N.N.I.I.g.y.i.i.i.i.i.i.i.g.g.E.E.E.g.h.W.W.",
"e.e.e.e.e.e.e.e.e.e.e.e.e.e.e.e.e.e.e.e.e.e.e.e.e.e.e.e.e.e.e.e.e.e.e.e.e.e.e.e.e.e.e.e.e.e.e.e.e.e.e.e.e.e.e.e.e.e.e.e.e.e.e.e.e.e.e.e.e.e.e.e.e.e.e.e.e.e.e.e.e.e.t.e.t.t.e.t.e.e.e.e.e.e.e.e.e.e.e.e.e.e.e.e.e.e.e.e.e.e.e.e.e.e.e.e.e.e.e.e.e.e.e.e.e.e.e.e.e.e.e.e.e.e.e.e.e.e.e.e.e.e.e.e.e.q.e.e.e.e.e.e.e.e.e.e.e.e.e.e.e.e.e.e.e.e.e.e.e.e.e.e.e.e.e.e.e.e.u.u.u.u.e.e.e.e.e.e.e.e.e.e.e.e.e.e.e.e.e.e.e.e.e.e.e.e.e.e.e.e.e.e.e.e.e.e.e.e.e.e.e.e.e.e.e.e.e.e.e.e.e.e.e.e.e.e.e.e.e.e.e.e.e.e.e.e.e.e.e.e.e.e.e.e.e.e.e.e.t.t.t.t.t.t.t.t.t.t.t.t.t.t.e.e.e.e.e.e.t.t.e.e.e.e.e.t.y.N.N.y.t.t.e.e.t.t.t.e.e.t.t.t.e.e.t.t.t.t.t.t.t.t.t.t.t.t.t.t.t.t.t.e.e.e.e.e.t.t.t.t.t.t.t.t.t.t.t.t.t.t.t.t.t.t.t.t.t.t.t.t.t.t.e.e.t.t.t.t.t.t.e.t.t.t.t.e.e.u.t.u.t.t.t.t.t.t.t.t.t.t.t.t.t.t.t.t.t.t.t.t.t.t.t.t.t.t.t.t.t.t.t.t.z.z.z.z.t.t.t.t.t.t.t.z.N.N.z.z.z.z.z.z.z.z.y.y.y.y.y.y.y.t.f.f.t.t.t.t.t.N.N.N.N.N.N.N.N.N.N.N.y.g.i.i.V.V.i.i.g.g.E.E.E.E.h.h.W.W.",
"e.e.e.e.e.e.e.e.e.e.e.e.e.e.e.e.e.e.e.e.e.e.e.e.e.e.e.e.e.e.e.e.e.e.e.e.e.e.e.e.e.e.e.e.e.e.e.e.e.e.e.e.e.e.e.e.e.e.e.e.e.e.e.e.e.e.e.e.e.e.e.e.e.e.e.e.e.e.e.e.e.e.e.e.e.e.e.e.e.e.e.e.e.e.e.e.e.e.e.e.e.e.e.e.e.e.e.e.e.e.e.e.e.e.e.e.e.e.e.e.e.e.e.e.e.e.e.e.e.e.e.e.e.e.e.e.e.e.e.e.e.e.e.e.e.q.e.e.e.e.e.e.e.e.e.e.e.e.e.e.e.e.e.e.e.e.e.e.e.e.e.e.e.e.e.e.u.u.u.u.e.u.e.e.e.e.e.e.e.e.e.e.e.e.e.e.e.e.e.e.e.e.e.e.e.e.e.e.e.e.e.e.e.e.e.e.e.e.e.e.e.e.e.e.e.e.e.e.e.e.e.e.e.e.e.e.e.e.e.e.e.e.e.e.e.e.e.e.e.e.e.e.e.e.e.e.e.t.t.t.t.t.t.t.t.t.t.t.t.t.t.t.e.e.e.e.e.e.t.t.e.e.e.e.e.t.N.N.t.y.t.t.e.e.t.t.t.e.e.e.t.e.e.e.t.t.t.t.t.t.t.t.t.t.t.t.t.t.t.t.t.t.e.e.e.e.t.t.t.t.t.t.t.t.t.t.t.t.t.t.t.t.t.t.t.t.t.t.t.t.t.t.e.e.t.t.t.e.t.t.e.e.e.t.t.t.e.u.t.u.t.t.t.t.t.t.t.t.t.t.t.t.t.t.t.t.t.t.t.t.t.t.t.t.t.t.t.t.t.t.t.t.z.z.z.z.t.t.t.t.t.t.t.N.N.N.z.z.z.z.N.N.N.N.y.y.y.y.y.y.y.y.f.f.t.t.t.t.t.N.N.N.N.N.N.N.N.N.N.V.g.i.V.V.V.C.p.p.W.E.W.E.W.W.h.h.W.W.",
"e.e.e.e.e.e.e.e.e.e.e.e.e.e.e.e.e.e.e.e.e.e.e.e.e.e.e.e.e.e.e.e.e.e.e.e.e.e.e.e.e.e.e.e.e.e.e.e.e.e.e.e.e.e.e.e.e.e.e.e.e.e.e.e.e.e.e.e.e.e.e.e.e.e.e.e.e.e.e.t.e.e.e.e.e.e.e.e.e.e.e.e.e.e.t.t.e.e.e.e.e.e.e.e.e.e.e.e.e.e.e.e.e.e.e.e.e.e.e.e.e.e.e.e.e.e.e.e.e.e.e.e.e.e.e.e.e.e.e.e.e.e.e.e.q.q.q.e.e.e.e.e.e.e.e.e.e.e.e.e.e.e.e.e.e.e.e.e.e.e.e.e.e.e.e.e.r.u.u.u.e.u.e.e.e.e.t.t.e.e.e.t.e.e.e.e.e.e.e.e.e.e.e.e.e.e.e.e.e.e.e.e.e.e.e.e.e.e.e.e.e.e.e.e.e.e.e.e.e.e.e.e.e.e.e.e.e.e.e.t.e.e.e.e.e.e.e.e.e.e.e.e.e.e.e.t.t.t.t.t.t.t.t.t.t.t.t.t.t.t.e.e.e.e.e.e.e.e.e.t.e.e.e.t.t.t.y.N.t.t.t.e.e.e.e.t.e.e.t.t.t.e.e.e.t.t.t.t.t.t.t.t.e.e.t.t.t.t.t.t.t.t.e.e.e.t.t.t.e.t.t.t.t.t.t.t.t.t.t.t.t.t.t.t.t.t.t.t.t.t.t.t.e.e.t.t.t.t.t.t.e.e.t.t.t.t.t.t.t.u.t.t.t.t.t.t.t.t.t.t.t.t.z.z.t.t.t.t.t.t.t.t.t.t.t.t.t.t.t.t.t.t.z.z.z.z.t.t.t.t.t.t.t.z.z.z.N.N.N.N.N.N.N.N.y.y.t.y.y.y.y.y.f.t.t.t.t.y.N.N.N.N.N.N.N.N.N.V.V.V.E.V.V.C.C.C.C.W.W.W.W.W.W.W.h.p.C.W.",
"e.e.e.e.e.e.e.e.e.e.e.e.e.e.e.e.e.e.e.e.e.e.e.e.e.e.e.e.e.e.e.e.e.e.e.e.e.e.e.e.e.e.e.e.e.e.e.e.e.e.e.e.e.e.e.e.e.e.e.e.e.e.e.e.e.e.e.e.e.e.e.e.e.e.e.e.e.e.t.t.e.e.e.e.e.e.e.e.t.e.e.e.e.e.t.t.e.e.e.e.e.e.e.e.e.e.e.e.e.e.e.e.e.e.e.e.e.e.e.e.e.e.e.e.e.e.e.e.e.e.e.e.e.e.e.e.e.e.e.e.e.e.e.e.q.q.q.e.e.e.e.e.e.e.e.e.e.e.e.e.e.e.e.e.e.e.e.e.e.e.e.e.e.e.e.t.r.u.u.r.r.u.e.e.e.e.t.t.e.e.e.t.e.e.e.e.e.e.e.e.e.e.e.e.e.e.e.e.e.e.e.e.e.e.e.e.e.e.e.e.e.e.e.e.e.e.e.e.e.e.e.e.e.e.e.e.e.e.e.e.e.e.e.e.e.e.e.e.e.e.e.e.e.e.t.t.t.t.t.e.t.t.t.t.t.t.t.t.t.t.e.e.e.e.e.e.e.e.e.e.e.e.e.e.t.t.t.y.t.t.t.e.e.e.e.e.e.t.t.t.t.e.e.e.t.t.t.t.t.t.t.t.e.e.t.t.t.t.t.t.t.t.t.e.e.t.t.t.e.e.e.t.t.e.e.t.t.t.t.t.t.t.t.t.t.t.t.t.t.t.t.t.e.e.t.t.t.t.t.t.t.t.t.t.t.t.t.t.t.u.t.t.t.u.e.e.t.t.t.t.t.t.z.z.t.t.t.t.t.t.t.t.t.t.t.t.t.z.z.z.t.t.z.z.z.z.t.t.t.t.t.t.t.z.z.z.N.N.N.N.N.N.N.N.y.y.t.t.y.y.y.y.t.t.t.t.y.y.N.N.N.N.N.N.N.N.V.V.V.V.V.E.W.C.C.C.W.W.W.W.W.W.W.W.W.W.W.W.",
"e.e.e.e.e.e.e.e.e.e.e.e.e.e.e.e.e.e.e.e.e.e.e.e.e.e.e.e.e.e.e.e.e.e.e.e.e.e.e.e.e.e.e.e.e.e.e.e.e.e.e.e.e.e.e.e.e.e.e.e.e.e.e.e.e.e.e.e.e.e.e.e.e.e.e.e.e.e.e.e.e.e.e.e.e.e.e.e.t.t.e.e.e.e.t.t.e.e.e.e.e.e.e.e.e.e.e.e.e.e.e.e.e.e.e.e.e.e.e.e.e.e.e.e.e.e.e.e.e.e.e.e.e.e.e.e.e.e.e.e.e.e.e.e.q.q.q.e.e.e.e.e.e.e.e.e.e.e.e.e.e.e.e.e.e.e.e.e.e.e.e.e.e.e.e.y.y.r.r.u.r.e.e.e.e.e.e.e.e.e.t.t.e.e.e.e.e.e.e.e.e.e.e.e.e.e.e.e.e.e.e.e.e.e.e.e.e.e.e.e.e.e.e.e.e.e.e.e.e.e.e.e.t.t.e.e.e.e.e.e.e.e.e.e.e.e.e.e.e.e.e.e.e.t.t.t.t.t.e.e.e.t.t.t.e.e.e.t.t.t.t.e.t.t.e.e.e.e.e.e.t.t.t.e.t.t.t.t.t.t.e.e.e.e.e.e.e.e.t.t.e.e.e.e.t.t.t.t.t.t.t.t.e.t.t.t.t.e.e.e.t.t.e.e.t.t.t.t.e.e.e.t.t.t.e.e.t.t.t.t.t.t.t.t.t.t.t.t.t.t.t.t.e.e.t.t.e.e.t.t.t.t.t.t.N.N.N.y.t.u.t.t.t.u.u.u.t.t.t.t.t.t.t.t.t.t.t.t.t.t.t.t.t.t.t.t.t.z.z.z.t.t.z.z.z.z.t.t.t.z.t.t.t.N.N.N.z.z.z.z.z.z.y.y.y.t.y.y.y.y.y.y.y.y.t.y.y.y.y.y.y.y.y.y.V.V.N.N.V.V.V.C.W.W.W.W.!.W.!.W.W.W.Q.Q.W.!.!.W.",
"e.e.e.e.e.e.e.e.e.e.e.e.e.e.e.e.e.e.e.e.e.e.e.e.e.e.e.e.e.e.e.e.e.e.e.e.e.e.e.e.e.e.e.e.e.e.e.e.e.e.e.e.e.e.e.e.e.e.e.e.e.e.e.e.e.e.e.e.e.e.e.e.e.e.e.e.e.e.e.e.e.e.e.e.e.e.e.e.t.t.e.e.e.e.e.t.e.e.e.e.e.e.e.e.e.e.e.e.e.e.e.e.e.e.e.e.e.e.e.e.e.e.e.e.e.e.e.e.e.e.e.e.e.e.e.e.e.e.e.e.e.e.e.e.e.q.q.e.e.e.e.e.e.e.e.e.e.e.e.e.e.e.e.e.e.e.e.e.e.e.e.e.e.e.y.t.y.r.u.u.u.e.e.e.e.e.e.e.e.e.e.e.e.e.e.e.e.e.e.e.e.e.e.e.e.e.e.e.e.e.e.e.e.e.e.e.e.e.e.e.e.e.e.e.e.e.e.e.e.e.e.e.t.t.t.t.e.e.e.e.e.e.e.e.e.e.e.e.e.e.e.e.e.t.t.t.t.t.e.e.e.t.t.t.e.e.e.e.t.t.t.t.t.t.e.e.e.e.e.e.t.t.t.e.e.e.t.t.e.t.e.e.e.e.e.t.e.e.e.e.e.e.e.e.e.e.e.e.e.e.e.e.e.e.t.t.t.t.e.e.t.t.t.t.t.t.t.t.e.e.e.e.t.t.e.e.t.t.t.t.t.t.t.t.t.t.t.t.t.t.t.t.e.e.t.e.e.t.t.t.t.y.y.N.N.N.N.N.t.u.t.t.t.u.u.u.t.t.t.t.t.t.t.t.t.t.t.t.t.t.t.t.t.t.t.t.z.z.N.N.t.t.z.z.z.z.t.t.z.z.t.t.t.N.N.N.z.z.z.z.z.z.t.t.t.t.y.y.y.y.y.y.y.y.y.y.y.y.y.y.y.y.y.V.V.N.N.V.V.V.C.W.W.C.W.W.!.!.!.!.!.!.Q.!.!.!.!.!.",
"e.e.e.e.e.e.e.e.e.e.e.e.e.e.e.e.e.e.e.e.e.e.e.e.e.e.e.e.e.e.e.e.e.e.e.e.e.e.e.e.e.e.e.e.e.e.e.e.e.e.e.e.e.e.e.e.e.e.e.e.e.e.e.e.e.e.e.e.e.e.e.e.e.e.e.e.e.e.e.e.e.e.e.e.e.e.e.e.e.e.e.e.e.e.e.e.e.e.e.e.e.e.e.e.e.e.e.e.e.e.e.e.e.e.e.e.e.e.e.e.e.e.e.e.e.e.e.e.e.e.e.e.t.t.t.e.e.e.e.e.e.e.e.e.e.e.e.e.e.e.e.e.e.e.e.e.e.e.e.e.e.e.e.e.e.e.e.e.e.e.e.e.r.y.y.y.y.r.y.y.u.u.r.t.e.e.e.e.e.e.e.e.e.e.e.e.e.e.e.e.e.e.e.e.e.e.e.e.e.e.e.e.e.e.e.e.e.e.e.e.e.e.e.e.e.e.e.e.e.e.e.e.e.e.e.t.t.t.t.e.e.e.e.e.t.e.e.e.e.e.e.e.e.e.e.e.t.t.t.t.t.t.e.e.e.e.e.e.t.t.e.e.t.t.e.e.e.t.t.t.e.e.e.e.t.t.e.e.e.e.e.e.t.t.e.e.e.e.e.e.e.e.e.e.t.t.t.t.t.t.e.t.t.t.e.e.t.t.t.t.t.t.t.t.t.t.t.t.t.t.t.t.t.t.t.t.t.t.t.t.t.t.t.t.t.t.t.t.t.t.t.t.e.e.t.t.t.t.e.e.e.t.t.t.t.t.z.y.t.u.t.t.t.t.t.t.t.t.t.t.t.t.t.t.t.t.t.t.t.t.t.t.t.t.t.t.z.z.z.z.t.t.t.t.t.z.t.t.z.z.t.t.t.N.z.z.t.t.t.y.y.y.t.t.y.y.y.y.y.y.y.y.y.y.y.y.y.y.y.y.V.V.V.V.E.E.E.E.V.V.C.C.C.C.C.W.A.!.!.!.Q.W.W.W.!.!.!.W.",
"e.e.e.e.e.e.e.e.e.e.e.e.e.e.e.e.e.e.e.e.e.e.e.e.e.e.e.e.e.e.e.e.e.e.e.e.e.e.e.e.e.e.e.e.e.e.e.e.e.e.e.e.e.e.e.e.e.e.e.e.e.e.e.e.e.e.e.e.e.e.e.e.e.e.e.e.e.e.e.e.e.e.e.e.e.e.e.e.e.e.e.e.e.e.e.e.e.e.e.e.e.e.e.e.e.e.e.e.e.e.e.e.e.e.e.e.e.e.e.e.e.e.e.e.e.e.e.e.e.e.e.e.t.t.t.e.e.e.e.e.e.e.e.e.e.e.e.e.e.e.e.e.e.e.e.e.e.e.e.e.e.e.e.e.e.e.e.e.e.e.e.e.r.r.y.y.y.r.y.y.u.u.r.t.e.e.e.e.e.e.e.e.e.e.e.e.e.e.e.e.e.e.e.e.e.e.e.e.e.e.e.e.e.e.e.e.e.e.e.e.e.e.e.e.e.e.e.e.e.e.e.e.e.e.e.t.t.t.t.e.e.e.e.e.e.e.e.e.e.e.e.e.e.e.e.e.e.e.t.t.e.e.e.e.e.e.e.e.t.t.e.e.e.t.e.e.e.e.t.t.e.e.e.e.t.t.e.e.e.e.e.e.t.t.e.e.e.e.t.t.e.e.e.e.e.e.t.t.t.t.e.e.t.e.e.e.t.t.t.t.t.t.e.t.t.t.t.t.t.t.t.t.t.t.t.t.t.t.t.t.t.t.t.t.t.t.t.t.t.t.t.t.e.t.t.t.t.t.t.e.t.t.t.t.t.N.z.y.t.u.t.t.t.t.t.t.t.t.t.t.t.t.t.t.t.t.t.t.t.t.t.t.t.t.t.t.t.N.N.N.t.t.t.t.z.z.t.t.z.z.y.y.t.N.z.z.t.t.t.y.y.y.y.t.y.y.y.y.y.y.y.y.y.y.y.y.i.i.y.V.V.V.V.V.E.E.E.E.V.C.C.C.C.C.W.!.A.!.!.!.W.W.W.W.!.!.!.!.",
"e.e.e.e.e.e.e.e.e.e.e.e.e.e.e.e.e.e.e.e.e.e.e.e.e.e.e.e.e.e.e.e.e.e.e.e.e.e.e.e.e.e.e.e.e.e.e.e.e.e.e.e.e.e.e.e.e.e.e.e.e.e.e.e.e.e.e.e.e.e.e.e.e.e.e.e.e.e.e.e.e.e.e.e.e.e.e.e.e.e.e.e.e.e.e.e.e.e.e.e.e.e.e.e.e.e.e.e.e.e.e.e.e.e.e.e.e.e.e.e.e.e.e.e.e.e.e.e.t.t.e.e.e.t.e.e.e.e.e.e.e.e.e.e.e.e.e.e.e.e.e.e.e.e.e.e.e.e.e.e.e.e.e.e.e.e.e.e.e.e.e.e.e.r.y.y.y.r.e.e.u.u.u.e.e.e.e.e.e.e.e.t.e.e.e.e.e.e.e.e.e.e.e.e.e.e.e.e.e.e.e.e.e.e.e.e.e.e.e.e.e.e.e.e.e.e.e.e.e.e.e.e.e.e.e.t.t.t.t.e.e.e.t.t.e.e.e.e.e.e.e.e.e.e.e.e.e.e.e.e.e.e.e.e.e.e.e.e.t.t.e.e.e.e.e.e.e.e.t.e.e.e.e.e.t.e.e.e.e.e.e.e.t.t.e.e.e.e.e.t.t.e.e.e.e.e.t.t.t.t.t.e.t.t.t.t.t.t.e.e.t.t.e.e.e.e.e.t.t.t.e.e.t.t.t.t.e.t.t.t.t.t.t.t.t.t.t.t.t.t.t.t.t.t.t.N.y.y.t.t.t.t.N.N.y.N.N.y.t.u.t.t.t.t.t.t.t.t.t.t.t.t.z.z.t.t.t.t.t.t.t.t.t.t.t.t.t.N.N.N.t.t.t.z.N.z.t.t.N.y.y.y.y.N.N.N.t.t.y.y.y.y.y.r.y.y.y.y.i.i.y.y.y.y.y.i.i.i.i.i.y.y.y.y.g.i.E.E.V.C.C.C.C.C.!.!.A.A.!.!.W.W.W.W.W.W.W.W.",
"e.e.e.e.e.e.e.e.e.e.e.e.e.e.e.e.e.e.e.e.e.e.e.e.e.e.e.e.e.e.e.e.e.e.e.e.e.e.e.e.e.e.e.e.e.e.e.e.e.e.e.e.e.e.e.e.e.e.e.e.e.e.e.e.e.e.e.e.e.e.e.e.e.e.e.e.e.e.e.e.e.e.e.e.e.e.e.e.e.e.e.e.e.e.e.e.e.e.e.e.e.e.e.e.e.e.e.e.t.e.e.e.e.e.e.e.e.e.e.e.e.e.e.e.e.e.e.e.t.t.t.t.e.e.e.e.e.e.e.e.e.e.e.e.e.e.e.e.e.e.e.e.e.e.e.e.e.e.e.e.e.e.e.e.e.e.e.e.e.e.e.e.e.r.r.r.u.e.e.e.u.u.e.e.e.e.e.e.e.e.e.t.e.e.e.e.e.e.e.e.e.e.e.e.e.e.e.e.e.e.e.e.e.e.e.e.e.e.e.e.e.e.e.e.e.e.e.e.e.e.e.e.e.e.e.t.t.t.t.e.e.e.t.t.t.t.e.e.e.e.e.e.e.e.e.e.e.e.e.e.e.e.e.e.e.e.e.t.t.t.e.e.e.e.e.e.e.e.e.e.e.e.e.e.t.e.e.e.t.e.e.e.e.t.e.e.e.e.t.t.t.e.e.e.e.e.t.t.t.t.t.e.t.t.t.t.t.t.e.e.t.e.e.e.e.e.e.t.t.e.e.e.t.t.t.t.e.t.t.t.t.t.t.t.t.t.t.t.t.t.t.t.t.t.t.N.y.y.y.z.y.N.N.N.N.N.N.y.u.u.u.u.u.u.u.t.t.t.t.t.t.t.z.z.t.t.t.t.t.t.t.t.t.t.t.t.N.N.N.N.t.t.z.z.N.N.t.t.N.N.y.y.y.N.N.N.t.t.t.y.y.y.y.r.y.y.y.y.y.y.y.y.i.i.i.i.i.i.i.i.y.y.y.y.i.i.E.E.V.V.C.C.C.C.W.!.A.A.!.!.W.W.W.W.W.W.W.W.",
"e.e.e.e.e.e.e.e.e.e.e.e.e.e.e.e.e.e.e.e.e.e.e.e.e.e.e.e.e.e.e.e.e.e.e.e.e.e.e.e.e.e.e.e.e.e.e.e.e.e.e.e.e.e.e.e.e.e.e.e.e.e.e.e.e.e.e.e.e.e.e.e.e.e.e.e.e.e.e.e.e.e.e.e.e.e.e.e.e.e.e.e.e.e.e.e.e.e.e.e.e.e.e.e.e.e.e.e.e.e.e.e.e.e.e.e.e.e.e.e.e.e.e.e.e.e.e.e.t.t.e.e.e.e.e.e.e.e.e.e.e.e.e.e.e.e.e.e.e.e.e.e.e.e.e.e.e.e.e.e.e.e.e.e.e.e.e.e.e.e.e.e.e.e.e.r.e.e.u.u.u.u.e.e.e.e.e.e.e.e.t.t.e.e.e.e.e.e.e.e.e.e.e.e.e.e.e.e.e.e.e.e.e.e.e.e.e.e.e.e.e.e.e.e.e.e.e.e.e.e.e.e.e.e.e.t.t.t.t.e.e.e.t.t.e.e.e.e.e.e.e.e.e.e.e.t.e.e.e.e.e.e.e.t.e.t.t.e.e.e.e.e.e.e.e.e.e.e.e.e.t.e.e.t.e.e.t.t.t.t.t.e.e.e.e.e.e.e.e.t.t.t.t.e.t.t.t.t.t.t.t.t.t.t.t.t.t.t.t.e.t.t.e.e.e.e.t.t.t.t.e.t.t.t.t.e.e.t.t.t.t.t.t.t.t.t.t.t.t.t.t.t.t.t.t.y.y.y.z.z.y.y.z.z.z.N.N.y.u.u.t.t.u.u.u.t.t.t.t.t.t.t.t.z.y.t.t.t.t.t.t.t.y.y.y.N.y.y.N.N.t.z.z.z.N.t.t.t.t.t.t.t.y.N.N.N.t.t.t.y.y.y.y.r.y.y.y.y.y.y.y.y.i.i.y.i.i.g.g.g.g.g.g.y.y.y.i.V.V.V.i.V.C.C.C.C.!.!.!.!.W.W.W.W.W.W.W.W.",
"e.e.e.e.e.e.e.e.e.e.e.e.e.e.e.e.e.e.e.e.e.e.e.e.e.e.e.e.e.e.e.e.e.e.e.e.e.e.e.e.e.e.e.e.e.e.e.e.e.e.e.e.e.e.e.e.e.e.e.e.e.e.e.e.e.e.e.e.e.e.e.e.e.e.e.e.e.e.e.e.e.e.e.e.e.e.e.e.e.e.e.e.e.e.e.e.e.e.e.e.e.e.e.e.e.e.e.e.e.e.e.e.e.e.e.e.e.e.e.e.e.e.e.e.e.e.e.e.e.e.e.e.t.t.e.e.e.e.e.e.e.e.e.e.e.e.e.e.e.e.e.e.e.e.e.e.e.e.e.e.e.e.e.e.e.e.e.e.e.e.e.e.e.e.e.e.e.e.e.e.u.u.e.e.e.e.e.e.e.e.t.t.e.e.e.e.e.e.e.e.e.e.e.e.e.e.e.e.e.e.e.e.e.e.e.e.e.e.e.e.e.e.e.e.e.e.e.e.e.e.e.e.e.e.e.t.t.t.t.e.t.t.t.t.t.t.t.t.t.e.t.e.e.e.e.t.t.t.e.e.e.e.e.e.t.t.e.e.e.t.e.e.e.e.e.e.e.e.e.e.t.t.e.t.e.e.e.e.t.t.e.e.e.e.e.e.e.e.e.e.t.t.e.e.t.t.t.t.t.t.t.t.t.t.t.t.t.t.t.e.t.t.e.t.t.t.t.t.t.t.t.t.t.t.t.t.t.t.t.t.t.t.t.t.t.t.t.t.t.t.t.t.t.t.t.y.y.y.t.t.t.t.t.t.t.N.y.y.t.u.t.t.u.u.u.u.t.t.t.t.t.t.t.t.t.t.t.t.t.t.t.t.t.t.t.t.t.y.y.y.t.t.z.z.t.t.t.t.t.t.t.t.y.N.N.N.t.t.t.y.y.y.y.r.y.y.y.y.y.y.y.y.i.i.y.y.i.g.g.g.g.g.g.y.y.y.y.i.i.V.i.i.V.C.C.C.!.!.!.W.W.W.W.W.W.W.W.W.",
"e.e.e.e.e.e.e.e.e.e.e.t.e.e.e.e.e.e.e.e.e.e.e.e.e.e.e.e.e.e.e.e.e.e.e.e.e.e.e.e.e.e.e.e.e.e.e.e.e.e.e.e.e.e.e.e.e.e.e.e.e.e.e.e.e.e.e.e.e.e.e.e.e.e.e.e.e.e.e.e.e.e.e.e.e.e.e.e.e.e.e.e.e.e.e.e.e.e.e.e.e.e.e.e.e.e.e.e.e.e.e.e.e.e.e.e.e.e.e.e.e.e.e.e.e.e.e.e.e.e.e.e.t.e.e.e.e.e.e.e.e.e.e.e.e.e.e.e.e.e.e.e.e.e.e.e.e.e.e.e.e.e.e.e.e.e.e.e.e.e.e.e.e.e.e.e.q.e.e.e.e.u.e.e.e.e.t.e.e.e.e.t.e.e.e.e.e.e.e.e.e.e.e.e.e.e.e.e.e.e.e.e.e.e.e.e.e.e.e.e.e.e.e.e.e.e.e.e.e.e.e.e.e.e.e.t.t.t.t.e.r.r.r.r.r.r.r.r.r.e.e.e.e.e.e.e.e.e.e.e.e.e.e.e.e.e.e.e.e.e.e.e.e.e.e.e.t.t.e.t.e.t.e.e.e.t.e.e.e.e.e.e.t.t.e.t.e.e.e.e.e.e.e.e.t.t.e.e.t.t.t.t.e.e.t.e.t.t.t.t.t.t.t.t.t.t.t.t.t.t.t.t.t.t.t.t.t.t.t.t.t.t.t.t.t.t.t.t.t.t.t.t.e.t.t.t.t.t.t.t.t.t.t.t.t.t.t.e.y.r.y.t.t.t.t.t.t.t.t.t.t.t.t.t.t.t.t.t.t.t.t.t.t.t.t.t.t.t.t.t.t.t.t.t.t.t.t.t.t.N.t.t.y.N.N.N.u.u.t.y.y.y.y.r.y.y.y.y.y.y.y.y.y.y.y.y.y.y.g.g.g.g.g.y.y.y.y.i.i.i.i.i.i.C.C.W.!.!.W.W.W.W.W.W.W.W.W.W.",
"e.e.e.e.e.e.e.e.e.e.e.t.t.e.e.e.e.e.e.e.e.e.e.e.e.e.e.e.e.e.e.e.e.e.e.e.e.e.e.e.e.e.e.e.e.e.e.e.e.e.e.e.e.e.e.e.e.e.e.e.e.e.e.e.e.e.e.e.e.e.e.e.e.e.e.e.e.e.e.e.e.e.e.e.e.e.e.e.e.e.e.e.e.e.e.e.e.e.e.e.e.e.e.e.e.e.e.e.e.e.e.e.e.e.e.e.e.e.e.e.e.e.e.e.e.e.e.e.e.e.e.e.t.t.e.e.e.e.e.e.e.e.e.e.e.e.e.e.e.e.e.e.e.e.e.e.e.e.e.e.e.e.e.e.e.e.e.e.e.e.e.e.e.e.e.e.e.e.e.e.e.e.e.e.e.e.e.e.e.e.t.t.e.e.e.e.e.e.e.e.e.e.e.e.e.e.e.e.e.e.e.e.e.e.e.e.e.e.e.e.e.e.e.e.e.e.e.e.e.e.e.e.e.e.e.t.t.t.t.e.r.r.r.r.r.r.r.r.r.e.e.e.e.e.e.e.e.e.e.e.e.e.e.e.e.e.e.e.e.e.e.e.t.e.e.e.e.t.t.t.e.e.e.e.e.e.e.e.e.t.e.t.e.t.e.t.e.t.e.t.e.t.e.t.t.t.e.e.e.t.t.t.t.e.e.e.t.t.t.t.t.t.t.t.t.t.t.t.t.t.t.t.t.t.t.t.t.t.t.t.t.t.t.t.t.t.t.t.t.t.t.t.e.e.t.t.t.t.e.e.e.e.e.e.t.t.t.t.y.y.t.t.t.t.t.t.t.t.t.t.t.t.t.t.t.t.t.t.t.t.t.t.t.t.t.e.e.t.t.t.t.t.t.t.t.t.t.e.N.N.t.t.y.N.N.N.t.t.t.y.y.y.y.r.y.y.y.y.y.y.y.y.y.y.y.y.y.y.g.g.g.g.g.y.y.y.y.y.i.i.i.i.V.W.W.W.W.W.W.W.W.W.W.W.W.W.W.W.",
"e.e.e.e.e.e.e.e.e.e.e.e.e.e.e.e.e.e.e.e.e.e.e.e.e.e.e.e.e.e.e.e.e.e.e.e.e.e.e.e.e.e.e.e.e.e.e.e.e.e.e.e.e.e.e.e.e.e.e.e.e.e.e.e.e.e.e.e.e.e.e.e.e.e.e.e.e.e.e.e.e.e.e.e.e.e.e.e.e.e.e.e.e.e.e.e.e.e.e.e.e.e.e.e.e.e.e.e.e.e.e.e.e.e.e.e.e.e.e.e.e.e.e.e.e.e.e.e.e.e.e.e.e.e.e.e.e.e.e.e.e.e.e.e.e.e.e.e.e.e.e.e.e.e.e.e.e.e.e.e.t.t.e.e.e.e.e.e.e.e.e.e.e.e.e.e.e.e.e.e.e.e.e.e.e.t.t.t.e.e.e.e.e.e.e.e.e.e.e.e.e.e.e.e.e.e.e.e.e.e.e.e.e.e.e.e.e.e.e.e.e.e.e.e.e.e.e.e.e.e.e.e.t.t.t.t.t.e.e.e.e.e.t.t.t.t.e.e.t.t.t.t.t.t.t.t.t.t.t.e.e.e.t.e.e.e.e.t.e.e.t.e.e.e.t.t.e.e.e.e.e.e.e.e.e.t.e.e.t.t.t.t.t.t.t.t.t.t.e.e.e.t.e.t.t.t.t.t.t.t.t.t.t.t.t.t.t.t.t.t.t.e.e.e.t.t.t.t.t.t.t.t.t.t.t.t.t.t.t.t.t.t.t.t.t.t.t.t.t.t.t.t.e.t.t.t.t.t.t.t.e.e.t.t.y.t.t.t.t.t.t.t.t.t.t.t.t.y.t.t.t.t.t.t.t.t.t.t.t.t.t.t.e.t.t.t.t.t.t.t.t.t.t.t.t.t.t.t.t.t.y.N.N.N.N.N.t.t.y.y.N.N.t.u.t.t.y.y.N.y.N.y.y.y.y.y.y.y.y.y.y.y.y.I.I.I.I.E.g.g.g.g.E.E.W.W.W.W.W.W.W.W.W.W.E.E.E.E.",
"e.e.e.e.e.e.e.e.e.e.e.e.e.e.e.e.e.e.e.e.e.e.e.e.e.e.e.e.e.e.e.e.e.e.e.e.e.e.e.e.e.e.e.e.e.e.e.e.e.e.e.e.e.e.e.e.e.e.e.e.e.e.e.e.e.e.e.e.e.e.e.e.e.e.e.e.e.e.e.e.e.e.e.e.e.e.e.e.e.e.e.e.e.e.e.e.e.e.e.e.e.e.e.e.e.e.e.e.e.e.e.e.e.e.e.e.e.e.e.e.e.e.e.e.e.e.e.e.e.e.e.e.e.e.e.e.e.e.e.e.e.e.e.e.e.e.e.e.e.e.e.e.e.e.e.e.t.e.e.e.t.e.e.e.e.e.e.e.e.e.e.e.e.e.e.e.e.e.e.e.e.e.e.e.e.t.t.t.e.e.e.e.e.e.e.e.e.e.e.e.e.e.e.e.e.e.e.e.e.e.e.e.e.e.e.e.e.e.e.e.e.e.e.e.e.e.e.e.e.e.e.e.e.e.e.t.t.e.e.e.e.e.t.t.t.t.e.e.t.t.t.t.t.t.t.t.t.t.t.e.e.e.e.e.e.e.e.t.e.e.e.e.e.e.t.e.e.e.e.e.e.e.e.e.t.t.e.e.t.t.t.t.t.t.t.t.t.t.t.t.t.t.t.t.t.t.t.t.t.t.e.e.t.t.t.t.t.t.t.t.e.e.e.e.t.t.t.t.e.t.t.t.t.t.t.t.t.t.t.t.t.t.t.t.t.t.t.t.t.t.t.t.e.e.t.t.t.t.t.t.e.e.t.t.y.t.t.t.t.t.t.t.t.t.t.t.y.t.t.t.t.t.t.t.t.t.t.t.t.t.t.t.t.t.t.t.e.e.t.t.t.t.t.t.t.t.t.t.t.t.y.N.N.N.N.N.t.t.y.y.N.N.y.u.t.t.y.y.N.N.N.N.y.y.y.y.y.y.y.y.y.y.y.y.y.I.I.I.g.g.g.g.E.E.E.E.W.W.W.W.C.W.W.W.g.g.g.g.",
"e.e.e.e.e.e.e.e.e.e.e.e.e.e.e.e.e.e.e.e.e.e.e.e.e.e.e.e.e.e.e.e.e.e.e.e.e.e.e.e.e.e.e.e.e.e.e.e.e.e.e.e.e.e.e.e.e.e.e.e.e.e.e.e.e.e.e.e.e.e.e.e.e.e.e.e.e.e.e.e.e.e.e.e.e.e.e.e.e.e.e.e.e.e.e.e.e.e.e.e.e.e.e.e.e.e.e.e.e.e.e.e.e.e.e.e.e.e.e.e.e.e.e.e.e.e.e.e.e.e.e.e.e.e.e.e.e.e.e.e.e.e.e.e.e.e.e.e.e.e.e.e.e.e.e.e.t.t.e.e.t.t.e.e.e.e.e.e.e.e.e.e.e.e.e.e.e.e.e.e.e.e.e.e.e.e.e.t.e.e.t.e.e.e.e.e.e.e.e.e.e.e.e.e.e.e.e.e.e.e.e.e.e.e.e.e.e.e.e.e.e.e.e.e.e.e.e.e.e.e.e.e.e.e.e.t.t.e.e.e.e.e.t.t.t.t.t.t.t.t.t.t.t.t.t.t.t.t.t.e.e.e.e.e.e.e.t.e.t.t.e.e.e.e.t.e.e.e.e.e.e.e.e.e.t.e.e.e.t.t.t.t.t.t.t.t.t.t.t.t.t.t.t.t.t.t.t.t.t.t.t.e.t.t.t.t.t.t.t.t.e.e.e.e.t.t.t.t.e.t.t.t.t.t.t.t.t.t.t.t.t.t.t.t.t.t.t.t.t.t.t.t.e.e.t.t.t.t.t.t.e.t.t.t.y.t.t.t.t.t.t.t.t.t.t.t.t.t.t.t.t.t.t.t.t.t.t.t.t.t.t.t.t.t.t.t.t.t.t.t.t.t.t.t.t.t.t.t.t.t.y.N.N.N.N.N.y.t.y.y.N.N.y.t.t.t.y.y.N.N.N.N.y.y.y.y.y.y.y.y.y.y.y.y.y.y.y.y.y.y.g.g.g.E.E.E.E.E.E.E.C.W.W.W.g.g.g.g.",
"e.e.e.e.e.e.e.e.e.e.e.e.e.e.e.e.e.e.e.e.e.e.e.e.e.e.e.e.e.e.e.e.e.e.e.e.e.e.e.e.e.e.e.e.e.e.e.e.e.e.e.e.e.e.e.e.e.e.e.e.e.e.e.e.e.e.e.e.e.e.e.e.e.e.e.e.e.e.e.e.e.e.e.e.e.e.e.e.e.e.e.e.e.e.e.e.e.e.e.e.e.e.e.e.e.e.e.e.e.e.e.e.e.e.e.e.e.e.e.e.e.e.e.e.e.e.e.e.e.e.e.e.e.e.e.e.e.e.e.e.e.e.e.e.e.e.e.e.e.e.e.e.e.e.e.t.t.t.e.e.t.t.e.e.e.e.e.e.e.e.e.e.e.e.e.e.e.e.e.e.e.e.e.e.e.e.e.e.e.e.t.t.e.e.e.e.e.e.e.e.e.e.e.e.e.e.e.e.e.e.e.e.e.e.e.e.e.e.e.e.e.e.e.e.e.e.e.e.e.e.e.e.e.e.e.e.e.e.e.e.e.e.t.t.t.t.t.t.t.t.t.t.t.t.t.t.t.t.t.e.e.e.e.e.t.e.e.e.t.t.e.e.e.e.t.t.e.e.e.e.e.e.e.t.t.t.e.e.t.t.t.t.t.t.t.t.t.t.t.t.t.t.t.t.t.t.t.t.t.t.e.e.t.t.t.t.e.e.t.t.e.e.e.e.t.t.t.t.e.t.t.t.t.t.t.t.e.e.t.t.t.t.e.t.t.t.t.t.t.t.e.e.e.e.t.t.t.t.t.t.e.t.t.t.y.t.t.t.t.t.t.t.y.t.t.t.t.t.t.t.t.t.t.t.t.y.y.t.t.t.t.t.t.t.t.t.t.t.t.t.t.t.t.t.t.t.t.t.t.y.N.N.N.N.N.N.y.t.t.y.y.y.y.t.t.t.y.N.N.N.N.N.y.y.y.y.y.y.y.y.y.y.y.y.y.y.y.y.y.y.y.y.y.E.E.E.E.E.E.V.V.C.C.W.g.g.g.g.",
"e.e.e.e.e.e.e.e.e.e.e.e.e.e.e.e.e.e.e.e.e.e.e.e.e.e.e.e.e.e.e.e.e.e.e.e.e.e.e.e.e.e.e.e.e.e.e.e.e.e.e.e.e.e.e.e.e.e.e.e.e.e.e.e.e.e.e.e.e.e.e.e.e.e.e.e.e.e.e.e.e.e.e.e.e.e.e.e.e.e.e.e.e.e.e.e.e.e.e.e.e.e.e.e.e.e.e.e.e.e.e.e.e.e.e.e.e.e.e.e.e.e.e.e.e.e.e.e.e.e.e.e.e.e.e.e.e.e.e.e.e.e.e.e.e.e.e.e.e.e.e.e.e.e.e.t.t.e.e.e.t.e.e.e.e.e.e.e.e.e.e.e.e.e.e.e.e.e.e.e.e.e.e.e.e.e.e.e.e.e.e.t.e.e.e.e.e.e.e.e.e.e.e.e.e.e.e.e.e.e.e.e.e.e.e.e.e.e.e.e.e.e.e.e.e.e.e.e.e.e.e.e.e.e.e.e.e.e.e.e.e.e.t.t.t.t.t.t.t.t.t.t.t.e.e.e.t.t.t.e.e.e.t.t.t.e.e.e.e.t.e.e.t.t.t.e.t.t.t.t.e.t.t.t.t.t.t.t.e.e.e.e.e.e.e.e.e.t.t.t.t.t.t.e.e.e.t.t.t.t.t.t.t.t.e.e.e.e.t.t.e.e.e.e.e.e.e.e.e.e.t.t.t.t.t.t.t.t.t.t.t.t.t.t.t.t.t.t.t.t.t.e.e.e.e.t.t.t.t.t.e.t.t.t.y.t.t.t.y.t.t.t.t.t.t.t.t.t.t.t.t.t.t.t.y.y.z.z.z.z.y.y.t.t.t.t.y.y.y.y.z.t.t.t.t.t.t.t.y.y.N.N.N.N.N.N.y.y.t.y.y.y.y.t.y.y.y.N.N.N.N.N.y.y.y.y.y.y.y.y.y.y.y.y.y.y.y.y.y.y.y.y.y.g.E.E.E.E.V.V.V.V.E.E.g.g.g.g.",
"e.e.e.e.e.e.e.e.e.e.e.e.e.e.e.e.e.e.e.e.e.e.e.e.e.e.e.e.e.e.e.e.e.e.e.e.e.e.e.e.e.e.e.e.e.e.e.e.e.e.e.e.e.e.e.e.e.e.e.e.e.e.e.e.e.e.e.e.e.e.e.e.e.e.e.e.e.e.e.e.e.e.e.e.e.e.e.e.e.e.e.e.e.e.e.e.e.e.e.e.e.e.e.e.e.e.e.e.e.e.e.e.e.e.e.e.e.e.e.e.e.e.e.e.e.e.e.e.e.e.e.e.e.e.e.e.e.e.e.e.e.e.e.e.e.e.e.e.e.e.e.e.e.t.t.t.t.t.e.e.e.e.e.e.e.e.e.e.e.e.e.e.e.e.e.e.e.e.e.e.e.e.e.e.e.e.e.e.e.e.e.t.e.e.e.e.e.e.e.e.e.e.e.e.e.e.e.e.e.e.e.e.e.e.e.e.e.e.e.e.e.e.e.e.e.e.e.e.e.e.e.e.e.e.e.e.e.e.e.e.e.e.t.t.t.t.t.t.t.t.t.t.t.e.e.e.t.t.t.e.e.e.e.t.e.e.e.e.t.t.e.e.t.t.t.e.t.t.e.e.e.e.t.t.e.t.t.e.e.e.e.e.e.e.e.e.e.t.t.t.t.t.e.e.e.e.t.t.t.t.t.t.t.t.e.t.e.e.t.t.e.e.e.e.e.e.e.e.e.e.t.t.t.t.t.t.t.t.t.t.t.t.t.t.t.t.t.t.t.t.t.t.e.e.e.e.t.t.t.t.e.t.t.t.y.t.t.t.y.t.t.t.t.t.y.y.t.t.t.t.t.t.t.t.y.y.z.z.z.z.y.y.t.t.t.t.y.y.y.y.z.z.t.t.t.t.t.t.N.N.N.N.N.N.N.N.y.y.t.t.y.y.y.t.y.y.y.N.N.N.N.N.I.y.y.y.y.y.y.N.y.y.y.y.y.y.y.y.g.y.y.g.y.g.E.E.E.E.V.V.V.V.E.E.g.i.g.g.",
"e.e.e.e.e.e.e.e.e.e.e.e.e.e.e.e.e.e.e.e.e.e.e.e.e.e.e.e.e.e.e.e.e.e.e.e.e.e.e.e.e.e.e.e.e.e.e.e.e.e.e.e.e.e.e.e.e.e.e.e.e.e.e.e.e.e.e.e.e.e.e.e.e.e.e.e.e.e.e.e.e.e.e.e.e.e.e.e.e.e.e.e.e.e.e.e.e.e.e.e.e.e.e.e.e.e.e.e.e.e.e.e.e.e.e.e.e.e.e.e.e.e.e.e.e.e.e.e.e.e.e.e.e.e.e.e.e.e.e.e.e.e.e.e.e.e.e.e.e.e.e.e.e.e.t.t.t.t.t.t.e.e.e.e.e.e.e.e.e.e.e.e.e.e.t.t.e.e.e.e.e.e.e.e.t.t.e.e.e.e.e.e.e.e.e.e.e.e.e.e.e.e.e.e.t.t.e.e.e.e.e.e.e.e.e.e.e.e.e.e.e.e.e.e.e.e.e.e.e.e.e.e.e.e.e.e.e.e.e.e.e.e.t.t.t.t.t.t.e.e.t.t.e.e.e.e.t.t.t.e.e.e.t.t.e.e.e.e.e.e.e.t.e.e.e.e.e.e.e.e.e.e.e.e.e.e.e.e.e.e.e.e.e.e.e.e.e.e.t.t.t.t.e.e.e.e.t.t.t.t.t.t.t.t.t.t.t.t.t.t.e.e.e.e.e.e.e.e.e.e.t.t.t.t.t.t.t.t.t.t.t.t.t.t.e.e.t.e.t.t.t.t.e.t.e.e.t.t.t.t.e.t.t.t.y.t.t.t.t.t.t.t.t.t.t.t.t.t.t.t.t.t.t.t.y.y.y.z.z.t.y.y.N.N.z.z.N.N.N.N.z.z.z.z.t.y.t.t.N.N.N.N.N.N.N.N.y.y.t.t.y.y.y.t.y.y.N.N.N.N.N.N.I.y.y.y.y.y.y.V.y.y.y.y.y.V.V.V.y.y.y.y.g.g.E.E.E.E.E.E.V.V.E.E.g.g.g.g.",
"e.e.e.e.e.e.e.e.e.e.e.e.e.e.e.e.e.e.e.e.e.e.e.e.e.e.e.e.e.e.e.e.e.e.e.e.e.e.e.e.e.e.e.e.e.e.e.e.e.e.e.e.e.e.e.e.e.e.e.e.e.e.e.e.e.e.e.e.e.e.e.e.e.e.e.e.e.e.e.e.e.e.e.e.e.e.e.e.e.e.e.e.e.e.e.e.e.e.e.e.e.e.e.e.e.e.e.e.e.e.e.e.e.e.e.e.e.e.e.e.e.e.e.e.e.e.e.e.e.e.e.e.e.e.e.e.e.e.e.e.e.e.e.e.e.e.e.e.e.e.e.e.e.e.t.t.t.t.t.t.e.e.e.e.e.e.e.e.e.e.e.e.e.e.t.t.e.e.e.e.e.e.e.e.e.t.t.t.e.e.e.e.e.e.e.e.e.e.e.e.e.e.t.t.t.t.t.t.e.e.e.e.e.e.e.e.e.e.e.e.e.e.e.e.e.e.e.e.e.e.e.e.e.e.e.e.e.e.e.e.e.e.t.t.t.t.t.t.e.e.e.e.e.e.e.e.t.t.t.e.e.e.t.e.e.e.t.t.e.e.e.e.e.e.e.e.e.e.e.e.e.e.e.e.e.e.e.e.e.e.e.e.e.e.e.e.e.e.t.t.t.t.t.t.t.t.t.t.t.t.t.t.t.t.t.t.t.t.t.t.e.e.e.e.e.e.e.e.e.e.e.t.t.t.t.t.t.t.t.t.t.t.t.e.e.e.e.e.t.t.t.t.e.t.t.t.e.t.t.t.e.t.t.t.y.t.t.t.t.t.t.t.t.t.t.t.t.y.t.t.t.t.t.t.y.y.t.t.t.t.y.y.N.N.z.z.N.N.N.N.z.z.z.t.y.y.z.z.N.N.N.N.N.N.N.N.y.y.t.t.y.y.t.y.y.y.N.N.N.N.N.N.V.y.y.y.y.y.y.V.y.y.y.V.V.V.V.E.g.g.y.y.g.E.E.E.E.E.E.E.V.E.E.E.E.E.E.E.",
"e.e.e.e.e.e.e.e.e.e.e.e.e.e.e.e.e.e.e.e.e.e.e.e.e.e.e.e.e.e.e.e.e.e.e.e.e.e.e.e.e.e.e.e.e.e.e.e.e.e.e.e.e.e.e.e.e.e.e.e.e.e.e.e.e.e.e.e.e.e.e.e.e.e.e.e.e.e.e.e.e.e.e.e.t.t.t.e.e.e.e.e.e.e.e.e.e.e.t.t.e.e.e.e.e.e.e.e.e.e.e.e.e.e.e.e.e.e.e.e.e.e.e.e.e.e.e.e.e.e.e.e.e.e.e.e.e.e.e.e.e.e.e.e.e.e.e.e.e.e.e.e.e.e.t.t.t.t.t.t.e.t.e.e.e.e.e.e.e.e.t.t.e.e.e.e.e.e.e.e.e.e.e.e.e.e.e.e.e.e.e.e.e.e.e.e.e.e.e.e.e.e.e.e.e.e.e.e.e.e.e.e.e.e.e.e.e.e.e.e.e.e.e.e.e.e.e.e.e.e.e.e.e.e.e.e.e.e.e.e.e.e.e.t.t.t.e.e.t.t.t.t.e.t.t.t.e.t.t.t.t.e.e.e.t.t.e.e.e.e.t.t.e.e.e.e.e.e.e.e.e.e.e.t.e.e.e.e.e.e.e.e.t.t.t.t.e.e.e.e.e.t.t.t.t.t.t.t.t.t.e.e.e.e.e.e.e.e.e.e.e.e.e.e.t.e.e.e.e.e.e.e.t.t.t.t.e.e.t.t.t.t.t.t.t.t.t.t.t.t.t.t.t.t.t.t.t.t.t.t.t.t.t.t.t.t.t.t.e.e.t.t.t.t.t.t.t.t.t.t.t.t.y.y.y.t.t.t.N.y.y.y.y.y.t.t.t.t.t.t.t.t.t.t.t.y.z.N.N.N.N.N.N.N.N.N.y.y.y.y.t.t.y.y.y.y.N.N.I.N.N.N.y.y.y.y.y.y.V.V.N.V.N.y.y.y.y.y.y.y.y.g.E.E.E.E.E.E.E.E.E.E.E.E.E.E.E.E.",
"e.e.e.e.e.e.e.e.e.e.e.e.e.e.e.e.e.e.e.e.e.e.e.e.e.e.e.e.e.e.e.e.e.e.e.e.e.e.e.e.e.e.e.e.e.e.e.e.e.e.e.e.e.e.e.e.e.e.e.e.e.e.e.e.e.e.e.e.e.e.e.e.e.e.e.e.e.e.e.e.e.e.e.e.t.t.t.e.e.e.e.e.e.e.e.e.e.e.e.t.e.e.e.e.e.e.e.e.e.e.e.e.e.e.e.e.e.e.e.e.e.e.e.e.e.e.e.e.e.e.e.e.e.e.e.e.e.e.e.e.e.e.e.e.e.e.e.e.e.e.e.e.e.e.t.t.t.t.t.t.t.t.e.e.e.e.e.e.e.e.t.t.e.e.e.e.e.e.e.e.e.e.e.e.e.e.e.e.e.e.t.t.e.e.e.e.e.e.e.e.e.e.e.e.e.e.e.e.e.e.e.e.e.e.e.e.e.e.e.e.e.e.e.e.e.e.e.e.e.e.e.e.e.e.e.e.e.e.e.e.e.e.e.t.t.t.e.e.t.t.t.t.e.e.t.t.e.e.t.t.e.e.e.e.t.t.t.e.e.e.e.t.e.e.e.e.e.e.e.t.e.e.t.t.e.e.e.e.e.e.e.e.t.t.t.e.e.e.e.t.e.e.t.t.e.e.t.t.e.e.e.e.e.e.e.e.e.e.e.e.e.e.e.e.t.e.e.e.e.e.e.t.t.t.t.t.e.e.t.t.t.t.t.t.t.t.t.t.t.t.t.t.t.t.t.t.t.t.e.e.t.e.t.t.t.t.t.t.e.t.t.t.t.t.t.t.t.t.t.t.t.t.y.y.y.t.t.t.N.N.N.y.N.y.t.t.t.t.t.t.t.t.t.t.t.y.y.N.N.N.N.N.N.N.N.N.y.y.y.y.t.t.y.y.y.y.N.N.I.N.N.N.y.y.y.y.y.y.V.V.V.V.V.y.y.y.y.y.y.i.i.E.E.E.E.E.E.E.E.E.E.E.E.E.E.E.E.E.",
"e.e.e.e.e.e.e.e.e.e.e.e.e.e.e.e.e.e.e.e.e.e.e.e.e.e.e.e.e.e.e.e.e.e.e.e.e.e.e.e.e.e.e.e.e.e.e.e.e.e.e.e.e.e.e.e.e.e.e.e.e.e.e.e.e.e.e.e.e.e.e.e.e.e.e.e.e.e.e.e.t.t.e.e.e.t.e.e.e.e.e.e.e.e.t.t.e.e.t.t.e.e.e.e.e.e.e.e.e.e.e.e.e.e.e.e.e.e.e.e.e.e.e.e.e.e.e.e.e.e.e.e.e.e.e.e.e.e.e.e.e.e.e.e.e.e.e.e.e.e.e.e.e.e.t.t.t.t.t.t.t.e.e.e.e.e.e.e.e.e.e.e.e.e.e.e.e.e.e.e.t.t.e.e.t.e.t.e.e.t.t.t.e.e.e.e.e.e.e.e.e.e.e.e.e.e.e.e.e.e.e.e.e.e.e.e.e.e.e.e.e.e.e.e.e.e.e.e.e.e.e.e.e.e.e.e.e.e.e.e.e.e.e.t.t.t.t.e.t.t.t.t.t.t.t.t.e.e.e.e.e.e.e.e.t.t.e.e.e.e.e.e.t.t.e.e.e.e.e.e.e.e.e.e.e.e.t.t.t.t.e.e.e.e.e.e.e.e.e.t.e.e.e.t.e.e.e.e.e.e.e.e.e.e.t.t.t.t.e.e.e.e.e.e.e.e.e.e.e.e.e.t.t.t.t.t.e.e.t.t.t.e.e.e.t.t.t.t.t.t.t.t.t.t.t.t.t.e.e.e.e.e.t.t.t.t.t.t.t.t.t.t.e.t.t.t.t.t.t.t.t.t.y.y.y.y.t.t.t.z.y.y.N.y.t.t.t.t.t.t.t.t.t.t.t.y.y.N.N.N.N.N.N.N.N.N.t.t.t.t.t.t.y.y.t.y.N.N.N.N.N.N.y.y.y.y.y.y.y.N.N.N.N.V.V.y.y.y.i.i.i.E.E.E.E.E.W.E.E.i.i.V.E.E.E.E.E.E.",
"e.e.e.e.e.e.e.e.e.e.e.e.e.e.e.e.e.e.e.e.e.e.e.e.e.e.e.e.t.e.e.e.e.e.e.e.e.e.e.e.e.e.e.e.e.e.e.e.e.e.e.e.e.e.e.e.e.e.e.e.e.e.e.e.e.e.e.e.e.e.e.e.e.e.e.e.e.e.e.e.t.t.t.t.e.e.e.e.e.e.e.e.e.e.e.t.e.e.e.e.e.e.t.t.e.e.e.e.e.e.e.e.e.e.e.e.e.e.e.e.e.e.e.e.e.e.e.e.e.e.e.e.e.e.e.e.e.e.e.e.e.e.e.e.e.e.e.e.e.e.e.e.e.e.e.t.t.t.t.e.t.e.e.e.e.e.e.e.e.e.e.e.e.e.e.e.e.e.e.e.t.t.e.e.t.t.t.e.e.e.t.t.e.e.e.e.e.e.e.e.e.e.e.e.e.e.e.e.e.e.e.e.e.e.e.e.e.e.e.e.e.e.e.e.e.e.e.e.e.e.e.e.e.e.e.e.e.e.e.e.e.e.e.e.t.t.t.t.t.t.t.t.t.t.t.t.e.e.e.e.e.e.e.e.e.t.e.e.e.e.e.t.t.t.e.e.e.e.e.e.t.e.e.e.e.t.t.e.t.t.e.e.e.e.e.e.e.e.e.e.e.e.e.e.e.e.e.e.e.e.e.e.e.e.t.t.t.t.e.e.e.e.e.e.e.e.e.e.e.t.t.t.t.t.t.t.t.t.t.t.t.t.t.t.t.t.t.t.t.t.t.t.t.t.t.t.t.t.t.t.e.e.t.t.t.t.t.t.t.t.t.t.t.t.t.t.t.t.t.t.t.t.y.y.y.y.t.z.z.z.y.y.N.N.t.t.t.t.t.t.t.t.t.t.t.y.y.N.N.N.N.N.N.N.N.N.y.t.t.t.t.y.y.y.t.t.y.N.N.N.N.N.y.y.y.y.y.y.y.N.E.E.E.N.V.V.V.V.i.i.i.V.E.E.W.E.W.E.V.i.i.V.E.W.E.E.E.E.",
"e.e.e.e.e.e.e.e.e.e.e.e.e.e.e.e.e.e.e.e.e.e.e.e.e.e.e.e.e.e.e.e.e.e.t.t.t.t.e.e.e.e.e.e.e.e.e.e.e.e.e.e.e.e.e.e.e.e.e.e.e.e.e.e.e.e.e.e.e.e.e.e.e.e.e.e.e.e.e.e.t.t.e.e.e.e.e.e.e.e.e.e.e.e.t.t.e.e.e.e.t.t.t.t.e.e.e.e.e.e.e.e.e.e.e.e.e.e.e.e.e.e.e.e.e.e.e.e.e.e.e.e.e.e.e.e.e.e.e.e.e.e.e.e.e.e.e.e.e.e.e.e.e.e.e.t.t.t.e.e.t.e.t.e.e.e.e.e.e.e.e.e.e.e.e.e.e.e.e.e.t.t.e.e.e.e.e.e.t.e.e.e.e.e.e.e.e.e.e.e.e.e.e.e.e.e.e.e.e.e.e.e.e.e.e.e.e.e.e.e.e.e.e.e.e.e.e.e.e.e.e.e.e.e.e.e.e.e.e.e.e.e.e.e.e.t.t.t.t.t.t.t.t.t.t.t.t.e.e.e.e.e.e.e.e.e.e.e.e.e.t.e.t.t.e.e.e.e.e.e.e.e.e.e.t.e.t.e.t.e.e.e.e.e.e.e.e.e.e.e.e.e.e.e.e.e.e.e.e.e.e.e.e.e.e.e.e.e.e.e.e.e.e.e.t.t.t.t.t.t.t.t.t.t.t.t.t.t.t.t.t.t.t.t.t.t.t.t.t.t.t.z.t.t.t.t.t.t.t.t.t.t.t.t.t.t.t.t.e.e.e.t.t.t.t.y.t.t.t.t.N.N.t.t.t.t.t.t.t.t.t.t.t.t.t.t.y.y.y.N.t.t.t.t.t.t.t.N.N.N.N.N.N.N.N.N.y.y.t.t.t.t.y.y.t.y.y.y.N.N.N.N.y.i.i.y.y.y.N.V.V.V.V.V.E.V.V.V.i.i.V.V.C.E.W.W.W.E.V.i.i.E.W.W.E.E.E.E.",
"e.e.e.e.e.e.e.e.e.e.e.e.e.e.e.e.e.e.e.e.e.e.e.e.e.e.e.e.e.e.t.t.e.e.t.t.e.e.e.e.e.e.e.e.e.e.e.e.e.e.e.e.e.e.e.e.e.e.e.e.e.e.e.e.e.e.e.e.e.e.e.e.e.e.e.e.e.e.e.e.e.e.e.e.t.t.e.e.e.e.e.e.e.e.t.t.e.e.t.e.e.e.t.t.e.e.e.e.e.e.e.e.e.e.e.e.e.e.e.e.e.e.e.e.e.e.e.e.e.e.e.e.e.e.e.e.e.e.e.e.e.e.e.e.e.e.e.e.e.e.e.e.e.e.e.e.t.t.e.e.t.t.t.e.e.e.e.e.e.e.e.e.e.e.e.e.e.e.e.e.t.t.e.e.e.e.e.e.t.e.e.e.e.e.e.e.e.e.e.e.e.e.e.e.e.e.e.e.e.e.e.e.e.e.e.e.e.e.e.e.e.e.e.e.e.e.e.e.e.e.e.e.e.e.e.e.e.e.e.e.e.e.e.e.e.e.t.t.t.t.t.t.t.t.t.t.t.t.e.e.e.e.e.e.e.e.e.e.e.e.t.e.t.t.e.e.t.t.t.t.e.e.e.t.e.e.t.e.t.e.e.e.e.e.e.e.e.e.e.e.e.e.e.e.t.t.e.e.e.e.e.e.e.e.e.e.e.e.e.e.e.e.e.e.t.t.t.t.t.t.t.t.t.t.t.t.t.t.t.t.t.t.t.t.t.t.t.t.t.t.z.z.t.t.t.t.t.t.t.t.t.t.t.t.t.t.t.t.e.t.t.t.t.y.y.y.t.t.t.t.N.y.t.t.t.t.t.t.t.t.t.t.t.t.t.t.y.y.N.N.t.t.t.t.t.t.t.N.N.N.N.N.N.N.N.N.y.y.y.y.t.t.y.y.t.y.y.y.y.N.N.N.y.y.y.y.y.N.V.E.E.E.E.V.E.V.V.V.V.V.V.C.C.W.W.W.W.E.E.V.V.E.E.W.W.E.E.E.",
"e.e.e.e.e.e.e.e.e.e.e.e.e.e.e.e.e.e.e.e.e.e.e.e.e.e.e.e.e.e.t.t.e.e.e.t.e.e.e.e.e.e.e.e.e.e.e.e.e.e.e.e.e.e.e.e.e.e.e.e.e.e.e.e.e.e.e.e.e.e.e.e.e.e.e.e.e.e.e.e.e.e.e.e.t.e.e.e.e.e.e.e.e.e.e.t.e.t.t.t.e.e.e.e.e.e.e.e.e.e.e.e.e.e.e.e.e.e.e.e.e.e.e.e.e.e.e.e.e.e.e.e.e.e.e.e.e.e.e.e.e.e.e.e.e.e.e.e.e.e.e.e.e.e.e.e.e.t.e.e.t.t.t.t.e.e.e.e.e.e.t.t.e.e.e.e.e.e.e.e.e.e.e.e.e.e.e.t.t.t.e.e.e.e.e.e.e.e.e.e.e.e.e.e.e.e.e.e.e.e.e.e.e.e.e.e.e.e.e.e.e.e.e.e.e.e.e.e.e.e.e.e.e.e.e.e.e.e.e.e.t.e.e.e.e.e.t.t.t.t.t.y.t.t.t.t.t.t.e.e.e.e.t.t.e.e.e.e.e.e.e.e.t.t.t.t.t.t.t.t.e.e.t.t.e.e.e.e.e.e.e.e.e.e.e.e.e.e.e.e.e.e.e.e.e.e.e.e.e.e.e.e.e.e.e.e.e.e.e.e.e.e.e.e.t.t.t.t.t.t.t.t.t.t.t.t.t.t.t.t.t.t.t.t.t.t.t.t.t.t.z.z.t.t.y.t.t.t.t.t.t.t.t.t.t.t.t.t.t.t.t.t.t.N.y.y.N.N.N.y.N.N.t.t.t.t.t.t.t.t.t.t.t.t.t.t.t.t.N.y.t.t.t.t.t.y.t.N.z.z.N.N.N.N.N.N.y.y.y.y.t.y.y.y.y.t.t.y.y.y.N.N.y.y.y.y.y.V.E.E.E.E.E.E.E.V.V.V.V.C.C.C.C.C.C.W.V.C.C.W.W.W.W.W.W.W.E.E.",
"e.e.e.e.e.e.e.e.e.e.e.e.e.e.e.e.e.e.e.e.e.e.e.e.e.e.e.e.t.t.t.t.e.e.e.t.e.e.e.e.e.e.e.e.e.e.e.e.e.e.e.e.e.e.e.e.e.e.e.e.e.e.e.e.e.e.e.e.e.e.e.e.e.e.e.e.e.e.e.e.e.e.e.e.t.t.e.e.e.e.e.e.e.e.e.e.e.t.t.t.e.e.e.e.e.e.e.e.e.e.e.e.e.e.e.e.e.e.e.e.e.e.e.e.e.e.e.e.e.e.e.e.e.e.e.e.e.e.e.e.e.e.e.e.e.e.e.e.e.e.e.e.e.e.e.t.t.t.e.e.t.t.e.e.e.e.e.e.e.e.t.e.e.e.e.e.e.e.e.e.e.e.e.e.e.e.e.t.t.t.e.e.e.e.e.e.e.e.e.e.e.e.e.e.e.e.e.e.e.e.e.e.e.e.e.e.e.e.e.e.e.e.e.e.e.e.e.e.e.e.e.e.e.e.e.e.e.e.e.e.t.e.e.e.e.e.e.t.t.t.t.t.t.t.t.t.t.u.e.e.e.e.t.u.t.e.e.e.e.e.t.e.t.t.t.t.t.t.t.t.e.e.t.t.e.e.e.e.e.e.e.e.e.e.e.e.e.e.e.e.e.e.e.e.e.e.e.e.e.e.e.e.e.e.e.e.e.e.e.e.e.e.e.e.t.t.t.t.t.t.t.t.t.t.t.t.t.t.t.t.t.t.t.t.t.t.t.t.t.t.z.z.t.t.t.t.t.t.t.t.t.u.t.t.t.t.t.t.t.t.t.t.y.N.y.y.N.N.N.y.y.y.t.t.t.t.t.t.t.t.t.t.t.t.t.t.t.t.y.y.t.t.t.t.t.y.t.N.z.z.N.N.N.N.N.N.y.y.y.y.t.y.y.y.y.t.t.t.y.y.N.N.y.y.y.y.N.i.E.E.E.E.E.E.E.i.V.i.V.V.C.C.W.C.C.W.i.V.C.W.W.W.W.E.W.W.E.E.",
"e.e.e.e.e.e.e.e.e.e.e.e.e.e.e.e.e.e.e.e.e.e.e.e.e.e.e.e.e.t.t.e.e.e.e.e.t.e.e.e.e.e.e.e.e.e.e.e.e.e.e.e.e.e.e.e.e.e.e.e.e.e.e.e.e.e.e.e.e.e.e.e.e.e.e.e.e.e.e.e.e.e.t.t.e.e.e.e.e.e.e.e.e.e.e.e.e.e.e.e.e.e.e.e.e.e.e.e.e.e.e.e.e.e.e.e.e.e.e.e.e.e.e.e.e.e.e.e.e.e.e.e.e.e.e.e.e.e.e.e.e.e.e.e.e.e.e.e.e.e.e.e.e.e.e.e.e.e.e.e.e.e.e.e.t.t.t.t.e.e.e.e.e.e.e.e.e.e.e.e.e.e.e.e.e.e.e.e.e.e.e.e.e.e.e.e.e.e.e.e.e.e.e.e.e.e.e.e.e.e.e.e.e.e.e.e.e.e.e.e.e.e.e.e.e.e.e.e.e.e.e.e.e.e.e.e.e.e.e.e.u.u.e.e.e.u.u.u.t.u.y.y.y.r.y.r.u.u.u.u.u.u.t.u.e.u.u.u.u.u.e.e.e.e.e.e.r.r.y.y.e.e.e.e.e.e.e.e.e.e.e.e.e.e.e.t.e.e.e.e.e.e.e.e.e.e.e.e.e.e.e.e.e.e.e.e.e.e.e.e.e.e.t.t.t.t.t.t.t.t.e.t.e.t.t.t.e.t.t.t.y.t.t.t.t.t.t.t.y.y.y.y.y.r.y.r.y.r.y.u.t.u.t.y.y.y.y.u.y.y.y.y.y.y.t.t.t.t.t.t.t.t.t.t.t.t.t.t.t.t.t.t.t.t.e.t.N.N.t.t.t.t.N.N.N.t.t.t.t.t.N.z.z.N.N.N.N.N.N.N.N.N.N.N.N.N.N.N.N.N.N.y.y.a.i.i.i.g.V.g.E.g.E.g.V.g.E.g.g.g.g.g.g.i.p.p.p.p.p.p.g.g.g.g.E.E.E.E.",
"e.e.e.e.e.e.e.e.e.e.e.e.e.e.e.e.e.e.e.e.e.e.e.e.e.e.e.e.e.t.t.e.e.e.e.e.t.e.e.e.e.e.e.e.e.e.e.e.e.e.e.e.e.e.e.e.e.e.e.e.e.e.e.e.e.e.e.e.e.e.e.e.e.e.e.e.e.e.e.e.e.e.e.t.e.e.e.e.e.e.e.e.e.e.e.e.e.e.e.e.e.e.e.e.e.e.e.e.e.e.e.e.e.e.e.e.e.e.e.e.e.e.e.e.e.e.e.e.e.e.e.e.e.e.e.e.e.e.e.e.e.e.e.e.e.e.e.e.e.e.e.e.e.e.e.e.e.e.e.e.e.e.e.e.t.t.t.t.e.e.e.e.e.e.e.e.e.e.e.e.e.e.e.e.e.e.e.e.e.e.e.e.e.e.e.e.e.e.e.e.e.e.e.e.e.e.e.e.e.e.e.e.e.e.e.e.e.e.e.e.e.e.e.e.e.e.e.e.e.e.e.e.e.e.e.e.e.e.e.e.u.u.e.e.u.e.u.u.u.u.y.y.y.r.r.r.u.u.u.u.u.u.u.u.e.e.u.u.u.u.e.e.e.e.e.e.r.r.r.y.e.e.e.e.e.e.e.e.t.t.e.e.e.e.t.t.e.e.e.e.e.e.e.e.e.e.e.e.e.e.e.e.e.e.e.e.e.e.e.e.e.e.t.t.t.t.t.t.t.t.e.e.e.e.t.t.e.t.t.t.y.t.t.t.t.t.t.t.t.t.y.y.y.r.r.r.r.r.r.u.u.u.y.t.y.y.y.y.y.y.y.y.y.y.t.t.t.t.y.y.t.t.t.t.t.t.t.t.t.t.y.t.t.t.e.t.N.N.t.t.t.t.N.N.N.y.t.t.t.t.z.z.N.N.N.N.N.N.N.N.z.N.N.N.N.N.N.N.N.N.N.y.y.a.i.i.i.i.g.g.g.g.g.g.i.i.i.i.g.g.g.g.i.i.p.p.p.p.p.p.E.E.g.g.E.E.E.E.",
"e.e.e.e.e.e.e.e.e.e.e.e.e.e.e.e.e.e.e.e.e.e.e.e.e.e.e.e.e.e.e.e.e.e.e.e.t.t.e.e.e.e.e.e.e.e.e.e.e.e.e.e.e.e.e.e.e.e.e.e.e.e.e.e.e.e.e.e.e.e.e.e.e.e.e.e.e.e.e.e.e.e.t.t.e.e.e.e.e.e.e.e.e.e.e.e.e.e.e.e.e.e.e.e.e.e.e.e.e.e.e.e.e.e.e.e.e.e.e.e.e.e.e.e.e.e.e.e.e.e.e.e.e.e.e.e.e.e.e.e.e.e.e.e.e.e.e.e.e.e.e.e.e.e.e.e.e.e.e.e.e.e.e.e.e.t.e.t.e.e.e.e.e.e.e.e.e.e.e.e.e.e.e.e.e.e.e.e.e.e.e.e.e.e.e.e.e.e.e.e.e.e.e.e.e.e.e.e.e.e.e.e.e.e.e.e.e.e.e.e.e.e.e.e.e.e.e.e.e.e.e.e.e.e.e.e.e.e.e.e.e.e.e.e.e.e.t.t.t.t.y.y.y.y.y.y.e.e.t.t.t.t.t.t.e.u.u.u.u.e.e.e.e.e.e.t.t.t.t.t.t.t.e.t.e.e.t.e.t.e.e.e.e.e.t.t.e.e.e.e.e.e.e.e.e.e.e.e.e.e.e.e.e.e.e.e.e.e.e.e.e.e.t.t.t.t.t.t.t.t.t.e.t.t.t.t.e.t.t.t.y.t.t.t.t.t.t.t.t.t.t.t.t.t.y.y.y.y.t.t.t.t.t.t.y.y.y.y.y.y.y.y.y.y.t.t.y.y.y.y.t.t.z.z.t.t.t.t.t.t.t.t.t.t.t.N.N.N.y.t.t.y.N.N.t.t.t.t.y.y.y.N.N.N.N.N.N.N.N.N.z.z.N.N.N.N.N.N.N.z.N.y.y.y.y.i.i.i.i.i.i.i.i.i.i.i.i.i.E.E.E.E.V.V.C.C.V.V.V.V.E.E.E.E.V.V.V.V.",
"e.e.e.e.e.e.e.e.e.e.e.e.e.e.e.e.e.e.e.e.e.e.e.e.e.e.e.e.e.e.e.e.e.e.t.t.t.t.e.e.e.e.e.e.e.e.e.e.e.e.e.e.e.e.e.e.e.e.e.e.e.e.e.e.e.e.e.e.e.e.e.e.e.e.e.e.e.e.e.e.e.e.e.e.e.e.t.t.e.e.e.e.e.e.e.e.e.e.e.e.e.e.e.e.e.e.e.e.e.e.e.e.e.e.e.e.e.e.e.e.e.e.e.e.e.e.e.e.e.e.e.e.e.e.e.e.e.e.e.e.e.e.e.e.e.e.e.e.e.e.e.e.e.e.e.e.e.e.e.e.e.e.e.e.e.e.e.t.e.e.e.e.e.e.e.e.e.e.e.e.e.e.e.e.e.e.e.e.e.e.e.e.e.e.e.e.e.e.e.e.e.e.e.e.e.e.e.e.e.e.e.e.e.e.e.e.e.e.e.e.e.e.e.e.e.e.e.e.e.e.e.e.e.e.e.e.e.e.e.e.e.e.e.e.e.e.t.t.t.t.t.t.t.t.t.y.e.e.e.t.t.t.t.t.u.t.u.u.e.e.e.e.e.e.e.e.t.t.t.t.e.e.e.e.e.e.t.t.e.e.e.e.e.e.t.t.e.e.e.e.e.e.e.e.e.e.e.e.e.e.e.e.e.e.e.e.e.e.e.e.e.e.e.t.t.t.t.e.t.t.t.t.t.t.t.t.e.t.t.t.N.t.t.t.t.t.t.t.t.t.t.z.t.t.y.y.y.y.y.t.t.t.t.t.y.y.y.y.y.y.y.y.y.y.t.t.y.y.y.y.t.t.t.t.t.t.t.t.t.t.t.t.N.t.t.y.N.N.N.t.t.t.y.N.t.t.t.t.y.y.y.y.N.N.N.N.N.N.z.z.z.z.N.N.z.z.N.N.N.z.N.y.r.y.y.i.i.i.i.i.i.i.i.i.i.i.i.y.g.g.i.i.V.V.V.C.C.V.V.E.E.E.E.E.V.V.V.V.",
"e.e.e.e.e.e.e.e.e.e.e.e.e.e.e.e.e.e.e.e.e.e.e.e.e.e.e.e.e.e.e.e.e.e.e.e.e.e.e.e.e.e.e.e.e.e.e.e.e.e.e.e.e.e.e.e.e.e.e.e.e.e.e.e.e.e.e.e.e.e.e.e.e.e.e.e.e.e.e.e.e.e.e.e.t.t.t.t.e.e.e.e.e.e.e.e.e.e.e.e.e.e.e.e.e.e.e.e.e.e.e.e.e.e.e.e.e.e.e.e.e.e.e.e.e.e.e.e.e.e.e.e.e.e.e.e.e.e.e.e.e.e.e.e.e.e.e.e.e.e.e.e.e.e.e.e.e.e.e.e.e.e.e.e.e.e.e.e.t.t.e.e.e.e.e.e.e.e.e.e.e.e.e.e.e.e.e.e.e.e.e.e.e.e.e.e.e.e.e.e.e.e.e.e.e.e.e.e.e.e.e.e.e.e.e.e.e.e.e.e.e.e.e.e.e.e.e.e.e.e.e.e.e.e.e.e.e.e.e.e.e.e.e.e.u.u.t.t.u.u.t.t.u.u.u.u.t.t.t.t.u.u.t.t.u.u.t.e.e.e.e.e.e.e.e.e.e.t.t.t.e.e.e.e.e.e.e.e.e.e.e.e.e.e.e.e.e.e.e.e.e.e.e.e.e.e.e.e.e.e.e.e.e.e.e.e.e.e.e.e.e.e.e.t.t.t.e.e.e.e.t.t.t.e.e.e.e.t.t.t.y.t.t.t.t.t.t.t.y.y.z.z.t.t.y.y.y.y.t.t.t.t.t.t.t.y.y.N.y.y.y.y.y.y.y.t.t.t.t.t.z.t.z.z.t.t.t.t.y.y.y.y.t.t.t.y.N.N.N.z.z.z.t.t.t.N.N.N.t.N.N.y.t.z.N.N.N.z.z.z.z.N.N.N.z.z.z.z.z.z.z.y.r.r.y.y.y.y.y.y.E.E.V.V.V.V.V.E.N.N.N.V.V.V.V.V.V.V.V.V.V.E.E.E.E.E.E.E.",
"e.e.e.e.e.e.e.e.e.e.e.e.e.e.e.e.e.e.e.e.e.e.e.e.e.e.e.e.e.e.e.e.e.e.e.e.e.e.e.e.e.e.e.e.e.e.e.e.e.e.e.e.e.e.e.e.e.e.e.e.e.e.e.e.e.e.e.e.e.e.e.e.e.e.e.e.e.e.e.e.e.e.t.e.e.e.t.t.e.e.e.e.e.e.e.e.e.e.e.e.e.e.e.e.e.e.e.e.e.e.e.e.e.e.e.e.e.e.e.e.e.e.e.e.e.e.e.e.e.e.e.e.e.e.e.e.e.e.e.e.e.e.e.e.e.e.e.e.e.e.e.e.e.e.e.e.e.e.e.e.e.e.e.e.e.e.e.e.t.e.e.e.e.e.e.e.e.e.e.e.e.e.e.e.e.e.e.e.e.e.e.e.e.e.e.e.e.e.e.e.e.e.e.e.e.e.e.e.e.e.e.e.e.e.e.e.e.e.e.e.e.e.e.e.e.e.e.e.e.e.e.e.e.e.e.e.e.e.e.e.e.e.e.e.u.u.u.t.u.u.t.t.u.u.u.u.t.t.t.t.u.u.t.t.t.t.e.e.e.e.e.e.e.e.e.e.e.e.t.t.e.e.e.e.e.e.e.e.e.e.e.e.e.e.e.e.e.e.e.e.e.e.e.e.e.e.e.e.e.e.e.e.e.e.e.e.e.e.e.e.e.e.e.e.t.t.e.e.e.e.e.t.t.t.t.e.e.t.t.t.y.t.t.t.t.t.t.t.y.y.z.t.t.t.y.y.y.y.t.t.t.t.t.t.t.t.y.N.y.y.y.y.y.y.y.y.t.t.t.t.t.t.z.z.y.t.t.t.y.y.y.y.t.t.t.N.N.N.N.z.N.z.t.t.N.N.N.N.t.t.t.y.t.t.t.N.N.z.N.z.z.z.N.N.z.z.N.N.z.z.N.N.y.r.y.y.y.y.y.y.V.V.V.N.V.V.I.I.N.N.V.V.V.V.V.V.V.V.V.V.V.V.E.E.E.E.E.E.",
"e.e.e.e.e.e.e.e.e.e.e.e.e.e.e.e.e.e.e.e.e.e.e.e.e.e.t.t.e.e.e.e.e.e.e.e.e.e.e.e.e.e.e.e.e.e.e.e.e.e.e.e.e.e.e.e.e.e.e.e.e.e.e.e.e.e.e.e.e.e.e.e.e.e.e.e.e.e.e.e.e.t.t.t.e.e.e.e.e.e.e.e.e.e.e.e.e.e.e.e.e.e.e.e.e.e.e.e.e.e.e.e.e.e.e.e.e.e.e.e.e.e.e.e.e.e.e.e.e.e.e.e.e.e.e.e.e.e.e.e.e.e.e.e.e.e.e.e.e.e.e.e.e.e.e.e.e.e.e.e.e.e.e.e.e.e.e.e.t.t.e.e.e.e.e.e.e.e.e.e.e.e.e.e.e.e.e.e.e.e.e.e.e.e.e.e.e.e.e.e.e.e.e.e.e.e.e.e.e.e.e.e.e.e.e.e.e.e.e.e.e.e.e.e.e.e.e.e.e.e.e.e.e.e.e.e.e.e.e.t.e.e.e.e.u.u.u.t.u.u.t.t.t.t.u.u.t.t.u.u.u.u.t.t.t.t.e.e.e.e.e.u.e.e.e.e.e.e.e.e.e.e.e.e.e.e.e.e.e.e.e.e.t.t.e.e.e.e.e.e.e.e.e.e.e.e.e.e.e.e.e.e.e.e.e.e.e.e.e.e.e.e.e.e.e.e.e.e.e.e.t.t.t.t.t.t.e.t.t.t.y.t.t.t.t.t.t.t.y.y.N.N.t.t.t.y.y.t.t.t.u.u.u.u.t.t.y.N.y.y.y.y.y.y.y.y.t.t.t.t.z.t.z.z.y.y.t.t.z.z.N.N.t.t.t.N.N.N.z.z.N.N.t.t.t.t.N.y.t.t.t.t.t.t.N.t.N.N.N.N.z.z.N.N.N.N.N.N.z.z.N.N.y.y.y.y.N.N.N.N.N.N.N.N.N.N.N.N.N.N.N.N.V.V.V.V.V.V.V.V.V.V.V.E.E.E.E.E.",
"e.e.e.e.e.e.e.e.e.e.e.e.e.e.e.e.e.e.e.e.e.e.e.e.e.e.t.e.e.e.e.e.e.e.e.e.e.e.e.e.e.e.e.e.e.e.e.e.e.e.e.e.e.e.e.e.e.e.e.e.e.e.e.e.e.e.e.e.e.e.e.e.e.e.e.e.e.e.e.e.e.t.t.t.e.e.e.e.e.e.e.e.e.e.e.e.e.e.e.e.e.e.e.e.e.e.e.e.e.e.e.e.e.e.e.e.e.e.e.e.e.e.e.e.e.e.e.e.e.e.e.e.e.e.e.e.e.e.e.e.e.e.e.e.e.e.e.e.e.e.e.e.e.e.e.e.e.e.e.e.e.e.e.e.e.e.e.e.t.t.e.e.e.e.e.e.e.e.e.e.e.e.e.e.e.e.e.e.e.e.e.e.e.e.e.e.e.e.e.e.e.e.e.e.e.e.e.e.e.e.e.e.e.e.e.e.e.e.e.e.e.e.e.e.e.e.e.e.e.e.e.e.e.e.e.e.e.e.e.t.e.e.e.e.u.u.u.t.e.e.e.e.e.e.e.e.t.u.u.u.u.u.t.u.t.t.e.e.e.e.e.u.e.e.e.e.e.e.e.e.e.e.e.e.e.e.e.e.e.e.t.t.t.t.e.e.e.e.e.e.e.e.e.e.e.e.e.e.e.e.e.e.e.e.e.e.e.e.e.e.e.e.e.e.e.e.e.e.t.t.t.t.t.t.t.t.e.t.t.t.y.t.t.t.y.t.t.t.y.y.N.N.t.t.t.y.t.t.t.t.t.e.e.e.u.t.y.y.y.y.y.y.y.y.y.y.t.t.t.t.t.t.z.z.y.y.t.z.z.z.N.N.t.t.t.N.N.N.z.z.N.N.t.t.t.y.y.y.t.t.t.t.t.t.N.N.N.N.N.N.N.N.N.N.N.N.N.N.N.N.N.N.y.y.y.y.N.N.N.y.y.N.N.N.N.N.N.N.N.N.N.N.V.V.V.V.V.V.V.V.V.V.V.E.V.g.g.g.",
"e.e.e.e.e.e.e.e.e.e.e.e.e.e.e.e.e.e.e.e.e.e.e.e.e.e.e.e.e.e.e.e.e.e.e.e.e.e.e.e.e.e.e.e.e.e.e.e.e.e.e.e.e.e.e.e.e.e.e.e.e.e.e.e.e.e.e.e.e.e.e.e.e.e.e.e.e.e.e.e.e.e.e.e.e.e.e.e.e.e.e.e.e.e.e.e.e.e.e.e.e.e.e.e.e.e.e.e.e.e.e.e.e.e.e.e.e.e.e.e.e.e.e.e.e.e.e.e.e.e.e.e.e.e.e.e.e.e.e.e.e.e.e.e.e.e.e.e.e.e.e.e.e.e.e.e.e.e.e.e.e.e.e.e.e.e.e.e.e.e.e.e.e.e.e.e.e.e.e.e.e.e.e.e.e.e.e.e.e.e.e.e.e.e.e.e.e.e.e.e.e.e.e.e.e.e.e.e.e.e.e.e.e.e.e.e.e.e.e.e.e.e.e.e.e.e.e.e.e.e.e.e.e.e.e.e.e.e.t.t.t.t.t.t.e.e.e.t.e.e.e.r.r.y.y.y.t.t.t.t.t.t.e.e.t.t.e.e.e.e.t.t.t.t.t.t.t.t.t.t.e.e.e.e.e.e.e.e.e.e.e.e.e.e.e.e.e.e.e.e.e.e.e.e.e.e.e.e.e.e.e.e.e.e.e.e.e.e.e.e.e.e.e.e.e.e.e.e.e.e.t.t.t.t.t.t.e.t.t.t.y.t.t.t.t.t.t.t.t.t.y.t.t.t.t.t.t.t.t.t.t.t.e.e.t.y.N.N.y.y.y.y.y.y.t.t.t.t.t.N.z.N.N.N.N.N.N.N.y.z.z.z.t.t.t.t.t.t.t.t.t.t.y.N.z.z.z.t.t.t.y.y.y.N.N.N.N.N.N.N.N.N.N.N.N.N.N.z.N.N.N.N.N.N.N.N.N.N.N.N.N.N.N.N.N.N.N.N.N.N.N.V.V.E.V.V.V.V.V.V.V.V.V.V.V.E.E.E.",
"e.e.e.e.e.e.e.e.e.e.e.e.e.e.e.e.e.e.e.e.e.e.e.e.e.e.e.e.e.e.e.e.e.e.e.e.e.e.e.e.e.e.e.e.e.e.e.e.e.e.e.e.e.e.e.e.e.e.e.e.e.e.e.e.e.e.e.e.e.e.e.e.e.e.e.e.e.e.e.e.e.e.e.e.e.e.e.e.e.e.e.e.e.e.e.e.e.e.e.e.e.e.e.e.e.e.e.e.e.e.e.e.e.e.e.e.e.e.e.e.e.e.e.e.e.e.e.e.e.e.e.e.e.e.e.e.e.e.e.e.e.e.e.e.e.e.e.e.e.e.e.e.e.e.e.e.e.e.e.e.e.e.e.e.e.e.e.e.e.e.e.e.e.e.e.e.e.e.e.e.e.e.e.e.e.e.e.e.e.e.e.e.e.e.e.e.e.e.e.e.e.e.e.e.e.e.e.e.e.e.e.e.e.e.e.e.e.e.e.e.e.e.e.e.e.e.e.e.e.e.e.e.e.e.e.e.e.e.t.t.t.t.t.t.e.e.e.t.e.e.e.e.e.e.e.e.e.e.t.t.e.e.e.e.t.t.e.e.e.e.t.e.t.t.t.t.t.t.t.e.e.e.e.e.e.e.e.e.e.e.e.e.e.e.e.e.e.e.e.e.e.e.e.e.e.e.e.e.e.e.e.e.e.e.e.e.e.e.e.e.e.e.e.e.t.e.e.e.e.e.t.t.t.t.t.t.e.t.t.t.y.t.t.t.t.y.y.t.t.t.t.t.t.t.t.y.t.t.t.t.t.t.e.e.t.y.N.N.y.y.y.y.y.y.t.t.t.t.t.z.z.N.N.N.N.N.t.N.N.N.z.z.z.t.t.t.t.y.z.z.t.y.t.N.z.z.N.t.t.t.y.y.y.y.N.N.N.N.z.z.N.N.N.N.N.N.N.z.z.N.N.N.N.N.N.N.N.N.N.N.N.N.N.N.N.N.N.N.N.N.N.V.V.E.V.V.V.V.V.V.V.V.V.V.i.E.E.E.",
"e.e.e.e.e.e.e.e.e.e.e.e.e.e.e.e.e.e.e.e.e.e.e.e.e.e.e.e.e.e.e.e.e.e.e.e.e.e.e.e.e.e.e.e.e.e.e.e.e.e.e.e.e.e.e.e.e.e.e.e.e.e.e.e.e.e.e.e.e.e.e.e.e.e.e.e.e.e.e.e.e.e.e.e.e.e.e.e.e.e.e.e.e.e.e.e.e.e.e.e.e.e.e.e.e.e.e.e.e.e.e.e.e.e.e.e.e.e.e.e.e.e.e.e.e.e.e.e.e.e.e.e.e.e.e.e.e.e.e.e.e.e.e.e.e.e.e.e.e.e.e.e.e.e.e.e.e.e.e.e.e.e.e.e.e.e.e.e.e.e.e.e.e.e.e.e.e.e.e.e.e.e.e.e.e.e.e.e.e.e.e.e.e.e.e.e.e.e.e.e.e.e.e.e.e.e.e.e.e.e.e.e.e.e.e.e.e.e.e.e.e.e.e.e.e.e.e.e.e.e.e.e.e.e.e.e.e.e.e.t.t.t.t.t.e.e.t.t.e.e.e.e.e.e.e.e.e.e.e.e.e.e.e.e.t.e.e.e.e.e.e.e.t.t.t.t.t.t.t.e.e.e.e.e.e.e.e.e.e.e.e.e.e.e.e.e.e.e.e.e.e.e.e.e.e.e.e.e.e.e.e.e.e.e.e.e.e.e.e.e.e.e.e.e.t.t.e.e.e.t.t.t.t.t.t.t.e.t.t.t.y.t.t.t.t.t.t.t.t.t.t.t.t.t.t.t.t.t.t.t.t.t.t.e.t.t.N.y.y.y.y.y.y.y.t.t.t.t.t.z.z.z.N.N.t.t.t.t.y.y.y.y.y.y.t.t.y.y.y.y.t.t.t.N.z.z.N.N.N.t.y.y.t.y.t.t.N.z.z.z.z.N.N.N.N.N.N.N.z.N.N.N.y.y.y.y.y.y.y.N.N.N.N.N.N.N.I.I.N.y.y.V.V.V.C.V.W.C.C.V.V.V.V.V.i.V.E.E.",
"e.e.e.e.e.e.e.e.e.e.e.e.e.e.e.e.e.e.e.e.e.e.e.e.e.e.e.e.e.e.e.e.e.e.e.e.e.e.e.e.e.e.e.e.e.e.e.e.e.e.e.e.e.e.e.e.e.e.e.e.e.e.e.e.e.e.e.e.e.e.e.e.e.e.e.e.e.e.e.e.e.e.e.e.e.e.e.e.e.e.e.e.e.e.e.e.e.e.e.e.e.e.e.e.e.e.e.e.e.e.e.e.e.e.e.e.e.e.e.e.e.e.e.e.e.e.e.e.e.e.e.e.e.e.e.e.e.e.e.e.e.e.e.e.e.e.e.e.e.e.e.e.e.e.e.e.e.e.e.e.e.e.e.e.e.e.e.e.e.e.e.e.e.e.e.e.e.e.e.e.e.e.e.e.e.e.e.e.e.e.e.e.e.e.e.e.e.e.e.e.e.e.e.e.e.e.e.e.e.e.e.e.e.e.e.e.e.e.e.e.e.e.e.e.e.e.e.e.e.e.e.e.e.e.e.e.e.e.e.t.t.t.t.t.e.e.t.t.e.e.e.e.e.e.e.e.e.e.e.e.e.e.e.e.e.e.e.t.e.e.e.e.e.e.t.t.t.t.e.e.e.e.e.e.e.e.e.e.e.e.e.e.e.e.e.e.e.e.e.e.e.e.e.e.e.e.e.e.e.e.e.e.e.e.e.e.e.e.e.e.e.e.e.e.t.t.e.e.e.e.t.t.t.t.t.t.e.t.t.t.N.t.t.t.t.t.t.t.t.t.t.t.t.t.t.t.t.t.t.t.t.t.t.t.t.t.N.y.y.y.y.y.y.y.t.t.t.t.t.t.t.t.N.N.t.t.t.t.y.y.y.y.y.y.y.y.y.y.y.y.t.t.N.N.N.N.N.N.N.y.y.y.t.t.t.t.N.N.z.z.z.N.N.N.y.N.N.N.z.N.N.N.y.y.y.y.y.N.N.N.N.N.N.N.N.N.I.I.N.y.y.V.V.C.C.C.C.C.C.C.V.V.V.V.i.V.E.E.",
"e.e.e.e.e.e.e.e.e.e.e.e.e.e.e.e.e.e.e.e.e.e.e.e.e.e.e.e.e.e.e.e.e.e.e.e.e.e.e.e.e.e.e.e.e.e.e.e.e.e.e.e.e.e.e.e.e.e.e.e.e.e.e.e.e.e.e.e.e.e.e.e.e.e.e.e.e.e.e.e.e.e.e.e.e.e.e.e.e.e.e.e.e.e.e.e.e.e.e.e.e.e.e.e.e.e.e.e.e.e.e.e.e.e.e.e.e.e.e.e.e.e.e.e.e.e.e.e.e.e.e.e.e.e.e.e.e.e.e.e.e.e.e.e.e.e.e.e.e.e.e.e.e.e.e.e.e.e.e.e.e.e.e.e.e.e.e.e.e.e.e.e.e.e.e.e.e.e.e.e.e.e.e.e.e.e.e.e.e.e.e.e.e.e.e.e.e.e.e.e.e.e.e.e.e.e.e.e.e.e.e.e.e.e.e.e.e.e.e.e.e.e.e.e.e.e.e.e.e.e.e.e.e.e.e.e.t.t.e.e.e.t.t.t.e.e.t.e.e.e.e.e.e.e.e.e.e.e.e.e.e.e.e.e.e.e.e.e.e.e.e.e.e.e.t.t.t.t.e.e.t.t.t.t.t.t.t.t.e.e.e.e.e.e.e.e.e.e.t.t.t.t.e.e.e.e.t.t.t.t.e.e.e.e.t.t.t.e.e.e.e.e.e.e.t.t.e.e.e.e.t.t.t.t.e.e.e.t.t.t.y.t.t.t.t.t.t.t.t.t.t.t.t.t.t.y.t.t.t.t.t.e.e.t.t.t.t.t.y.y.y.y.y.y.t.t.t.t.t.t.t.z.z.z.t.t.t.t.t.t.y.t.y.y.z.z.z.N.y.y.t.t.N.N.N.N.N.N.z.z.t.y.y.y.t.t.N.z.z.z.z.N.N.N.t.t.N.N.N.N.N.N.y.y.y.y.y.y.y.y.y.y.y.y.y.N.N.V.V.i.i.i.V.W.C.C.C.C.C.C.p.i.i.i.i.V.C.E.",
"e.e.q.e.e.e.e.e.e.e.e.e.e.e.e.e.e.e.e.e.e.e.e.e.e.e.e.e.e.e.e.e.e.e.e.e.e.e.e.e.e.e.e.e.e.e.e.e.e.e.e.e.e.e.e.e.e.e.e.e.e.e.e.e.e.e.e.e.e.e.e.e.e.e.e.e.e.e.e.e.e.e.e.e.e.e.e.e.e.e.e.e.e.e.e.e.e.e.e.e.e.e.e.e.e.e.e.e.e.e.e.e.e.e.e.e.e.e.e.e.e.e.e.e.e.e.e.e.e.e.e.e.e.e.e.e.e.e.e.e.e.e.e.e.e.e.e.e.e.e.e.e.e.e.e.e.e.e.e.e.e.e.e.e.e.e.e.e.e.e.e.e.e.e.e.e.e.e.e.e.e.e.e.e.e.e.e.e.e.e.e.e.e.e.e.e.e.e.e.e.e.e.e.e.e.e.e.e.e.e.e.e.e.e.e.e.e.e.e.e.e.e.e.e.e.e.e.e.e.e.e.e.e.e.e.e.t.e.e.e.e.t.t.t.e.e.e.e.e.e.e.e.e.e.e.e.e.e.e.e.e.e.e.e.e.e.e.e.e.e.e.e.e.e.e.t.t.e.e.e.t.t.t.t.t.t.t.e.e.e.e.e.e.e.e.e.e.e.t.t.e.t.e.e.e.e.t.t.e.e.e.e.e.e.t.t.e.e.e.e.e.e.e.e.t.e.e.e.e.e.t.t.t.t.e.e.e.t.t.t.y.t.t.t.t.t.t.t.t.t.t.t.t.t.t.t.t.t.t.t.t.e.e.t.t.t.t.t.y.r.y.y.y.y.e.u.t.t.t.t.t.t.z.t.t.t.t.t.t.t.t.t.t.t.t.t.t.t.t.t.t.N.N.N.N.N.N.N.z.z.y.t.y.y.t.t.N.z.z.z.z.z.N.N.t.t.t.N.N.N.N.y.y.y.y.y.y.y.N.N.N.y.y.y.y.N.N.V.i.i.i.i.C.C.C.C.C.C.C.C.p.p.i.i.i.V.C.C.",
"e.q.q.e.e.e.e.e.e.e.e.e.e.e.e.e.e.e.e.e.e.e.e.e.e.e.e.e.e.e.e.e.e.e.e.e.e.e.e.e.e.e.e.e.e.e.e.e.e.e.e.e.e.e.e.e.e.e.e.e.e.e.e.e.e.e.e.e.e.e.e.e.e.e.e.e.e.e.e.e.e.e.e.e.e.e.e.e.e.e.e.e.e.e.e.e.e.e.e.e.e.e.e.e.e.e.e.e.e.e.e.e.e.e.e.e.e.e.e.e.e.e.e.e.e.e.e.e.e.e.e.e.e.e.e.e.e.e.e.e.e.e.e.e.e.e.e.e.e.e.e.e.e.e.e.e.e.e.e.e.e.e.e.e.e.e.e.e.e.e.e.e.e.e.e.e.e.e.e.e.e.e.e.e.e.e.e.e.e.e.e.e.e.e.e.e.e.e.e.e.e.e.e.e.e.e.e.e.e.e.e.e.e.e.e.e.e.e.e.e.e.e.e.e.e.e.e.e.e.e.e.e.e.e.e.e.e.e.e.e.e.e.e.e.e.e.e.e.e.e.e.e.e.e.e.e.e.e.e.e.e.e.e.e.e.e.e.e.e.e.e.e.e.e.e.t.t.e.e.e.e.t.t.t.t.t.t.t.e.e.e.e.e.e.e.e.e.e.e.t.e.e.e.e.e.e.e.e.e.e.e.e.e.e.e.t.e.e.e.e.e.e.e.e.e.e.e.e.e.e.t.t.t.t.t.t.e.t.t.t.y.t.t.t.t.t.t.y.t.t.t.t.e.e.t.t.t.t.t.t.e.t.t.t.t.t.t.t.y.r.u.r.r.r.e.e.t.t.t.t.t.t.t.t.t.t.t.t.t.t.t.t.t.t.t.t.t.t.t.t.t.N.N.N.N.N.N.N.z.t.t.t.N.N.N.z.N.N.N.z.N.N.N.N.t.t.t.N.N.N.N.N.y.y.y.y.y.N.E.E.V.y.y.y.y.y.V.V.i.i.i.i.p.C.C.p.p.p.p.p.p.p.i.i.i.C.C.C.",
"e.q.q.q.e.e.e.e.e.e.e.e.e.e.e.e.e.e.e.e.e.e.e.e.e.e.e.e.e.e.e.e.e.e.e.e.e.e.e.e.e.e.e.e.e.e.e.e.e.e.e.e.e.e.e.e.e.e.e.e.e.e.e.e.e.e.e.e.e.e.e.e.e.e.e.e.e.e.e.e.e.e.e.e.e.e.e.e.e.e.e.e.e.e.e.e.e.e.e.e.e.e.e.e.e.e.e.e.e.e.e.e.e.e.e.e.e.e.e.e.e.e.e.e.e.e.e.e.e.e.e.e.e.e.e.e.e.e.e.e.e.e.e.e.e.e.e.e.e.e.e.e.e.e.e.e.e.e.e.e.e.e.e.e.e.e.e.e.e.e.e.e.e.e.e.e.e.e.e.e.e.e.e.e.e.e.e.e.e.e.e.e.e.e.e.e.e.e.e.e.e.e.e.e.e.e.e.e.e.e.e.e.e.e.e.e.e.e.e.e.e.e.e.e.e.e.e.e.e.e.e.e.e.e.e.e.e.e.e.e.e.e.e.e.e.e.e.e.t.e.e.e.e.e.e.e.e.e.e.e.e.e.e.e.e.e.e.e.e.e.e.e.e.e.e.e.e.e.e.e.e.t.t.t.t.t.e.e.e.e.e.e.e.e.e.e.e.e.e.e.e.e.e.e.e.t.e.t.e.t.e.t.e.t.e.t.e.t.e.e.e.e.e.e.e.e.e.e.e.e.t.t.t.t.t.t.e.t.t.t.y.t.t.t.t.t.t.t.t.t.t.t.e.t.t.t.t.t.t.t.e.e.t.t.t.t.t.t.u.u.u.e.e.e.e.e.t.t.t.t.t.t.t.t.t.t.t.t.t.t.t.t.t.t.e.e.t.t.t.t.t.N.N.N.N.N.N.N.t.t.t.t.N.N.z.z.N.N.N.N.N.N.N.N.t.t.t.N.N.N.N.N.y.y.y.y.y.V.E.V.V.i.y.y.y.y.V.i.i.i.i.i.p.C.C.p.p.p.C.C.p.p.p.i.i.i.C.p.",
"e.e.e.e.e.e.e.e.e.e.e.e.e.e.e.e.e.e.e.e.e.e.e.e.e.e.e.e.e.e.e.e.e.e.e.e.e.e.e.e.e.e.e.e.e.e.e.e.e.e.e.e.e.e.e.e.e.e.e.e.e.e.e.e.e.e.e.e.e.e.e.e.e.e.e.e.e.e.e.e.e.e.e.e.e.e.e.e.e.e.e.e.e.e.e.e.e.e.e.e.e.e.e.e.e.e.e.e.e.e.e.e.e.e.e.e.e.e.e.e.e.e.e.e.e.e.e.e.e.e.e.e.e.e.e.e.e.e.e.e.e.e.e.e.e.e.e.e.e.e.e.e.e.e.e.e.e.e.e.e.e.e.e.e.e.e.e.e.e.e.e.e.e.e.e.e.e.e.e.e.e.e.e.e.e.e.e.e.e.e.e.e.e.e.e.e.e.e.e.e.e.e.e.e.e.e.e.e.e.e.e.e.e.e.e.e.e.e.e.e.e.e.e.e.e.e.e.e.e.e.e.e.e.e.e.e.e.e.e.e.e.e.e.e.e.e.e.e.e.e.e.e.e.e.e.e.e.e.e.e.e.e.e.e.e.e.e.e.e.e.e.e.e.e.e.t.t.t.e.e.t.t.t.t.t.t.t.e.t.e.e.e.e.e.t.t.e.e.e.e.t.t.t.e.t.t.t.t.e.t.t.t.t.t.t.t.e.t.e.t.e.e.t.t.t.e.e.e.e.e.t.t.t.t.t.t.t.t.t.e.t.t.t.t.t.t.t.t.t.t.t.t.e.t.t.t.t.t.t.e.t.t.t.e.t.t.t.t.e.e.e.e.e.e.e.e.e.e.e.e.e.e.e.e.e.e.t.t.N.t.t.t.e.e.t.e.t.y.y.y.t.t.t.t.t.t.t.t.t.t.r.e.y.y.y.y.t.t.y.y.y.t.t.t.t.y.y.N.N.N.y.y.r.y.y.i.i.i.i.i.V.i.i.i.i.y.i.V.i.V.V.V.C.C.C.C.W.W.W.W.W.W.h.g.W.g.p.i.",
"e.e.e.e.e.e.e.e.e.e.e.e.e.e.e.e.e.e.e.e.e.e.e.e.e.e.e.e.e.e.e.e.e.e.e.e.e.e.e.e.e.e.e.e.e.e.e.e.e.e.e.e.e.e.e.e.e.e.e.e.e.e.e.e.e.e.e.e.e.e.e.e.e.e.e.e.e.e.e.e.e.e.e.e.e.e.e.e.e.e.e.e.e.e.e.e.e.e.e.e.e.e.e.e.e.e.e.e.e.e.e.e.e.e.e.e.e.e.e.e.e.e.e.e.e.e.e.e.e.e.e.e.e.e.e.e.e.e.e.e.e.e.e.e.e.e.e.e.e.e.e.e.e.e.e.e.e.e.e.e.e.e.e.e.e.e.e.e.e.e.e.e.e.e.e.e.e.e.e.e.e.e.e.e.e.e.e.e.e.e.e.e.e.e.e.e.e.e.e.e.e.e.e.e.e.e.e.e.e.e.e.e.e.e.e.e.e.e.e.e.e.e.e.e.e.e.e.e.e.e.e.e.e.e.e.e.e.e.e.e.e.e.e.e.e.e.e.e.e.e.e.e.e.e.e.e.e.e.e.e.e.e.e.e.e.e.e.e.e.e.e.e.e.e.e.t.t.t.e.e.t.t.t.t.t.t.t.t.e.e.e.e.e.e.t.t.e.e.e.e.t.t.t.e.t.t.t.t.t.t.t.t.t.t.t.t.t.t.t.t.e.e.t.t.t.t.e.e.e.e.t.t.t.t.t.t.t.t.e.e.t.t.t.t.t.t.t.t.t.t.t.t.e.t.t.t.t.t.t.e.e.t.t.t.t.t.t.t.e.e.e.e.e.e.e.e.e.e.e.e.e.e.e.e.e.e.t.t.y.t.t.t.e.e.t.e.t.y.y.y.N.z.t.t.t.t.t.t.t.t.y.y.y.N.N.N.y.t.y.y.y.y.t.t.t.y.y.N.N.N.y.y.y.y.i.i.i.i.i.i.V.i.i.i.i.i.i.V.V.V.V.V.C.C.C.C.C.W.W.W.W.W.g.g.W.g.i.i.",
"e.e.e.e.e.e.e.e.e.e.e.e.e.e.e.e.e.e.e.e.e.e.e.e.e.e.e.e.e.e.e.e.e.e.e.e.e.e.e.e.e.e.e.e.e.e.e.e.e.e.e.e.e.e.e.e.e.e.e.e.e.e.e.e.e.e.e.e.e.e.e.e.e.e.e.e.e.e.e.e.e.e.e.e.e.e.e.e.e.e.e.e.e.e.e.e.e.e.e.e.e.e.e.e.e.e.e.e.e.e.e.e.e.e.e.e.e.e.e.e.e.e.e.e.e.e.e.e.e.e.e.e.e.e.e.e.e.e.e.e.e.e.e.e.e.e.e.e.e.e.e.e.e.e.e.e.e.e.e.e.e.e.e.e.e.e.e.e.e.e.e.e.e.e.e.e.e.e.e.e.e.e.e.e.e.e.e.e.e.e.e.e.e.e.e.e.e.e.e.e.e.e.e.e.e.e.e.e.e.e.e.e.e.e.e.e.e.e.e.e.e.e.e.e.e.e.e.e.e.e.e.e.e.e.e.e.e.e.e.e.e.e.e.e.e.e.e.e.e.e.e.e.e.e.e.e.e.e.e.e.e.e.e.e.e.e.e.e.e.e.e.e.e.e.e.t.t.t.e.e.t.t.t.t.t.t.t.t.e.e.e.e.e.e.t.t.e.t.e.e.t.e.e.e.t.e.t.t.e.t.t.t.t.t.t.t.e.e.t.t.e.e.e.t.e.e.e.e.e.e.e.t.t.t.t.t.t.t.e.e.t.t.e.e.t.e.e.t.t.t.t.t.e.t.e.t.t.t.t.e.e.e.e.e.e.e.e.e.t.t.t.t.t.t.t.t.e.e.t.t.t.t.t.t.e.t.t.t.y.t.t.t.e.t.e.e.t.t.y.y.z.z.N.N.t.t.t.t.N.N.N.N.N.N.N.N.y.t.y.y.y.y.t.t.t.y.y.y.N.y.y.y.y.i.i.i.i.i.p.p.p.i.i.i.i.i.i.i.V.V.V.V.C.C.C.C.C.C.W.W.W.W.g.i.E.g.i.g.",
"e.e.e.e.e.e.e.e.e.e.e.e.e.e.e.e.e.e.e.e.e.e.e.e.e.e.e.e.e.e.e.e.e.e.e.e.e.e.e.e.e.e.e.e.e.e.e.e.e.e.e.e.e.e.e.e.e.e.e.e.e.e.e.e.e.e.e.e.e.e.e.e.e.e.e.e.e.e.e.e.e.e.e.e.e.e.e.e.e.e.e.e.e.e.e.e.e.e.e.e.e.e.e.e.e.e.e.e.e.e.e.e.e.e.e.e.e.e.e.e.e.e.e.e.e.e.e.e.e.e.e.e.e.e.e.e.e.e.e.e.e.e.e.e.e.e.e.e.e.e.e.e.e.e.e.e.e.e.e.e.e.e.e.e.e.e.e.e.e.e.e.e.e.e.e.e.e.e.e.e.e.e.e.e.e.e.e.e.e.e.e.e.e.e.e.e.e.e.e.e.e.e.e.e.e.e.e.e.e.e.e.e.e.e.e.e.e.e.e.e.e.e.e.e.e.e.e.e.e.e.e.e.e.e.e.e.e.e.e.e.e.e.e.e.e.e.e.e.e.e.e.e.e.e.e.e.e.e.e.e.e.e.e.e.e.e.e.e.e.e.e.e.e.e.e.t.t.t.e.e.t.t.t.t.t.t.t.t.e.e.e.e.e.e.e.t.t.t.e.e.e.e.e.e.e.e.t.t.t.t.t.t.t.t.t.t.e.e.t.t.e.e.e.e.e.e.e.e.e.e.e.e.t.t.t.t.t.t.t.t.t.e.e.e.e.e.e.e.e.e.e.e.t.t.e.t.t.t.t.t.e.e.e.e.e.e.e.e.t.t.t.t.t.t.t.t.t.t.t.t.t.t.t.t.e.t.t.t.y.t.t.t.t.t.e.t.t.t.t.y.z.z.N.z.N.N.N.N.N.N.N.N.N.N.N.B.y.y.y.y.y.y.y.t.y.y.y.y.y.y.y.y.y.i.i.i.i.i.p.i.p.p.i.i.i.i.i.i.V.V.i.V.V.C.C.C.C.C.W.W.C.C.h.i.E.g.g.g.",
"e.e.e.e.e.e.e.e.e.e.e.e.e.e.e.e.e.e.e.e.e.e.e.e.e.e.e.e.e.e.e.e.e.e.e.e.e.e.e.e.e.e.e.e.e.e.e.e.e.e.e.e.e.e.e.e.e.e.e.e.e.e.e.e.e.e.e.e.e.e.e.e.e.e.e.e.e.e.e.e.e.e.e.e.e.e.e.e.e.e.e.e.e.e.e.e.e.e.e.e.e.e.e.e.e.e.e.e.e.e.e.e.e.e.e.e.e.e.e.e.e.e.e.e.e.e.e.e.e.e.e.e.e.e.e.e.e.e.e.e.e.e.e.e.e.e.e.e.e.e.e.e.e.e.e.e.e.e.e.e.e.e.e.e.e.e.e.e.e.e.e.e.e.e.e.e.e.e.e.e.e.e.e.e.e.e.e.e.e.e.e.e.e.e.e.e.e.e.e.e.e.e.e.e.e.e.e.e.e.e.e.e.e.e.e.e.e.e.e.e.e.e.e.e.e.e.e.e.e.e.e.e.e.e.e.e.e.e.e.e.e.e.e.e.e.e.e.e.e.e.e.e.e.e.e.e.e.e.e.e.e.e.e.e.e.e.e.e.e.e.e.e.t.e.e.e.t.t.t.e.e.e.e.e.e.e.e.e.e.e.e.e.e.e.e.t.t.e.e.e.e.e.e.e.e.t.t.t.t.t.t.t.e.t.t.t.t.t.t.t.t.t.e.e.e.t.t.t.e.t.e.e.e.t.t.t.t.t.e.e.t.t.t.t.e.e.e.e.e.e.e.e.t.t.t.t.t.t.t.t.e.e.e.e.e.e.e.e.t.t.t.e.t.t.t.t.t.t.t.t.e.e.e.e.e.t.t.t.y.t.t.t.t.t.t.t.t.t.t.t.t.y.y.y.y.y.y.y.y.N.N.N.y.y.y.y.y.y.y.y.y.y.y.y.y.y.y.y.y.y.y.y.y.i.i.i.i.i.i.i.p.p.i.i.i.i.i.i.V.V.i.V.V.C.C.C.p.C.C.W.W.W.h.g.g.g.g.g.",
"e.e.e.e.e.e.e.e.e.e.e.e.e.e.e.e.e.e.e.e.e.e.e.e.e.e.e.e.e.e.e.e.e.e.e.e.e.e.e.e.e.e.e.e.e.e.e.e.e.e.e.e.e.e.e.e.e.e.e.e.e.e.e.e.e.e.e.e.e.e.e.e.e.e.e.e.e.e.e.e.e.e.e.e.e.e.e.e.e.e.e.e.e.e.e.e.e.e.e.e.e.e.e.e.e.e.e.e.e.e.e.e.e.e.e.e.e.e.e.e.e.e.e.e.e.e.e.e.e.e.e.e.e.e.e.e.e.e.e.e.e.e.e.e.e.e.e.e.e.e.e.e.e.e.e.e.e.e.e.e.e.e.e.e.e.e.e.e.e.e.e.e.e.e.e.e.e.e.e.e.e.e.e.e.e.e.e.e.e.e.e.e.e.e.e.e.e.e.e.e.e.e.e.e.e.e.e.e.e.e.e.e.e.e.e.e.e.e.e.e.e.e.e.e.e.e.e.e.e.e.e.e.e.e.e.e.e.e.e.e.e.e.e.e.e.e.e.e.e.e.e.e.e.e.e.e.e.e.e.e.e.e.e.e.e.e.e.e.e.e.e.e.t.e.e.e.t.t.t.e.e.e.e.e.e.e.e.e.e.e.e.e.e.t.e.e.t.e.e.e.e.e.e.e.t.t.t.t.e.e.t.t.e.t.t.t.t.t.t.t.t.t.e.e.e.e.t.t.e.e.e.e.e.e.e.t.t.t.e.e.t.t.t.t.t.t.t.t.t.t.t.t.t.t.t.e.e.t.t.t.t.t.t.t.t.t.t.t.t.t.t.e.t.t.t.t.t.t.t.t.t.t.e.e.e.t.t.t.y.t.t.t.t.t.t.t.t.t.t.t.t.t.y.y.y.y.y.y.y.y.y.N.y.y.y.y.y.y.y.y.y.y.y.y.y.y.y.y.y.y.N.y.i.i.a.a.i.i.i.i.p.p.p.V.i.i.i.i.V.V.i.i.V.V.C.C.p.C.C.W.W.W.h.h.W.g.g.g.",
"e.e.e.e.e.e.e.e.e.e.e.e.e.e.e.e.e.e.e.e.e.e.e.e.e.e.e.e.e.e.e.e.e.e.e.e.e.e.e.e.e.e.e.e.e.e.e.e.e.e.e.e.e.e.e.e.e.e.e.e.e.e.e.e.e.e.e.e.e.e.e.e.e.e.e.e.e.e.e.e.e.e.e.e.e.e.e.e.e.e.e.e.e.e.e.e.e.e.e.e.e.e.e.e.e.e.e.e.e.e.e.e.e.e.e.e.e.e.e.e.e.e.e.e.e.e.e.e.e.e.e.e.e.e.e.e.e.e.e.e.e.e.e.e.e.e.e.e.e.e.e.e.e.e.e.e.e.e.e.e.e.e.e.e.e.e.e.e.e.e.e.e.e.e.e.e.e.e.e.e.e.e.e.e.e.e.e.e.e.e.e.e.e.e.e.e.e.e.e.e.e.e.e.e.e.e.e.e.e.e.e.e.e.e.e.e.e.e.e.e.e.e.e.e.e.e.e.e.e.e.e.e.e.e.e.e.e.e.e.e.e.e.e.e.e.e.e.e.e.e.e.e.e.e.e.e.e.e.e.e.e.e.e.e.e.e.e.e.e.e.e.e.t.e.e.e.t.t.t.e.e.e.e.e.e.e.e.e.e.e.e.e.t.t.t.e.e.e.e.e.e.e.t.t.t.t.t.t.e.e.e.t.t.t.t.t.t.t.t.t.t.t.e.e.e.e.e.e.e.e.e.e.e.e.e.e.t.t.t.e.t.t.t.t.t.t.t.t.t.t.t.t.t.t.t.e.e.t.t.t.t.t.t.t.t.t.t.t.t.t.t.t.t.t.t.t.t.t.t.t.t.t.t.t.e.t.t.t.y.t.t.t.t.t.t.t.t.t.t.t.t.t.t.y.t.t.y.y.y.y.y.y.y.y.y.y.y.y.y.y.y.y.y.y.y.y.y.y.y.y.N.y.i.i.i.i.i.i.i.i.p.p.i.i.i.i.i.i.V.V.i.i.V.V.C.C.p.p.C.W.W.W.h.h.W.g.g.g.",
"e.e.e.e.e.e.e.e.e.e.e.e.e.e.e.e.e.e.e.e.e.e.e.e.e.e.e.e.e.e.e.e.e.e.e.e.e.e.e.e.e.e.e.e.e.e.e.e.e.e.e.e.e.e.e.e.e.e.e.e.e.e.e.e.e.e.e.e.e.e.e.e.e.e.e.e.e.e.e.e.e.e.e.e.e.e.e.e.e.e.e.e.e.e.e.e.e.e.e.e.e.e.e.e.e.e.e.e.e.e.e.e.e.e.e.e.e.e.e.e.e.e.e.e.e.e.e.e.e.e.e.e.e.e.e.e.e.e.e.e.e.e.e.e.e.e.e.e.e.e.e.e.e.e.e.e.e.e.e.e.e.e.e.e.e.e.e.e.e.e.e.e.e.e.e.e.e.e.e.e.e.e.e.e.e.e.e.e.e.e.e.e.e.e.e.e.e.e.e.e.e.e.e.e.e.e.e.e.e.e.e.e.e.e.e.e.e.e.e.e.e.e.e.e.e.e.e.e.e.e.e.e.e.e.e.e.e.e.e.e.e.e.e.e.e.e.e.e.e.e.e.e.e.e.e.e.e.e.e.e.e.e.e.e.e.e.e.e.e.e.e.e.t.e.e.e.t.t.t.e.e.e.e.e.e.e.e.e.e.e.e.e.t.t.t.e.e.e.e.e.t.t.t.e.t.t.t.t.e.e.e.t.t.t.t.t.t.t.t.t.e.t.e.e.e.e.e.e.e.e.e.e.t.e.e.e.t.t.t.e.t.t.t.t.t.t.t.t.t.t.t.t.t.t.t.e.e.t.e.t.N.y.N.N.t.t.t.y.t.t.t.t.t.t.t.t.t.t.t.t.t.t.t.t.e.t.t.t.y.t.t.t.t.t.t.t.t.t.y.t.u.t.t.t.t.t.y.y.y.y.y.y.y.y.y.y.y.y.y.y.y.y.y.y.y.y.y.y.y.y.N.i.V.i.i.i.i.i.p.p.p.p.V.C.V.i.i.i.V.V.i.i.V.V.C.C.p.p.C.W.W.W.h.W.h.g.g.g.",
"e.e.e.e.e.e.e.e.e.e.e.e.e.e.e.e.e.e.e.e.e.e.e.e.e.e.e.e.e.e.e.e.e.e.e.e.e.e.e.e.e.e.e.e.e.e.e.e.e.e.e.e.e.e.e.e.e.e.e.e.e.e.e.e.e.e.e.e.e.e.e.e.e.e.e.e.e.e.e.e.e.e.e.e.e.e.e.e.e.e.e.e.e.e.e.e.e.e.e.e.e.e.e.e.e.e.e.e.e.e.e.e.e.e.e.e.e.e.e.e.e.e.e.e.e.e.e.e.e.e.e.e.e.e.e.e.e.e.e.e.e.e.e.e.e.e.e.e.e.e.e.e.e.e.e.e.e.e.e.e.e.e.e.e.e.e.e.e.e.e.e.e.e.e.e.e.e.e.e.e.e.e.e.e.e.e.e.e.e.e.e.e.e.e.e.e.e.e.e.e.e.e.e.e.e.e.e.e.e.e.e.e.e.e.e.e.e.e.e.e.e.e.e.e.e.e.e.e.e.e.e.e.e.e.e.e.e.e.e.e.e.e.e.e.e.e.e.e.e.e.e.e.e.e.e.e.e.e.e.e.e.e.e.e.e.e.e.e.e.e.e.e.e.e.e.e.e.e.e.e.e.e.e.e.e.e.e.e.e.e.e.e.e.e.e.e.t.t.t.t.t.e.e.e.e.e.e.e.e.e.e.t.t.t.t.t.t.e.e.e.e.e.e.e.e.t.t.t.e.e.e.e.e.e.e.e.e.e.e.e.t.t.t.t.t.t.e.e.e.t.t.t.e.e.t.t.t.t.e.e.z.z.z.z.y.y.y.y.t.t.t.t.t.t.t.t.y.y.y.y.y.y.y.y.t.t.t.t.y.t.t.t.t.t.t.t.t.t.t.t.t.t.t.t.y.y.y.y.y.y.y.y.y.y.y.N.B.y.y.y.y.y.y.y.B.B.B.B.N.N.N.y.V.i.i.i.i.i.i.i.p.p.i.i.i.i.i.i.i.V.i.V.C.C.C.C.p.p.C.C.C.W.W.h.W.h.g.g.",
"e.e.e.e.e.e.e.e.e.e.e.e.e.e.e.e.e.e.e.e.e.e.e.e.e.e.e.e.e.e.e.e.e.e.e.e.e.e.e.e.e.e.e.e.e.e.e.e.e.e.e.e.e.e.e.e.e.e.e.e.e.e.e.e.e.e.e.e.e.e.e.e.e.e.e.e.e.e.e.e.e.e.e.e.e.e.e.e.e.e.e.e.e.e.e.e.e.e.e.e.e.e.e.e.e.e.e.e.e.e.e.e.e.e.e.e.e.e.e.e.e.e.e.e.e.e.e.e.e.e.e.e.e.e.e.e.e.e.e.e.e.e.e.e.e.e.e.e.e.e.e.e.e.e.e.e.e.e.e.e.e.e.e.e.e.e.e.e.e.e.e.e.e.e.e.e.e.e.e.e.e.e.e.e.e.e.e.e.e.e.e.e.e.e.e.e.e.e.e.e.e.e.e.e.e.e.e.e.e.e.e.e.e.e.e.e.e.e.e.e.e.e.e.e.e.e.e.e.e.e.e.e.e.e.e.e.e.e.e.e.e.e.e.e.e.e.e.e.e.e.e.e.e.e.e.e.e.e.e.e.e.e.e.e.e.e.e.e.e.e.e.e.e.e.e.e.e.e.e.e.e.e.e.e.e.e.e.e.e.e.e.e.e.e.t.t.t.e.t.t.e.e.e.e.e.e.e.e.e.e.t.t.t.e.t.t.e.e.e.e.e.e.e.e.e.e.t.t.e.e.e.e.e.e.e.t.e.e.e.e.t.t.t.t.t.t.e.e.e.t.t.t.e.e.t.t.t.t.e.e.N.z.z.z.y.y.y.y.t.t.t.t.t.t.t.t.y.t.t.t.t.t.t.t.t.t.t.t.t.t.t.t.t.t.t.t.t.t.t.t.t.t.t.t.y.y.y.y.y.y.y.y.y.y.y.y.B.y.y.y.y.y.y.y.B.B.B.B.y.N.N.y.V.i.i.i.i.i.i.i.i.i.i.i.i.i.i.i.y.V.i.V.C.C.C.C.p.p.C.C.C.C.C.p.h.h.h.g.",
"e.e.e.e.e.e.e.e.e.e.e.e.e.e.e.e.e.e.e.e.e.e.e.e.e.e.e.e.e.e.e.e.e.e.e.e.e.e.e.e.e.e.e.e.e.e.e.e.e.e.e.e.e.e.e.e.e.e.e.e.e.e.e.e.e.e.e.e.e.e.e.e.e.e.e.e.e.e.e.e.e.e.e.e.e.e.e.e.e.e.e.e.e.e.e.e.e.e.e.e.e.e.e.e.e.e.e.e.e.e.e.e.e.e.e.e.e.e.e.e.e.e.e.e.e.e.e.e.e.e.e.e.e.e.e.e.e.e.e.e.e.e.e.e.e.e.e.e.e.e.e.e.e.e.e.e.e.e.e.e.e.e.e.e.e.e.e.e.e.e.e.e.e.e.e.e.e.e.e.e.e.e.e.e.e.e.e.e.e.e.e.e.e.e.e.e.e.e.e.e.e.e.e.e.e.e.e.e.e.e.e.e.e.e.e.e.e.e.e.e.e.e.e.e.e.e.e.e.e.e.e.e.e.e.e.e.e.e.e.e.e.e.e.e.e.e.e.e.e.e.e.e.e.e.e.e.e.e.e.e.e.e.e.e.e.e.e.e.e.e.e.e.e.e.e.e.e.e.e.e.e.e.e.e.e.e.e.e.e.e.e.e.e.e.t.t.e.e.e.e.e.e.e.e.e.e.e.e.e.e.t.t.e.e.e.e.e.e.e.e.e.e.e.e.e.e.e.e.e.e.e.e.e.e.e.e.e.e.e.e.t.t.t.t.t.t.t.e.t.t.t.t.t.e.t.t.t.t.t.t.t.t.t.t.t.t.t.t.t.t.t.t.t.t.t.t.e.e.t.t.t.t.t.t.t.t.t.t.t.t.t.t.t.t.t.t.t.t.t.t.y.r.r.r.r.r.r.r.y.y.r.r.y.y.y.y.y.y.y.y.y.y.y.y.y.y.B.y.y.N.N.y.V.i.i.i.i.i.i.i.i.i.i.i.i.i.i.y.y.V.i.V.C.C.C.C.p.p.C.C.A.C.C.p.h.h.p.h.",
"e.e.e.e.e.e.e.e.e.e.e.e.e.e.e.e.e.e.e.e.e.e.e.e.e.e.e.e.e.e.e.e.e.e.e.e.e.e.e.e.e.e.e.e.e.e.e.e.e.e.e.e.e.e.e.e.e.e.e.e.e.e.e.e.e.e.e.e.e.e.e.e.e.e.e.e.e.e.e.e.e.e.e.e.e.e.e.e.e.e.e.e.e.e.e.e.e.e.e.e.e.e.e.e.e.e.e.e.e.e.e.e.e.e.e.e.e.e.e.e.e.e.e.e.e.e.e.e.e.e.e.e.e.e.e.e.e.e.e.e.e.e.e.e.e.e.e.e.e.e.e.e.e.e.e.e.e.e.e.e.e.e.e.e.e.e.e.e.e.e.e.e.e.e.e.e.e.e.e.e.e.e.e.e.e.e.e.e.e.e.e.e.e.e.e.e.e.e.e.e.e.e.e.e.e.e.e.e.e.e.e.e.e.e.e.e.e.e.e.e.e.e.e.e.e.e.e.e.e.e.e.e.e.e.e.e.e.e.e.e.e.e.e.e.e.e.e.e.e.e.e.e.e.e.e.e.e.e.e.e.e.e.e.e.e.e.e.e.e.e.e.e.e.e.e.e.e.e.e.e.e.e.e.e.e.e.e.e.e.e.e.e.e.e.t.t.e.e.e.e.e.e.e.e.e.e.e.e.e.e.e.t.e.e.e.e.e.e.e.e.t.e.e.e.e.e.e.e.e.e.e.e.e.e.e.e.e.e.t.t.t.t.t.t.t.t.t.t.t.t.t.t.t.t.t.t.t.t.t.t.t.t.e.e.e.e.t.t.t.y.t.t.t.t.t.t.e.e.t.t.t.t.t.t.t.t.t.t.t.t.t.t.t.t.t.t.t.t.t.t.y.r.r.r.r.r.r.r.y.y.r.r.y.y.y.y.y.y.y.y.y.y.y.y.y.y.y.y.y.y.y.y.y.y.i.i.i.i.i.i.i.i.i.i.i.i.i.y.y.V.i.V.C.C.C.C.p.p.C.A.A.A.C.p.p.p.p.p.",
"e.e.e.e.e.e.e.e.e.e.e.e.e.e.e.e.e.e.e.e.e.e.e.e.e.e.e.e.e.e.e.e.e.e.e.e.e.e.e.e.e.e.e.e.e.e.e.e.e.e.e.e.e.e.e.e.e.e.e.e.e.e.e.e.e.e.e.e.e.e.e.e.e.e.e.e.e.e.e.e.e.e.e.e.e.e.e.e.e.e.e.e.e.e.e.e.e.e.e.e.e.e.e.e.e.e.e.e.e.e.e.e.e.e.e.e.e.e.e.e.e.e.e.e.e.e.e.e.e.e.e.e.e.e.e.e.e.e.e.e.e.e.e.e.e.e.e.e.e.e.e.e.e.e.e.e.e.e.e.e.e.e.e.e.e.e.e.e.e.e.e.e.e.e.e.e.e.e.e.e.e.e.e.e.e.e.e.e.e.e.e.e.e.e.e.e.e.e.e.e.e.e.e.e.e.e.e.e.e.e.e.e.e.e.e.e.e.e.e.e.e.e.e.e.e.e.e.e.e.e.e.e.e.e.e.e.e.e.e.e.e.e.e.e.e.e.e.e.e.e.e.e.e.e.e.e.e.e.e.e.e.e.e.e.e.e.e.e.e.e.e.e.e.e.e.e.e.e.e.e.e.e.e.e.e.e.e.e.e.e.e.e.e.e.e.e.e.e.e.e.e.e.e.e.e.e.e.e.e.e.e.e.e.e.e.e.e.e.e.e.t.t.e.e.e.e.e.e.t.t.e.e.e.e.e.e.e.t.t.t.t.t.t.t.e.e.t.t.t.e.e.e.t.t.t.t.t.t.t.t.t.e.e.e.t.t.t.t.t.t.y.t.t.t.t.y.e.e.t.t.t.t.t.t.t.t.t.t.t.t.t.t.t.y.t.t.y.z.z.t.t.u.u.u.r.r.r.r.y.y.y.y.y.y.y.y.y.N.y.y.y.y.N.N.y.y.y.y.y.y.y.y.y.y.y.y.i.i.i.i.i.i.i.i.i.y.y.y.y.V.i.V.C.C.C.C.p.p.A.A.A.A.C.p.p.p.p.p.",
"e.e.e.e.e.e.e.e.e.e.e.e.e.e.e.e.e.e.e.e.e.e.e.e.e.e.e.e.e.e.e.e.e.e.e.e.e.e.e.e.e.e.e.e.e.e.e.e.e.e.e.e.e.e.e.e.e.e.e.e.e.e.e.e.e.e.e.e.e.e.e.e.e.e.e.e.e.e.e.e.e.e.e.e.e.e.e.e.e.e.e.e.e.e.e.e.e.e.e.e.e.e.e.e.e.e.e.e.e.e.e.e.e.e.e.e.e.e.e.e.e.e.e.e.e.e.e.e.e.e.e.e.e.e.e.e.e.e.e.e.e.e.e.e.e.e.e.e.e.e.e.e.e.e.e.e.e.e.e.e.e.e.e.e.e.e.e.e.e.e.e.e.e.e.e.e.e.e.e.e.e.e.e.e.e.e.e.e.e.e.e.e.e.e.e.e.e.e.e.e.e.e.e.e.e.e.e.e.e.e.e.e.e.e.e.e.e.e.e.e.e.e.e.e.e.e.e.e.e.e.e.e.e.e.e.e.e.e.e.e.e.e.e.e.e.e.e.e.e.e.e.e.e.e.e.e.e.e.e.e.e.e.e.e.e.e.e.e.e.e.e.e.e.e.e.e.e.e.e.e.e.e.e.e.e.e.e.e.e.e.e.e.e.e.e.e.e.e.e.e.e.e.e.e.e.e.e.e.e.e.e.e.e.t.e.e.e.e.e.e.t.t.e.e.e.e.e.e.t.t.t.t.t.t.t.t.e.t.t.t.t.t.t.t.e.e.e.t.t.e.t.e.t.t.t.t.t.t.t.t.e.e.e.e.t.t.t.t.t.t.y.t.t.t.t.t.t.t.t.t.e.e.t.t.t.t.t.t.y.y.t.t.t.y.t.t.t.z.z.t.t.u.u.u.r.r.r.r.y.y.y.y.r.r.r.r.y.y.y.y.y.t.y.y.y.y.y.y.y.y.y.y.y.y.y.y.i.i.i.i.i.i.i.i.y.y.y.y.y.V.i.V.C.C.C.C.p.p.A.A.A.A.C.p.p.p.C.C.",
"e.e.e.e.e.e.e.e.e.e.e.e.e.e.e.e.e.e.e.e.e.e.e.e.e.e.e.e.e.e.e.e.e.e.e.e.e.e.e.e.e.e.e.e.e.e.e.e.e.e.e.e.e.e.e.e.e.e.e.e.e.e.e.e.e.e.e.e.e.e.e.e.e.e.e.e.e.e.e.e.e.e.e.e.e.e.e.e.e.e.e.e.e.e.e.e.e.e.e.e.e.e.e.e.e.e.e.e.e.e.e.e.e.e.e.e.e.e.e.e.e.e.e.e.e.e.e.e.e.e.e.e.e.e.e.e.e.e.e.e.e.e.e.e.e.e.e.e.e.e.e.e.e.e.e.e.e.e.e.e.e.e.e.e.e.e.e.e.e.e.e.e.e.e.e.e.e.e.e.e.e.e.e.e.e.e.e.e.e.e.e.e.e.e.e.e.e.e.e.e.e.e.e.e.e.e.e.e.e.e.e.e.e.e.e.e.e.e.e.e.e.e.e.e.e.e.e.e.e.e.e.e.e.e.e.e.e.e.e.e.e.e.e.e.e.e.e.e.e.e.e.e.e.e.e.e.e.e.e.e.e.e.e.e.e.e.e.e.e.e.e.e.e.e.e.e.e.e.e.e.e.e.e.e.e.e.e.e.e.e.e.e.t.t.e.e.e.e.e.e.e.e.e.e.e.e.e.e.e.e.e.e.e.e.e.e.e.e.e.e.e.e.e.e.t.t.t.e.t.t.t.t.t.t.t.t.e.e.t.t.t.t.t.t.e.t.t.t.t.t.t.t.e.t.e.e.t.t.t.t.t.t.t.t.t.t.t.t.t.t.t.t.t.t.t.t.t.t.t.t.t.t.t.t.t.t.t.y.t.t.t.t.y.y.y.y.z.z.z.t.t.u.u.u.r.r.r.r.y.y.y.y.r.r.r.r.y.y.y.y.t.t.t.y.t.y.y.y.y.y.y.y.y.y.y.y.i.i.i.i.i.i.i.i.i.y.y.y.y.V.i.V.C.C.C.C.p.p.A.A.A.A.A.A.A.A.A.!.",
"e.e.e.e.e.e.e.e.e.e.e.e.e.e.e.e.e.e.e.e.e.e.e.e.e.e.e.e.e.e.e.e.e.e.e.e.e.e.e.e.e.e.e.e.e.e.e.e.e.e.e.e.e.e.e.e.e.e.e.e.e.e.e.e.e.e.e.e.e.e.e.e.e.e.e.e.e.e.e.e.e.e.e.e.e.e.e.e.e.e.e.e.e.e.e.e.e.e.e.e.e.e.e.e.e.e.e.e.e.e.e.e.e.e.e.e.e.e.e.e.e.e.e.e.e.e.e.e.e.e.e.e.e.e.e.e.e.e.e.e.e.e.e.e.e.e.e.e.e.e.e.e.e.e.e.e.e.e.e.e.e.e.e.e.e.e.e.e.e.e.e.e.e.e.e.e.e.e.e.e.e.e.e.e.e.e.e.e.e.e.e.e.e.e.e.t.t.e.e.e.e.e.e.e.e.e.e.e.e.e.e.e.e.e.e.e.e.e.e.e.e.e.e.e.e.e.e.e.e.e.e.e.e.e.e.e.e.e.e.e.e.e.e.e.e.e.e.e.e.e.e.e.e.e.e.e.e.e.e.e.e.e.e.e.e.e.e.e.e.e.e.e.e.e.e.e.e.e.e.e.e.e.e.e.e.e.e.e.e.e.e.t.t.t.e.e.e.e.e.e.e.e.e.e.e.e.e.t.e.t.e.e.e.t.e.t.e.e.e.e.e.e.e.e.t.t.t.t.t.t.t.t.t.t.t.t.e.e.t.t.t.t.t.t.t.t.t.t.t.t.t.t.e.e.e.e.t.t.t.t.t.t.t.t.t.t.t.t.t.t.t.t.t.t.t.t.N.y.N.N.t.t.t.y.t.t.t.t.t.t.t.t.y.y.y.y.t.t.z.t.u.u.u.u.y.r.r.r.y.y.y.y.r.r.r.r.y.y.y.y.t.t.t.y.t.t.y.y.y.t.y.y.y.y.y.y.i.y.i.i.i.i.g.g.g.g.g.g.y.i.i.V.C.C.C.C.p.p.A.A.A.A.A.A.A.A.A.!.",
"e.e.e.e.e.e.e.e.e.e.e.e.e.e.e.e.e.e.e.e.e.e.e.e.e.e.e.e.e.e.e.e.e.e.e.e.e.e.e.e.e.e.e.e.e.e.e.e.e.e.e.e.e.e.e.e.e.e.e.e.e.e.e.e.e.e.e.e.e.e.e.e.e.e.e.e.e.e.e.e.e.e.e.e.e.e.e.e.e.e.e.e.e.e.e.e.e.e.e.e.e.e.e.e.e.e.e.e.e.e.e.e.e.e.e.e.e.e.e.e.e.e.e.e.e.e.e.e.e.e.e.e.e.e.e.e.e.e.e.e.e.e.e.e.e.e.e.e.e.e.e.e.e.e.e.e.e.e.e.e.q.q.q.q.q.q.e.e.e.e.e.e.e.e.e.e.e.e.e.e.e.e.e.e.e.e.e.e.e.e.e.e.e.e.e.e.e.e.e.e.e.e.e.e.e.e.e.e.e.e.e.e.e.e.e.e.e.e.e.e.e.e.e.e.e.e.e.e.e.e.e.e.e.e.e.e.e.e.e.e.e.e.e.e.e.e.e.e.e.e.e.e.e.e.e.e.e.e.e.e.e.e.e.e.e.e.e.e.e.e.e.e.e.e.e.e.e.e.e.e.e.e.e.e.e.e.e.e.e.e.e.e.t.t.t.t.e.e.e.e.e.e.e.e.e.e.e.e.e.t.e.t.e.t.e.t.t.e.e.e.e.e.e.e.e.e.e.e.e.e.t.t.t.t.t.t.t.t.t.t.t.e.e.e.e.t.t.t.t.e.e.e.t.t.t.t.t.t.t.t.e.e.t.t.e.e.t.t.t.t.t.t.t.t.t.t.t.t.t.t.t.t.t.t.t.t.t.r.t.r.t.u.t.u.y.u.t.u.t.u.u.u.u.t.t.t.y.y.y.y.r.r.y.y.r.u.y.z.z.z.t.t.t.z.t.t.z.z.N.z.t.t.r.y.y.y.N.V.V.V.V.V.V.N.V.E.E.g.i.i.i.p.h.p.p.p.p.C.C.C.C.C.C.C.A.A.A.!.",
"e.e.e.e.e.e.e.e.e.e.e.e.e.e.e.e.e.e.e.e.e.e.e.e.e.e.e.e.e.e.e.e.e.e.e.e.e.e.e.e.e.e.e.e.e.e.e.e.e.e.e.e.e.e.e.e.e.e.e.e.e.e.e.e.e.e.e.e.e.e.e.e.e.e.e.e.e.e.e.e.e.e.e.e.e.e.e.e.e.e.e.e.e.e.e.e.e.e.e.e.e.e.e.e.e.e.e.e.e.e.e.e.e.e.e.e.e.e.e.e.e.e.e.e.e.e.e.e.e.e.e.e.e.e.e.e.e.e.e.e.e.e.e.e.e.e.e.e.e.e.e.e.e.e.e.e.e.e.e.e.q.q.q.q.e.q.e.e.e.e.e.e.e.e.e.e.e.e.e.e.e.e.e.e.e.e.e.e.e.e.e.e.e.e.e.e.e.e.e.e.e.e.e.e.e.e.e.e.e.e.e.e.e.e.e.e.e.e.e.e.e.e.e.e.e.e.e.e.e.e.e.e.e.e.e.e.e.e.e.e.e.e.e.e.e.e.e.e.e.e.e.e.e.e.e.e.e.e.e.e.e.e.e.e.e.e.e.e.e.e.e.e.e.e.e.e.e.e.e.e.e.e.e.e.e.e.e.e.e.e.e.e.t.t.t.t.e.e.e.e.e.e.e.e.e.e.e.e.t.t.t.t.t.t.t.t.t.t.e.e.e.e.e.e.e.e.e.e.e.e.e.t.t.t.t.t.t.t.t.t.t.t.e.e.t.t.t.t.e.e.t.t.t.t.t.t.t.t.t.t.e.t.t.t.e.t.t.t.t.t.t.t.y.t.t.t.t.t.t.t.t.t.t.t.t.u.t.r.r.r.u.e.u.u.r.r.u.u.u.u.u.u.u.t.t.t.y.y.y.y.r.r.y.y.r.u.N.z.z.t.t.t.t.z.t.t.z.z.N.z.t.t.y.y.y.y.y.y.i.y.y.i.y.N.N.N.I.g.i.i.i.i.p.p.p.p.p.p.p.p.C.C.C.C.C.!.!.!.",
"e.e.e.e.e.e.e.e.e.e.e.e.e.e.e.e.e.e.e.t.e.e.e.e.e.e.e.e.e.e.e.e.e.e.e.e.e.e.e.e.e.e.e.e.e.e.e.e.e.e.e.e.e.e.e.e.e.e.e.e.e.e.e.e.e.e.e.e.e.e.e.e.e.e.e.e.e.e.e.e.e.e.e.e.e.e.e.e.e.e.e.e.e.e.e.e.e.e.e.e.e.e.e.e.e.e.e.e.e.e.e.e.e.e.e.e.e.e.e.e.e.e.e.e.e.e.e.e.e.e.e.e.e.e.e.e.e.e.e.e.e.e.e.e.e.e.e.e.e.e.e.e.e.e.e.e.e.e.e.e.e.q.e.e.e.e.e.e.e.e.e.e.e.e.e.e.e.e.e.e.e.e.e.e.e.e.e.e.e.e.e.e.e.e.e.e.t.e.e.e.e.e.e.e.e.e.e.e.e.e.e.e.e.e.e.e.e.e.e.e.e.e.e.e.e.e.e.e.e.e.e.e.e.e.e.e.e.e.e.e.e.e.e.e.e.e.e.e.e.e.e.e.e.e.e.e.e.e.e.e.e.e.e.e.e.e.e.e.e.e.e.e.e.e.e.e.e.e.e.e.e.e.e.e.e.e.e.e.e.e.e.e.t.t.t.t.e.e.e.e.e.e.e.e.e.e.e.e.e.t.t.e.e.e.e.t.e.e.e.e.e.e.e.e.e.e.e.e.e.e.t.t.t.t.t.t.t.t.t.t.t.t.t.t.t.t.t.t.t.t.t.t.e.t.e.e.t.e.e.e.t.t.t.t.e.t.t.t.t.t.t.t.y.y.t.t.t.t.y.t.t.t.t.t.u.u.t.t.y.y.y.u.y.y.y.y.t.t.t.t.u.u.u.u.t.t.y.y.y.y.r.r.y.y.r.r.N.z.t.t.t.t.z.z.t.t.N.N.N.N.t.t.t.y.y.y.y.y.y.y.y.i.y.y.y.y.I.y.y.i.i.i.p.p.p.p.p.p.p.p.C.C.C.C.C.!.W.!.",
"e.e.e.e.e.e.e.e.e.e.e.e.e.e.e.e.e.e.e.t.e.e.e.e.e.e.e.e.e.e.e.e.e.e.e.e.e.e.e.e.e.e.e.e.e.e.e.e.e.e.e.e.e.e.e.e.e.e.e.e.e.e.e.e.e.e.e.e.e.e.e.e.e.e.e.e.e.e.e.e.e.e.e.e.e.e.e.e.e.e.e.e.e.e.e.e.e.e.e.e.e.e.e.e.e.e.e.e.e.e.e.e.e.e.e.e.e.e.e.e.e.e.e.e.e.e.e.e.e.e.e.e.e.e.e.e.e.e.e.e.e.e.e.e.e.e.e.e.e.e.e.e.e.e.e.e.e.e.e.e.e.q.e.e.e.e.e.e.e.e.e.e.e.e.e.e.e.e.e.e.e.e.e.e.e.e.e.e.e.e.e.e.e.e.e.e.t.t.e.e.e.e.e.e.e.e.e.e.e.e.e.e.e.e.e.e.e.e.e.e.e.e.e.e.e.e.e.e.e.e.e.e.e.e.e.e.e.e.e.e.e.e.e.e.e.e.e.e.e.e.e.e.e.e.e.e.e.e.e.e.e.e.e.e.e.e.e.e.e.e.e.e.e.e.e.e.e.t.e.e.e.e.e.e.e.e.e.e.e.e.e.e.t.t.t.t.e.e.e.e.e.e.e.e.e.e.e.e.e.t.t.e.e.e.e.t.t.e.e.e.e.e.t.e.e.t.e.t.e.e.t.t.t.t.t.t.t.t.t.t.t.t.t.t.t.t.t.t.t.t.t.t.e.e.e.e.t.t.e.e.t.t.t.t.t.t.t.t.t.t.t.t.y.y.z.z.t.t.t.t.t.t.y.y.u.u.t.t.y.y.y.u.y.y.y.y.t.t.t.t.u.u.u.u.u.t.y.y.y.y.r.r.y.y.r.r.y.z.t.t.t.t.z.z.t.t.N.N.N.N.t.t.y.y.y.y.y.y.y.y.y.y.y.y.y.y.y.y.y.y.i.i.i.i.p.p.p.p.C.C.C.C.W.W.C.W.W.W.",
"e.e.e.e.e.e.e.e.e.e.e.e.e.e.e.e.e.e.t.t.e.t.e.e.e.e.e.e.e.e.e.e.e.e.e.e.e.e.e.e.e.e.e.e.e.e.e.e.e.e.e.e.e.e.e.e.e.e.e.e.e.e.e.e.e.e.e.e.e.e.e.e.e.e.e.e.e.e.e.e.e.e.e.e.e.e.e.e.e.e.e.e.e.e.e.e.e.e.e.e.e.e.e.e.e.e.e.e.e.e.e.e.e.e.e.e.e.e.e.e.e.e.e.e.e.e.e.e.e.e.e.e.e.e.e.e.e.e.e.e.e.e.e.e.e.e.e.e.e.e.e.e.e.e.e.e.e.e.e.e.e.q.e.e.e.e.e.e.e.e.e.e.e.e.e.e.e.e.e.e.e.e.e.e.e.e.e.e.e.e.e.e.e.e.e.e.e.e.e.e.e.e.e.e.e.e.e.e.e.e.e.e.e.e.e.e.e.e.e.e.e.e.e.e.e.e.e.e.e.e.e.e.e.e.e.e.e.e.e.e.e.e.e.e.e.e.e.e.e.e.e.e.e.e.e.e.e.e.e.e.e.e.e.e.e.e.e.e.e.e.e.e.u.u.u.u.t.t.t.e.e.t.t.t.e.e.e.t.e.e.e.e.t.t.e.e.t.e.e.e.t.t.t.t.e.e.e.e.e.e.e.e.e.e.r.r.r.e.e.e.e.t.e.e.t.t.t.t.e.e.t.t.e.e.t.t.e.e.t.t.t.t.t.t.t.t.t.t.t.t.t.t.t.t.t.t.t.t.t.t.t.t.e.t.t.t.t.y.t.t.t.t.N.N.z.z.t.y.y.t.t.t.t.t.e.u.t.t.y.y.y.y.y.y.y.y.t.t.t.t.u.u.u.u.u.u.r.r.y.y.r.r.y.y.r.r.y.y.y.y.t.t.z.N.t.y.N.N.N.N.t.t.y.y.y.r.y.y.y.y.y.y.y.y.y.y.y.y.y.y.y.i.i.i.C.C.C.C.C.W.W.W.W.W.W.W.W.W.",
"e.e.e.e.e.e.e.e.e.e.e.e.e.e.e.e.e.e.t.t.e.e.e.e.e.e.e.e.e.e.e.e.e.e.e.e.e.e.e.e.e.e.e.e.e.e.e.e.e.e.e.e.e.e.e.e.e.e.e.e.e.e.e.e.e.e.e.e.e.e.e.e.e.e.e.e.e.e.e.e.e.e.e.e.e.t.e.e.e.e.e.e.e.e.e.e.e.e.e.e.e.e.e.e.e.e.e.e.e.e.e.e.e.e.e.e.e.e.e.e.e.e.e.e.e.e.e.e.e.e.e.e.e.e.e.e.e.e.e.e.e.e.e.e.e.e.e.e.e.e.e.e.e.e.e.e.e.e.e.e.e.q.e.e.q.e.e.e.e.e.e.e.e.e.e.e.e.e.e.e.e.e.e.e.e.e.e.e.e.e.e.e.e.e.e.e.e.e.e.e.e.e.e.e.e.e.e.e.e.e.e.e.e.e.e.e.e.e.e.e.e.e.e.e.e.e.e.e.e.e.e.e.e.e.e.e.e.e.e.e.e.e.e.e.e.e.e.e.e.e.e.e.e.e.e.e.e.e.e.e.e.e.e.e.e.e.e.e.e.e.e.e.u.u.u.u.t.e.t.e.t.t.t.t.e.e.e.e.e.e.e.e.e.e.e.e.t.e.e.e.t.t.t.t.e.e.e.e.e.e.e.e.e.e.r.r.e.e.e.e.e.t.e.t.t.t.t.t.e.e.t.t.e.e.t.t.e.e.t.t.t.t.t.t.t.t.t.t.t.t.e.e.t.t.t.t.t.t.t.t.t.t.t.t.t.y.N.N.t.t.t.t.N.y.z.z.t.t.t.t.t.t.t.t.u.u.t.t.y.y.y.y.y.y.y.y.t.t.t.t.t.t.u.u.u.u.r.r.y.y.r.r.y.y.r.y.y.y.t.t.t.t.N.N.t.t.N.N.N.N.t.t.y.y.r.r.y.y.y.y.i.y.y.y.y.y.y.y.y.y.y.i.i.i.V.C.C.C.C.C.C.W.W.W.i.g.E.E.",
"e.e.e.e.e.e.e.e.e.e.e.e.t.e.e.e.e.e.e.e.e.e.e.e.e.e.e.e.e.e.e.e.e.e.e.e.e.e.e.e.e.e.e.e.e.e.e.e.e.e.e.e.e.e.e.e.e.e.e.e.e.e.e.e.e.e.e.e.e.e.e.e.e.e.e.e.e.e.e.e.t.t.e.e.t.t.e.e.e.e.e.e.e.e.e.e.e.e.e.e.e.e.e.e.e.e.e.e.e.e.e.e.e.e.e.e.e.e.e.e.e.e.e.e.e.e.e.e.e.e.e.e.e.e.e.e.e.e.e.e.e.e.e.e.e.e.e.e.e.e.e.e.e.e.e.e.e.e.e.e.q.q.q.q.q.q.e.e.e.e.e.e.e.e.e.e.e.e.e.e.e.e.e.e.e.e.e.e.e.e.e.e.e.e.t.e.e.e.e.e.e.e.e.e.e.e.e.e.e.e.e.e.e.e.e.e.e.e.e.e.e.e.e.e.e.e.e.e.e.e.e.e.e.e.e.e.e.e.e.e.e.e.e.e.e.e.e.e.e.e.e.e.e.e.e.e.e.e.e.e.e.e.e.e.e.e.e.e.e.e.e.e.e.e.e.e.e.e.e.e.e.e.t.e.e.e.e.e.e.e.e.e.e.e.e.e.t.e.e.e.e.e.t.t.e.r.r.r.e.e.e.e.e.r.r.r.y.y.e.e.e.e.e.t.t.t.t.t.e.e.t.t.t.t.t.t.e.t.t.t.t.e.e.t.e.e.t.t.t.t.e.e.t.t.t.t.e.e.t.t.t.t.t.t.t.y.y.y.t.t.t.t.y.y.y.y.t.t.t.t.t.t.t.t.u.t.t.t.y.y.y.y.y.y.y.y.y.y.t.t.t.t.t.y.t.t.y.y.y.y.y.y.y.y.y.y.N.t.t.t.t.t.t.t.y.y.N.N.N.N.y.y.y.u.r.r.y.y.y.y.V.i.y.y.y.y.y.y.y.y.y.y.i.i.V.C.C.V.V.C.C.E.E.E.g.g.g.g.",
"e.e.e.e.e.e.e.e.e.e.e.e.t.e.e.e.e.e.e.e.e.e.e.e.e.e.e.e.e.e.e.e.e.e.e.e.e.e.e.e.e.e.e.e.e.e.e.e.e.e.e.e.e.e.e.e.e.e.e.e.e.e.e.e.e.e.e.e.e.e.e.e.e.e.e.e.e.e.e.e.t.t.t.t.t.e.e.t.t.e.e.e.e.e.e.e.e.e.e.e.e.e.e.e.e.e.e.e.e.e.e.e.e.e.e.e.e.e.e.e.e.e.e.e.e.e.e.e.e.e.e.e.e.e.e.e.e.e.e.e.e.e.e.e.e.e.e.e.e.e.e.e.e.e.e.e.e.e.e.e.q.q.q.q.q.q.e.e.e.e.e.e.e.e.e.e.e.e.e.e.e.e.e.e.e.e.e.e.e.e.e.e.e.e.t.e.e.e.e.e.e.e.e.e.e.e.e.e.e.e.e.e.e.e.e.e.e.e.e.e.e.e.e.e.e.e.e.e.e.e.e.e.e.e.e.e.e.e.e.e.e.e.e.e.e.e.e.e.e.e.e.e.e.e.e.e.e.e.e.e.e.e.e.e.e.e.e.e.e.e.e.e.e.e.e.e.e.e.e.e.e.e.e.e.e.e.e.e.e.e.e.e.e.e.e.e.e.e.e.e.e.e.e.e.r.r.r.r.e.e.e.e.e.r.r.r.y.y.e.e.e.e.t.t.t.t.t.t.e.e.t.t.t.t.t.t.e.t.t.t.t.e.e.e.e.e.t.t.t.t.e.e.t.t.t.t.e.e.t.t.t.t.t.t.y.y.y.y.t.t.t.t.y.y.y.y.t.t.t.t.t.t.t.t.t.t.t.t.y.y.y.y.y.y.y.y.y.y.y.t.N.N.N.y.y.y.y.y.y.y.y.y.y.y.y.y.N.t.t.t.t.t.t.t.t.N.N.N.N.N.t.y.y.u.r.r.y.y.y.E.V.V.N.y.y.y.y.y.y.y.y.y.y.i.V.E.i.i.i.i.i.V.V.V.i.i.g.g.",
"e.e.e.e.e.e.e.e.e.e.e.e.e.e.e.e.e.e.e.e.e.e.e.e.e.e.e.e.e.e.e.e.e.e.e.e.e.e.e.e.e.e.e.e.e.e.e.e.e.e.e.e.e.e.e.e.e.e.t.t.t.e.e.e.e.e.e.e.e.e.e.e.e.e.q.q.e.e.e.e.e.e.e.e.e.e.e.e.e.e.e.e.e.e.e.e.e.e.e.e.e.e.e.e.e.e.e.e.e.e.e.e.e.e.e.e.e.e.e.e.e.e.e.e.e.e.e.e.e.e.e.e.e.e.e.e.e.e.e.e.e.e.e.e.e.e.t.t.e.e.e.e.e.e.e.e.e.e.e.e.e.e.e.e.e.e.e.e.e.e.e.e.e.e.e.e.e.e.e.e.e.e.e.e.e.e.e.e.e.e.e.e.e.e.e.e.e.e.e.e.e.e.e.e.e.e.e.e.e.e.e.e.e.e.e.e.e.e.e.e.e.e.e.e.e.e.e.e.e.t.t.t.t.e.e.e.e.e.t.t.e.e.e.e.e.e.e.e.e.e.e.e.e.e.e.e.e.e.t.t.e.e.e.e.e.e.e.e.e.e.e.e.e.e.u.e.e.e.e.e.e.e.e.e.e.e.t.e.e.e.t.t.e.e.e.e.e.e.t.t.t.e.e.e.r.r.e.e.e.e.e.e.e.e.e.r.r.r.r.e.y.t.t.t.t.t.t.t.t.t.t.t.e.e.t.t.e.e.t.t.t.t.e.t.e.t.e.e.e.e.t.t.t.t.t.t.t.t.t.t.e.e.t.e.t.y.y.y.y.t.t.t.t.t.t.t.t.t.t.t.t.t.t.y.t.t.y.N.B.N.y.N.r.y.y.N.N.N.N.N.y.y.y.y.y.y.y.y.y.y.r.r.y.y.y.y.N.N.N.N.N.N.t.t.t.t.t.t.t.t.t.t.t.r.r.y.y.y.y.y.V.i.y.y.y.y.y.I.y.y.y.y.i.i.i.i.i.i.i.i.V.V.V.i.i.y.g.E.",
"e.e.e.e.e.e.e.e.e.e.e.e.e.e.e.e.e.e.e.e.e.e.e.e.e.e.e.e.e.e.e.e.e.e.e.e.e.e.e.e.e.e.e.e.e.e.e.e.e.e.e.e.e.e.e.e.e.e.t.t.t.e.e.e.e.e.e.e.e.e.e.e.e.e.q.q.e.e.e.e.e.e.e.e.e.e.e.e.e.e.e.e.e.e.e.e.e.e.e.e.e.e.e.e.e.e.e.e.e.e.e.e.e.e.e.e.e.e.e.e.e.e.e.e.e.e.e.e.e.e.e.e.e.e.e.e.e.e.e.e.e.e.e.e.e.e.e.t.e.e.e.e.e.e.e.e.e.e.e.e.e.e.e.e.e.e.e.e.e.e.e.e.e.e.e.e.e.e.e.e.e.e.e.e.e.e.e.e.e.e.e.e.e.e.e.e.e.e.e.e.e.e.e.e.e.e.e.e.e.e.e.e.e.e.e.e.e.e.e.e.e.e.e.e.e.e.e.e.e.t.e.t.t.t.e.e.e.e.t.t.e.e.e.e.e.e.e.e.e.e.e.e.e.e.e.e.e.e.t.t.e.e.e.e.e.e.e.e.e.e.e.e.e.e.u.u.e.e.e.e.e.e.e.e.t.e.t.t.e.t.t.t.e.e.e.e.e.e.t.e.e.e.e.e.e.r.e.e.e.e.e.e.e.e.e.r.r.r.r.e.t.t.t.t.t.t.t.t.t.t.t.t.t.t.t.t.e.e.t.t.t.t.e.t.t.t.e.e.e.e.t.t.t.t.t.t.t.t.t.t.e.e.t.e.t.y.y.y.t.t.t.t.y.y.t.t.t.t.t.t.t.t.t.t.t.t.y.N.B.N.y.y.r.r.N.N.N.N.N.N.y.t.t.y.y.y.y.y.y.y.r.y.y.y.y.y.N.N.N.N.N.t.t.t.t.t.t.t.t.t.y.y.y.y.y.y.y.y.i.y.i.y.y.y.y.y.y.y.y.y.y.y.i.i.i.i.V.i.i.i.V.E.V.i.E.E.E.E.",
"e.e.e.e.e.e.e.e.e.e.e.e.e.e.e.e.e.e.e.e.e.e.e.e.e.e.e.e.e.e.e.e.e.e.e.e.e.e.e.e.e.e.e.e.e.e.e.e.e.e.e.e.e.e.e.e.e.e.e.t.e.e.e.e.e.e.e.e.e.e.e.e.e.e.e.e.e.e.e.e.e.e.e.e.t.t.e.e.e.e.e.e.e.e.e.e.e.e.e.e.e.e.e.e.e.e.e.e.e.e.e.e.e.e.e.e.e.e.e.e.e.e.e.e.e.e.e.e.e.e.e.e.e.e.e.e.e.e.e.e.e.e.e.e.e.e.t.t.e.e.e.e.e.e.e.e.e.e.e.e.e.q.q.e.q.q.q.q.e.e.e.e.e.e.e.e.e.e.e.e.e.e.e.e.e.e.e.e.e.e.e.e.e.e.e.e.e.e.e.e.e.e.e.e.e.e.e.e.e.e.e.e.e.e.e.e.e.e.e.e.e.e.e.e.e.e.e.e.e.e.e.t.t.t.e.e.e.e.e.t.e.e.e.e.e.e.e.e.e.e.e.e.e.e.e.e.e.e.t.t.e.e.e.e.e.e.e.e.e.e.e.e.e.u.u.u.e.e.e.e.e.e.e.e.e.e.e.e.e.e.e.e.e.e.e.e.e.e.e.e.e.e.e.e.e.e.e.e.e.e.e.e.e.e.e.e.e.e.r.r.e.e.e.e.e.e.e.e.t.t.t.t.t.e.t.t.t.t.t.t.t.t.t.t.t.t.t.t.t.t.t.t.e.e.e.e.e.e.e.e.e.t.e.e.t.t.y.t.t.t.t.t.t.t.t.t.t.t.t.t.t.t.t.t.e.t.y.N.B.N.y.y.B.B.N.N.N.y.t.t.t.t.t.t.y.t.y.y.y.y.r.y.y.y.y.y.N.N.N.y.y.y.y.y.N.N.N.N.N.N.N.y.y.y.y.y.y.y.y.V.i.y.y.y.y.y.y.y.y.y.y.y.V.V.V.V.C.V.V.V.V.V.V.V.E.E.E.E.",
"e.e.e.e.e.e.e.e.e.e.e.e.e.e.e.e.e.e.e.e.e.e.e.e.e.e.e.e.e.e.e.e.e.e.e.e.e.e.e.e.e.e.e.e.e.e.e.e.e.e.e.e.e.e.e.e.e.e.e.t.e.e.e.e.e.e.e.e.e.t.t.t.e.e.e.e.e.e.e.e.e.e.e.e.t.e.e.e.e.e.e.e.e.e.e.e.e.e.e.e.e.e.e.e.e.e.e.e.e.e.e.e.e.e.e.e.e.e.e.e.e.e.e.e.e.e.e.e.e.e.e.e.e.e.e.e.e.e.e.e.e.e.e.e.e.e.e.e.e.e.t.t.e.e.e.e.e.e.e.e.e.q.q.q.q.q.q.q.e.e.e.e.e.e.e.e.e.e.e.e.e.e.e.e.e.e.e.e.e.e.e.e.e.e.e.e.e.e.e.e.e.e.e.e.e.e.e.e.e.e.e.e.e.e.e.e.e.e.e.e.e.e.e.e.e.e.e.e.e.e.e.e.t.e.e.e.e.e.e.e.e.e.e.e.e.e.e.e.e.e.e.e.e.e.e.e.t.t.t.t.e.e.e.e.e.e.e.e.e.e.e.e.e.e.u.u.e.e.e.e.e.e.e.e.e.e.e.e.e.e.e.e.e.e.e.e.e.e.e.e.e.e.e.e.e.e.e.e.e.e.e.e.e.e.e.e.y.y.r.r.t.t.t.t.t.t.t.t.t.e.t.t.e.e.t.t.t.t.t.t.e.t.t.t.e.t.t.t.t.t.t.e.e.e.e.e.e.e.e.e.t.t.e.t.t.t.t.t.t.t.t.t.t.t.t.t.t.t.t.t.t.t.t.t.e.t.y.N.B.N.y.y.B.B.N.N.y.y.t.t.t.t.t.t.t.t.y.y.t.y.y.y.y.y.y.y.N.N.y.y.y.y.y.y.N.N.N.N.N.B.B.y.N.y.y.y.y.y.i.y.i.y.y.y.y.y.y.y.y.y.y.y.V.V.V.V.C.C.V.V.C.E.E.V.i.E.V.E.",
"e.e.e.e.e.e.e.e.e.e.e.e.e.e.e.e.t.t.t.t.t.t.t.t.e.e.e.e.e.e.e.e.e.e.e.u.e.e.e.e.e.e.e.e.e.e.e.e.e.e.e.e.e.e.e.e.t.t.e.e.e.t.t.t.e.e.e.e.e.e.e.e.e.e.e.e.e.e.e.e.e.e.e.e.t.t.t.e.t.t.t.e.e.e.t.t.e.e.e.e.e.e.e.e.e.e.e.e.e.e.e.e.e.e.e.e.e.e.e.e.e.e.e.e.e.e.e.e.e.e.e.e.e.e.e.e.e.e.e.e.e.e.e.e.e.e.e.e.t.t.t.t.e.e.e.e.e.e.e.e.e.q.e.q.e.e.e.e.e.e.e.e.e.e.e.e.e.e.e.e.e.e.e.e.e.e.e.e.e.e.e.e.e.e.e.e.e.e.e.e.e.e.e.e.e.e.e.e.e.e.e.e.t.e.e.e.e.e.e.e.e.e.e.e.e.e.e.e.e.e.e.e.e.e.e.e.e.e.e.e.e.e.e.e.e.e.e.e.e.e.e.e.e.e.e.e.t.t.t.t.e.e.e.e.e.e.e.e.e.e.e.e.e.e.u.e.e.e.e.e.e.e.e.e.e.e.e.e.e.e.e.e.e.e.e.e.e.e.e.e.e.e.e.e.e.e.e.e.e.e.e.e.t.e.t.t.t.t.t.t.t.t.t.t.t.t.t.t.t.t.t.e.e.t.t.t.e.t.t.t.t.t.t.t.e.t.t.t.t.t.e.e.e.e.e.e.e.e.e.e.t.t.t.t.t.t.t.t.t.t.t.t.t.y.t.t.t.t.t.t.t.t.t.t.e.t.y.N.B.N.y.N.B.B.N.y.y.y.t.t.t.t.t.t.t.t.y.y.y.y.y.y.N.N.N.N.N.N.N.y.y.y.N.N.y.y.N.N.N.N.N.y.N.y.y.y.y.y.y.y.y.y.y.y.y.y.y.y.y.y.i.y.V.V.C.C.C.C.C.V.C.W.W.W.V.V.V.V.",
"e.e.e.e.e.e.e.e.e.e.e.e.e.e.e.e.t.t.t.t.t.t.t.t.e.e.e.e.e.e.e.e.e.e.e.u.e.e.e.e.t.t.e.e.e.e.e.e.e.e.e.e.e.e.e.e.e.t.t.e.e.t.e.t.e.e.e.t.e.t.t.t.e.e.e.e.e.e.e.e.e.e.e.e.t.t.e.e.t.e.t.e.e.t.t.e.e.e.e.e.e.e.e.e.e.e.e.e.e.e.e.e.e.e.e.e.e.e.e.e.e.e.e.e.e.e.e.e.e.e.e.e.e.e.e.e.e.e.e.e.e.e.e.e.e.e.t.e.e.e.t.t.e.e.e.e.e.e.e.e.q.q.e.q.q.e.e.e.e.e.e.e.e.e.e.e.e.e.e.e.e.e.e.e.e.e.e.e.e.e.e.e.e.e.e.e.e.e.e.e.e.e.e.e.e.e.e.e.e.e.e.e.t.e.e.e.e.e.e.e.e.e.e.e.t.e.e.e.e.e.e.e.e.e.e.e.e.e.e.e.e.e.e.e.e.e.e.e.e.e.e.e.e.e.e.e.t.t.t.t.t.e.e.e.e.e.e.e.e.e.e.e.t.t.t.t.t.t.r.r.e.e.e.e.e.e.e.e.e.e.e.e.e.e.e.e.e.e.e.e.e.e.e.e.e.e.e.e.e.e.e.e.e.t.t.t.t.t.t.t.t.t.t.t.t.t.t.t.t.t.e.e.e.e.t.t.t.t.t.t.t.t.t.t.e.t.t.N.y.t.t.e.t.t.t.t.e.e.t.t.t.t.t.t.t.t.t.t.t.t.t.t.e.t.t.t.t.e.t.t.t.t.e.e.e.t.y.N.B.N.N.N.B.r.r.y.y.y.t.t.N.N.N.N.N.N.N.N.y.y.y.N.N.N.N.N.y.N.N.N.N.N.N.N.y.y.N.N.N.B.B.y.N.y.y.y.y.y.y.y.y.y.y.y.y.y.y.y.y.y.i.V.V.V.C.C.C.C.V.V.C.W.W.W.W.E.E.W.",
"e.e.e.e.e.e.e.e.e.e.e.e.e.e.e.e.e.e.e.e.e.e.e.e.e.e.e.e.e.e.e.e.e.e.u.u.t.t.e.e.t.t.t.t.e.e.e.e.e.e.e.e.e.e.e.e.t.e.e.e.e.e.e.e.e.e.e.t.e.t.t.t.t.e.e.e.e.e.e.e.e.e.e.e.e.e.e.e.e.e.e.e.e.e.e.e.e.e.e.e.e.e.e.e.e.e.e.e.e.e.e.e.e.e.e.e.e.e.e.e.e.e.e.e.e.e.e.e.e.e.e.e.e.e.e.e.e.e.e.e.e.e.e.e.e.t.t.t.e.e.e.e.e.e.e.e.e.e.e.e.q.q.q.q.q.q.q.q.e.e.e.e.e.e.e.e.e.e.e.e.e.e.e.e.e.e.e.e.e.e.e.e.e.e.e.e.e.e.e.e.e.e.e.e.e.e.e.e.e.e.t.t.t.t.e.e.e.e.e.e.e.e.e.e.t.e.e.e.e.e.e.e.e.e.t.t.t.t.e.e.e.e.e.e.e.e.e.e.e.e.t.t.t.t.e.e.t.t.t.t.t.t.e.e.e.e.e.e.e.e.r.r.t.t.t.t.r.r.r.r.e.e.e.e.e.e.e.e.e.r.e.e.e.e.e.e.e.e.e.e.e.e.r.r.e.e.t.t.t.t.t.t.t.t.t.t.t.t.t.t.t.t.t.t.t.t.t.t.y.t.e.e.e.e.t.y.t.e.t.t.t.t.t.e.e.e.t.y.y.t.t.e.t.t.t.t.t.t.t.t.t.t.t.t.t.t.t.t.t.t.e.t.t.t.t.t.t.t.t.t.t.t.e.e.r.N.N.N.B.B.B.B.B.B.r.B.N.N.N.N.N.N.N.N.N.N.N.N.y.y.y.N.N.N.N.B.N.N.N.N.N.N.N.N.y.N.N.B.B.N.N.N.N.f.y.y.y.y.y.y.y.y.y.y.y.y.y.y.y.y.y.V.V.V.V.C.C.C.i.V.C.C.W.W.W.W.W.W.",
"e.q.e.q.e.e.e.e.e.q.e.q.e.e.e.e.e.e.e.e.e.e.e.e.e.e.e.e.e.e.e.e.e.e.u.u.e.e.e.e.e.e.e.e.e.e.e.e.e.e.e.e.e.e.e.e.e.e.e.e.e.e.e.e.e.e.e.e.e.u.y.y.r.u.e.e.e.e.e.e.e.e.e.e.e.e.e.e.e.e.e.e.e.e.e.u.u.e.e.e.e.e.e.e.e.e.e.e.e.e.e.e.e.e.e.e.e.e.e.e.e.e.e.e.e.e.e.e.e.e.e.e.e.e.e.e.e.e.e.e.e.e.e.e.e.u.u.u.e.e.e.e.e.e.e.e.e.e.e.e.q.q.q.q.q.q.q.q.q.e.e.e.e.e.e.e.e.e.e.q.e.e.e.e.e.e.e.e.e.e.e.e.e.e.e.e.e.e.e.e.q.q.e.e.e.e.e.e.e.e.e.u.u.u.e.e.e.e.e.e.e.e.e.e.r.r.e.e.e.e.e.e.e.u.e.u.e.u.e.e.e.e.e.e.e.e.e.e.e.e.e.u.e.u.e.u.e.e.e.u.e.u.e.e.e.e.r.e.e.u.r.y.u.u.r.r.r.r.r.r.r.r.r.r.e.r.r.r.r.u.r.u.r.u.r.u.e.u.r.u.r.u.r.e.e.e.e.e.e.u.t.u.e.t.t.t.t.t.t.t.r.e.e.e.e.e.e.e.y.y.e.e.e.e.r.y.r.u.r.r.r.r.u.e.e.e.y.y.y.y.r.e.y.y.y.y.y.y.y.y.y.y.y.y.y.y.y.u.t.t.r.r.r.r.r.r.r.y.r.y.r.y.r.e.e.y.N.B.B.B.B.B.r.r.r.r.B.y.N.N.N.y.y.y.N.y.N.N.y.y.N.N.B.N.B.B.B.B.B.B.B.B.B.B.N.B.B.N.N.N.N.N.I.I.E.N.V.V.V.V.V.V.V.V.N.N.I.E.y.i.i.V.V.V.C.C.C.V.i.i.C.C.C.W.C.C.C.W.",
"q.q.e.e.e.e.e.e.e.e.e.e.e.e.e.e.e.e.e.e.e.e.e.q.e.e.e.e.e.e.e.e.r.e.e.e.e.e.u.u.u.e.e.u.r.r.r.u.e.e.e.e.u.u.u.u.y.u.u.u.u.u.u.u.u.e.e.u.r.y.y.r.u.u.u.u.u.u.u.e.u.u.u.e.e.e.u.w.q.e.e.e.e.e.e.q.e.e.e.e.e.w.e.e.u.u.u.e.e.e.u.w.u.e.e.e.e.e.e.e.u.u.w.u.e.w.w.w.w.w.w.w.w.w.e.e.e.e.e.e.e.u.r.u.r.r.u.u.e.e.e.e.q.e.e.e.e.e.w.w.e.e.q.q.q.e.e.e.e.e.e.e.e.e.e.e.e.e.q.e.u.w.u.u.u.u.u.u.u.u.u.u.u.u.w.w.w.w.w.w.w.w.w.w.w.w.w.w.u.u.u.r.u.u.r.r.w.u.r.y.y.y.r.r.u.u.u.u.u.u.r.u.u.u.u.r.r.r.r.r.e.u.y.r.y.r.u.e.u.u.u.u.u.u.u.u.r.r.r.r.r.r.r.r.u.u.r.r.r.r.y.y.y.y.r.r.y.y.y.r.u.u.u.u.u.u.u.u.y.r.r.r.r.r.y.y.r.u.u.u.u.u.u.u.r.r.r.r.r.r.r.r.y.r.y.y.y.r.u.u.r.r.r.u.u.u.u.u.u.u.r.r.r.r.r.r.r.r.r.u.u.u.u.u.y.y.y.y.y.y.r.r.r.r.y.y.y.r.r.r.y.y.y.y.y.y.y.y.y.y.y.y.y.y.y.r.u.u.r.y.r.y.r.r.y.y.y.y.N.y.y.y.r.r.r.y.B.i.V.V.i.i.i.i.i.i.i.i.V.V.V.V.V.B.V.V.V.V.V.V.V.V.V.B.y.y.i.i.V.V.V.V.i.i.i.i.V.V.V.V.V.V.V.V.V.V.V.V.C.C.C.C.C.C.C.C.C.C.C.C.C.C.C.W.C.C.C.C.",
"u.w.u.w.w.w.w.w.u.w.w.w.w.w.u.w.u.w.u.w.w.w.w.w.u.w.u.w.u.w.u.u.u.u.u.u.u.u.u.u.r.r.r.r.r.r.r.u.u.w.r.r.r.r.r.r.r.r.r.r.w.r.r.w.r.r.w.r.r.a.a.r.r.r.r.r.r.r.r.w.r.r.r.r.r.r.r.y.r.r.r.r.r.y.r.r.r.r.r.r.r.r.r.r.u.u.r.r.r.r.u.u.r.r.r.r.r.r.r.r.r.r.r.r.r.r.r.r.w.w.w.w.w.w.w.w.w.w.w.w.w.w.w.w.w.w.w.w.w.w.w.w.w.w.r.r.r.r.r.r.r.w.w.w.w.w.w.w.w.w.w.w.u.w.u.w.u.r.r.r.r.r.r.r.r.r.r.r.r.r.r.r.r.r.r.r.r.w.r.r.w.w.w.w.r.w.w.r.w.w.w.w.r.r.a.w.w.w.r.r.a.w.w.w.w.w.w.w.r.a.a.a.r.w.r.w.r.w.r.r.w.w.r.r.r.r.w.w.w.r.r.r.r.w.r.w.a.r.r.r.r.r.r.r.w.w.w.r.r.r.r.r.r.r.r.r.r.r.r.r.r.r.r.r.r.r.r.r.a.w.r.w.w.w.r.w.r.w.r.r.r.r.r.r.r.r.r.r.r.r.r.r.w.r.r.r.r.r.w.w.w.w.r.w.r.w.r.w.r.w.r.r.r.w.r.r.w.w.w.w.w.w.w.w.w.w.w.w.r.r.r.r.w.w.w.w.w.w.w.w.r.r.w.w.w.w.w.r.w.r.w.r.r.w.w.w.w.w.w.w.r.w.w.w.w.e.u.u.u.u.r.r.w.w.w.r.r.r.a.a.a.a.a.a.a.a.a.a.a.a.a.a.a.a.a.a.a.a.a.a.a.a.a.a.r.r.r.r.a.r.a.a.a.a.a.a.a.a.r.r.a.a.a.a.Z.Z.Z.Z.a.a.a.a.a.a.p.p.p.p.p.p.p.p.p.p.p.p.p.p.",
"w.w.0.0.0.6.0.6.0.6.0.0.0.0.0.w.0.0.0.6.0.6.0.6.0.6.0.6.0.6.0.0.0.0.0.0.0.0.0.0.0.0.0.0.0.0.0.0.0.0.0.w.0.0.0.0.0.0.0.6.0.6.0.6.0.6.0.6.w.w.w.0.0.0.0.0.0.0.0.0.0.0.w.w.0.w.w.w.w.w.w.w.w.w.w.w.w.s.w.s.w.s.w.w.w.s.w.s.w.s.w.w.w.0.0.0.w.6.6.6.0.6.6.6.0.6.6.6.6.6.6.6.6.6.6.6.6.6.6.6.6.6.6.6.6.6.6.6.6.6.6.6.6.6.w.w.w.w.w.w.s.s.6.6.6.6.w.w.w.w.w.w.0.w.0.w.0.0.0.0.0.0.0.0.0.0.0.0.0.0.0.0.6.6.6.6.6.6.6.6.6.6.6.6.6.6.6.6.s.6.0.6.0.6.0.6.6.6.6.6.6.6.6.6.6.6.6.6.0.0.0.s.0.0.0.6.0.6.6.6.6.6.0.0.0.6.0.6.0.6.0.6.0.6.0.6.6.6.6.6.6.6.6.6.6.6.6.6.6.6.6.6.6.6.6.6.0.6.0.0.6.6.6.6.6.6.6.6.0.6.6.6.6.6.6.6.0.6.0.6.0.6.0.6.6.6.6.6.6.6.6.6.6.6.6.6.6.6.6.6.6.6.6.6.6.6.6.6.6.6.6.6.6.6.6.6.6.6.6.6.6.6.6.7.6.6.6.6.6.6.0.0.6.6.6.6.6.6.6.6.6.6.6.6.6.6.6.6.6.6.6.6.6.6.6.6.7.6.6.6.6.6.6.6.6.6.6.6.6.0.6.6.6.6.6.6.6.6.6.6.6.6.6.6.0.6.0.0.0.0.0.0.6.6.6.6.6.0.0.0.0.0.0.6.6.6.6.6.6.6.6.6.6.6.6.6.6.6.6.6.6.6.6.6.0.0.0.0.s.s.0.0.6.s.s.s.s.s.s.s.s.s.s.s.s.s.s.s.",
"7.7.7.7.7.7.7.7.7.7.7.7.7.7.7.7.7.7.! 7.7.7.7.7.! ! ! ! 7.7.7.7.7.7.7.7.7.7.7.7.7.7.7.7.7.7.7.7.7.7.7.7.7.7.7.7.7.7.7.7.! ! ! ! 7.! ! 7.7.7.7.7.7.7.7.7.! ! 7.7.! ! 7.7.7.7.7.7.7.7.7.7.7.7.7.7.7.*.*.*.*.*.*.7.*.*.*.*.*.*.*.*.7.7.7.! 7.*.*.R 7.7.7.R ! R R ! ! ! ! ! ! ! ! ! R R R *.*.7.7.7.7.7.7.7.7.7.7.7.7.7.7.7.7.7.7.7.7.7.*.*.7.7.7.7.7.7.7.7.7.7.7.7.7.7.7.7.7.7.7.7.7.7.7.7.7.7.7.7.7.*.R R *.R *.*.R R R R R R R R ~ ~ ~ ~ ! ! ! ! R R R R R R R R R R R ! ! ~ ~ 7.~ ~ ~ ~ ! ! ! ! ! ! 7.7.7.7.! ! ! ! ! 7.~ ! ! ! ! ! ! ! ! ! ! ! R R R ! R ! ! ! R R R ! ! ! 7.7.! ! ! ! ! ! ! ! ! ! R R R R ! ! ! ! ! ! ! ! ! ! ! ! ! ! ! R ! ! R R R R R R R R ! ! ! ! ! ! ! R R ! ! ! ! ! ! ! R R R R R R R R R R R R ! ! ! ! ! ! ! ! ! ! ! ! ! R R R R R ! ! R R ! ! R R R R R R R R R R R R R R R ! ! ! ! ! ! ! ! ! ! ! ! ! R R ! ! ! ! ! ! ! ! ! ! ! ! ! ! ! ! ~ ~ ~ ! ! ! ! ! ! R R R R R R R R R R R R R R R ! ! ! ! ~ ! ! ! ! ! ! ! ~ 7.7.7.! ! ! ! ! ! ~ ! ~ 7.",
"T T T T T T T T T T T T R R T T T T T T T T T T T T T T T T T T T T T T T T T T T T T T T T T T T T T T T T T T T T T T T T T T T T T T T T T T T T T T T T T T T T T T T T T T T T R R R R T T T T T T T T T T T T T T T T T T T T T T T T T T T T T T T T T T T T T T T T T T T T T T T T T T T T T T T T T T T T T T T T T T T T T T T T T T T T T T T T T T T T T T T T T T T T T T T T T T T T T T T T T T Y Y Y Y Y Y T T T T Y Y Y Y Y Y T Y Y Y Z Z Z Z Y Y Y Y T T T T Y T T T T T T T T T T T T T T T T T T T T Y Y Y Y Y Y Y Y Y Y Y Y Y Y Y Y Y Y Y T T T T T T T T T T T T T T T T T T Y Y Y Y Y Y T T T T T T T T T T T T T T T T T T Y Y T T T T T T T T T T Y Y Y Y Y T Y T Y T T T T T Y Y Y Y Y Y T T Y Y Y Y Y Y Y Y Y Y Y Y Y Y Y Y T T T T T T T T T T Y Y Y Y Y Y Y Y Y Y Y Y Y Y T T T T T T T T T T Y Y T T T T T T T T T T T T T T T T T T T T T T T T T T T Y Y Y Y Y T T T T T T T T Y Y Y T T T T T T T T T T T T T T T T T T T T T T T T T ",
"Z Z Z Z Z Z Z Z Z Z Z Z Z Z Z Z Z Z Z Z Z Z Z Z Z Z Z Z Z Z Z Z Y Y T T Y Y Y Z T Z Z Z Z Z Z Z Z Z Z Z Z Z Z Z Z Z Z Z Z A Z Z Z Z A Z Z Z Z A A A A A A Z Z Z A A A A Z Z Z Z Z Z Z Y T Z Z Z Z Z Z Z Z Z Z Z Z Z Z Z Z Z Z Z Z Z Z A Z Z A A Z Z Z A A A Z A A A A A A A A A A A Z Z Z Z Z Z Z Z Z Z Z Z Z Z Z Z Z Z Z Z Z Z Z A A A A A A Z A Z A Z Z Z Z Z A Z A A A A A A A A A A A A A A A A A A A A A A B A B A B A A A B B B A A A A A A A A A A A A A Z Z Z A A A A Z A A Z Z Z Z Z Z Z Z Z Z Z Z Z Z A A Z Z Z Z A A A A A A A A A A A A Z Z A A Z Z A A Z Z Z Z Z Z Z Z Z Z Z Z Z Z Z Z A A A A Z Z Z Z Z Z Z Z Z Z Z Z Z Z Z Z Z Z Z Z A A A Z Z Z Z Z Z Z Z Z Z Z Z Z Z Z Z Z Z Z A A A A A A A A Z Z Z Z Z Z Z Z Z A Z Z A A A A Z Z Z Z Z Z Z Z Z Z Z Z Z Z A A Z Z Z Z A A A A A A A A A A A Z A A A A A A A A A A Z Z Z Z Z Z Z Z Y Y Y Y Y Y Z Y Y Y Y Y Y Z Y Y Y Y Z Z Z Z Z Z Z Z Z Z Y Y Z Z Y Y Y Y Y Y Y Y T T T Y Y Y T T T T Y Y Y Y T Y T T ",
"A A A A A A A A A A A A A A A A Z A A A Z A A A A A A A A A A Z Z Z Z Z Z Z Z Z Z Z Z A A A A Z A A A A Z Z A A Z Z A A A A A A A A B B A A A B A A A A A A A A A A A A A A A A A A Z Z Z Z A A A A A A A A A A A A A A A A A A A A A A A A A A A A A A A A A A B B B B B B B B B B A A A A A A A A A A A A A A A A A A A A B B B B B B B B B B B B B B B B B B B B B B B B B B B B B B B B B B A A A B B B B B B B B B B B B B B B B B B B B B B B A A A A B B A A A B B B B B B B B B B B B B A A B B B B B A B A A A A B B B B B B B B B B B B B B B B B A A B B B B B B B B A A A A A A A A B B B B B B B B A A A A A A A A A A A A A A A A A A B A A A A A Z A A A A A A A A A A A A A A A A A A A A A A A A A A A A A A A A A A A A A A A A A A A A A Z Z Z A A A A A A B A A B B B B B B B B B B B B B B B B B B B B B B B B B B B B A A A A A A Z Z Z Z A A A Z A A A A A A A A A A A A A A Z Z Z Z Z Z A A Z Z Z Z Z Z Y Z Y T Y Z Y Z Z Z Y T T Z Y Z Y Z Y Z ",
"A A A A B B B B B B B B B B B B A A A A A B B B B B A A A V V V V V V V V V A A Z Z A B B B A A A A A V V V A A A A A B B B A A B B B B B B B B B B B A A A A A B B B B B B B B B B B A A B B B B B B B A A A A B B B B B B B B B B B B B B B B B B B y y y y y B B B B B B B B y B B B B B B B B B B B B B B y y y y y y y y y B y y y y B B B B B B B B B B B B B B B B B B B B B B B B B B B B B B B B B B B y y y y y y B y y y y B B B B B B B V V V V V B B B B B B V A A B B B B B B y B B B B B B B B B B B B B B B B B B B B B B B B B B B B B B B B B B B B B B y y y B B B B B B B B B B B B B B B B B B B B B B B B B B B B B B B B B B B B B B B A B B B B B B B B B B B B B B B B B B B B B B B B B B B B A A A A A B B B B B B B B B B B B A A A Z A A A B B B B B B B B B B B B B B y y y y y y y y y y y y y y y y B B B B B B A A A A A A A A B B A B A A B B B B B B B B A B A A A A A A A A A A A A A A A A Z Z Z Z Z Z Z Z A Z Z Y Y Y Z Z Z Z Z Z ",
"B B B B B B B y B B B B B B V V V V A A A B B B B B B B B A A V V V V V V A A A V A B B B B A A V V V V V V V V V V A B B B B A B B B B B B B B B B B A V A A B B B B B B B B B y y B B B B B B y u B B A V B u B B B B A V A V V V V B B B B B B u y y y y y y u u B B B B V V B B B V B B V y B B B B y y y y y y y y y y y y u y y y y y B B y B B B y y y y y y y y B B B B B B B B y y B B B u B u B y y y y y y y y y y y e y B B B B B A B B A V V A B B B B B B B B B B B B y B B B B y B B B B B B B B B y B B V V B B B B B B B y y y B B B B B B B B y y y y y y B B B B B B B B B B y y B B B B B B B B B B B B B B B B B B B B y B B B B B B B B B B B A A A B B B B B B A A A A B V B B B B B B B B B B B A A A A A A A A B B B B B B B B B B B B B B B B B B B B B B B B B B B y y y y y y y y y y y y y u u u y B B B y y y B B B B B V Z Z Z A A A A A A B B B B B B B A A A V V A A A V V Z V A A Z Z Z Z A A Z Z Z Z Z Y Y Y Z Z Z Y Y Y Y Y Z Z Z Z ",
"B u B u y y y y y y B u V V V V V V V V V V B u B u B u B u B B B B B B V V V V A B B u y y B B B V V V V V V V V V V B B u B V B u B u B B B u B u B V V u B u B u B u B u y y y u u u u u y y u u u u B V V B B u V V V V V V V V u u V V V V u u u u u u u u u u B B B B u u u u u u u u u u u u u u u y y y y y u u V V V u u u u u y y y y y y y y y y y y y y y u u u u u u u B u u u B u B u u u y y y y y y y y y y y y y y B B B u B B B B B V V V B B u u u u B u B u B u y u B u B y B B B u u u y y y y y u V V V y B u B y y y y y y y y y y y y u y y y y y y y y B u u y y y y y y y B y B u u u B u B u B u B V V V B u u u y u y u u u B u B B B B B B B B B B B u B B A B V B B V B B B V V V V V V B A A A B A A A A B B B B B B B B B B B B B u B V B u B u u u y y y y y y y y y y y y y y y y y u V V V u B u B u B B B B B B V V V V V V V V V V V V A B B B B B A A V V V V V V V V J V V V Z J Z V V V Z V Z V Z Z G G Z V Z G Z G Y G Z Z Z Z ",
"u u u u u y y y u u B i V i V i V i V S V V V V u u V u V u u u u u B u V V V V V V B u u u B u u u V u V i V u V V V V u u V C V i B i V V V i V i V i V u u u u u u u V u u u B u u u u u u u u y u u u u V u u u V u V u V u u u u u u u V u u u u u u u u u u u u u u u u u u u u u u u u u u u u u u u u u u u u V V V V C i i u u u y u y y y y u y V V V u u B i B u u u u u B u u u B u V u u u u y y y e y y y y y y y y u u u u u V V V V V V V V u u u u u u u u u u u u u u u u u u u u u u u u u u u u y y u u u u u u u u y y y y y y y y y y u u u u y y y y y u u u u u u u u u y y u u u u u u u u u u u u V u V u u u u u u u u u u u u u V V V V V V B u B u B u V V V V V V V V V V V V S S V V V V V V V V V V V V V V V V V V V V V V V V V u V u V u u u u u u u u u u u y y y y y y y y u u u u V S V u V V V u V V V V V V V V V V V V V S S S V V V B B u B B V V S S S S V S S S S S S V V V V S V V V V V V Z V Z V V V V V Z Z G G V S Z V ",
"u u u u y y y y u u u i u i u u u u u u V V S S V S S S S S u u V V V V V V V V D S V V B B V u u u i i u u u u i u u u u u u C i i i V V V V V V V V V V i V i u u u u V V S S V u u u u u u u u u y y u u u u u u u u u u u u u u u u u u u u u u u u u u u u u u u u u u u u u u y y y u u u u u u u u u u u u u u V u i u i i u u u u u u u y y u u u u V u u i V V V i u u u u u u i u u u u u u u u u u u y y y y y y y y y u u u V V V V S V V V V V V i u u u u u u u u u u u u u u u u u u u u u u u u u y y y y u u u y y y y y y y y y y y y y u u u u u u u y y u u u u u u u u u u u u u u u y u u y u u u u u u u u u u u u u u u u u u u u u u u V V V u u u u u u u u V u u u u u u V V V S S S S S S S V V V V V V V V V V V V V V V V V V V V u u u u u u u u u u u u u u u u y y y y u u u u u u u V S S V u V V V u u u V V S S S V V V V V V V S V V V V B u u B B V V S S S S S S S S S S S V V V V V V V V V V V V V V V V V V V V V G S V V V V ",
"i i u u u u u u u u u u u u y u u u i i i i i i i i D D D S i i V V V V u u u u u u u u u u u u u u u u u u u u u u y e e e y y u u u u u i u u i i i i i i i i u i i i i i S S i i i u u u u u u u y y y u u u y u u u u u u u e e u u u u u u i u u u u u u u e u u u u u u u u u u u u u u u u u y u y u u u u u y y y y y y e e e e e e e y e e e e e e e y y u u u i u u u y u u u u u u u u u u y y u u u y y y u y y y y u u u u V V V V D V V i i i V V V i i i i u u u i i u u u u u u u u u u u u u i u u y u u u u u u u y y y y u u u u u u u u u u u u u u y y y y i u u u u u i i u u u u u u u u u u u u u u u u u u u u u u u u u u u u u u u u V u u u u u u u u u u u u u u u u u u u V S S S S S S S V V V V V V V u u u V V V V V V V V V V u u u u u u u u u u u u u u u u u u u u u u u u u u u V V V u u i i u u u u u u S S V V V V u u V V V V V V V B u u u V V V V V V u u u S S S S V u u u B V V V S S S S V V V V V V V V V S S S S S S S ",
"D C C i u u i i u u y y y e e y C D C h i u u u u i i i i i u i V u u y y y e e y e y e e e e e e e e e e e e y e e e < < < < e e e e e e y e e u u u u u u u u C i i i i i i u i i C S i i i u u u u u u u y y y u u u u u u u u u u u u u u u i u u u u u u u e u u u u i i u i u u u u u i i u u y y e e u u y y e e e e e e e e < e < e e e < < < < e < < e e e e y y u u y e y u u u u u u y y y y u u u u u u u u i u y u u u u u V C V V V V i i i i V V i i i i i u u u S i u u u u u u i i u u u u u u i u u u u i i i u u u u u u u u u u u u u u u i u u u u y y e e u u u u u u u i u u u u u u i i u u i i i i i u h S S S i i u u u u u u u u u u V i i u u u u u u u u u u u u u u u u u V V S S D S S S V V V V V V V u u u V V V V S S V V V u u u u i i i i i i i i i i i u u V V V V V V V V S V u u V V u u i i u u u u u u S S V V V V u u V V V V V V V V V V V V V V V V u u u u S S S S S V u u V V V V S S S S S V V V V V V V V S S S J J J J ",
"C C i i i i i C i y y e e e e y i i i i i u u u y u u u u u u u y y y y e e e e < < e < < < < < e e e e e e e e e e e < < < < < < < e e e e e e y e e e e e y y u u u u u u u u i i C D D D i i i u u i u i u u u i i i i i i i C h i i i i r u i u u u u u u u u u u u u i i i i i u u y u i i u y e e e e e e e e e e e e e e e e < < < < < < < < < e e e e e e e e e e y y y y u u u i u u y u u u y y e e e y y u i i i i i u u u u C C V u u u u u u u u u u u u u u i i i i i i i i i i u i i i i u u y y u u u i i i i i i u i u i u i i i i i u i u i i u u u y e e e e u u y y y y u u u u u u u i i i i D D D S S S i D D D D D D C i i u u u u i i h D D C i u u u V u u u u u u u u V V i i V V V V D S V S V V V V S S V V u V V V V S S S D S V V V h S S S D D D D D C C C C C C C C C C C V S S D S V V V S S S S h i i u u u u u V V V S V V V V V V S D D D D D S D S S S V V u u u V S S S S S V V V S G G V S S J S S S V u u u u u u S S S D J J J ",
"C i u u u u i i i u y e e e e y u u u u u i u u y y u u u u u u y e e e e e < < < e e e e e e e e e e e e e y y i y y e < < < e e e e e e y e e y y e e e e e e e e e e y u u i i i D D D D C i i i i i C i i u C i D D D D C D D D D D D h i i i u u u i i i u u i i i i i i i u u y e e e e e u y e e e e e e < < < e e e e e i e e e e e < < e e e e y y p y e e e e e u u u u u i i C i u u u u u y y e e e e e y y i i C C V u u u i i u y y y y u u u u u e e y u u i i i i i i V C D C V V i u u u u u u y y y u u u i y u u i u i u i i i i i i i i i i u u u y e e e e e e y e y y y u e y y y y u i i S S D D S S i i D D D D D D C i i i u u i S D D D D S V V V V V V V u u u u u V V V V V i V V V S S V V V V V V S S V i u i V V V S D D D D V V S S D D D D D D D D D D D D D D D D D D D D D D G D V V S J J G D D S h u u u u u V S S S S V u S S S D G D G D G D G D D S S V V V V S S D J J G S V S G G G S S J J J S S V u u u u u u V S J D J G H ",
"D S i u u u u i y u e e e u u u u u u i i i i i u u u u u u u u C u y e y i i i i y y y i i u u i u u e e e u u i i i u i i u u e e u u i i V u C i i i i i i i y u y e e i i i h S i i i i S S h h h h D D D h D D h i D j D h h h D D D j h u u u u h j D h h S D K D D i i u u u e e e e e e e r u u e e e i e e e e e e i u u u u u u e e e u u u u i D D h i u u u r i i i i i i i i i u y e e e e e e e y y y u u C C C V V S D D D i u e e e e u i u u u e e e e u i S i u V V S D D G G D D V V V V V u i u u i i i i i u u u u i i i i i D D D D D i i V i u u V V u u y u u u u u u u e e e y u u u u i S S S S i i S D C D C V V V i u u u V S D J S D V u u S S J J h S S S J J S S S S S S V S S S S S G G G G G D D D S i u u V S S S S D G G G S S S S D D D D S V V S S S S J J G G G G G G G G G G S J J J J J J S S S S S h h S S S S i u V V V S J J J J J J J J D D J S S S S S S S S S S S S S S D G G G S S S u u u i i i u u u u V S S J S J G G ",
"S S h i i u u u u u u u u u u u u u i i h S i h u u u u u S S D D C u C C K K C K D i i j j i r u u u u u i i D i i u u i i i i u u u i C D C C C C C C C C i i u u u e u i i i u u u u i i S S S h h h h h h h h u u u u i i r h h D D D h h u u u h h D D h h D D K D D i i r u u e e e e e e e r u e e e i i i i i t p i i u i i i i i i i i D D i i h D h h u u u i r i i i i c i i i i u e e e e e e e y u u V V V C C C V S S D D D D i r t t i i i C C i i u u u i D D S V V S D G G G G G G G G G D D D i i i i i i i i i i i i i D i i i D D K K K D D D D S V S S S S V V V u u u u u u y y u u i u u u u h h h i i S C C D C V V V S u u u u u V S u S V V V S S S S S S S J J J J S h h V V V S S S S J G G G G J J S S S S i i S D D D S D G D S S S S S D D D S S V V S S S J J J J J J J J G J S J G J J J H H J J S S S h h u h u S S S i i i i u h h S S S S S S S S S S S S S u V S S S S S V V V V S D D S V S V V u i S D D i h u u S S S S S S S G ",
"S S D D i i u u i i i i D h h h S S S S i i S S u V V S S S D D D D D D I I K K K K C i i i r u u u u u i S D D i u u u i C D D i r i i D D D C D D D D K K i i u i u u u i i u u u u u u u i i D S h h h h S h h i u u u i i i i i h D D i i u i i i h D D S i D D D D i i u u u u e e e u u u i i i u u u i D K D C i C C C i D D D D D D D D I D D D S S h h u h h h j j j c i c K D K D i u u e e e e u C C D D D C C C C V D D D D K K c i j i i i C D D D D h i h S S i i S S S S D D G G G G G G G G D D S S D S S i V i D S i S S D D S S D D D K D D D G G D D D D D D D D D V u u i C C i i i i i i u u u i i i i i i C C V D D D D D S V u u u V V V S V S S S S S S S S S S J S S S u u u u i h S S D D D D G G S S u h h h S S D D S S S S S D S S S S S D D D D D G G G G J J J H G G G G J S S S J J S S J J J J J S S V V V S S S S D D D D D D S S S S S S S S J J J J J J S S u S S J G J S S u u S S D D S V S V V V D D D D D D D S S S G G S J J J ",
"h S D D i i u u i C D D D D D D D D S S i i i i V V V S u u S S D D C D D D K C C i i u i r r i i i i i i u u u u u u u C C D D i r i i D D C C C D D D D C i i u u u u u u u u e e e u u u u u D S S D S S h i S h i u u i i i i i i h i h i i i i i i D D h i h h i r u u u u u u u u i h D D D D D D i i i C D D C D K K K K D i i i D D D D D D D D S D D D S S D D j j j c j c K K K K D D i i i u i D D I I I G G C C C V D D D D K K D j K j i i C D D D D D h h i u u u S V V V V S D D D S S D D D S V S S D D D S S V D S S S S S D D D D D D D D C C D D D D i i D D D D D S V i V D i i i i C D D S S S S D D D i i C C D D D D G H H D S S S S S S S S S S S S S S S S S S S S S S u u i i i h S S D D D D S S V V u i h h S S S D S V V S S G G D J D J J D D G G G G J J J J H H H H H H H J J J S S S S J J J J J J S S S S D D S D H H I I I H H D D J J J S S H H H H H J J J S S J D H H D S S S S D G G D S S G D D D D K K I H G G G G J J J H H H ",
"S h h i i i i i D D D D F I H I F D D S S h V V V V V V V V V S D D V V C C C C C C C i i i S S S S i u u u u u u u u i D D D D i i i i C D D C D D D D C i i u u u u u u u u e y y u u u i i i i i D D D D i i u i u u u u i i D D S D D D D D D D S S D D S i u r e e e e e e r h h h h j D D D D D D D i u u i i C D I I I I D i u i i D D D D D D D D D D D D D D D D j j j K j j D D D D D D D D D D D I I I I I D D D D D G G D D K K D D D D i i i S D D D J S S u u u u S S u u u V S S S S h h S S V V V S S S D D D S D J D D D D D D D D i i u i C D D D D h i i D D D D D h i u i D i i i i C D D h D D D D D D C i D D D D D D H I I D S S S S S S D D D D J J S S D D J D D D D D i r i i u u u u i i i S S S V S D D D D S S S D D S S S S D G G J J J J D J G G G G J J J J J H H H H H H G J J S S S S S J J J H H D J D D H H H H I I E I I H H G D D D G G D H H H H J J J J S S J H H H J J S S D F H H J D G G G G D I K I I H G H H H H H G J H H ",
"S h h i i i i i D D D D K F I I D D D D D D D D D V V V G G G G G D D V V C i C D D C i i i h S S S S u i i i i i i C D D K K D i i i C D D G G D D D S S i i i u u u C D i u i i i i i h D D D u i D D D D D i u i i i i S D D D D D D D D D D D D D D D D D D u u e r u u u u j j h h h h h h h D D D D i u u i i C D K K K D D i u i S D D D D D D D D D D D D D D D D D j i U D j j C i i i D D D D D D K K D D D D G I I I G D D D D D D D D h u u u h S S J J J S h u u V V i V u S h S S D S S h S S S S V S S D D D D D J J J J D D D D D i i i i D K I D D D h i h D D D D D D i i i i K K K C D i i i i i i i D D K D D D S i D D H I I H D D D D D S D D D D D J J J D S S i i i i C i i u e e e e e u u u i S D D D D D D D D D D D H D S S S S D J S J J J J J D G G G G J J J J J H H H H H G G J J J J J J J H H H H H G D G H H I I I I I I H G D D S S D H H H H H H H J J J J S S J J H H J D J J F H I I H H H E I I G G K D K H H H H H H H H H H H ",
"D D j j C i i i K D D D i D D D S D D D H I I I G G G G H I E G S S D V C V i i i i i i u u S D D S S u i i S D D D D D K K D D i i C C D G I I G G D S S S S D r i i K K D j i D D j j j j D D u u i D D D D D D D D D D D D H D D D D D D H I D D D D D D S h h r u h h h h r j h h h h h r u i i i i S S i i i i D D D D D D D i u h D D D D D F I L D D D D D i i D D D D i L D j D C i i i i i i i i D D D D D K I K K K K K D D D D D D D D h i u i h h h S J J S h h h S S h S S D D S S D h h u h S S D S D D D G G D D S S J J J D D D i S D D K U U U D D j j j D D D D D D D D D D D K K K K K D j i i u u r i j i i D h i u i D D F I H F D D D D D D D D D D D D D D D i u e y i i i t r p e e e e e r r u i r i i D D D D h h S D D S u u i S D D D J H J D D D G D G G G G J G J G J H H H H H H G J G J J S J H H H G D D D D D G G D G H I H H D D V V D G H H H H H H H J J J J J J J J H H J J J F F H I I I I E E E H G D H D D H H H H H H H H H | ",
"h D D D D D i i K D i u y u u u h S D F I I E E E I G G G E G G u u V i u u u u u u i i i D D H D D S u i i i S D D D D D D D C i i i C C D I I G D S i i h S D u u i K K K D j D D D j j j j j u u u i D D D D K I D D S V D D D D D D D D D H D D D S S h i u h h h h h h h r h h h h h h h h S S i i S S D S i V D D K D D j h u u h D D D D D D F L K D D D i r u i K L D i K D D K K D i j i r r r u i D K K I I I K D D D D D D D D K D D D S h i h h h h S S S S h h S S S D D D D D D D D h u u u h S S D D G G G D D S h h S S S S S D i D D I U U U K D j j j D D D j j j D L L L I U K K K K K K K K i r r r i i y e j i u e e r j D D D D D D D j i D D j h D D F F L D j u e i i K i t t p p p t t t r r e e e e e r u u u u u u u h u u u u D D D F F ..I F D K I D D G H H G G S H H I I I I I I G H D S S S J J H F D S V i S S V i S D I I E I I D C i D D D S H H H H H H H H H F J J H H H H J F D F H I I I H E E E H H H H F F H H H J J J H H H H ",
"D D K D i i i i K C i i u u i i u D I D D I E @.E I I E E G C V u e u u i u e < e u u u u i D H D i i u u u u u e i I -.-.E I I U K D C D I I I G D u u u u u r e e p c U U K i i i i r r i i u e e e i K K K K I K D D D D D h D D D D D D C i i i i i u u i h D j j j D D j h h r h h h r r h D h u u u u i i r i D D D D i i h u u j D D j D D K K D D K K D K i i j K j j j I K K K j j j j j i i j i i K I U K i i D D K D D K L K K K D j u u h h h h h u i h i u u u S D h h D F L L L F D h e r r r h h D D D D D D V u S S J S h h D F S D D U U K K K D j j j i i j j i j D j K U U L U K K c c c D j i r e p p 4 4 e r e e e r j j j r r r j D D D D U -.@.j r L +.-.:.U j r t t i i a t t p p p t t t r 4 4 4 4 e e e e e e r e e e e e u u r j j j j F L L U L I U K K I I H D G D H I I @.I I I I F F D h h h D D I H D D D D D D D S S D H I I I I I I D D D D D J J H H H H H H F F J ..@...F j J D D h j j D S D H J J J F S u D h h h h S J J J F F S ",
"D D K D i i i i K K K K K K D D i D D D D D I I E E -.-.E I I D u e u r D D i u i i C C C D I I D D D h i i C D i D I I E E E -.U U I I I I I K I D i u r h j j i t t c K K K c i i i t i i i i u e e e i i D D C j C D D D D h i j D K K D i e i j D j D j D D L F D D D D h u h r h h h r e u h h u e u u i h u r D D D D i r j u r j D j j j D K K c K K U U K c t i i i i j U K L U K j j j j j c c i r p r t r r t c K K K j L L U U U D i e u u h h h u r r r r r r r j F D j j D L L L L j h r r r r u r D D D D D D D h h h J F F F D D i i C K K i i i c c K c j j j j j K K L L U U K K c c j j j i r r 4 4 4 4 4 p t r 5 4 4 4 r t t r r r t K U -.-.>.>.;.c j X.:.>.:.L t 4 4 , 4 4 t t t p 4 4 p p p 4 4 4 e r r t r e e e r r e e e r 4 4 4 p r t t t t t i i i i i i i j j j D i r i j i i i j j D j j j j D F I F D D D D F F F I L H F I L F D D K D D D j D D D F J J J S S F l h F F L l h r h h h s u r u r u u u e r h r r r r h h h h S J H J F h ",
"K U U K C i C K K U U U U K D D i D D i i i D D D K U E U K K K D j D j K K K K K K K D D D I @.E U I L K K I L I I U K U K U U U U U U I I I K K D D D L L I U K c c c K K K U i i i t t i i t r e < 4 e r u u u r r r j j j h u r j j D j r e i j D j D j D D L F j j j j j h h t h h h r r e h h r r e r i j r i j j D j i r r t r j j j i i i j j j c K U P K c t p p p p i K L L P U c t t 6 5 6 5 4 > > > > > , p i c c c j c L U L L D r r r r h h t r 5 r r r t i j K L L j j j L L L L j j j h t h j K U U U U U L K D h h D F I L D i r r i i i p e e i j j c j j t t j j c c L L L c c j i t t t r e r 4 4 4 p p t i j r 4 4 4 r r 5 > > > 4 t v -.;.;.-.P p 5 j P X.P c r 4 > > + + > > > > > > 4 4 4 r r r r 5 t d t t t t r h h h t r 4 4 4 4 4 p p 4 > > 1 4 4 1 4 p p p t r r e r r r r r i j L j j j j j F L L K D D D D L L L I L I L D j h h i j i r e r e r h h D j h h h h s s h h h r 4 4 r r r r r r r t u r r 5 r t r 5 4 r l L L F F { @.L F h ",
"I I U U K C K U U U U U K C i u i S D i i D K L K U U U U U U U U L U U U U U U U I K K D D I U @.@.@.U U U U K K U U U U K K U X.U U K D D D D C D K I U U U U U K K K K K K U c i i e e t i t e 4 4 4 p p e 4 r r e r r t r t e r e t r i r t i j j j D j D j j h t h j j j h t t t j j r r r t h h h r r h j j j i i i i i i j j j j j j i t t i i c K K P P W b a t p t c K K K K K c t p p 1 > + + + + + > > > 4 6 a c c c c c j j j L L j j j j j t r 4 4 1 4 p d c v L P L j p r j j c j L F l j j j L @.P U X.X.@.L U L j j j F U U D i r e e 4 e , < 4 t d j j i r r 5 4 r d j c P L K j t t t r r r r t r r t i t t p c d 5 5 6 6 4 1 + @ o @ > 4 a c t t 4 1 > 4 5 5 d t 6 4 1 + @ @ + + + + @ @ > 1 4 5 t r r r r d j j j j j j l l j d t p 4 2 p 8 , + o o o o @ @ + > 4 p p 4 4 > 4 4 4 4 4 p d c c j t d j c j j j j j j j j j j j l F j h r r r j j i r e 4 4 r h j j j j h j j r r r r r 4 4 r t h j h t t j j L j d t d v d 5 6 d c X...@.@.@.@...L l ",
"I U U U K C K U E U U U K i u u i D D D D I E @.U U U U U -.-.-.P L U U U U U U U U K K K K U I U P U U U K c i i i K K U U U U @.X.P K K i i i i i K K U U L K U K c K K c c K c c i p p t t t e 4 p 4 p p p 4 i t j j j d r r e r r t j j j j j c L L L L L L j t t t t j t t t d j j j j t t d j j j t h j j i j i j c c c c L L L c c c c c i a c c K b P P a a p , 4 p a K c i t a z a 6 6 4 1 > 1 1 > > 1 > 1 1 p a z n n c c d t j L L L L c j j j t 5 4 1 7 8 z n b b b c t 4 4 4 r r r d d t r 5 r j L L P P P L c c c j j K L L L j t 4 , > , , 4 p t c c c d p 4 4 4 4 4 r t c v P v t r 5 5 5 r r r d t d c v c p 4 6 5 4 6 d z 6 1 > + @ @ + > 4 2 2 1 1 > 1 4 4 1 5 4 4 4 1 + + + 7 2 1 + o o + > 4 6 d d t r d j j j j j j j v c v c z a 8 8 8 8 @ o . . . . o o o + + 2 4 4 1 1 1 4 4 4 4 6 t t t t 5 r t t t 5 r 4 e r r t r r h j j h r r h j L j j h r 5 r h F F L l j j j j j h r 5 5 5 d L P P c j j c L P P P b b W =.b z a a t z c b P P X.P c c ",
"K I U K i i K K E U U K K D D D D F I I U @.@.@.X.P P P P -.-.-.-.X.X.P U P K K K K K K K K U U c L U P U K j t t p p p t i c K c L P U P K j i K c i i a c K P K K K P P K K c K c a t t i i i t t p 4 4 p t i i j L @.X.L h r r t j L ....P L L L L X.L L P X.L L j j j j j j t t j c c j t t j j j j j j j j r t j K P U L c c c c d t t t t t t t a a a a a , , > + > 4 t i i p 4 4 6 6 6 a 2 2 2 7 7 2 + + + @ @ @ + 1 7 6 6 d d d d j j j j j j z d t 6 6 2 2 2 8 a a 8 6 6 4 1 > 4 4 5 r r r r 4 4 4 r d d d z d t 6 t t t t c L K c t 5 4 4 4 4 p t c P P v c d 4 1 > > 1 4 5 5 t d d d r r 5 5 r r h h t r d L P b c t 5 4 5 6 z n z z 6 7 1 2 2 7 6 6 7 2 , > 1 1 4 5 5 1 4 4 1 1 2 6 a 8 7 1 > > 4 6 d z d d d r r r t t r r r d d d c z z 8 8 2 2 2 @ # # . . . o # @ @ @ @ $ 1 2 6 6 6 7 7 6 6 7 4 4 1 1 1 1 1 1 1 4 4 5 r t d h t h j l j j h j l L j h h h t h j L L L F j j j j j h r 5 5 r j X.X.X.P L L P P P P M M M W =.M n 8 2 + 1 6 z z z z d d d ",
"U U U K i e i K U K K K K K K I K I I I E @.U U X.U P b b P P P P P P P b c a a t t i j c j i i t i c c c c t t p 4 4 , , 4 p t r d c U U c i t i t p p t t a c a t t a K c a t a a c a c c a i a a t p 4 t c c t j L X.@.X.l h d j c P X.P L c c c c c c c P P P L c j j j t t e r i c c c j j j j d j j j j d 5 5 r t c c t p 5 6 6 4 4 4 6 6 4 , > , , > , , 2 2 , , 2 a a a t 4 > > > 1 2 2 + + + 2 2 % + + @ o o o o o + + 4 6 d 6 5 5 r 5 t r p 5 6 7 4 1 @ @ @ @ @ + , , 1 1 1 1 4 5 d d c j j t r 5 5 p 5 6 6 6 4 4 6 6 t z c c t 5 6 6 a t c c P P P -.X.P v c t 4 1 1 5 5 5 4 5 t t 5 r r r d j j j j h r r c P P P b z a a a z n n n w a 8 8 6 8 6 7 2 + + + + + $ 5 6 6 0 0 6 6 8 z z a 6 7 6 6 t d z z z d d 5 5 5 5 5 5 5 5 5 5 5 6 6 7 2 , @ # o # # # . . . # @ & & % % 2 2 7 7 1 + + + + + + + + 1 1 1 1 1 1 1 4 5 r t d j j h s j l L F l l l l h r h j h h j c c c j j j j c c j t t d j c L X.P L v L L v c a a 8 8 8 w 8 2 @ o o o @ 2 8 a 6 5 1 1 ",
"I U U K i e e i i i i D D K K L I I @.I U U c i p p 6 7 1 , 1 2 7 6 a z a a a a 4 p p t p 4 , > , 4 4 4 p p 4 4 4 4 4 4 4 p t t p d z c t p 4 , > > > , 4 2 , , > > > > 4 4 , , p t i c K K j t t z z t t z z t p t z n b P b n c c c c v c c d 5 t t t t t z c z t 5 4 4 4 4 > > 4 5 j c c c L c j d j c c j t r 4 1 > 1 1 1 1 1 4 1 > + 1 4 7 1 + @ @ o o + , , @ + + , 8 a p 6 1 + @ @ @ + + + @ + + 2 2 2 2 7 7 2 + + + , 1 4 6 d 6 4 4 4 4 4 4 1 1 > + + o o . . . . o o @ , 1 4 7 6 d v P L L P L c t 6 6 7 6 6 2 4 4 6 z n b b z 7 4 a b W P W -.-.-.-.-.-.-.X.P v d d t d d t 5 p t t r d d j c P c c j j r r j P X.-.-.=.b z 6 6 6 a a n a 8 2 2 2 + + + + @ + + @ + 4 z z b X.b z z z b z a 6 6 6 6 5 5 5 5 s d d d s 4 1 1 1 1 1 1 5 7 2 @ @ o . . . . . . . = . . # & & 2 8 7 2 2 2 $ + + + + 1 4 4 1 1 4 1 1 > 1 1 4 5 5 r r r r 5 5 r j L ....v l L d s j c d d d d d d d c c v P P b v P P P P X.P v c c c c a 7 @ & # # # # . . . . . . . @ @ 2 2 1 + @ ",
"-.@.U j r r t r t j D L L L L F F L F j j t 6 4 @ @ o o o o o . o + , 2 2 2 , , , , @ @ + , , > > 1 4 4 4 4 r r t r r r t t i j j j c c t 6 7 7 7 8 8 8 2 @ @ @ @ + + > 1 4 p t t t i j L U c t d z c n n n n n a a 8 8 8 2 2 2 a a a n n z d 6 1 1 $ + + + + > $ $ + @ @ + + + + 1 5 t t r r r r t d j v j j d d 6 1 + + > 1 > + + + + 4 6 6 6 6 6 7 , @ o o o @ o o + , 2 2 7 1 1 > + + + + + + + 1 1 1 7 6 a b n a 4 + + + + 1 5 d z z t 5 4 4 1 + + o o . . . . . . . . . o o @ + 1 6 d c v L L c c t 6 7 2 , + + 1 2 6 a z M n n a a a n P W W W W W W b c v v v v v v v v P L j t t j j j d c P -.-.@.P v v c P X.@.X.X.X.P z 5 1 + + + + + + + @ o o @ @ o @ + + 1 4 6 6 b b X.X.v c c n n d 4 1 1 4 4 1 4 4 5 5 5 5 6 5 4 1 1 1 1 1 1 1 2 + o . . . . . . . . . . . . # @ & @ % 2 % % @ $ $ $ $ 4 6 6 d d 6 6 4 5 5 4 4 5 5 5 5 6 5 5 3 3 5 d v l l l v c c z z z n z z a a n a a a z n n n z z z c n b P c a a 8 2 + o . =                   = . . o o o @ o o ",
"j i t r r r t h j j h h h h h h r r r 5 r 5 4 > + o o . . o # o . o @ @ , @ @ @ o o o @ , 2 2 7 6 t t t t t t t t r e r r r e t t r 5 4 1 1 1 1 2 2 2 @ @ o . . . o @ 2 7 4 4 4 r r t j U U U c d z z z a 6 2 2 2 2 @ @ @ 2 8 8 8 8 2 8 a z 6 4 + + + + + + + + + $ 1 $ + , , , 1 7 t t t t h h j j j v c v v v t 5 1 > > 1 , + o o o + $ 1 1 $ 1 4 7 1 + @ o o o . . o @ + + $ 1 1 1 1 1 2 7 6 1 4 6 t t t t t c z 6 1 > > > 1 5 5 5 5 6 6 p 6 1 1 + @ o o o . . . . . . . . . o o + 1 1 6 t d t t r 5 4 1 , + o o o o + + 1 2 8 8 8 8 2 8 a a a a a a 8 a 6 7 5 6 d d d d j c c c j t t j j j c c c v P P P P P v c v P c l l d 5 1 + + + + + + + + + + @ + $ $ $ 4 6 z z z z t d z c j d d d t 4 > > > 4 4 4 t t t t p 6 6 5 6 4 1 1 1 1 1 4 2 + o o . . . . . X # . . . . # . . o o o o o o O + + $ 1 6 d z b b v c c c j d d t 5 5 5 3 1 $ 5 q d d 0 5 5 5 5 4 4 2 7 8 8 8 8 8 8 2 , + , 2 2 1 1 1 1 4 5 5 6 6 6 7 2 + o . =                       = . . o o @ % @ ",
"r t t r r r r r j r r r r r r r 4 4 4 4 r t 6 2 1 + o . . . . . . . o @ @ o o o o @ @ 2 8 n n n z z z d d d t t r 5 e r r e r t t 5 1 1 1 1 1 1 + o o o . . . . o + + 1 1 1 4 5 4 4 5 t j c i 5 > 1 1 1 + + o o o o o o o @ @ @ @ @ + , 2 6 4 1 + + + + + + , 1 + 2 8 8 a 8 8 8 n n c c c j j j 5 5 4 5 t d d 5 6 5 5 4 4 4 1 + + + + > 4 4 1 $ 1 4 a a 8 2 , + o . . o + @ + + 4 4 4 6 6 z z n z c n b b n z d b c d t 6 6 t t 5 5 1 1 5 5 t t 5 4 1 + + @ o o . o # @ @ @ @ + + + + + 1 4 5 5 4 4 4 4 > > + @ o o o o o @ + + + + + + + + > > > , > + + > , > 1 4 6 6 t t d c c c j t j c L L c c c c v P X.X.X.c d d g d d d d 5 1 1 1 4 7 7 4 2 2 2 4 4 2 5 5 5 6 d z z 6 7 1 1 4 5 5 4 5 6 z d 6 5 r t j j L L L c c d t t t 5 5 5 5 5 6 d a 6 2 @ o . . . . . . . . . . o o o o o o o + + $ 1 1 4 4 5 t d c j j j F L L P L c d 5 1 1 1 1 5 5 0 5 5 1 1 1 + @ o o O @ O O @ @ @ o o o o + + @ o o + + + + 1 4 7 1 + o o .                       = . . o o , 2 8 6 ",
"c c K c c j j j t r r r t h t r r r 5 5 r t t 6 2 , o . . . . . . o o o o o . . o o o @ + 2 2 2 6 4 4 4 4 5 5 4 4 4 4 r t r r t t r 5 5 4 4 7 2 + + o o o o @ @ 2 % % 2 7 6 6 5 r t d j c v c p + + + + + @ o o o o . . . . . . . . o o + 4 4 4 1 1 1 1 1 2 7 8 8 a n n n n n n W b n z d d d d t 5 5 5 d d d d 5 5 1 1 4 1 1 + 2 2 6 6 6 6 5 1 5 6 z n n n 8 , + + @ + 7 6 6 2 4 4 4 5 6 t z z z z c b P P b c c z t 6 6 6 6 5 1 3 3 5 5 s h d d t 6 6 6 2 % % @ @ , 8 8 8 6 7 7 4 1 1 4 5 5 r 5 5 4 4 1 , , + @ + + o @ + + + o @ o @ @ @ o o + + @ o + > 1 1 4 5 5 6 t t t d j j d t i j K c c v b P P X.X.X.P d 5 5 d j j c t 5 4 4 6 6 a 6 a a a 6 6 5 5 5 1 3 5 6 d 6 1 + + + > 1 1 1 4 6 c c z d p t i j c c c j t t 5 5 5 5 t t d d d d z n n w 8 % @ @ @ @ % % @ @ @ % % 2 2 2 2 6 6 a z x z z d t t d t 5 4 5 t j L @.L c t 5 1 1 1 3 3 5 5 5 5 3 1 1 + @ o . . . . . . . . . . . o @ + + + > 1 4 1 1 4 4 5 7 1 @ o . . =   =         = = . . @ @ 2 2 8 8 6 7 ",
"P P X.X.X.X.U X.X.X.P P X.X.P P j t r 4 4 4 4 7 , , + o o @ @ @ + + + + @ @ o o o o o o o + + + + + > > 1 1 4 4 4 4 t d j t t t t t t 6 5 4 6 6 a 8 7 2 2 8 8 8 8 2 8 a n z 6 4 4 5 r t c b b z 6 7 2 7 2 1 1 1 + + o o o o o o o o o @ > 7 6 t d 6 6 6 6 7 7 7 8 8 8 2 2 8 a 8 8 6 7 1 1 1 1 4 d 6 t d z n n v t 5 1 1 1 1 1 1 6 z n z 6 5 5 5 5 5 t c P P z 6 6 7 7 a n b x 0 6 5 5 6 6 6 6 6 5 t t c P X.P P v d t 5 5 5 4 4 3 3 5 9 5 9 s d d d z z z z a 8 2 2 8 8 a a z z z z d d d d j d j j t t 6 7 2 , 2 2 + + + > 1 1 1 1 1 > + > > > > > > > > 4 6 6 5 4 1 1 1 1 1 1 4 4 4 4 r t c c v v P P P P X.X.v t 4 5 d v P P t 5 1 4 5 t t 6 6 6 t 6 5 5 5 4 1 5 d z z z 6 6 1 > 1 4 2 2 6 a n b b n c t t d c c L c c j d d t d d d d t 6 6 d z b M M n w a 8 8 8 8 6 6 2 2 2 2 6 6 z z z z n v P v v v c c c j h t r j j F j j r 4 1 1 5 5 5 0 d z z d d 6 7 % O o . . . . = = = . . . o @ 2 7 6 z n v c j j d d t 6 1 + o o . . . . . . . # # @ @ 8 8 6 6 6 7 4 1 ",
"P b P P P b P X.d t 5 5 r d d d P c j t 4 4 4 6 a a a 8 8 8 8 8 7 7 7 7 2 2 , + + + + + + 1 2 6 6 6 6 6 t z c b z c P X.X.v c c v v z d 6 6 z n n n a a a a a w 8 % % 2 6 6 6 5 4 4 4 5 t c c t a 6 7 6 a 6 6 z z a 6 7 7 7 7 2 , , , , 7 6 z z z z t 6 7 1 > + + @ o o o + + + + + > > > > 1 1 5 6 6 d x n n n c d 5 4 5 6 t d z b b z 6 5 5 5 5 5 6 c =.-.W n z z z b =.;._ v z z z x x x d 6 d d c v P P v v v c d t 5 5 5 5 5 9 5 5 3 3 5 s d d n b b b b n z z n n n z z z b n v v P X.P P P P P P n z 8 6 7 2 2 2 6 6 0 0 0 6 6 5 4 4 4 4 4 4 4 4 p z c c t 4 1 1 1 1 > + > 4 5 6 t c c c P v c c c P X.-.v d t d v P X.X.c d 6 6 d c z z p t d d d d d d d v X.X.X.b n z 7 1 1 2 2 2 7 a n b M b b v c c L L @.@.@.X.P P X.P c d t d d d d x b M M M n z a 6 6 6 6 6 6 4 4 5 6 d d d d d v v v v P P P L l l L L L F j h L j j t r r d d v v n b b b v n n w 7 O o o X X X X o o O @ 8 8 n b P P P P c l L L c v d 6 4 1 + @ @ @ @ @ @ % % 2 7 8 a z 6 4 1 1 1 4 ",
"b b b z z z n b b n c v v b X.X.=.X.P P c t a c =.=.=.M n n n n n n n z z a a 6 7 7 7 6 6 6 6 6 z z z z z z b P X.=.;.;.-.=.X.=.=.X.P v b b P =.b n a 8 6 8 8 8 % @ o o + 1 6 d c j d d z c c z 6 2 1 7 6 6 6 z b b n z z z z c a 8 7 2 7 6 t z z z z 6 7 > + @ o o o o o + + o + 1 7 7 2 1 4 5 0 z n b b b b b v d 6 t d d j c n z z t 6 6 d d d d j P -.;.-.=.b b b b X.;.X._ X._ _ X.X._ x d c v P P P v c d c d t t 5 t d d l g s 5 5 5 5 d d c n b b b b b b M M =.X.b b b P P P X.-.;.;.-.-.-.-.-.-.W b n z z z z n b b _ v v c d d d d d z c c c b X.X.P c z t 6 6 6 5 4 5 t c c b P P P P v c c c P -.;.-.P v P -.-.X.X.b z d z v P P b c c c c j l j l c v P X.P c a 6 2 , + + + + + 1 2 2 6 6 6 t t d j j j F j j j j ....c j j c X._ X.X.=.X.=.=._ x X._ X.X.X.X.b v d d d v l l g g ..L L ......L l j j L @.@.@.L F U @.@.X.P P ..X.X.X.X.X.X.X.X.X.` b n 8 7 2 2 2 2 % % % 8 n M M -.-.-.P c d r r j l L c j s 5 1 1 $ 2 7 7 7 7 8 a a a z b b z d 6 5 p t ",
"P b b n n b W =.=.=.=.=.=.X.X._ =.-.-.-.P c b =.=.;.=.W M W W W b b b b b b b c c n n n z z z d 4 6 6 4 + + 4 6 =.=.;.,.;.=.-.;.-.=.=.-.-.;.-.=.;.W z 6 2 1 1 $ o @ + + $ 4 6 d v v c d z c b z b a 7 6 6 7 6 z n z t t t t t t a a 7 1 4 4 6 6 z z z z 6 2 , + o @ + @ 2 2 2 $ 1 6 z z a 6 6 6 z b _ X.b n z z z 6 5 t d d d d t 6 1 1 4 6 d d j v P X.-.-.-.@.b X._ v _ X.X._ X.X.X.X.X.v d 5 4 t c v v v c c v v v c c v X.-.+.X.) v v v v v v b b b n b b P b b =.=.=.X.b b X.X.=.-.,.,.,.;.-.;.,.,.;.-.X.b b b n b X.X.X.X.X.X.X.X.P b b b P X.=.=.-.;.-.X.P P b v c c c n z b =.=.=.=.W P P P v c P =.;.,.,.-.-.;.;.;.-.-.n d 6 d c P P P v v c j j r r r 5 5 5 d d 6 2 > + @ o o o . o o @ o + + > 1 4 r t t h h j j t r r d j j c X.-.-.:.;.;.=.;.,.;.=.-.@.-.:.:.:.@.@...X.......L v l v v v ..@.+.@...l L @.+.-.-.@.@.@.-.:.:.@.@.X.@.-.X.X.X.X.=.=.;.=.=.b n n n n b n w a 8 a n b =.=.=.P v r 5 r r r h F l j r 5 5 1 1 3 6 0 0 0 d d d x _ +.-.@.X.P c c c ",
"n z 6 1 > 1 2 2 a z z c n n v b P =.=.P b c b b P =.W b b b W W n z z d t d d z c n b X.b z 6 5 1 1 1 + @ + 1 4 z b =.;.=.=.=.=.=.X.X.X.-.-.=.b b b b z 4 + @ o o @ + + $ 1 6 v d l v b b n z z b n z z z z t 5 5 4 4 4 4 5 p p 4 4 1 1 4 4 6 t z v b c z z a 8 a 8 a n n z 6 2 6 a z a 6 4 4 6 z b _ b z z 6 6 6 6 6 6 t t t 6 4 1 > > 1 5 d d d d c P P v j c v d d g x d 5 5 0 d x ) ) v g x d d d v n z z n v b P P P P X.X.=.X.b b b b b b z z n b =.=.W b =.=.=.-.-.=.=.=.=.=.=.-.;.,.,.;.=.-.;.;.-.P v v c v v ) _ X.-.:.-.X.X.X.;.;.=.X.=.=.-.;.,.;.;.=.=.=.=.P P =.=.=.=.X.b b b b b n c c b b b P =.;.-.=.=.P b b c z 5 4 1 1 1 4 6 6 6 6 t j j h 5 5 5 5 4 4 1 1 > + + + o o o o o o o o + + 1 1 4 r r h u r r r r r 5 s d h l ..X.v v g d v v v v _ X.@.@.@.@.@.:.>.:.:.:.@...) ) ) ..P v ..@.@...v L ..@.+.+.@.@.X.@.@.;.;.;.-.@.X.X.X.X.X.-.;.;.;.=.X.X.b b P P X.c c c c b b X.=.P v c d j j j F j h l l h s s 5 9 5 5 5 s d s 5 g l ) @.@.:.:.:.;.;.X.@.",
"+ + + @ + + + + + + + > 1 1 1 1 4 5 6 6 t t z z z z 6 4 7 6 t t d 6 1 + + 1 5 d 6 6 d d d d d 6 6 6 a 6 6 6 t z b X.=.=.=.;.;.=.=.X.X.X.X.b z 6 1 5 6 6 6 1 + + @ @ $ 2 4 6 d v v ..X.X.X.X.P W =.b b b X.X.X.b P v c d d d j d t 6 6 4 4 4 6 t c b P P b b b n b n n M M b z z 6 a z 6 5 4 4 4 z x b b x b b n z z z z z c c c 6 6 5 5 6 z v P v j d d 5 5 5 r 5 1 1 5 0 5 5 5 0 5 9 0 d d g ) X.b b b b b b X.b n z d d d d d 6 6 6 6 6 a z z n n b =.=.=.=.b z z b b =.=.=.=.;.-.-.-.;.;.,.,.=.=.-.-.X.X.X.....v v v ..X.+.:.@.@...v v n n z z x b b X.X._ b =.-.-.=.-.;.;.,.,.=.=.W b b z z 6 6 t d d z b P X.b b c z z t 6 1 $ + + + + + > 4 5 6 d d d r r 5 5 5 5 6 6 2 4 1 1 1 1 $ + + + $ 1 4 5 6 t d j j h h h h h h s s l L L ..@.X.v 5 5 3 5 5 5 9 d g l L ..@.@.+.:.@.@.@.......@.@.@.X.X.@.X.@.v v X.X.-.;.-.@.@.X.-.@.-.-.-.-.@.@.X.X.X.X.X.-.=.=.@.@.@.....L L L L F l j v v c v c j t r t j F L F F F F F l l l l g g l l l l l { ........@.@.@.:.;.;.:.",
"1 1 1 1 7 6 6 7 + + + > 1 1 $ + 1 1 1 1 6 t t t 4 4 > + + > 1 1 1 1 4 4 5 5 5 5 1 1 4 5 5 5 t t z c b P X.X.P P X.=.=.=.=.;.;.;.;.;.;.,.,.-.b z 4 5 d n b n z 6 6 6 a 0 d d v l l v ..X.=.;.,.,.=.=.b b X.=.-.-.-.X.X.X.X.@.@.X.P P c z t t d c c P =.-.-.-.-.W =.M W =.W b b b n b b n z z z z b b b b b =.=.=.=.=.X.=.=.=.=.=.n n n z z n P X.X.v v d 5 1 1 5 1 1 1 5 d d d d n d d d d g _ -.;.=.X._ b b X.=.X.n 6 4 1 1 1 1 + + + $ 2 7 6 8 w z n M =.=.b n z z z z n b b n W W b b n b M W X.X.X.X.............l g l v ) ) ..v 0 5 5 5 5 4 1 4 7 6 6 d z z b X.X.X.=.;.,.;.=.=.b b b z 6 5 4 4 4 1 1 5 6 z z z a 6 6 6 6 2 5 2 $ $ $ $ + + + + 2 6 6 5 5 5 3 3 5 5 6 6 6 6 6 a z z 0 6 6 6 d d d d v v ............{ { { F l ..@.@.@.X.v d 3 1 1 3 3 5 9 g l l ........) ) l g g g l ) ) ) ) ) X.X.b n x z v b X.X.X.X.X.X.X.X.X.P P P P X.L v c P X.X.X.X...v L L F F l l h h j l l l L P P v d 5 5 r j F ..@.O.@.{ { o.@.+.@.@.O.O.O.O.O.O.O.O.@.....) v @.+.:.>.",
"6 d t 6 6 a z a 7 7 7 6 5 5 1 1 1 1 1 1 4 6 6 6 p p p 4 4 4 t z t z n b v c d 5 5 5 5 5 5 d d n P P =.-.-.=.P n v n n z n _ _ b b P X.;.,.,.-.X.n n n v P X.P b _ b b b n g s r 5 5 r s d n X.=.X.b c d z c n c v X.@.;.:.:.-.X.-.-.-.P P b P P v P -.-.-.;.-.-.=.W P X.P b X.=.X.X.=.X._ b b X.=.=.=._ =.;.,.-.;.=.=.=.=.,.,.;.X.X.b n d d z b =.-.-.X.l d d g d d d v P X.b b X.b n v _ X.X.-.;.=.=.X.b b X.=.=._ z 6 5 5 4 1 2 2 2 % % 2 2 2 2 2 7 6 a z z a z d 6 6 6 6 6 5 z z d 6 6 6 a z n n v v v l l l / k s s s g g g l d 5 1 1 1 $ $ @ + $ $ $ 1 4 6 t d v v v X.X.X.b x z z z a 7 1 5 4 1 $ $ $ 4 5 6 7 2 2 6 7 7 2 7 7 7 7 7 2 2 2 @ @ + $ 1 $ $ $ 1 1 3 6 6 z z z n x x x x x x x x x v l l L ..@.@.@.| ..| ....{ l / ..) v v d 5 3 3 5 5 9 d v X.X.@.....) ) ) / 9 9 9 s d 0 9 3 9 0 d z z d 0 0 6 6 0 z z z z x z z d 6 5 6 t d t d d j l v v v g h s s f f f f h f f k l l F L ..v g s r r h j @.@.+.O.../ ..@.+.@.O.O.&.#.#.*.O.O.O...{ l g g c @.:.>.",
"z v n z n n n n n n n n v d d 9 5 6 6 6 6 6 t t z c L L c c P -.-.=.P c d d d h h d j j v X.-.-.;.-.-.-.-.P c t d d 6 5 d v n n n n b =.;.;.;.-.X.X.P P X.@.-.-.;.=.=.X...c h 5 5 5 1 1 > 1 6 d v v d d d d d d c X.-.-.X.X.v v @.-.-.-.-.X.X.X.P -.-.-.;.;.-.-.-.X.X.X.X.v X.@.@.@.X.X.v v n n b b b b X.=.=.=.=.W M M =.=.=.` =.=.b z 6 5 0 x =.;.;.X.v v v v v c P X.X.=.X.b b z d z b _ b b =.;.=.=.b b b b M b n z 6 6 7 7 7 7 7 % % % @ O @ @ O @ + 1 5 6 6 5 1 1 1 1 1 1 3 5 5 5 1 1 5 6 0 d g l l / l k k k k k s s g l v d 5 5 4 2 $ + O + @ + O + $ 1 1 5 5 9 d d d d d 6 5 5 5 5 2 $ 3 1 1 $ $ $ 2 2 + + + + $ $ 1 $ $ $ $ % 2 % % % O @ O @ O @ O $ 2 5 6 0 z z z z n n x g d g g v v l l l j k l F l l l l F l l f s 9 9 9 9 9 0 5 3 3 5 9 9 9 d v v v ) ) _ _ _ ..l g g d d q 5 3 1 $ 1 5 q 0 6 7 + $ $ $ $ % 2 7 2 1 $ $ $ 1 4 5 5 5 r h j l l l g g s s r s s f f f f s s s s s g d g g j l l F ..@.@.{ l f k / { { { { O.| O.| [ [ { l k h 9 5 g L @.:.",
"d n b P W =.W M -.=.=.=.=.X.) v x n n z 6 5 6 t d c v L c c U -.-.P c d t d j v P P P X.X.X.X.X.-.-.-.-.X.P v d z d d d v X.X.X.X.=.X.=.=.=.X.X.v v v ..@.@.-.-.=.=.=.X.@.@...l l j h r r r z n P P P P P X.X.X.P X.X.X.X.X.X.X.X.@.-.-.-.-.-.-.-.;.;.-.;.;.-.-.X.P P P P l l l ..v v l g d d d d z v n b X.b b n n z z n n n z b M b z 6 6 d z b b v x d d g l d v v P b b b z a 7 1 4 6 z 0 6 b M ` b z a 6 7 7 7 6 7 2 $ $ $ % % $ $ O O X X O O X o @ $ 5 6 0 5 3 1 1 3 3 3 3 3 3 3 1 3 3 3 5 9 s l { { { [ k [ { { / l l v v z 0 6 2 % O O O O O O @ O @ + + 1 3 3 3 5 5 3 5 1 $ + + + + + O O + O $ $ + + @ O @ O @ @ @ O O O O O O O @ O O X X X X O X % 7 7 6 6 6 6 6 6 d d 0 9 9 0 f g l l l k s s s s s s s k l l g f 9 9 3 3 3 5 9 0 d d d 0 0 3 5 9 0 d d v ) ) ) g ) g 0 3 3 3 3 3 1 $ 2 3 7 7 7 % @ @ O O O O @ O $ $ $ 1 5 6 d d d d j l v L ) ) ) l g s s s s s k k k k f s s 9 9 9 d l l l F F F F l k s 9 s f l / { { | | |  .J [ { l l g s s g l ..@.",
"d n b b P W W W =.=.=.=.=.X.v v x x z 0 5 5 5 6 c c c c c c K U c c v v P P ........X.X.P P P v P U X.X.X.P v v c v v l x v v v z z z z d d r 5 5 5 5 r d g l v b b v ..........F ......X.X.=.-.@.@.@.@.@.@.@.@.P v v X.X.-.-.-.X.@.@.-.-.-.-.-.-.-.-.-.-.-.-.P L c c P L l j s l l l g h h d g d v v c z z z 6 8 6 6 7 6 7 7 7 w w z z a 6 6 6 6 6 5 5 5 9 9 5 r d d t t t a 6 7 1 1 1 4 5 2 4 7 8 w 8 7 % + @ @ O + $ $ + O O O O O O O X X O O O O $ 2 6 d d v g 9 9 9 9 0 0 9 3 3 3 3 3 3 3 5 9 s g { {  . .[ [ { { { l l g d 6 5 1 $ $ O O O O O O O O @ @ $ 1 3 3 3 5 3 1 1 1 $ $ + + + $ O $ $ $ $ $ $ O O O O O @ @ @ O O O O O O O O X X X . X X X X O % % 2 2 $ $ $ $ 1 3 3 3 5 9 s f l l l l f s s s k k k / { { / g f 9 9 3 3 9 0 d x x x x d 9 3 3 3 3 5 9 0 0 9 3 9 3 3 3 $ $ $ $ % % 7 7 7 % $ $ O O O O O O X X $ $ % 7 0 z n v c l l l l l l g g g s s s k k k { / { / l g f s 5 9 s g l l l j j j s s 9 9 f g / { | O.O.|  . . . .{ { l l d d g g l l ",
"-.-.=.X.P =.-.;.;.-.-.-.;.-.X.v n v z n v X.-.;.;.X.v L U P U U -.-.-.X.X.X.....L L P P X.X.@.@.X.@.@.@.X.c d r 5 r r 5 5 3 3 1 3 5 5 5 5 5 5 1 5 5 5 5 5 5 s l 0 d d d d s g j l F ..@.@.@.X.....@...L l l j j j j g v @.@.@.....X.L P P P P -.X.X.P P P =.P L l l l ..@...F l s s s s s k l l l v v d 6 4 1 + , + + + + + + O + $ 5 7 2 $ + @ + 1 3 5 9 9 5 1 5 5 5 1 > 1 1 1 1 1 2 7 2 $ + + O % 7 2 % O O o + O + $ 2 2 % O O $ $ $ $ $ $ $ $ $ 3 7 0 g g v l f s s s g l / g 9 5 3 3 9 0 0 9 9 s f / { {  .[ ^ k k l k s 5 1 1 $ + $ % % % % % % % 2 2 2 1 3 5 9 9 s s 9 5 3 5 5 5 1 1 1 5 6 7 0 w 0 7 3 $ O O O + $ $ $ $ $ $ O O O @ O X O O O O O O O O O O $ $ + O + + + $ 1 3 5 9 s f k l l l l k k k { { / ..o...( ( / g f f g d d d z d z x x 0 3 1 $ $ + $ $ 3 3 3 $ 3 7 7 % $ $ $ % % 7 7 % $ $ $ O O O O O O O O O O % 7 6 0 z d d d s s 9 5 5 3 3 3 5 0 f / { o.O.o.o.) l f 9 5 3 5 9 s s g s s s s 9 9 9 g l ) / { o.O.O.| { [ { { ..L l d d 0 d d d d ",
";.;.-.P P =.;.,.;.;.;.;.-.X.c j d d d c v c ..@...@.@.;.:.:.-.@.:.-.@.@.@.@.@.@.@.@.@...@.@.@.X.L L j h h h s s 5 5 5 r 5 5 3 1 1 5 d d h h h s j s s s s s s s 0 3 $ 3 3 5 9 d l g s s g l k s f k k h f l l l l l l F F F F h j j j j z z z z x d 6 6 d d l l l f f k l l l s s s k k { { [ k f s 5 1 $ + + o + @ @ @ O O O $ $ $ O O + $ $ + $ $ 1 5 g v d 5 1 3 3 $ $ 6 8 7 $ $ $ 2 % % $ % % % % 7 % % O O o O O @ % % 2 7 7 7 7 % $ 3 5 3 3 9 q g g ( / / { [ F F F { { { l / / / / / ) ) ) ) v ) ....@.@...{ l s 9 5 5 5 1 2 % % % % % 7 w 8 7 7 6 0 6 0 g f f f l f f s s s 9 9 5 s g g g v ) X.X.v d 5 5 3 3 3 5 9 5 3 3 3 5 5 1 $ $ $ 1 $ 7 7 0 7 7 7 5 5 3 3 5 5 1 $ 3 3 3 3 5 5 s s k k / l l l l / / / ..o.) _ _ ) o.) / g g g d d d 0 6 6 6 5 1 $ $ $ % % % % 7 7 % % % 7 7 7 % % $ $ 3 3 3 3 7 7 0 7 % % % % O O O O O $ % 5 5 3 5 5 5 3 3 3 3 3 $ $ 3 3 9 g / / { / / g 9 5 3 5 1 3 5 9 9 9 5 9 3 3 3 9 g g ) ( ../ / l / / l f l g g d 0 5 5 5 3 3 3 3 ",
"-.=.P v b =.=.;.;.,.;.;.-.X.L c j d r 5 5 5 h j l l L ..@.+.@.@.+.@.O.....O.@.+.@.@...L L @.@.L j h h h f f k k k k / / l l g s s h s s h s s l l l s s s f k l 0 3 3 3 9 q 0 d 0 9 s s l l l k ^ F k k k { { { { F F F F F h r h h r 5 5 5 5 5 5 3 1 3 5 9 s s s s s s s f s s k l l { [ [ ^ ^ s 9 5 3 3 1 4 1 1 + + $ $ $ $ $ 7 3 $ $ 3 5 5 3 3 3 9 d v ) l d 3 7 0 0 w w w 8 % % % % @ % % % % % % % % O O O o o o @ O @ $ 2 7 q 0 3 9 0 g g g g ( ( / / } | O.*.| | | | | { k ^ / { ......) ) ) l g l l l l v l g s 5 1 1 1 1 2 2 % % $ % % 7 7 2 3 5 6 6 5 s f f f k l l f s s s s l l ....X.X.@.+.@...l g g s s f g l g f s 0 9 9 9 9 5 5 0 0 d g v g g g ) x g 0 d 0 0 5 5 5 5 5 5 s s f k k l l l k f g g g g g g g g g g g f 0 5 3 3 3 3 3 1 5 5 5 3 1 $ % % % % % % % % % % % % % % $ $ $ 3 3 7 7 w w w w w 7 8 % % % % $ $ $ % 7 7 3 5 5 5 5 5 9 9 9 3 1 1 1 3 9 9 f 9 s s s 9 5 5 5 3 3 5 9 9 9 9 3 3 3 3 3 3 q g g f f f s s s 9 9 9 3 3 3 $ $ $ $ $ % $ $ ",
"L b b n b =.,.,.;.;.,.:.:.@.@.X.@.X...v l l k s h h l F @.+.@.@.@.O.@.@...@.+.+.O.O.@...........F F F F { { [ [ {  .| O.O.O.O.....F l k k k { { { l k f k k k ( 9 3 3 3 5 9 0 d d 9 s d l l l k { F k k F | O.| { [ F F F F F h h s 5 1 1 1 1 4 $ $ $ 1 5 5 5 9 s s s s s s s s l F { { { [ ^ k k g g g g d z z a 6 7 0 0 0 g x g 0 9 3 0 d g g d d g g g v v g 0 x _ x w w w 7 % O O O X O O O O X O X X X X X X X X X O @ % $ 7 q 0 0 d x ) _ ) ) ) / / / / } | | | |  .{ k k f f f g l l l g g 0 9 3 3 3 5 5 9 9 5 3 1 1 1 1 3 3 3 $ $ O O O $ $ $ 1 3 5 5 9 s f k k / / / l f f l / ..@.@.+.@.@.@.@.@.o.../ ( l l / { { { / / ( g g g l l g g g l ) ) / ( ( ) ( f 9 9 9 9 9 9 9 9 9 s s s f k k k f f f s 9 9 9 3 3 3 3 3 3 9 9 9 9 5 3 3 3 9 5 5 5 9 5 5 3 3 3 3 3 5 3 $ $ $ $ $ $ $ $ $ $ $ $ 1 $ 3 5 q w x 0 7 7 7 7 7 % % % % % % % 3 3 3 3 5 5 3 9 0 d 0 5 1 1 1 3 5 9 5 9 s s s s r r 9 s s s s s 9 9 9 3 3 3 3 3 3 9 9 9 9 9 9 9 9 9 3 3 3 $ $ $ $ $ $ $ $ $ ",
"d d d z b =.;.;.;.;.;.;.:.:.:.+.@.@.......{ l k k f s h F ......O.O.+.*.O.O.+.&.*.*.O.| | *.*.O.O.O.O.*.O.| | [ ^ [  .| O.$.&.&.O.{ k k ^ { | O.}  .{ [ { [ k k 9 3 3 3 9 9 s g g g s f g l ( k ^ J k k F | | O.{ { | O.*.O.| { l l d 5 5 5 6 6 6 6 6 6 d z n v v l l l v v c l l L ..{ { F [ [ { { ../ l l v n 0 6 6 q 0 0 g g x g d d g g v l g x g d d d d 0 w x x 0 % % % % O O X X X X X X X X X X X X X X X X X X X O O % 5 9 0 0 g l ) ) ) / / k k k ( / k ^ [ [ { k f s s 9 9 9 s f 9 9 9 3 3 3 1 3 3 3 5 5 9 9 5 5 9 9 9 9 5 3 $ $ + O $ $ 1 3 9 s g l l ^ / { { ....{ / / / ) ....@.@.../ / / / / / { / / / / } } { / } ^ ^ k { { / k k k k / { ^ k k f 9 9 9 9 9 9 9 9 9 9 s s f f f k f s 9 9 9 9 5 9 3 3 $ $ $ $ 3 9 9 f 9 9 3 3 5 s 0 9 9 s f f f f 9 9 3 3 3 3 1 $ $ $ $ $ 3 3 3 3 3 3 3 $ 3 3 3 5 3 $ $ $ $ $ O X X X % $ % % $ % % 7 7 7 7 0 x x 0 3 3 3 9 9 9 f f f s s s k k k k k k k k k k k f s s 9 9 5 9 9 f f f f f f f f 9 9 3 3 3 3 3 3 3 3 $ ",
"1 3 5 5 0 x x x x v ) _ X.@.@.@...{ l k / { o.O.O.../ / { ..O.O.O.*.&.&.&.&.&.&.*.*.*.|  .| |  .| | | | | | [ [ [ [ [  .O.#.&.&. .^ k k [ | | #.#.O.| |  .[ ^ k f 9 9 f g g g g d 9 5 5 9 9 f k k ^ [ [ [  .| | | | *.#.&.O.| { l l g d d d d z x z z z z b X.=.v l v v v v v c d j F F F F {  . .{ k f s 9 9 s g d 0 g g g g ) / g g g l l l g g d 9 3 3 5 5 3 $ % % $ X O % % O O O O X X X X X X X X X X X X X X X X O @ $ $ 3 5 5 9 0 g g g k k f f f k l { { { { } o.{ / f f f 9 9 f g g f 9 9 0 9 9 9 9 9 f g g l / / ..../ l l g d 9 3 3 5 9 9 s g l l { {  .{ { O.O.{ { l l f s s s g g k k k f k ^ {  .}  .} } ^ ^ ^ ^ [ ^ ^ [ } |  .^ k k k ^ [ k k f f f f f f f f f s f f k / / / / l f 9 9 9 9 9 9 g 0 3 3 3 3 0 0 g g g g 9 3 3 3 9 9 9 f f / / } ( f s 9 9 9 5 5 9 5 5 5 9 s d g g g d 0 9 5 3 3 3 $ $ $ $ $ $ O X X X X X X X X % % % % % 7 w x v d 5 9 s f k k k k k k k k l l F [ [ { { { { { { { { { k k k k f ^ ^ ^ ^ ( / / / / ( f 9 9 9 9 9 9 9 9 ",
"3 3 3 $ 1 3 3 3 3 3 9 0 g g g l l l { o.O.+.#.O.$.O...{ { ..@.O.{ | O.O.O.| |  . . . .J J J J J k J [  .| | [ [ | | [ [ [  .| | [ ^ ^ [ | #.#.#.#.|  .[ [ ^ k k f f g / / g s 9 5 3 3 1 1 5 9 f s k [ [ [ [  . . .| O.#.*.|  .F f f d s 0 9 0 0 0 0 6 5 5 6 z n x g d d 6 5 4 1 4 5 r s h F {  .} [ k f s s s s l d d g g g g / l k k l / l l f 9 5 1 1 $ 3 3 3 $ $ % $ O O O O X X O O O O X X X X X X X X X X X X O O O + $ 3 3 5 5 9 s f f s s s s s f l { o.}  .} } } } / ^ f f f f g / ( ( ( ( / ( ( ( g l / ........o.o.O.{ { / / / g f s g l l l k l { { [ [ [ [ { ^ k k 9 5 3 3 1 3 3 5 9 s s s s k ^ [ |  .^ ^ ^ ^ ^ ^  .[  .| &.&.&.O.| [ [ [ [ ^ ^ k f ^ ^ / / ^ f f f f f k / / / / l f s 9 9 0 0 g ) v g 0 0 0 x ) ) _ _ ) g d s s s f f ^ / / } } / / ^ k l l l g g g g g l l l / v v v l l f 9 5 3 3 3 3 3 3 3 $ % % % O X X X O X X % % $ % 7 0 g g g g l / ^ ^ ^ { } O.O.O.{ { | | | | | | | |  .| | | { { } }  .} } } } } } #.O.o./ / / ( ( / / / / ( ",
"5 3 3 $ $ $ $ $ $ $ 3 3 9 9 9 9 5 s k { { { / k { / l f s s s s l k F F F F F k k [ [ k k k J k k J [  .| | [ [ [ [ ^ ^ k ^ [ [ [ [ [  .| #.#.#.| } { [ [ [ [ / k f k ( l f s s s 9 5 3 3 9 f k k [  .[ [ [ [ [ [  .| | | |  . .f f s 9 9 9 9 9 3 3 3 $ $ $ 1 3 0 9 9 5 1 1 + + 1 1 4 r f F {  .| [ ^ k k k l f s 5 3 3 3 3 5 9 f k k { { / k s 5 5 5 3 3 5 9 9 3 3 3 $ $ $ O O O O O O O X O X X X X X X X X O O O $ $ 1 3 9 0 s f f f k k k f s s s s f k { O.[ ^ ^ ^ [ ^ ^ f f f f f ^ ( ( ( ( / / / ^ ^ ^ ^ } } } { { {  .} ^ ^ ^ ^ [ ^ ^ f / / k k k k {  .[ [ [ [ k k f s 9 9 5 3 3 3 5 9 9 s s k f k ^ [  . .^ ^ ^ ^ ^ ^ | | | #.&.>.>.&.O.} { [ { ^ ^ ^ f ^ ^ ^ / k f f f s s f f k k f f g g g d g g x ) x g 0 0 0 0 g g g g g g g g g g l ( / / / / } } { { { ..) / l l l l l l / / l l l l / / l f 9 9 9 9 9 d d 0 5 3 % % % % % % $ % $ % $ $ 3 3 5 s f l { o.o.}  .O.#.#.&.&.&.O.O.| O.O.O.| | | |  . . . . . .O.#.| } #.#.#.#.%.%.#.#.O.O.| | | o.#.$.%.$.",
"7 7 % $ $ $ $ $ $ $ 3 5 9 9 9 9 s s s 9 5 9 f k @.O.@...l s s s l l k l l l F k k ^ [ ^ [ [  . . . . .| |  .[ k k k k k k ^ {  .[ ^ [ [  .| | | } O.O.O.O.O.O.{ o.{ k f f s f ( / ( f f f f ( / | | #.| | #.| | [  .| | |  . . ./ ^ f f 9 9 9 9 9 9 3 3 $ $ $ 1 $ $ 1 3 3 3 5 5 5 5 5 s F | O.| | [ k k ^ / k f s 9 3 5 5 3 3 9 s f k { { { k s s f g s 5 9 d g g q 3 3 3 3 1 $ 3 2 $ $ $ $ $ $ X X X X O O O O $ $ 5 5 9 g l / { [ [ ^ ^ ^ k f f s s s s k k { ^ ^ k k ^ ^ ^ k f f ^ ^ ^ k f f ^ ^ ^ ^ ^ ^ [ }  . .[ [ [ [  . .^ ^ [ [  .} [ ^ k k k k f k ^  .|  . . .{ [ k k f f s s f f f f k k [ [ [ [  . .|  .^ ^ ^ ^ } | O.O.o.O.$.&.&.&.$.o./ / / ^ f f f ^ / / / l l l g s s s f f f s 9 s g g g g g x g 0 q 5 5 3 3 3 3 3 3 3 3 3 3 3 0 f g k ^ ^ ^ ^ / } ..o.@...../ ) ) ) ) ../ / l / l / { { / k f f f f g l l g g q q q q q q q 0 q 3 3 3 9 9 9 9 9 f { O.$.#.#.#.&.&.&.&.&.&.&.O.{ { { { { { { [ { [ ^ k k [ | O.} } | } #.#.O.} } } | | O.#.%.#.&.&.&.&.",
"w w 7 % O O % % % 7 0 w x g d s g s 5 5 s f f f / ) ) ) v g g g g l ) ) ) ....o./ / { / k k ^ / k k k l { { l k k k F { { { ..O.O.{ ^ ^ { { { l / / l l l l l l / l f 9 9 s f k } o.o.o./ ......#.#.| | | #.#.#.&.| [ [ [ [ J k f ^ ^ ^ f f ^ / ( ( g 9 3 3 3 9 3 9 9 9 9 5 5 9 s k F { |  .| | | [ k k k ^ / / / l l ( l f f k k k k k { { / / / ..@...) ) l g g g f s s 0 s d d d 9 5 3 5 9 3 $ % % 3 3 5 5 5 0 0 9 g l ..o.O.#.#.#.| } ^ ^ ^ ^ k f ^ { { } |  .[ ^ ^ [ [ ^ k k k ^ ^ ^ ^ k f f ^  . .[ [ [ | |  . .[ [ [ [  . .[ [  .| | |  . . .{ k k k ^ { |  . . .[ [ / / ^ ( l l g g f f k F { | } { { { { } } } } } } o.) / g g g l ) X.v g d s g g f 9 s f / ) ..) ) ) ) l l l l g f f / g s 9 3 3 3 3 3 3 3 3 3 3 3 $ 1 $ $ $ 1 3 5 5 9 9 9 s s f f f f f g g g g l g l l l g g g g g l k k F F k ^ ^ k k k l l / l / g f g g g g / / / / / / / / l l l { { O.&.>.&.&.#.#.#.} { } { ^ f f f k k f f f f s s 9 s f { o.} ^ ^ ^ ^ ^ / / ^ ^ / ^ ^  .| #.#.#.&.&.",
"w w 8 % % % % % % 7 w w x x d d l j g g g l l g s 9 9 5 3 3 1 1 1 3 9 g x _ @.+.:.$.$.o.../ / { / l l / ............@.@.+.+.+.&.$.%.+.$.&.+...l s s 5 5 4 5 5 5 5 9 9 5 9 f f k / ..o.o.........}  .[ [ [  .| | O.| | |  .[ J ^ f ^ ^ ^ ^ ^ ^ ^ o.../ ( f f ( ) ( ( / ( l g k k f k { O.O.O.O.#.&.#.#.O.| | o.o.{ / / / / ( / ..{ k k k { { { { O.$.$.@.....o.@...{ { { / l l l s s s f g f f f 0 g g g d d d d v l l l { O.O.O.#.#.#.|  .} { ^ } / / ..O.$.$.$. .[ ^ k [ [ [ k ^ [ [ [ [ [ [ [  .| #.#.#.| #.#.|  . . . .| #.#.|  .| | | | | |  .| |  .^ ^ [ | #.#.*.O.O.| { { ( k k f f f f f l F { { l k k k { / { / / ( l g 0 9 5 5 q q 0 x 7 5 3 3 5 3 5 3 3 9 s g g g v ) v l l v l g g g g f s 9 9 3 3 3 3 3 3 3 3 9 0 0 5 5 4 1 1 1 3 3 1 3 5 9 9 9 9 9 9 9 9 3 5 9 9 3 5 5 9 9 9 9 9 s f k k k [ [ [ ^ ^ k ^ { { ..{ { } / } / / / { } { { } } o.} { / { { { } O.#.O.} ^ [ ^ k f f f s 9 9 9 f 9 9 9 9 s 9 9 9 s f / } } ^ ^ ^ k k k k k k k ^ ^ [  .| | #.#.&.",
"% % % % % % % % % 7 7 0 0 d d d g l l l l l g s 9 9 3 1 $ $ $ $ $ $ 3 3 9 0 g g _ _ _ ) / / ) ) ) ) l l v ) ......@.X.@.@.@.+.$.+.$.:.:.:.@.) g g d 5 5 5 5 t d g g l l / / { / { } o.} / / / ^ ^ k f f f k ^ ^ [  .| | |  . .| ^ } } } ^ ^ ^ ^ ^ / / ^ ( ( ( / o.#.o.o.o.} ....{ } o.O.#.#.&.&.#.#.&.&.&.#.#.O.{ / / / / l / ) / k f k l / { { $.&.&.+...) o.@.} } | } O.....{ l l l ( / / ( ^ ) ) ..@.@.@.......@...| O.O.O.*.| | | | | } { / { / ..o.$.$.$.$.}  .^ ^ [  . .[ | | | | | | O.O.| O.#.#.#.#.#.|  .[ [ [  . .| #.| | |  . . .| O.| O.#.O./ ^ / | O.O.O.O.|  .{ { ^ k ^ f k ^ ( / { { { { l k k f f f g f f 9 5 3 $ $ $ $ $ % % 7 % $ $ $ $ % $ $ 3 3 3 3 3 5 9 0 d d g g g s s s s 9 9 9 9 9 9 9 0 9 5 5 9 0 g g 0 0 6 6 5 5 5 3 1 1 3 5 5 5 5 3 3 3 3 $ 1 3 3 $ $ $ 3 3 3 3 3 9 s s f k J [ ^ k ^ ^ ^ } O.O.O.o.| | #.|  . .| #.#.#.#.#.#.O.|  .{ / k k k ^ k k s f s 9 9 9 9 9 9 9 9 9 9 9 9 9 9 9 9 9 s f f / ^ ^ f f f f f s f f f f k ^ [ [ | | #.#.",
"X O O O O X O % % % % 3 5 5 5 9 s s l / ) / f s s 0 5 3 3 $ $ $ 3 3 3 $ $ $ 3 3 3 3 3 9 9 9 9 0 g d 9 5 5 5 5 5 5 9 d d g g l l ) ) v l l g s 9 0 0 d d z z v v ) ..........o.{ { { } / / / / k ^ k f f f k ^ [ ^  .O.O.O.| | | | } } ^ ^ ^ [  .[ } } } / / / ..O.%.%.o.o.o.o.o.O.O.O.O.O.%.$.$.O.#.&.&.&.O.O.@./ l g g s 0 s g l f f k l l k k o.%.%.O./ ( f k ^ [  .| O.O.O.O.O.../ k k k ^ ^ / / ..o.+.$.+.+.+.+.O.O.O.*.*.O.O.#.O.o...) / ( g g g ) _ _ ) _ ..{ / / { O.O.O.#.#.O.O.O.O.O.#.{ { { ..} } { { [ ^ k k k ^ [ [  .}  . .{ { { O.o.o.o.{ ^ ^ ( ( ^ k k k k k k k k k ^ ^ ( ^ / /  .{ { { l k f s 9 9 9 5 3 3 $ $ $ $ $ $ $ $ O % % $ O $ $ $ $ $ $ $ $ $ $ $ $ 1 3 5 5 s s 9 5 5 9 9 9 f f f g ( / ( g f g d g g 9 0 0 0 0 0 0 0 0 5 5 3 3 3 5 9 3 3 3 3 3 3 5 3 3 3 5 3 9 3 9 9 s f k k k k k ^ [ [ { O.&.>.&.#.| | | | | | #.#.&.&.&.#.#.| [ ^ k k s s s s s 9 9 9 9 9 9 9 s 9 f 0 q q f 0 0 f f 9 f f f f f f ^ f f f s s s s s s f k k ^ [ [  . .} } ",
"O O X O O X O $ $ $ $ $ 3 3 5 5 5 s l / { / l f 9 9 3 3 3 3 3 $ 3 3 3 3 3 3 3 3 3 3 3 3 3 3 3 3 3 3 $ $ $ $ $ $ $ $ 1 $ 1 1 3 5 9 5 5 3 3 3 3 3 1 $ 1 3 5 6 0 0 0 d s 0 s l / / / / ^ ^ { } } } [ [ ^ ^ ^ ^  .| | | O.O.O.O.|  .| } / ^ k k [ [ | } } { / / ..o.#.#.#.#.#.O.o.o.o.../ / / / ....&.&.>.>.&.o./ l g s 9 9 9 5 9 d g g / ....l f f ( ..$.o.{ / k f [  .| O.O.O.O.o.o.{ / l k ^ ^ ^ ^ { { O.&.&.:.$.+.+.+.+.+.&.+.+.+.+.@.@...) g d 9 3 5 9 q q q q g f f g / ..@.@.o...o...) ) / / g d s f g g g g f f s 9 9 f f f k ^ / { / { { ../ k f f f 9 f 9 f k f f f f f f k k ^ ^ ^ ^ ^ ^ k [ { / k s 5 5 9 3 3 $ $ $ $ $ $ $ $ $ $ O O O O O @ O O $ $ $ O % $ $ $ $ $ $ 3 3 5 s s s 5 9 9 9 f f ^ / / ..../ / / l l f f 0 0 9 9 5 9 9 0 d 9 5 5 3 5 5 9 9 9 9 9 9 g g g g g g g g g g f { F F k k ^ [ [  . .| #.&.<.>.&.|  . . .| #.#.#.#.| |  . .[ k f f s s s s s s 9 9 9 9 9 f f f g g g g g l g g ( k f f ^ ( f f f f f f f f f s s k k k ^ [  . .[ [ ^ ^ k ",
"O O X O X X $ % $ $ $ $ $ 3 3 5 s s f ^ / ( ( ( 9 9 9 9 q q 3 3 3 9 9 9 0 f g g s s 0 s 9 9 5 3 $ $ $ 3 3 3 5 5 1 1 1 1 1 1 3 3 3 3 5 3 3 3 3 3 1 $ $ $ $ $ 3 3 5 5 5 3 5 f l / / / ^ ^ { | { [ ^ ^ ^ ^ k ^  .| |  . .| *.#.#.O.$.%.O.O.O.O.| | #.| { k k / o.$.&.#.#.#.#.%.o.o.( f f 9 9 f g l ..o.....l l s 9 5 3 3 3 3 3 9 0 v ) X.+.@.) l ( ( / o.o.o.| | } #.&.&.&.&.%.+.O./ { o.o.%.%.o.| #.O.#.&.&.>.:.+.@.@.@.@.@.+.@.@.) x x d 0 q 5 3 3 $ $ $ % $ % $ 3 3 3 3 0 g x v g g x g g g 9 9 3 3 3 3 3 3 q q 9 9 3 3 3 9 9 f f f g ( l l l l s 9 9 9 9 ( ( ( f k k f f s f f f k ^ ^ ^ ^ ^ k k ^ ^ ^ f s 5 3 5 3 $ $ $ $ $ $ $ O O $ $ O O $ O O O $ $ $ $ $ % % % $ $ $ $ $ 3 3 5 s s s s s f f f ^ ^ / / { ^ ^ / / / / k k f 9 9 3 3 3 5 5 9 9 9 9 9 9 9 9 s f f s f l ) / / ) ) ..../ / { { { [ F k ^ ^ [ [ [ { | #.#.#.#.|  .[ [ | #.| |  . .[ [ [ ^ ^ f f f f f f f 9 9 9 9 9 f f f f f g f f g g f l ( ( k k ^ ^ ^ k k f f f f f f f s k k [ [  .[ [ [ ^ k f s ",
"O X X X % % % 7 7 7 5 3 3 9 9 9 s s f f f ^ / / ( ( f f g g g q 0 f f f g l l g s s f f g f s 9 3 3 3 3 3 7 0 0 0 0 0 d d g d d q 0 g g q 3 9 0 0 0 9 3 3 3 5 5 0 d 0 9 0 g l k / ^ [ [  .|  .k k k k k k ^ { |  .{ { { O.&.&.&.>.:.$.&.&.>.&.&.&.#.{ / / ) @.$.O.O.| | O.O.o.{ l s 9 3 3 5 9 s 9 9 5 5 5 5 5 5 5 3 3 3 5 5 0 x v ) _ _ ) g f f f ( { } o.#.#.#.#.$.&.>.>.>.&.$.@.o.$.>.>.>.>.%.&.#.%.%.O.O...) l g g g g g g d 6 3 1 $ $ $ O @ O O O % @ O O O O $ $ $ % 3 7 7 7 7 7 3 5 3 3 $ $ $ $ $ $ $ $ % $ $ $ $ 3 3 3 9 9 9 0 0 s s s 5 5 5 9 9 f ( ( ( ( / k k f f f k ^ ^ k k k ^ ^ ^ ^ ^ { { ^ k f f 0 9 3 3 3 3 3 $ $ $ $ $ $ $ $ % % 3 3 3 5 3 7 7 q q q 3 % % $ $ 3 5 9 f k k k k ^ ^ ^ / ^ ^ ^ ^ k k k k k k k f f f 9 9 9 9 9 9 s s g g g g g f f k k k l ..@.@.......o...{ / { k F [ [ [ [ [ ^ ^ ^ k k ^ ^ ^ [ [ [ [ ^ [ [ [ [  . . .[ [ [ [ ^ k l l l l g f s 9 9 s g g f 0 f f 9 9 s s s f f ^ k k ^ [ [ [  .^ ^ ^ ^ ^ ^ ^ k k [ [ | |  .[ [ k f s 9 ",
"O $ % $ % q x _ _ ) x g g f f k k k k k ^ ^ } O./ ( f f f g g f f f f f ( ( l k f f f k l s s 9 3 3 3 $ 3 $ 3 3 0 g x ) X.X...) ) ) ) g 0 0 g x g g g 0 q 9 3 3 3 5 9 9 0 f f f f k ^ } #.&.#.| [ {  . .{ } O.&.O.o.{ { O.+.&.&.:.+...o.+.&.&.&.O.{ / g f g g g k k k ^ / { / / ( f 9 3 3 3 5 9 s 5 5 3 5 5 5 5 9 9 0 0 d 0 x x ) v x g 9 3 3 9 9 f ^ } | #.#.} / { @.$.:.>.>.>.$.$.$.>.>.>.>.&.o.} / ^ l f 9 5 3 3 3 3 3 3 3 1 $ $ @ O @ O O o X O O O O O X O O O $ $ % % % $ $ $ $ $ $ % O O O O O $ % % % % 3 3 3 3 3 3 3 3 9 3 3 3 5 5 3 1 1 3 5 9 q ( ( ( / { / / / / { { } / ^ k k k ^ ^ ^ ^ [ { { { { ../ / g g g g 0 q 0 7 5 5 3 3 3 5 0 0 0 0 q 0 0 g 0 q 0 q 3 3 3 9 0 9 f l { / { { ^ / } } } ^ ^ k ^ k f f f f f f f f f f ( ( l / ) ) l l l l / / / / { { { O.$.$.o.o.o.} { ^ ^ k k [  .} | }  .{ ^ ^ k f s s s f f k f f k k ^ [  . .[ ^ ^ ^ ^ ^ ( l l l l l l g g f g ) ) g f f 9 9 5 9 9 9 9 s k f k ^  . .| | #.} | #.#.O.} } { | #.#.#.|  .[ f f f f ",
"0 7 3 3 g ) ) ) / / / o.O.O.O.O.O.}  .} O.&.&.&.O.} / / / / ..o.( k k k ^ ^ k f f k k k l k h s d 0 9 0 d f s 9 g / ....@.$.$.@.) o.o.) o.+.@.( / ) ....( f f f s s 9 5 5 9 9 5 9 s f { #.&.&.O.|  . .{ { } $.>.$.O.O.@.+.:.+.@...( f k / / k f 9 5 3 1 3 3 3 3 5 9 9 f f ( / / ( f 5 1 1 3 5 0 g g s s s 0 9 0 0 q q q q 0 0 g 0 0 9 3 3 3 3 3 9 9 f ^ ^ ^ f f f 9 9 9 f l ) ) ..) / / / o.#.%./ / k f 9 9 9 3 3 3 1 1 1 3 3 3 $ $ $ $ O O O O O O O O O O O O X X O X $ $ $ $ % $ % % X X X X % X X X O $ $ $ $ $ 3 3 3 $ 3 3 3 3 1 3 3 5 3 $ $ 1 3 3 9 9 9 f f l ) ....) ....../ l k s s k { ^ / } o.O.#.%.%.%.o./ ) ) / ( ( _ _ ) ( g f f f ( ( ( ( k k k f 9 q q q g g g g g g l l / { { { k ( ....o.} / ^ ^ ^ f f f f f f ^ ^ ^ / { { ..o.o.{ { { O.O.O.O.O.$.O.} o.&.>.$.%.O.o.{ { ^ [ [ [ | #.&.&.#.O.o.} / f s f l l l l k f k k k k k ^ [ [ [ [ ^ k k f s s f g ( l g 9 f g / ..../ ( f f 9 9 f f f f k ( { O.O.&.>.<.<.&.&.>.>.>.$.O.#.&.&.>.&.#.| } ../ / g ",
"x g g g g g ( ( f ^ / { o.O.O.&.&.O.O.O.O.&.&.&.} { k k k / { o.} { } / ^ f f f 9 s s k k l l l @.X...) ) / / ( ( } ....o.$.$.+.$.>.:.+.$.>.&.O.o.o.o.o.o.} { { / l l s s s 9 5 9 s f / o.o.{ f f f s s s k { o.o.o...@.+.:.@.../ k f f f ^ f f 9 9 3 3 3 3 3 $ 9 9 9 s f ( ( / f f 9 9 9 s g g s 0 9 5 5 3 3 3 3 3 3 3 3 3 3 3 3 3 3 3 3 3 9 9 ( ( f f f f f f 9 9 5 3 9 9 9 9 0 9 9 9 9 9 f ( f f f f f g g s s 9 9 9 9 9 9 9 3 3 $ $ $ $ $ $ $ $ $ $ O O O O O X X X O % % $ % % % % X X X X X $ % % % $ $ $ 3 3 0 g g 9 3 9 0 9 3 3 3 3 3 3 5 3 3 3 9 9 f g l l g l l / / g / l g k s s h k { } O.#.&.&.&.&.&.%.} } } } ..o.o.@.@._ ) ( / ( / / } }  .[ [ [ f f f f ( ( / / / / / { ..O.O.O.k / ..o.o.} O.O.[ ^ ^ ^ } / ^ ^ ^ ^  .} O.O.%.O.O.O.O.&.&.>.>.&.&.&.&.%.$.>.>.&.&.&.#.#.#.|  . .| #.#.#.#.| } { { / l l l F ....l l k l [ [ [ [  . . .[ [ ^ k s 9 9 9 s f f l k l f f f f ( ( ( ^ ^ ^ ^ { } { { o.O.O.#.#.#.&.&.&.$.#.%.$.$.%.%.o.%.$.$.#.o.} { o.o.o...",
"g x ) g g f f ( / / ....{ { ..o.$.$.&.+.O.o.{ { k f s 9 s f k l f ( / / ^ f ( { / / / l l l l ..v ) ......) / / / ......o.>.>.>.>.>.:.+.$.>.&.O.....o.o.O.o...{ / ........../ k l / { { { { / f k k f f f f / { } ) ..$.$.:.$.@.../ ( ( ( ( ( f ( g 0 9 3 9 3 $ 3 3 9 9 9 f f f f f f f g l l g 9 5 5 3 1 1 $ $ $ $ 1 3 5 5 3 3 5 9 9 9 9 d l ) o./ / ( ( f f f f q 9 9 9 3 3 3 3 3 3 3 3 3 9 9 f f s 9 9 s s 9 9 9 0 0 s s g g g x 0 0 0 q q q 7 7 3 3 3 3 3 3 % $ O O O $ $ $ $ % $ % O X X X O O $ $ 7 0 0 g 0 g ) @.X.) x x x g 0 0 q q 0 d 0 0 q q q g g g l g 0 9 9 0 0 0 0 9 s s s s s s { { O.$.&.&.&.&.>.%.#.| } / } ..@.%.$.%.../ ( ^ ^ ^ } | | | | | } / / / / / / { k k k { ..O.O.+.} | | {  . .| |  .[ [  .#.%.#.#.#.| | #.#.$.$.$.{ ..o.$.>.>.>.>.&.>.&.#.O.#.#.#.#.&.&.&.&.#.#.| #.#.#.#.#.|  .{ k k k k k l l F { { { | O.#.#.#.#.#.#.#.#.O. .{ k / { o.o.O.%.%.o.{ k f f f k ^ ^ ^ ^ } #.#.&.#.&.&.&.&.&.&.&.#.o.^ ^ ^ ^ ^ ^ ^ k ^ ^ ^ f f f k ^ { } o.",
"0 g g g f s f f } ..o.{ l k k l { o.+.$.O...k f f s s f f f f f 9 f / / ....$.$.&.+.o...........l ..@.+.@.../ l ( / / / ..+.$.$.+.:.:.+.@.@.O.@./ / { ..../ k s 9 s l l / ....l / / / f f f f f k k k k f k / { f ( / o.$.%.%.$.$.$.$.o./ ( ( ( / / / g g g g g 9 f f f f f f f f g / / ) / l l g d s 9 5 9 5 6 6 0 z x v _ _ _ _ _ x x g g v ) v / / / ( ( f f 9 3 3 3 3 3 3 1 3 9 q 0 g g g g f f f f g g g g d g g l g g / ) _ _ ) ) x x x g g g g g g g g g x 0 5 $ $ 3 3 3 $ $ $ $ $ $ $ % 3 3 1 1 3 3 9 0 3 9 d g x d d g g g g g x x x x x x g x x g g g g 9 3 3 $ 3 3 3 3 3 5 s s s s s k ^ { } O.O.O.O.#.#.%.O.O.} } } o.$.$.%.} ( ^ ^ ^ ^  . .| | | | #.|  . .[ ^ [ ^ k k k [  .O.O.O. . .[ [ k [ [ { k k k ^ { o.O.O.%.o.} } o.o.@.o.) / / @.$.>.>.&.$.&.$.} / { }  .| | #.&.&.&.#.| | | | | |  .[ [ k f f f f f k l F {  .| | #.#.#.| | | | #.O.|  .O.#.&.&.&.&.&.&.&.#.| ^ ^ ^ k ^ ^ ^ [ | #.&.&.&.<.>.&.&.&.&.&.&.| ^ f f f f 9 9 9 9 9 9 9 9 9 9 s f ^ { ",
"g g g f f f f f k ^ / k f s f k s k { ..../ l l s l / ..@.@.../ ) ..@.@.$.$.>.>.$.@./ { @.+.+.@.@.:.:.:.@./ k f k k f f k / / l ..@.:.+.O...@.+...../ l k f s 9 s s l l l ..{ l k { { k k k ^ / f s k k / { ..../ / / #.%.%.%.&.$.:.:.$.o./ ( ( / ) ) / g ( @.$.o.o...} / ..o.o...o.$.o.) / ) ) ..) ) ) _ _ X.X.;.;.;.;.;.;.;.;.;.=._ v d d g g g l l l / ( ( l g 0 q q 0 x x d x x _ @.@.@._ ) ......o.+.+.+.@.+.+.:.+.@.....o.) ) ) / / ( ( ( g ( / ) ) o.@.@.+.@.) g g g g g g 0 9 0 g 0 7 q 5 9 0 d d 0 9 9 0 9 9 9 9 5 5 9 3 3 q q q 0 0 0 x g g x x x g g 0 9 9 3 $ $ $ 3 3 3 3 9 9 9 9 s l l k k k k F ^ } } | #.#.#.#.#.O.#.#.O. . . .| |  . .[ [  . . . . .[ [ [ [ [ [ k k k f f s s s k f s s k ^ / l k l / / / ) ....) ) ) ) @.+.+.@.) ) ) _ @.@.o...@.@...k f f k ^ ^ } | #.#.#.| | | | O.O.O.|  .{ k k s s k k F k { ^ {  . .|  . .^ ^ ^ [ o.O.O.O.&.&.>.>.>.>.&.&.&.#.#.| [ [ [ [  . . .| | #.#.&.>.&.$.%.%.#.#.#. .^ f ^ ^ f f f 9 f f s 9 9 9 9 s f k k ",
"( ( ( / ..o.o.o.^ ^ / k k f k k s s f f f f k k f l ..+.:.:.+.o.+.+.+.$.:.>.>.>.+...{ ..$.>.>.:.>.>.:.+.../ { { { / ^ k k f s s s l ....l l { O.O.{ k s s s s s k l / { { ....{ / o.O.O.O.O.O.O.........{ ..{ / o.} } %.%.%.%.&.$.:.:.:.@.o.o...o.@.o./ f l / ..o.} / f k ( o.%.>.>.>.$...l / ....) ....X.+.-.;.:.:.:.:.:.:.:.:.:.;.-.X._ v ) ......{ { { o.O.O.@.@._ X.@.;.;.;._ @.:.:.:.:.:.$.$.%.%.&.$.+.@...+.+.+.+.O.o.....( ( ( ( ( ( ( ( ( ( / o.#.$.%.%.%.+.o./ / l l l g 0 0 g x g g g s s s l l ) ....../ l l g h h g 0 9 3 3 3 9 g g g g 9 9 9 0 0 d l ) ) ) g q q q g 9 9 9 9 9 s s s s s f f k { { O.}  .} } } } | ^ ^ [ ^ ^ [  .|  . .[ [  . .*.*.| |  . . . . . .k f f f f f f f k s s s f g g g x ) _ _ _ _ x x w w w x _ x w w 0 0 0 w x x g 0 x g g 9 9 9 9 f ( ( / / } } } / { { ....o.{ l k s 9 5 5 s f k f l ^ k ( ^ ^ ^ ^ ^ k k ( ..O.+.+.>.>.>.>.>.>.>.>.&.#.O.{ [ [ | #.#.| } ^ ^ / / / l g f f g / ) o.( ( ( ( ( ( g g g x _ _ x x x w x g g g ",
"^ ^ } | #.#.#.#.}  . . .{ { { { { ^ k k k k k k k / { @.o.@.o..._ _ ..@.:.>.>.>.&.$.%.$.$.&.&.&.>.>.>.&.+.$.#.&.}  . .{ [ k f s 5 r s s s s s l l ^ k k k k k k k k l l { { { { k { | | | | O.O.&.+.O.o.{ ( f s f f ( / / / / ..+.:.:.:.+.@.@.@.$.$.o./ f f f f f f k f f ^ { O.&.$.O.{ l f l l s f k l v ..@.+.:.:.+.+.+.:.:.:.>.>.:.:.:.+.+.$.&.$.O.O.O.O.#.&.O.@.@.@.+.+.+.@.+.+.+.$.$.$.$.%.#.O.O.O.O.{ k k k k ^ { { { / ^ k k k ^ ^ ^ / / ^ / } #.#.#.#.#.O.| } { / ( f f 9 3 3 q ( g ( ) +.O.{ F l { ..O./ l l F F F L ..o./ ^ f f l l / g f 9 9 s g l l o.@.$.$.$.@._ ) ) g f f f s s s s s s s s k { o.o.{ / / / ^ f f f f f k ^ ^ [ [ [ [ [  . .*.#.*.#.#.| |  . . .[ [ ^ ^ / { o.o.o.) ) _ ) x w w w w w w w m m w & & & & & & & & & m & & & & & % % 7 7 7 7 7 7 3 3 q 0 g g g g g g 9 5 5 5 0 5 3 3 5 3 1 3 5 5 9 9 5 5 9 9 9 9 9 9 f s s g v _ X.;.:.;.;.;.;.:.@.+.+.@.../ l ( ..o.@.../ g g 0 0 0 q q 7 0 w x _ ` ;._ _ ` _ _ _ ` ` ` ' ' ' ` ] ` ` ` ` ` ",
"^ ^ } | |  .^ k [ [ [ [  .| O.O.} { { o.#.$.O.o.{ { { ) ) ) / / ) ) ) @.$.>.>.>.$.&.&.&.$.$.#.$.+.+.+.O.O.} {  .[ [ [  . .^ k s s s s 5 5 5 r s s k { O.O.| {  .O.O.O.O.O.O.O. .[ { { ^ ^  .| O.&.&.&.+.O.o./ g f f g ) o._ _ @.X.X._ _ _ _ _ _ @.o.) / ( / k s s k { o.o.O.O.#.O...k s 9 9 5 s 9 s s s l l ) ..:.:.+.@.@.@.+.+.>.>.>.&.+.+.O.+.&.&.&.#.#.| | | #.O.O.&.&.&.+.+.O...{ { {  . . .[ ^ [  .| { ^ ^ k k k k ^ ^ k f s s f k ^ ^ ^ ^ { | #.#.#.#.#.| | | } } / ( g q g 9 3 g ) g g / l [  .O.O.O.O.O.k k { +.>.>.>.>.&.#.O.O.O.o.{ / ../ l l ............@.$.:.:.:.+.) / g g g g g l ..l s 5 5 5 s g v l / ) ../ f 9 k ^ ^ ^ { } [ ^ [  . . . . .|  .[ [ { / { { / / l f f f g g g g ` ` ' ` ` m N ] m * * * * N N * * * * & * N 1.2.2.1.* & # # & & & & & & 8 & & % % % % 8 w w 0 0 w w 8 8 w w w 8 7 8 w w w w w w 6 0 0 w x x x x x x x n M =.,.,.,.,.,.,.,.,.,.` ` ` _ x x x x _ _ _ _ n w w w w M M ` m m m ] ' ` ` ` ` ` ` M ] ' ' 1.1.1.1.1.1.1.' ' ' ",
" .^ ^ ^ ^ f f f f k k k k { O.O.O.O.$.$.$.$.@...../ g 9 3 3 3 5 3 3 3 9 l ..o.) / / / ( f f s s s s 9 9 s f f s f f f f ^ / { { ........l k k k k { { o.o.o.} } o.&.&.O.O.o.{ { { ^ { ^ k k f / / $.O.&.&.@.+.) v 0 =.,.n _ ,.` ,.,.,.` ` ` ` ;.;._ x g _ @.@...+.@...{ ....{ / { l s 5 5 5 s g s l / ......@.@.:.+.+.+.@.O.....&.$.$.O.O.{ { [ | O.#.| | | [ [ | | | O.O.#.&.{ { { [ [ [ [ k k k k k [ [ [ [ [ [ k k ^ ^ ^ { { / / / { { ..o.o.O.#.&.#.#.O.| } { / ^ ( g q g ) g _ _ x q q _ _ @.&.O.&.$.o.O...o.@.$.:.>.>.>.>.&.O.| | O.*.O.{ ..O.-.@.+.>.>.+.@.o.o.@.+.@.@._ _ _ _ _ _ _ _ ..) ) x x z x _ =.=.@._ @.@.) g _ f f ( / o.$.%.%.O.o.o.....o.o...o.o.../ ) ) ) ) x _ _ x n w 0 w ' 1.1.1.1.2.4.4.4.`.`.#X%X%X*X`.`.`.`.`.#X%X%X%X%X%X%X4.5.1.1.N * & * N 1.N * # # & & & & # # # # # # & & & & & & & & & & & & & & & 8 w 8 w w w w w m m M M ' ' 1.' N N N N N m m m & & & & & 8 w m ] ' N m N N 1.1.1.1.1.' 1.1.1.1.1.2.2.2.3.4.4.4.#X#X`.`.#X#X%X%X%X%X",
" ./ } } } { / / { o.@.../ ..o.@.o.@.@...) g g g x g g 0 3 $ $ $ $ $ $ 3 0 x x ) ) ) g g 0 9 9 9 5 5 9 s g l ( ( ( ( / ( / ( ( l ) ..@.@...) ..........o.@.@.@...@.$.+.....@.+.:...l ..) l g s ../ / g X.) _ ,.;.,.` ' ` m ' 2.M m m m M ` ` ` m w w n w 0 0 d v v X.X.@.@.@.X...) ) ) _ X.X.=.=.X.@.+.+.:.:.:.:.:.:.:.:.:.+.+.@.@.+.$.+.o./ ( k ^ ^ { { { ^ ^ k ^  .| O.O.&.&.| { { k k F F F ^ / k k / { / { { { ( k f l l { ..:.:.:.+.+.+.:.$.>.>.>.>.+.o./ / o.) _ _ _ w q 7 w w w w w w w w v o.) X._ ) ;.:.;.;.:.:.:.:.;.+...{ { { | @.| ..@.:.>.:.:.:.:.@.@.+.+.;.;.` _ _ _ _ ` ,.:.,.;.,.;.` ` ` ,.,.` ` M ` ` n n n _ ` ` ` ;.;.;.;.;.` _ _ _ x x x x x _ _ ` ` ` ` ` n w w w & & & & m 1.5.%X-X-X*X&X&X&X&X*X&X&X*X&X*X*X*X&X&X*X*X*X$X*X*X&X&X&X&X&X*X*X%X#X%X%X%X`.4.`.`.4.5.2.1.1.1.1.Q N * N N * * N Q 1.1.1.1.1.1.1.1.1.2.2.2.2.2.1.1.2.2.2.2.2.2.3.3.3.3.3.3.3.2.2.2.2.2.1.2.2.2.4.(.#X%X%X%X%X%X%X*X-X-X-X%X%X-X%X%X%X-X-X-X-X&X=X;XxXkXkXkXxXxXxXkX&XqX",
"( ( ) ) _ ) ) ) _ @.+._ ) ) ) _ ) x 0 7 3 $ $ $ % 7 8 w w w 8 8 % % % % 7 w w w x x x x x x w 0 6 a x x n x ) ) ) ) _ ) x x x x z n =.;.;.=.=.X.X._ x x v _ v x X.;.,.=.;.=.X.` ;.=.;.=.b x 0 b ` x _ ,.` n ` m ' m N 1.2.(.(.2.1.N 1.2.2.3.2.1.] m & & & 8 n n n M ,.,.,.,.,.,.,.,.,.,.,.,.,.;.;.,.,.,.,.;.,.,.=.;.=.=.=._ _ _ @.@.:.@._ _ ) ) ) / / ) o...../ / ..@.@.+.:.:.+.:.:.@.@.@.@.@.@.) g g g ) ) ) ) ) g g ) _ X.;.;.,.,.,.,.;.;.,.,.;.;.` _ _ _ _ _ ,.` ` ` ` ] ] ] m ] ' ' ' ' ] * w w w w ` n ` ,.,.' ,.,.,.` _ =.v v ..X.X.X.X.X.X.-.;.,.-.,.;.W ;.;.,.,.,.,.` ` n w w w w w w M ' 1.' ] N N N 1.2.3.3.2.1.' * & m m ] ` ` ` ` ' M m m m m ] ] ] m ] ' ' ' ] ] N ' ' N N m m N 1.5.4.`.`.).`.*X&X*X5XIX5XqXqXqXqX*X&X*X*X*X1XqXyX1XuX5XqXqXqXqXqXqX&XqXxXxXkX=X&X&XkX=X=X=X&X*X*X%X*X;X;X-X%X%X*X-X*X*X*X*X*X%X%X%X%X-X-X-X-X-X%X;X;X;X;X;X=X=X=X*X&X=X=X=X=X&X&X-X&X=X=X=X=X=X;X=X=X=X=X;XkX=X&XkXkXxXxXkX&XkXxXxXkXkXkXkXkXqXqXxXxXxXlXlXyXlXlXdX1X*X*X",
"x _ _ _ n n n ` ` ` ` ` M n n w w w 8 % % & & & & & & & & & & # & & & & & & & & & & w m m m w w m M M M M m w w w w w w w w w w w m M ` ` ` M M ` ` M M M ` M M ` ,.' M ` ` M ` m m M m w m m ` M 8 m ' m * m * * * 1.4.%X;XxX;X=X-X-X-X-X;X;X-X-X#X3.1.N N N N N ' ' ' ' ' ' ,.M ` ' ' ' ' 1.1.' ' ' ' ' ' ' ' ' ' ' ' ` ` M M ` ` ` _ n n n n x w 0 w x x n n _ _ _ n ` ` ` ;.;.=.` =.=.=.=.` ` ` n ` ` ` ` ` ;.` ;.,.,.,.` ` ` ' ' ' ` ` ' ' ' ' M m m m M M ' ' ' 1.2.2.3.4.4.#X-X;X;X-X#X2.N N m ] 2.' ' ' 1.] ] ] ] M m M M M M ` ` ` ` M ` ;.,.,.,.,.,.' M M ' ' ' 1.' ' N m m m m * m ' 1.3.3.2.2.2.3.`.%X-X-X-X%X4.1.* * N ] 1.1.2.2.2.4.(.(.(.(.%X%X%X%X%X-X-X%X%X%X%X%X%X%X%X%X#X%X%X&XqXxXqX*X5X5XIX].6X6XIXIXIX'.[.[.].:X1X<X5XyXyXtXyXwX<X<XqXyXyXyXqXqXyXqXqXqXqXqXqXqX*XqXqXqXqXNXxX&X&XqXqXqXqXxXqXqXkXkXkXxXxX&X*X=XxXxXxXxXxXkXkX=X=X=X=X=XkXqXqXqXqXkXqXkXkXxXkXkXkXxXxXxXxXxXxXxXxXxXqXqX*X[.[.].].].*X*XqXqX*X*X*X*X1X1X1XuXqXyXcXcXvXcXcX7X'.{.).",
"m m m m * m m N ] N N m m m m * * * * * * * * * N * * * N N N * * * * * * * * * N N N 1.1.1.1.Q 1.1.1.1.1.N N N m * * m N N N N N ' 1.1.' N N N N N m m m m m m N 1.1.1.1.1.N N N N N * * N N ' 1.N Q Q * * Q Q `.#X*XxX=X&XkXkXxXkXkXkX*X&XkX&X&X*X%X#X4.5.2.2.1.1.1.Q Q Q 1.1.N N N 1.1.1.1.1.1.1.1.1.1.1.1.1.1.1.N N m m m m m m m * m m m * m m & & w m m M M m m m m m m ] N N N N N ] ' ' m m m m m m m m m m m N ' ' N N N N N N N N Q 1.N m * * * * m N 1.2.4.#X%X-X=X=X=XkX=X&XkXxX;X&X%X`.5.1.5.* 1.5.1.1.* Q 1.1.N N N N N N N ' N N m N N N N Q Q N 1.1.2.2.3.3.3.3.4.4.4.#X#X#X#X#X%X-X-X-X=X=X&XkXkXxXxXxXxX&X%X%X%X%X%X*X-X-X=X;X=X=X=X=X;X;X;X=X&X&X&X&X*X*X=X=X=X=X=X=X=X*X&XkX&X1XyXyXyXrXoX).{.'.8XoXwX<XwX<X:X5X7X7X7X7XwX7X,X,X<XwXyXwXwXwXdXyXuX<X1X:X1XuXyXtXyXyXyXwX<X1X*X*X*X1X5X5X5XqXqX1X1X5XqX5X5XqXqXqXqXqXqXqXqXqXqXqXqXqXqXqXlXyXqXuX1X1X5XqXyXyXqX1X*X*X1XqXqXqXyXyXyXyXtXtXyXyXyX<X:XIX].'.].].[.[.[.[.].<XyXtXcXfXaXtXwX,X.X].{.{._.}.",
"4.4.4.4.4.4.4.(.#X#X(.(.(.#X(.4.4.4.4.4.#X#X#X#X#X#X#X#X%X%X%X%X%X*X*X*X%X%X%X%X%X%X%X%X%X%X%X%X%X%X%X%X%X%X%X#X%X#X#X#X%X%X%X%X%X%X%X%X#X#X#X#X%X%X#X#X%X%X%X%X%X%X%X%X%X#X#X4.#X`.4.5.5.4.4.`.5.1.5.4.5.`.*X&XqXqXkXxXkXqXqXlXyXqXyXqX*X1X5X1X*X&X&X&X&X*X*X*X#X#X#X#X#X#X#X#X4.4.4.4.4.4.4.4.4.4.4.4.4.4.4.4.4.3.3.3.2.2.3.3.2.3.2.2.2.3.2.1.4.3.3.3.3.3.4.4.4.3.3.2.4.3.2.4.3.3.5.2.2.2.2.5.2.2.2.2.2.2.2.2.3.3.3.4.4.(.#X#X#X#X#X#X#X#X#X%X#X#X#X#X#X%X%X%X-X=X;X=X&X*X*X*XqXqX5XqXqXqXqXqXqXkX*X`.`.- - UX`.`.`.%X%X%X%X#X#X#X#X#X#X%X%X#X%X%X%X%X%X%X%X%X-X-X-X-X=X=X=X=X&X&X=X=X=X=X=XkXkXkXkXkXqXqXqXqXlXlXqXqXyXqXqXqX&X&X&X&X&X&XkXkX&XqXqXqX&XqXqX&XqXqXqXqX&XqXqXkXkXkXqXqXqX&X&XqXyX1X1X<X,X7X'.UX- UX.X2XvX<XtXtXrXyX6X,X,X<X7X7X3X3XwXtXtXrXwXwX,X<X<X,X,X,X,X:X<XwXwX7XeXwX<X:X].).- ).[.wXyX<XyXyXyXwXyXyXwX<XwX<X<X:X].].].].:X:X<X5X5X5X<X1X5X:X.XIX:X5X7XwXtXwX1X,X5XyXdXdXwXwXwXwXwXeXtXaXrXwXwXyXeXyXtXtXfXaXrX8X8XeXeX7XrXrXeXeXpXpXpXeXpX8X9XpX",
"-X-X-X-X-X-X=X=X=X=X=X=X=X;X;X=X=X=X=X=X=X=X=X=X=X&X&X&X&X&X&X*X*X*X*X*X*X*X*X*X&X*X*X*X*X*X&X&X=X=X&X&X&X=X=X=X=X=X=X=X=X=X=X=X=X=X=X&X&X&X&X&X&X&X-X-X-X-X-X&X&X*X#X`.`.`.#X%X#X`.`.`.`.*X*X*XqX&XkXkX&XqXqXyXNXyX5X5XyXyXwX<X8X7X7X2X2X6X6X6X7X5X1X1XqXqXqX&X=X=X=X=X=X=X&X*X=X=X=X;X;X;X;X=X&X&X&X&X=X&X&X*X=X=X=X=X-X-X-X=X-X-X*X*X*X-X-X%X-X-X*X-X-X-X-X-X;X-X&X*X&X*X`.`.=X=X=X=X&X&X&X=X*X-X-X-X-X-X-X-X-X-X-X-X-X-X*X*X=X&X&X&X&X&X=X=XkX=X=X&X&X&X&X&X=X=X&X*X*XqXuXuX<X:X}.:X>X<XuXyX5X5X].).UX; - UX].*XqX&X&X&X*X*X*X*X*X&X=X=X&X&X&X&X=X=X=XkXkXkXkX=X=X&XkXqXqXqXxXkXkXqX&XqXqXqXqX*XqXqX1XuXtXwX1XeXtXyXtXwX<X5X*X*X*X*X*X*X1X1XwXyXwXuXuXqXyXyXqXwX5X5XuXyXyXyXuXuXuXuXuX1X1XuX*X].<XtX7X>X_.- - - {..XrX<XyXyX1X,X5X5X5X5X<X:X,X:X,X<XuXwXyXrX7XwXeXwXwXwX<X.X.X}.[.{.[.[.'.].].].'.].<XwXeXwX:X}.].[.].7XaXrX9X8X8X0X>X2X8XeX,X3X7XeXeXeX8X7XeX8X7X<X6X8XeXeX8X6X,X,X5X7X8X7XrXrXrXeXeXeXeXeXrXeXrXtXrXrXrXtX7X8XeXeXrXaXaXpXeX8X8X8XeXrXrXrXrXeXpXhX",
"kXkX&X&XkXkXkXqXqXkXqX&X*X*X*X*X&X&X&X&X&X&X&X&XqXqXqXqXqXqXqXqXqXqXqX&XqXqX&X&X*X*X&X&XqXqXqXqXqXqX&X&X&XqXqXqX&XqXqXqX&X*X&X&XqXqXqXqXqXqXqXqXqXqXqX&X&X&XqXkXkXkXqXqXqXqXqXkXxXqXqXxXxXxXqXqXlXyXNXtXyXzXyXtX<XwXwX7X7XwXwX7X7X2XXXXX0X9X0X6X7X8XwXwXuXuXqXqXqXkXkXkXkXkXkXkXqXqX&X&X&X&XkXkXqXqXqXqXkXkXqXqXqXqXqXkXkXkXkXkXkXkX&X*X*X*X&X&XkX&X&XkX&X&X&XqXqX*X&X*X*X].5.5.].*X&XqXqXqXqXqX&X&X&X&X&X&XkXxXkXkXkXxXxXxXxXxXkXqXqXqXqXxXxXxX&XqXqXqXqXqXqXqXqXqXqXuXuXyXwX<X2X,X3XeXrXeX3X3XoX6X6X'.[.- - : {.].5X5X*X*X*X*X*X*X&XqXqX&X*X*X*X&XqXqXqXqXqXqXlXlXqXqXqXuXuXqXuXuXuXuXuXyXyXuXqX].:XyX<X3X:X{.).].3X3X3X3X3X3X5X5XwX5X<X<X<X3XwXwX3X:X:X>X7X8X5X7X7X7XrXtXtXwX<X<X<XwXyXwXuXwX*X].:XwX,X3X2X[.'.).>X7X<XwXyX1X5X7X5X1X:X,X7XwX7X<X<XwXwX7XuXwX7X5X:X.X:X7X7X<X.X,X3X7XtXrX3X<X3X7XwXeX7X<X<X3X}.'.{.).{.}.eX8XrX9XiX8X>X>X8X9X2X2X2X7X8X8XeX9XrX9XeX8X6X6X6X6X8X8X8X8X7X6X6X7X3X7X8XrXpXrX8X3XeXeXrXrX8X7XeXaXpXaXaXrXeXeXeXeX3X7XeXrXaXaXaXrXhXpXhXpX",
"5X5X5X5XuXuXqXqXqX5XuXqXqXuX1X5XqXlXqXuXyXuX<X1X<XyXyX5XuXwXwXwX1XuXuXuXqXyXyXuXuXuX<XuXuXuXuXuXqXuX5XuXuXuXuX5XuXuXuX*X*X*X1X1XuXuXuXuXuXqXyXqXqXqXqXuXuXqXqXuXuXwXyXyXyXyXyXuX<XwXwX5X5XwXtXtXwX<X,X<X7X5X7XeXwXwXyXyXyXwXwXwXyXwX<X7XwXwX<X<X5XwXyXyXwXuXuXuXuXqXqXqXqXuXuXqXqXqXqXqXuXqXqXuXuX5X1XuXuXuXuXuX1X1X*X1XuXuXuXuX1X1X1X*X1X5XuX1X*XqXqX1X1X1X1X1X1X1X1X5X1X].{.{.'.].1X1X1X5X1X*X*X1XyXwXwX,X7X7X.X6XoX6X9X7XrXdXyX5X5X<X5XyXyXyXdXfXyX<X5XyX5X1XuXwXuX<X<XwXeXyX<X7X7X7XwXeX7X.X'.'..X.X+X.XoX].OXoXoX6X7X7X7X5XwXuXuX<X<X1X1X1X1X*X:XuXuX*X*XuXtX1X].].:X<XwXwXyXwXwX<XyXtX:XwX<X).).].,X<X,X].].>X}.].:X<X,X<X,X5XwXwXwXeXwX3X3X3X<X,X,X7XeXrXyXeXrXrXeX7X3X3X3X3X3X<X3XwXwX7XwX7XwXwX3X3X7X3XeX7X3XuXyXyXuX<X,X<X5X7X<X<X7X7X3X7X3X<X3X7X3X>X>X7XdXeX7XeX8X.X[.'.[.'.}.3X8X7XrXeXwX7XwXwXwX7X7XwXwXyXwXwXyXyXwX,X,X>X>X>X.X2X}..X,X7X8X8X8X7X9X9X9X9X8X6X2X,X>X2X2X2X2X2X6X6X6X6X9X9XpXaX8X2XpX8XpXeXXXXX8X8XrXaXaXtXwX3XeXeXeXeXrXrXrXpXaXaX9X8X8X8X",
"7XwXyXtXyXyXwXwX:XIX:X<XyXyXwXwXwXfXwX7XwX7X7X7X7X7X<X,X3X8X8X7XwXyXwXwXwXyXyXyXyXwXwXwXwXwXwXyXyXyXyXyXyXtXyXyXtXtXtXyXwXyXyXyXyXwXwXwXwXwXwXuXwXyXwX<XwXyXyXwXwXwX7X7X3X7XeXeXeXrXrX8X8X8X8X7X'.'..X6X8X7X<X<X:X:X<X5XwXyXyXyXyXqXuXyXyXyXyXuXyXyXtXtXtXyXyXyXyXyXyXyXyXyXwXwXyXyXyXyXyXyXyXyXyXuX<X<XwXwXwXuXwXuX<XuXwXyXwXwXyXyXwXwXwXwX<X:X].<X5X,X,X>X:X,X<X<X7XwXdXeX6X7X6X6XrXrXrXrX8XrXrXwX8XXXXX.XOX+XoX0X0X9XiX6X0X8X8X8XhXpXrXeX2X7X>X8X7X,X7XeX8X7XeXyXyXeXeXeXwX7XwX7X5X5XwXrXrX8X6XOXoXoXoXoX6XOX9X9X8X8X8X8X7X7XwXwXwXwXyXyXyXyXwX,X,X7X<XIX].:XwX<X:X:X<X<X3X3XwX3XwX<XeXtX3XrX:X[.].,X].'.].IX:X:X:X:X:X<X1X<X7X7X7X7X7XeX7X3X>X,X,X,X<X7XrXrXrXrX8X.X[.).'.eXrXrXeX3X3X7XwX7XrXeXrXrXwX7X7X<X<X<X<X<XwXyXyXwX<X3X7X7X7X7X7X7X3X7X7X3X3X7X3X>X.XXX6X>X>X7X8X>X].].[._.'.XX>X>X7X7X7X7X7X7XwXwXwXwXyXyXyXyXyXwXyX7X8X7X7XwX7XrX,X7X8XrXpXrXrXrXpXpXpXpXpXpX8X8X6X2XXX2X6X8X9X9XhXpXsX9X9XpX2X>X2X2X0X0XXX2X9X9XeXeXeXwXwXwXeXrXeXeXeXrXaXaXrXrX7X6X8X8X",
"<XwXyXyXyXwXwXwXwX<X,X7XeXwX<X,X<XwX<X<X,X:X,X,X7X7X7X<X8XrXeX7XuXwXyXwXwXyXyXyXrXyXyXrXrXyXwXyXyXwXwXwXyXyXyXyXyXyXyXwXuXwXwXwXwXwXwXwXwXyXwXwXwXwXwXuXwXyXeXwX7XeXtXtXeX7X7X7X7X8XeXeXrXrXeX7X,X8X9X9X8X6X,X.X>X,X,X<X<X<X<X<XuXuXuXwXyXyXyXyXuXwXwXyXyXyXyXyXyXyXuXuXwXwXyXwXwXuXuXuXuXuXuXuXwX<X<X<X<X<X<X<X7X7X5X5X7X7X7X7X<X<X<X<X<X<X<X:X].:X<X,X<X,X>X,X,X<X,X<X8X7X7X9XrX6X7X7X7X8X<XeXeX<X<X.XXXoXoXoX'..X.X+X6X6X6X6X7XXX}.[.).).).[.IX6X8X,X5X7X7X5XwXeXeXwXeXeXwX7XwX7X5X7XwXyXrXrX8X9X2X8X6X6X8X6XrXeX8X7X3X3X,X,X<X<X<X7X7X7XwXwXrXwXwXrXeX7X3XwXrXeXwXeXeXeXeXeXwXwXeX3XwXeX<X7XtX8XeXtXyX5X7XrXtXwXyXtXyXtXtXyX7X8X7X7X8X8X8X3X2X2X2X,X7X6X7X7X,X2X3X.X{.)._.3XaXaXtXwX3X3X3X3XtX8X3X,X,X<XwX7X<X7X7X7X<X<X7XwXwX7X7X7X7X7X7X7X3XeXeXeXeXeX3X>X2X6X7X6X2X8XrX8X>XXX].'.}.3X3X3X7XwXwX7X7X<X7XwXyXwXwXwXwXwXwX7X<X,X7X<X3XwX7X8XrXrXrXrXpXpXpXpXhXpXpXhXhXhXpX8X9X7X2X2X8XpXpX9X9X0X8X2X2X9X2X2X2X2X8X8X2X2XiXrX7X3X3X3XwXeXeXrXaXaXrXrXrXeX7X,X>X,X2X6X",
"uXyXtXdXtXrXtXtXdXtXyXrXrX7X,X:X<XyX5XwX7X<X7X,X.X,X8XeXaXaXeX<X,XuXyXeXyXyXyXyXyXwXwXrXyXwXwXwX5X5X5X5X7X7XwX7XwXyXyXwXuXwXwXwXuXuXuXwXwXyXyXwXyXyXwXwXwXeXeXwX7XeXtXtXwX3X3X3X7XeXeXrXpXpXpXrXhXhXgXpX9XrXrXrX8X7X7X5X5X<X:X:X<X5X5X5X5XuXuXuX1X1X1X1X<XuXuXwXyXwX<X<XwXwXwXuXwXwXuXuXwXwXyXyXtXrXwXwXyXyXyXyXyXyXyXyXyXyXyXrXyXyXyXyXtXtXtXtX,XrXtXrXtXrXeXrXtXtXtXrXdX7X7X7X8X,X6X,X>X,X>X7X3X>X,XXX6XoX+XoX{.{.)._.|.oXoX.X>X8XaX'.- ; ; - ].>X,X,X7X7XeXrXeXeXwX3X3XwXwXwXwX5X7XyXyXwX7XwX,XeX3XaXeXrX8X3XrXeXeX8XwXwXwXwXwXwXwXwXwXwXwXwX7X<X3X7XwXwXwXwXwX3X,X<X3X3XwXwXcXcXcXaXaXaXtXtX7X7X,X,XrXwX<X5XtX<X<XyXwXuXuX<X,X3X7X7X7X7X7X7X7X7X7X3X7X7X,X>X7X2X7X8X2X.X.X,X3X8XeX3X>X>X>X>X.X].'.'.]..X<X<X7XwXwX7X<X<X<X<XwX7X3X7X7X7X7X3XeXrXrX3X3X3XeXeX7X2X6X6X2X2X8X8X7X8X3X,XeXaXrXrXeXrXeXwX7X7X7XwXyXwX3X3XwXwXwX<X:X:X7X,X,X7X,X>X8X8X7X8XeXeXrXrXrX9X9X9X9X9X8X8XpX8X6X6X8X9X8X6XXXXXXXoX2X8X3X7X9XeXpXpX9XpXhXsXrXeXwXeXeXeXrXrX7X7X7X7XeXeXeX8X>X,X2X6X",
"5XwXyXyXwXwXyXtXwXwXeXtXtXrXyXyXwXwX<XyXrX7XwX,X'..X7XwXrXrX7X,X<XuXyXyXyXwXwXwXwX7X7XwXwX7X7X7XwX7X7X7X7X7X7X7X<XwXwX7XuXwXwXwXwXwXwXwXwXwXuX<XwXwXwX7XwXwXwX7XwXwXwX<X>X>X3XeXrXtXaXaXrXeXrXrX7XrXhXrX9X9XeX8X8X8X7X7X8XwXwX7X5XwXwX5X5X5X7X<XuX<X<X<XuXwXwXyXtXwX<X<XwXyXyXwXyXwXwXwXyXyXyXyXyXyXwXwXwXwXwXwXwXwXwXwXwXwXyXyX5X<X<X<X<X<X<X<X:X<X<X,X,X,X>X,X:X<X<X7X7X6X,X6X7X7X9X,X,XeX8X7X9X7X7X>X6XoX+X+X'.'._._.oX+X6XOX8X2X8X7XXX].'.].>X6X7X,X6X6X6X5XtXtXeX3X3XwXwX<X7X<X5XeXeX7X5X5X3XeX>XeX3XeXyXyXwXwXwXwXwXwXyXeXtXrXrXrXwX8XwXwX7X7X<X<X<X3X<X,X,X.X].}.>X,X3X3X3X3X3X3X3X3X7X3X5XdXrXeXrXwX5XyXtX3XwXtXwX7XwX,X>X2X3X3X2X2X0XeX3X3X3X2X3X7X7X,X8X7X3X3X8XeX7X>X.X>X,X>X}.}.:X>X,X.X>X,X7XwXrX7X<X<X3X7X7X7X7X7X7X7X3X7X8X8X3X2X3X8X3X}.'.}.,X8X2X>X2X6X2X3X8X7X2X8XeX8XrXeX3X7XeX8X7X8XeXrXrXrXrXwX7X7XwXyXwXwX<X7XrXwX7XrX3X<X3X3X3X3X3X7XeXeX8X9XrX9X8X7X7X7X8X0X0X8X0X7X2XXX2XOX2XOX2X9X3X3X9XpXpXpXsXhXgXgXfXrXeXrXpXrXeXeX8X8X9X8X0X7X0X8X8X7X0X6X",
"<X<X<X<X<X<X<X<X<XwXyXrXrXrXrXtX<X:X:X<X5X,X<X.X].:X7X7X7X8X7X3X3X<X<X<X<X,X<X5X5X<X5X7X7X7X7X7X7X5X<X<X<X5X<X<X,X<X<X<X<X<X<X<XwXuXuXwXwXwXuX<X7XwX7X<X3X7X7X<X3X3X3X<X,X<X3XeXwXeXeXeX7X3X7XeX7X9X9X8X6X2X,X,X8X7X5X7X8XeXrXeXeXrXrXeX7XeXwX5XwXwXwXwXwXyXyXyXyXwX<X<XuXwXuX<X<X<X<X<X<X<X<X<X<X,X:X:X:X,X,X,X,X<X<X<X<X<X<X<X5X<X<X5X<X<X<X<X7XwX7X<X3X<X,X<X,X<X,X<X7X7X6X8X6X6X7XoX>XeX8X7X,X,X8X0X0XoX+X+X+XOX+X+XOX+X0X8X2X>X7X2X>X>X2XpX6X7X6X,X6X6XoX:X3X3X3X3XwXwXwX<X<X<X<X7X7X5X7X7XwXwX1XuXuXuXyXeX<XuX3X3XuXuXwXwXwXwXwXwX7X7X7XwXrXwX7X7XwX7X7X7X,X:X.X>X3X7X7X7X7X7X3XwX3X<XwX,X].5X7X5X5X,X:X<X<X,X<X<X<X>X>X:X3X3X3X8X7X3X8XsX7X8X8X3X2X3X7X7X>X7X7X>XXX2X3X,X>X,X<X>X.X>X3X7X7X,X6X7X3X7X7X,X<X<X<X7XwXwX7X<X7X7X7X7X7X3X2X>X>X0X8X2XXXXX>X2X8X0X8X0X3X7X9X8XXX2X3X3X3X3X2X7XwX7X7X7XwXwXwX7X7X7X3X7XwXwXwX7X7X3XrXwXwXtX7X7X7X3X3X3X3X3X8XeX8XrXpXrX8X7X7X8X>X2X7X8X7X7X2X2X0X6X9X2X0X9X3X3X9XsXpX0X9XiX9XpXpX8X7X9XeX8X7X8XeXpXpXrX0X2X2X0XpX9X0X6X",
"wX7X5X5X5X5XwXwXwXwXwXwXwX7X<X<X7X,X:X7X<X<X7X:X:X<X7X<X3X7X7X3X3X<X>X>X:X:X<X<X<X<X<X7X8X7X7X7X<X,X,X,X,X,X,X,X,X<X3X3X3X7X3X3X<X<X3XwXwXwXwXwX<X3X3X<X<X7X3X,X<X3XwXeXwXwX3X3X<X,X,X3X3X<X3X8X6X2X,X2X6X6X8XrX9X8X7X5X7X8X7X7XeXeX7X7X6XeX7X,X3X<X<X<XwXwXwXwX<X<X<X<X<X<X,X,X<X<X<X<X7X7X<X<X<X<X<X<X<X<X<X<X7X<X<X<X7XwXwX7X<X,X<X<X5X<X<X7X<X3X,X>X<X,X>X,X7X7X,X,X7X5X,X7XXX,X6X.X.X6X,XXXoXXX8X0X0XoX+X+X+XOX+X+XoX.XoXOX6X2X7X6X7X8XXXXXoX>XXXXX6X6X6X7X>X,X<X3X3XwX3X<X,X<X,X,X,X7X7X7X3XuXuXuXyXuXwXuXyXyXyXwXwXwXwXyXwXwXeXwXwXwXrXtXwX<X<X7XwXwXwXeX>X:X>X,X7X7X7X7XeX3X,X3X,X>X3X}.].:X,X,X7X5X,X,X3XwXeX7XwX7X3X7X3X0XeXaXaXiX8X7X7XeXpX8X7X7X7X7X7X8X8X7X3X7X7X3X,X3X7X3X,X3X3X7X8X6X7X7X,X,X7X,X7X,X,X<X3X<X,X,X,X2X3X3X2X>X.X}.>X3XeX9XiXpXpX9X0X2X2XXX}.>X3X2X>X2X3X3X7X7X7XeXwX7X7X3X<X<X<X,X,X<X<X<X<X<X<X<X<X<XuXuX7XwX<XwX3X3X3X3X3X3X7X7X8X9XeX9X8X0X0X8X3X7X8X8X0X3X8X0X0X2X0X2X2X9X3X0XrXhX9X2X0X0X2X2X8X3X3X8X9X0X2X0X2X0X9XrXrXrXpXpX2X2X2X2X",
"5X<X,X<X5XwXwX5X7X<X<X<X7XwX7X<XwX,X:X7X,X:XwX<X,X<X<X,X,X3X,X>X<X,X,X<X7X<X3X7X<X<X<X7X8X7X7X7X7X5X<X5X7X7X7X7X.X>X<X,X,X,X<X>XwXwXwXwXwXwX<X<X<X3X3X<X7X7X7X<XwXwX7X3X3X3X3X3X3X<X<X3X7X3X3X7X7X2X2X6X8X6X6X8X9X8X6X,X,X6X,X,X6X6X6X,X,X7X,X.X>X:X:X,X<X3X3X<X<X<X<X,X:X:X:X:X:X:X<X<X<X7X<X<X<X<X<X,X,X<X<X<X3X<X,X<X<X7X<X<X<X,X:X,X<X,X<X7X<X3X,X,X7X7X3X7X,X,X,X7XeXeX6X8X6X6X8X7X6X8X,X6X8X6X0XOXOX|.+X@XiXiXOX+X+X+X+XoX2X2X8X2X>X2X2X8X6X8X6X,X,X,XoXoXwXwXwX3X<X3X<X,X:X<X<X,X,X<X7X,XwXuXuX1XwX1XyX3XuXuXuX<X<X<X3XwX3X7X7X7X7X7XeXtXrX7X3XwXrXwXwXrX3X<X3X3X7X7XeXtXrXwX3XeX7X3XtX,X].:X7XwX7X<X,X,X:XwX7X,X3X3X,X3X2X2XiXCXCXsX>X}.>X8XpXeX8X8XrXpXhX7X.X.X,X3X,X.X.X>X3X3X<X,X>X.XIX.X>X6X,X,X,X.X>X>X:X:X>X,X,X,XXX>X2X2X>X}.|.].].'.'.[.].2X9XeX4X2XOX}.}.2XeX9X7X8X7X7XeX7X2X3X,X<X3X<X,X,X<X7X,X<X3X3X<X<X<X<XwX,X3XuX7X3X,XwX,X,X,X,X2X3X3X3X3X3X3X3X7X7X7X3XpXpXeX8X3X3X8X9X8X0X0X2X2X8X3X0X9XsX8X2X0X9X6X8XpX9X9XsXsX9X8XpXpXpXsXpXrX0X2XXX}.}.}..X",
"<X<X<X<X<X5X<X<X7X<X<X<X<X<X<X<X<X<XyX<X<X<X<X<X3X<X<X<X3XwX7X,X,X7X7X7X7XeXrXwXwX8X7XeXrXrXrXrXeX8X8XeX7X6X7X7X>X7XeX7X,X>X3X7X>X,X<X3X3X3X3X3X7XwX7X7XeX8X3X7X3X7XrXtXtXeX7X3X3X3X7XeXeXwX3X3X8X,X,X8X6X,X6X8X2X9XpXrX7X2X,XXXXX6X6X8X6XXX2X>X,X<X<XwXtXeX3X3X>X7X8X<X,X,X,X>X,X:X:X>X,X,X,X>X:X:X.X.X.X:X:X:X.X:X,X,X<X<X7X7X5X7X7X<X,X,X<X7X3X7X7X<X3X7X7X2X,X2X7X7X7X7X7X2X8X>X,X7X6X8X9X9XiX4XOXOXOXOXOXOXiXiXiXiX0XOXOXOXoXXXXX2X6X2X2X2X6X,X[.'.oXhXrX,X,X<X3X3X<X,X>X>X>X,X3X3X,X3X3X7XuXuXuX3X<X<X<X3XwX3X<X<X3XwXeXeXeXeXwXwXeXrXaXaXtXeXeXrXrXeX7XwXeXrX7X,X3XeXeXrXaX7X<X3X3X<X,X<X:X,X<X<X<X<X,X,X7X3X3X3X2X,X,X3X2X.X.X>X4X4X4X7X4XiXsXrXrXhXhX9X7X8X7X.XXX3X.X.X3X7X7X,X,X<X<X,X,X,XXXXX>X,X,X>X7X,X,X>X,X,X<X3X>X>X>X>X2X7X7X7X>XXX}.}.XX2X>XXX[.'.}.XX3X8X2X2X7X7X3X,X>X>X,X7X2X2X,X,X,X,X3X3X3X3X7X7X7X3X<X<X:X<X3X3X3X3X,X,X3X,X,X,X,X,X2X2X3X0X2X3X9XrXsX8XpXaXfXsX9X3X2X2X2X0X2X2X0X2X2X8X3XeX0X2X2X2X2X9XgX2XhXBXsXiX9X8X2X0XpX8XXX|.].|.'.|.>X2X",
"<X<X<X<X<X5XwX7X7X7X<X<XwXwXwXwXuXwXtXyXwXtXwXyXaXtXeX7XwXrXtXrX7XwXeXwX7XwXwX8XeXwXwXeXrXrXrXrXhXrX9XrX8X,X2X8X8XeXeXeXaXvXfXeXwX3X<X>X>X<X3X3X,X3X<X,X7X7X3X7X7X7X7X7X7X3X<X,X3X3X3X3X3X3X3X3X6XXX,X6X8X6X7X9XrX7XXX.XXX7X8X7XXX2X6X6X2X2X9X7X7XeXeXaXvXaX3X,X8X8X7X,X,X7X7X8X7X,X:X>X,X,X,X>X,X,X:X:X:X.X.X.X.X.X.X:X>X,X,X,X<X<X<X,X,X<X7X7X<X7X3X,X,X3X2X,X,X,X2X2X2X2X,X,X7X2X7X8X,XXX,X6X6X6X4X0X0XOXOX+XiXiXOXOXOXOX4X2XoX}.}.,X6X>XXX2XXX'.- - - ).IXrX<X3X7X7X,X>X>X>X>X,X3X3X,X,X2X3X,X<X<X3X3X3X3X3XwX3X3X3X3X7XeXrX7X7X3X3X3X7XeXeXaXeX7X7X7X3X,X,X,X7X3X>X3X7X7XeX3X,X>X,X<X,X>X>X,X,X,X,X<X3X3X3X7X7X7X7X3X3X3X7X0X2XXX4X7X7X7X0X2X2X7X7X9XhXhXpX7X7X7X.X>X7X7XeX>X,X,X.X].}.>X,XXX,X7X7X7X,X7X7X>X,X<X7X7X3X,X.X,X,X,X2X3X2X,X>X>X2X2X2X2X8X9X8X2X2X2X0X9X8X8X7X7X3X3X3X,X,X,X<X,X2X3X7X7X7X,X,X<X<X<X3X7X3X3X,X:X,X3X3X3X3X<X<XeXeX7X7X3X3X3X3X2XpXpXpX8X7XpXpX3XeXpXpX0X2X2X2XXX6X0X0X9X9X8XeX8XeX8X0X9X9X9XhXhX0XsXhX9XsXsX0XpXsXsX9X>X}.}..X2X0X8X0X",
"<X<X<X<X<X5X7X7XwXwX7XwXyXrXtXtXyXyXtXtXtXcXtXtXcXcXtXeXeXrXaXaXwX7X7X7X<X,X<X7X7X7X7XeXdXhXhXgXgXrX8X8X8X8XrXnXgXvXgXfXCXBXpX.X:X>X,X<X<X,X,X,X7X7X7X7XeXeX8XrX7X8XeXrXrXeX7X3X7X7X7X3X3X3X3X3X6X,X,X6X7X,X,X6X8XXX'.[.].XX>X>X6X8XrXpX6X8XhX2X2XeXaXfXaXeX,X,X8X6X,X6X7X8XeXrXeX7X,X>X7X7X2X>X,X,X,X,X<X<X,X,X,X>X:X>X,X<X,X,X:X:X:X.X.X:X:X:X3X7X7X7X7X7X7X7X2X2X,X,X2X,X,X,X,X.X}.'._._.].oX6X0X0X0X0XiXiXiX0X+X+X+XOXOXOXOX2X.X.X8X9X6X2X8XoX].- - - - ).[.<X7X7X7X,X:X>X>X>X,X,X,X,X,X2X2X,X,X3X3X3X7X7X7XeXeX7X3X,X>X.X:X7X3X3X,X,X,X3X7X7X3X,X3X3X3X,X,X>X3X3X,X,X,X>X,X>X>X,X,X7X7X7X,X,X,X,X3X7XeX7X7XeXeXrXrXeX8XeXsXpX0X2X8X9X7X7X8X2X2X2X0XpXhXhXrXrXXX].}.8XrX].{.[._.{.).).{.'.}.].>X7XeX8X,X,X,X>X:X:X>X,X<X<X<X>X.X.X>X>X>XXX.X.X>X,X>X>X>X2X2X7X2X2X2X2X3X7X8X,X,X,X,X,X,X,X>X>X,X3X7X7X7X3X,X3X,X,X3X7XeX7X3X,X,X<X3X3X3X,X,X3X7X7X7X7X3X0X8X0XsXpXrX2X2XrXpX0X9X9X2X2X2X0X9XXX0X8X6X9X9X8X8X9XpX9X8X9XpXpXhXBX9XiX9X0X9X0X2X9XpXpXeX8X8X9XpX7X0X9XpX",
"5X5X<X<X5X5X<X<XwXwXwXwXwXyXeXeXwXwXtXyXtXzXeXwXwXeXrXyX7X7X7X7X7X<X,X,X,X,X<XwX,X,X8XrXfXfXfXhXrX9X8X6X7X8X7X,X2XhXBXBXBXBXpX}.].}.:X,X3X,X>X>X,X3X,X,X7X7X3X7XrX8X2X>X>X2X8XrX8XeXrXeXwXwX7X,X<X,X,X7X,X,X>X,X>X>XXX}.}.].}.}.8XrXhXhX6X8XhX2X.X7X9X0X>X}..X3X6X>X>X8XrX9X8X8XrX9X8X7X8XrX8X7X7X7X7X7XwXwXwXwX7X7X3X7X7XwX7X<X<X,X,X,X3X3X,X>X>X>X,X,X,X2X2X2X2X2X2X6X7X7X3X3XeX8XrXrX8X6X9X9XoXOXOX+XOX0XiX0X0X+X|.OX4XOX+XOX2XXX,X9XrX8X6X6XoX].).{.{.{.].6X<X<X3X3X<X<X,X,X3X,X>X>X>X>X,X2X2X7X2X2X3X7X7X3X3X7X8XeXeX7X7X7X3X3X7X7X3X,X,X7X,X,X3X7X8X8X7X7X7XeX8X3X,X>X.X,X3X7X7X7XeXrXrX7X,X,X3X7XrXtXeX7XeXrXpXpXpXeXpXhXsXrX9X9X0X>X>X4X2X2X0XpXhXpXrXrXeX,X>XXX,X.X[.{.>X>X>X,X3X7X3X3X].IX.X>X,X3XwXrXeXeXwX7X<X<X7XeXwX,X>X>X,X2X3X7X>X2X3X>X>X>X,X>XXX>X>XXXXX>X,X7X2X,X,X,X3X3X,X>X,X,X,X2X3X7X7X7X7X3X3XwXrXaXfXfXaXrXeXeXeXeX7X7X3X7X3X7X8XeXeX0XpX9XXXXX2X7XpX8X2X0X0X2XXX2X4X0X6X9X8X2X2X0X0X8X9XpX9X8XiXiX9XsXsX'._._.'..X9XBXhXgXgXfXaXpXpXeX2X6X8XrX",
"wXwXwXwXwXwXwXwXyXwXwX7XwXwXwXwXuX<XwX<X<XyX<X<X:X<XwX7X3X<X,X>X7X3X,X3X7X3X7XrX8X8XrXhXhXhXrXeX6X9X9X6X8X6X'.).).'.2X7X9XpX9X>X>X:X:X>X>X>X,X,X,X3X>X>X2X2X,X2X7X6X6X2X2X2X2X2X7X7X8X7X7X7X7X3X,X>X,X<X7X7X7X7X3X8XrXrX8X2X>XXX2X9X9X8X2X9XhX8XXX2XOX}.|.|.}.2X6X2X2X9XpX9X6X6X8X9X9X9X9XrX9X8XeXeXeXeXeXeXwX7XeX7X7XeXeXeX7X<X].].]..X>X,X:X.X>X>X>X,X2X3X3X7X,X2X6X7X7X7X7X7X>XXX7XpXhXpX9X6XoX+X6X6X0X9X2XoX0XoXoXOX2XOXOX2XhXjXAXDXDXAXnXgXhXrX2X,XoX,X.X6X<X<X<X7XwXrXeXeX7X,XXXXX>X>X2X2X2X2X>XXX>X2X2X,X>X,X7XeXeX7X3X<X,X,X7XeXeX7X3X7X7X7XeX7X7X7X7X7XeXrXeX7X7X,X,X7XeXeXeX7XeXrXrX7X7X3X3X7XrXrXeX7X8X8X9XeX0X2X2X0X8X8X9X9X2X.X.X2XXX>X0XpXpX9XrXhXrX.X[.).{.[.].eX>X,X<X3X,X.X].].,X,X7XrXtXwX,X].].:XwXtXtXrXtXfXdX8X,X,X<X,X,X,X<X3X<X,X,X3X3X3X,X6X7X7X7X7X7X8X8X7X3X3X7X8X7X7X8X7X7X7X8X8XeXeX3X7X7X8XeXaXvXMXMXvXvXfXfXhXaXaXpXrX9X9XpXhXpX9XiX4X|..X0XpXsX0X2XiXsXpX9X9X4X2X2X0X2XOX2X0X0X8X8XeX8X8XpXiX8X9X'.{._.}.6X8X7XhXnXnXvXvXvXfXaXrXhXpXeX8X",
"wXwXyXyXrXtXtXtXtXtXrXeXeXeXyXwXwX<XyX<X<XwX<X<X<X3X7X<X,X<X3X<X7X7X3X3X7X7X7X8X8X8XeXhXhXrX9X8X6XpXpX8X9XpX.X{.{.'.}..XXX2X2XXX:X>X,X,X3X3X3X7X7X7X2X,X7X2X>X2XXXXX,X2X,XXXoX.X,X>XXXXX>X>X,X7X3X<X3X7X7X7X7X8XeXeXeXrXpXpXeX8X2X9X8X9XsXhXsX2X2XOX|.|.}..X|.|.2XXXXX6X8X9X9X9X8X9XrX8X8X9X9X8X7X3X3X7X7X7X7X7XwXwXwXeXeXeX7X3X:X:X,X<X7X7X3X,X,X,X,X7X7X7X8X8XXXXX,X2X2X7X3X3X2XXX>X8X9XrX9X6XOXOX6X6X0X0XOXXX2XXX|.|.XXoX2X9X9XhXnXgXgXgXhX9X9XpXhX9X6X9X.X6X<X<X7XrXaXfXhXaXeX3X>X>X2X2X2X3X>X>XXXXX>X7X7X,X3X3X3X3X<X>X}.].<X,X7XeXrX7X3X7X7X8X7X,X>X,X7XeX3X8X7X7XeX7X7XrXaXrXeX7XeXeXeX7XtXeX3X3X3X3X3X3X8X7X0X0X2XXXXX>X2X2X2X0XXX}..X2X2X2X0X0X2X>X,X9X>X>X>X>X8XrX2X3XeXeXwX,X}.].>XeXhXhXgXMXnXrX].[.[.].wXtXfXcXnXVXtX7X<X7XeXwX7X3XrXeX7X<X7X7X7X,X7X6X9XrXeXeX7XeX8X7X7X7X7X8XeXeXrXpXpXpXrXrXeX8X7X8X7X3X>X>X,X3XrXpXhXhXaXpXaXpX8X8X0X2X9XsXsX9X4X0XOX4XpXsXgXpXpXsXpX4X2X2X4X2X|..X}.oX0X8X3X3X2X3X2X2X9X9X6X6X9X2X>XXX2XrXeXrXpXrXrXrXaXhXfXcXfXhXaXpX",
"<X5XwXwXwXyXyXrXtXtXrXrXrXrXrXrXyXwXtXwXwXyXwXyXwXwXwX<X3X3X7X3X3X7X7X3X,X2X2X2X2X,X2X8X9X8X8X8X8XpXhXpXpXhX9X2X0X9X9X2X2X2X2XXX}..X>X3X7X7X3X3X,X2X>X>X>X>X.XXX6XXX'.[.[.'.oX,X,X.X.X.X.X.X.X3XwXwX7X<X<X<X3X3X7X3X2X8XeXpXeX8X2X6X'.}.9XpX0XXX0X2X|.|.OXOX|.'..XXXXXXX6XrXhXhXpXpXrX6X6X8X8X2X>X>X>X,X3X7X7X7X7X7X7X7X7X7X7X7X<X,X,X,X,X,X>X:X>X>X>X,X2X,X,X2XXXXXXXXX>X,X3X3X>X>X8XhXhXpX8XOX6X+XoXoXXXXXOXOXOXXX}.}.XX2X9XsXhXgXjXgXgXgXgXhXgXgXrX8XoX6XXX9X7XeXtXfXfXfXfXfXaXeX3X8XeX9X0X7X2X7X7X7XeXaXrXwX3X3X3XwXeXyXyXwX7X3X3XeXeX7X3X3X3X2X,X>X,X7X8X7X>X,X,X3XeX7X3X7XrX8X7X7X7X7X3X3XwX3X3X,X,X,X,X,X0X2X2X3X2X2XXXXXXXXX>X2X2XoXOX0X6X0X6X2XXXoXXX7X7XeXrX,X>X6X3XrX3X3X7X3X,X,XeXfXMXcXrXrXtXcXcXfXvXnXMXnXcXcXMXJXnXdXtXbXMXMXnXnXMXnXbXfXfXgXtXeX7X7X8X7XeXeX7X7X7X7X7X7X7X7XeXeXpXpXpXpXrXeXeXeXeXeX8X3X>X}.}.}.3X8XpXhXpXrXrXrX2X6X2XOX2X0X9X0X2X9X0XiXsXsXhXiX9X9XOX|.'.XX2X2XoX|.'.XX0X8X7X8X8X8X2X2X9X8X0X8X6X8X9X2X8XpX7X,XaXrXrXrXeXeXrXrXrXaXgXvX",
":X:X<X<X<X<X<X5XwX7X7X7XwX7XwXwXuXwXeX7X7XyXwXrXwXyXwX7X7X7X7X<X,X7X7X<X2X5X3X,X2X>X>X>X,X,X,X2X8XpXhXjXhX8X2X2XXX2X7X2X>X>X>X>X,X>X:X.X:X>X,X,X3X7X3X2X3X2XXXXXXXXXXXXXXXOX2X6X7XXXXX2X>X}.}.>X7X7X<X,X,X,X3X3X2X3X7XeXpX8X3X7X2X|.: : [.XXOX0X2X2XXX|.oXoX|.|.XX2X6X2X8XpXhXpXhXhX9X2X2X7X7X>X,X>X>X,X,X<X<X<X<X<X,X,X,X>X2X7X<X<X,X:X,X,X,X<X7X7X7X8X8X7X7X7X6X2X>X>X>X>X3X7X3X,X7X8X2X2X0X8X6X2X6X9XrX8X0X9X2X2X2X2X8XhXgXgXnXgXhXgXnXvXjXnXgXnX7XdXeX8X6X6XwXaXvXnXgXhXfXfXvXpXeXaXfXsXpXeXeXpXhXhXgXMXvXrXrXwX3X3XyXtXtXrXrX3X3X7XeX3X,X,X,X,X,X,X7XeX7X,X>X>X>X,X7X,X.X.X7X,X>X,X3X,X>X>X.X:X,X,X,X,X>X:X2X>X>X,X3X2X2X>X2XXX>X2X2X2X2X0XXXXX>X>X>X6X8X9XrX7X>X}.2XhXeX7XvXrX3X3XeXaXMXSXnXnXnXnXnXMXMXMXKXJXSXMXnXMXVXJXJXbXfXbXMXMXnXMXMXMXMXMXMXMXnXcXfXdXrXeX7X5X,X:X5X7X8X7X7X8XeXrXrXeX8X7X7X7XeXeXeXeXeXeX8X7X2X,X2XrXnXBXnXhXpXpXrXhXpX2XXX2X2X2X0X9X0X8XiX9XpX0X2X9X0XXXXX0X9X8XsX2X}.XX8XeXeXaXaXfXpX8XpXrX9XrX9X8X9X8X8X8X>X7X7X8XrXaXfXcXcXvXMXnXvXgX",
">X:X,X,X,X,X<X<X>X>X,X<X3X3X3X3X<X:X:X,X7X<X>X.X:X,X<X<X7X7X7X7X,X<X7X7X<X<X7X7X<X,X>X.X:X:X,X:X,X3X3X,X>X>X>X.X>X>X,X,X3X3X3X3X,X:X].[.[.'.].].}.>X3XeX7X3X3X3X,X,X2X7X8X8X6X2X7XrXhXhX9X6X7X8X6X,X,X6X6X7X6X2X2X6X8X8X6X7X8X7X2X8X2X.XXXpXhX8XXX.X[._.'.2X2XXX9XpX0X0X9XpXpXhXpXiX9X0X2X3X3X3X2X6XXX}.>X3X<X<X3X,X,X7X8X6X2X6X,X,X,X,X<X7X7X7X8XwXwXeX8X3X3X,X8X7X2X,X>X,X,X,X>X,X,X>X,X7XaXvXAXvXAXSXcXcXnXhXrXeXeXtXgXvXMXMXSXvXvXnXnXnXnXnXnXnXgXfXdXrX7X6XpXpXaXpX8X3X7XrXpXrXrXaXaXeXeXpXgXcXvXvXMXVXVXnXfXtXrXrXrXrXrXrXrXrX,X}..X3X7X7X>X7XeX3X8XaXeX>XXX7X>XXXeX,X'.].3X3X3X7XeXeX7X3XwX3X>X:X>X>X:X.X,X,X,X<X3X3X3X3X,X>X,X2X3X2X2X>X>X>X7X0XeX8X7XrX8X>X]..X7XeX,X>XtXaXaXrXwXeXvXKXSXnXnXSXSXnXvXnXMXnXvXvXMXVXMXnXnXnXnXnXMXVXVXMXMXSXSXMXMXMXVXMXAXSXSXnXfXwX<X,XrXeX8X7X,X,X7X8X,X3X3X3X,X3X8XrXrXrXeXeXrXrX7X3X8X9XrXnXBXhXgXnXBXnXhX8X7X8X9X9X8X8X8X8X8X8X9X8X2X2X0X3X3XeXeXeX7XeX,X3XfXaX3XwXeXeXeXeXeXeXeXeX7X7X7X7X7X3X2X>X2X2X7X8XrXpXaXfXgXvXvXgX",
">X>X,X,X,X,X<X<X<X<X3X3X3X3X2X2X3X,X,X>X>X:X}.].,X:X,X<XwXwX<X:X,X<X7X7X7X7X5X<X7X7X5X<X<X<X<X:X,X3X3X<X,X3X3X<X7X7X7X7X3X3X<X,X}.}.}.].].].].].}.>X3XwX3X3X3X3X3X,X,X2X2X2X,X>X8X8X8XrXrXrX8X6X,X,X,X6X8X9X8X6X8X6X6X2XXX6X9X9X8X9X8X2X2X8X3X.X].}.'._.'.XX6XOXOX0X4X4X9X9X0X9X9X9X0X2X3X3X3X2X>X6X2X7XeXwXuXwXuXuXwXeX8X8X8X8X:X:X,X,X<X<X,X,X,X,X<X7X7X8X7X3X3X3X3X,X,X>X}.}.>X>X>X>X3XaXMXKXKXAXSXSXbXbXMXbXfXfXfXcXcXvXnXVXSXnXcXnXMXMXnXnXAXnXMXMXAXnXcXhXpXpXrXeX7X3X8XpXgXhXaXhXhXpXpXhXhXfXcXvXnXSXSXSXSXnXgXtXrXrXeXwXhXrX.X'.].>X3X7X2X7XeX8XrXfXaXeX8XrX,X>X8X,X}..X3X3X3X3X7X7XwXwX<X<X>X>X,X<X<X<X3X3X3X3X3X3X3X3X3X2X>X>X>X,X2X2XXX3XaXfXgXhX7X8X7X}.'.}.7XeXrXMXrXaXaXrXeXaXvXJXSXMXAXSXSXAXMXSXSXMXMXnXVXSXSXVXSXMXMXMXMXMXMXMXMXJXKXVXMXnXnXcXJXJXKXJXVXcXrX7X7X7X8X8X8X8X8X8XeXeXwXwX8X8XeXrXeXeX8X7X>X>X7X9X8X0X7XhXhX9XrXrXhXgXnXBXnXgXpX8XpX9X8X8X8X8X8X8X2X2X3X,X,X3X7X7X.X].{._.,X7X:X}.eXeXeXwXwXwXwXwX7X3X2X2X2X3X3X3X7X3X3X7X8XrXpXhXnXSXSXBX",
">X>X>X>X>X,X,X<X<X<X3X3X2X2X2X2X>X2X2X,X,X7X3X,X<X,X,X<X7X7X7X5XrXeX8X7X7X7X<X,X,X,X,X,X,X<X<X,X>X<X3X<X,X3X3X<X3X3X3X3X3X3X3X3X<X3X3X3X3X3X3X<X>X3XwXwXwX3X3X3XwX8X7X7X7X7X7X8X>XXXXX>X6X8X6XXX6X6X6X8XrXhXrX9X9X0X6XXXXX>X0X6X9XpXpXrXrXrX7X>X}.>XXX].}.XXOXOXOX0X0X0XiX9X0X9X9X0X7X2X7X0X3X3X7X7X7X7X7X<X,XuX3XeXrXeX8X7X6X,X:X,X<X7X7X7X7X3X7X3X7XwXaXfXhXaXeXeXrXrXeX3X.X}..X>X3XeXfXMXVXSXSXnXMXnXcXbXnXbXvXbXnXnXvXcXnXMXMXcXhXgXnXnXvXcXnXnXnXSXJXSXnXcXgXhXaXrXrXrXfXnXvXhXhXgXgXgXnXDXnXnXMXMXVXSXSXVXSXMXvXgXgXhXeX7XeX7X.X].>X3X,X,X3X7X8XrXfXMXnXMXgXaXeXeXrXeX7X3X3X3X3X3X3X7XwXeX<X3X3X3X3X3X3X3XwXwXwXwXeXeXeXeX7X3X,X,X,X3X7X7XeXrXaX7XeXaXeXaXaX,X>XeXhX7X3XfXaXaXrXwXwXaXvXMXSXSXJXJXSXSXJXKXSXMXMXnXVXSXSXSXJXSXSXSXSXVXMXMXSXJXJXSXMXnXcXfXMXMXSXJXJXSXcXrXwXwXwXeXrXeXwX8X7X7X7X7X7XeX8X8X7X7X9XrX7X7X7X6XXX2X7XpX9XXX2X2X8XpXhXjXBXBXjXhX9X9X8X7X7X7X7X3X,X3X7X7X7XwX7X3X}.:X.X,XfXaX3X3XtXeXeXeXeXeXeXeX8X8X8XeXrXrXrXrXgXfXfXgXgXnXBXVXSXSXSXAX",
">X>X>X>X>X,X<X<X<X3X3X3X3X3X3X3X2X3X3X,X3XrXrX7X,X7XrXrXwX7XeXtXaXwX,X:X>X,X,X,X7X3X,X,X<X<X7X3X,X3X3X3X,X3X3X,X>X>X<X3X3X3X3X3X3X3X3X3X3X3XwXwXwXeXeXeXwX3X3X3X,X,X2X2X,X,X7X8X,X6X8X8X6X6X8X9X8X6X6X9XhXhXhXrXpX9X9X8X6X8XiX8X8X8X8X9XrX8X7X7X2XrX8XXXXXXXOX6XOXOXOX2X9X9X0X9XXXXXXXXX>X>X2X2X3X7X3X,X3X7X3XeX3X7X8XeX7X3X>X>X,X5X7XeXrXrXrXrXfXfXfXvXnXVXSXVXvXvXMXMXvXfXrX7X<XwXtXfXMXVXVXMXcXfXcXcXcXbXnXbXcXcXvXnXcXgXcXMXnXgXfXfXcXcXcXvXvXnXnXSXSXSXnXgXrXrXeXeXeXrXgXnXgXhXhXgXvXMXSXKXSXSXSXSXSXSXSXnXMXvXnXnXnXgX7X>X>X3X3X3XeXrX7X3X7X7XeXaXMXVXSXKXnXgXvXMXfXaXfXrXwXeXeXeXeXeXeXtXwXwXwXwX3X3X3X3XeXeXeXeXeXeXeXrX7X7X7X7XeXrXrXrXrXfXnXtXaXgXrXrXrX7X3XrXaX.X].>XMXvXtX7XwXaXMXMXAXSXSXSXSXJXJXJXMXnXMXMXVXVXBXBXSXSXSXSXJXKXSXSXVXJXKXJXVXMXcXcXcXcXvXMXSXSXnXfXtXrX7X<X<X<X<X<X<X<X<XwXrXaXhXpXrX2X2X2X>X6X8X2X8X7XXX2X6X>X8X9X7X8X8X8X8X8X8X6X7X8X9X8X8X6X2X2X>X>X,X,X>X>X>X,X,XwXeX7X3X>X>XeX3X7XwXwXwXwXwX7X7X8XrXfXvXnXgXfXhXgXvXMXBXnXnXnXnXnXnXvX",
"6X,X2X2X<X3X3X7X7X7X7X3X7X7X7X7X0X0X2X.XXX2XXX].XX3XrXhXaXrXrXrX<X:X].].].:X,X<X7X7X<X,X<X<X<X<X3XwXwXwXwXwXwX7XwXwXwXwXeXwX3X3X3X3X3X3X3X3X3X3XeXeXeXeX7X3X<X3X>X,X2X7X3X7X7X8X8XrXpXrX8X7X8XrX8X6X2X7X9XpXpX9XsXsXhXhXsXhXhXsXpX9XrXpXpXrXeXrX7X8X6XXX6X8X0X9X4XOX|..X2X2X2X2X2X2X7X7X3X3X0X8X3XeX3X2X7XeX7X2X7X2X2X7X8X7X8XeX7X7XrXrXhXhXfXgXVXBXBXBXBXBXVXBXnXMXMXMXMXnXvXfXfXcXcXaXaXcXMXMXcXcXcXbXMXMXbXbXcXbXnXnXvXfXcXnXnXvXcXcXfXfXcXnXMXMXMXMXSXMXnXcXpXpXrXrXrXhXgXnXvXgXgXvXvXvXnXnXnXnXnXnXnXSXMXnXMXMXMXVXMXfX7X:X,X7X7X7XrXrXrXhXrXrXaXvXVXSXSXKXSXnXSXSXrXeXtXrX7XwXrXrXrXrXrXtXeXwX3XwXeXeXeXeXtXtXrXeXwX3XwXwX3X3XwXeXrXaXaXaXeXaXaX3XwXtXwXeXfXtXrXaXvXfXfXnXLXSXnXtXfXMXKXJXAXAXMXnXMXSXVXnXMXMXMXnXVXVXVXVXMXMXVXSXKXKXJXSXMXMXVXJXJXSXMXnXnXnXnXnXMXVXVXMXVXnXaXtXrXtXtXtXtXtXfXvXVXSXSXDXvX8X8X8XXX2X8XXXrX7XXX8XaX8X2X|.[.].XX2X2X7X7X7XpXhXhXpX8X7X7X8XrXrX8X,X.X}.>X3X,X,X>X>X>X.X}.:X,X<X3XwXeXwX3X3X2X7XrXhXvXnXvXgXhXfXgXnXnXnXgXgXvXnXvXgX",
"7X6X2X2X3X3X3X7X7X7X3X3X2X,X>X>X6X2X.X.X2X2XXX}.>XXXXX>X8XrXrXeX<X,X>X:X>X,X<X3X,X<X<X<X7XwXwX<X<X3XeXwXeXeXeXeXeXeXeXrXeXeXwXwXwXwXwXeXeXwX3X3X3X3XwX3X3X<X<X,X3X7X8XeXeX8X8X8X8X8X8X7X6X2X,X,X6X2X2X2X6X8X9X9XpXpXsX9X2X2X6X2XhXpXhXnXnXgXfXfXrX8X2X2X9XpXpXhXpX4XXXXX2X2X2X6X9XrXpXsXpXpXsXpXaXaXeX7XeXpXiX9X9X0X2X2X3X8XaXfXhXfXbXvXvXvXnXnXnXMXvXfXhXaXhXfXfXhXpXaXaXfXcXvXvXMXvXfXaXaXcXvXnXMXbXnXSXMXcXcXMXMXMXMXMXcXcXnXvXcXgXhXrXrXfXMXnXnXMXnXnXvXvXvXMXnXvXgXvXvXnXvXfXfXgXvXvXvXgXgXnXnXnXnXnXnXnXvXVXMXMXnXnXvXfXrXeXaXaXaXaXaXfXMXvXvXnXBXVXVXVXVXSXvXvXfX,X:X<X<X,X,X<X<X<X3X3X7X3X<X3XwXaXcXcXcXcXcXaXtXwX3X<X<X<X,X>X<X3XwXeXeXtXeXwX}.:X3X3XtX7X8X7X7XhXvXnXVXKXSXVXMXMXJXKXKXAXnXcXcXnXnXnXcXnXnXnXnXMXBXBXMXVXVXVXSXJXSXMXMXnXvXnXMXSXSXSXSXSXSXMXnXnXnXMXVXKXJXGXGXGXJXJXJXGXSXJXJXKXKXKXSXBXpXrX2X'.'.6X6X>X3X2XeX3X].[.{._.].2X8XrXhXnXBXBXnXgXpX7X3X8XpXvXMXMXvXrX7X2X7X,X>X,XeXtXrXeX3XeXtXcXvXvXcXaXaXaXpXhXgXnXBXDXDXDXDXVXSXSXSXDXDXvXnXvXgX",
"7X2X2X2X3X3X3X7X7X3X3X,X>XXXXXXX2XXXoXOX0XiX9X6X0X.X].}.2XrXpXeXrXrXrX7X,X>X,X<X<X7X7X7XwXtXtXtX<X3XwXwXwXeXeXwX3XwXwXwXeXeXwXwX3X<X3XwX3X<X<X<X<X3X3X3X3X3X3X3X3X3X2X3X7X3X2X,X9X8X8X8X7X7X6X,X2X2X2X6X7X8X9X9XpXpXpX2X}.'.|.'.8X8XrXhXhXaXaXaXhXrX7X2X8X9X9XrXhX9X6X6X9X8X8XpX8X8X8X9XrXpXrXeXaXpX9XpXiXoX|..XoX4XiX0X2XeXaXaXhXgXnXBXnXnXBXBXgXhXsXpXpXpXpXpXaXrXrXrXaXfXcXvXcXMXMXvXcXcXcXcXnXMXcXcXnXbXtXhXMXMXnXVXMXnXvXMXnXcXtXrXwXeXfXnXcXnXMXnXfXhXhXfXvXvXgXfXfXcXfXaXaXaXfXfXgXgXgXgXnXMXnXnXnXMXnXvXnXMXMXMXnXnXMXMXaXvXMXMXMXvXvXMXMXVXVXMXMXMXMXMXVXcXfXrX<X,X<X<X<X<X<X:X:X>X,X,X<X3XeXaXvXVXVXVXMXVXVXvXaXwX3X<X<X,X>X,X<X3X3X3XuXuXwX3XwXeX<XwXwXhXfXcXMXMXnXnXMXnXnXSXJXMXMXSXAXbXfXcXnXcXcXcXcXnXMXMXMXMXMXnXMXMXMXVXSXMXMXnXnXcXcXnXMXMXMXVXVXMXMXnXvXvXvXnXmXmXMXMXMXMXPXMXJXJXKXSXVXMXMXMXDXeX>X'.)._.2X9X7X3X.X].'.[.]..XrXfXMXnXvXnXVXSXSXSXnXaXrXeXrXhXeXaXvXSXVXhX8X3X7X3X3X7X7XrXvXVXVXVXKXKXKXJXSXVXSXVXVXVXDXKXKXKXSXSXSXSXDXSXSXSXnXnXnXcX",
"7X7X7X3X3X7X7XeXeX8X7X3X2X2X2X2X0X2X2X0X9X0X0X2X2XXX2X0XpXhXpXrXrXrXwX,X.X].:X<X3X<X:X].].:X<X<X3XwXeXwXwXwXwX3X7X3XwXwXwX3X3X3XwX3X3X3X3X<X3XwX<X3XwXwXeXeXeXeX3X3X2X2X7X7X7X,X6X8X8X8X6X2X,X6X>X2X7X8X8X8XrXpX9XpXsX9X.X|.|.'.rXrXrXrXrXrXrXrXrXrX7X2X6X6X6X8X9X9X0X9XpX9X8XhXsXrX8XpXfXgXpX8XpX8X0X9X|.UX; ; {.+XiX4X2XsXfXeXrXhXgXnXnXgXjXjXgXhXpXrXsXsXhXhXfXhXhXfXvXMXMXMXSXVXvXaXfXvXMXMXbXMXfXdXnXcXrXfXcXcXcXMXMXMXMXMXSXnXfXrXrXtXcXMXvXMXVXnXhXrXrXtXvXvXvXgXvXMXvXfXaXaXhXaXaXaXaXrXtXfXgXcXnXMXMXnXnXMXMXMXMXnXnXnXvXMXvXvXMXMXvXVXMXMXMXvXfXMXMXMXVXnXvXvXcXfXtXtXfXtXwX<X<X<X<X<X3XeXcXMXVXKXKXKXVXJXKXKXMXaXwX3XwXwXwXeXeXwX3X<X<X:X:X}.:X>X:X3XaXvXMXMXSXMXnXMXMXcXcXMXSXnXMXKXMXcXfXnXnXfXfXnXnXMXSXSXVXVXMXMXMXMXMXMXMXMXnXnXnXcXfXcXvXvXnXMXMXMXMXMXMXMXmXcXnXMXMXMXMXmXMXMXMXVXVXMXMXvXvXvXfX7XrX8X.XXX9X6X>X}.[.}.eXfXMXgXnXDXKXKXSXSXKXKXSXSXnXvXvXvXgXfXeX8XrXvXSXVXnXvXhXrXaXvXMXVXSXVXKXKXKXKXJXKXSXVXSXSXSXSXSXSXSXSXDXSXSXSXSXSXSXSXSXSXSXnX",
">X8X6X8X3X3XcXaXeXrXeXeX8X0X0X2X0X0X9XpXsXiX0X0XpXoX[.[..X9XpX9XhXrXeX8X3X.X}.}.}.].[.[.[.[.'.].<X<X3X3X3X3X<X<X3X3X<X<X<X<X<X<X<X<X7XwX7X7X7XwXyXwX7XwXeXtXrXwXeX3X2X7X7X2X2X7X6X7X7X7X2X2X2X2X2X2X8XrXrXrXrXpXpX0X9XpX2XXXXX}.8X8X8XrXrXrXaXhXhXaXrX6XXX,X6XOXXX2X2X2X8XpXhXhXhXBXBXBXnXpX7X7X0X2X: : : - ; - _.@XjXiXsXpXeXaXrXhXvXnXnXnXBXDXVXnXgXfXgXnXCXnXMXvXvXnXBXSXVXVXSXBXcXfXvXMXMXcXnXbXbXcXcXvXnXcXnXMXVXVXVXVXVXVXVXMXvXMXBXMXBXSXVXVXMXvXcXfXaXrXgXcXvXvXnXMXvXhXfXcXcXfXhXfXgXfXfXfXfXhXcXMXMXnXnXMXMXnXnXMXVXMXvXMXMXnXnXMXMXMXMXMXnXcXvXMXMXMXMXMXVXJXJXSXMXnXcXcXcXcXcXcXcXcXcXnXBXVXVXKXKXVXKXKXVXVXMXnXvXcXcXmXMXnXmXcXtXtXwXuX<X:X:X:X>X<XrXcXSXSXSXMXMXMXJXvXaXcXmXmXnXMXMXcXcXnXMXMXMXMXVXMXMXMXVXSXVXVXMXMXMXnXnXMXMXMXSXMXMXVXJXMXMXMXSXMXMXnXMXMXVXJXMXMXMXMXMXFXPXGXGXGXVXVXVXMXvXgXfX8XeXgXnXgXgXgXSXVXgXVXKXSXKXnXSXSXSXSXSXVXVXVXnXMXSXJXKXKXSXSXfXhXgXnXSXMXMXSXSXVXVXVXDXDXSXVXVXVXVXVXVXVXSXSXSXVXMXMXVXSXVXVXSXVXMXSXSXSXSXSXSXSXSXSX",
"'.'.[.'.[.'.XX}.'.>XeXpXpX9X8X0X0X4X0XiXsXsXiXiXgXsX9X9XsXgXgXhX7X3X,X,X3X7XwXeX7X3X3X3XwXwXwX3X3X3X3X3XwX3X3X3X3X3X3XwXwXwX3X3X3X7XwXwXwXwXwXwXyXyXyXrXrXtXtXrX7X3X,X,X>X.XXX2X2X7X8X7X2X2X6X6X7X8X9XpXpX9X9XrXpX9X9X9X0X7X0X7X8X7X7X8XrXrXaXfXvXvXvXhX8X9XhX9XpXpX9X8X8XpXhXhXrXpXpXpXhXpX7X7XpX2X: ).).: :  X+XiXiX@XpXhXpXpXgXnXnXgXgXnXDXKXDXVXBXBXBXBXBXDXVXMXMXMXBXVXVXVXvXcXfXfXvXMXMXMXSXAXMXMXMXMXMXMXnXnXVXSXVXBXBXBXMXvXvXVXVXBXMXVXSXKXSXVXvXfXfXcXvXvXvXcXcXvXgXhXcXnXSXVXMXnXnXcXvXcXfXfXnXSXSXMXnXMXnXnXnXMXMXnXvXMXMXMXMXSXSXMXSXSXSXVXMXMXvXfXfXfXcXMXSXVXMXMXnXnXMXMXMXMXnXmXvXVXVXVXVXKXVXVXVXKXKXVXMXnXvXvXGXGXGXGXGXMXMXnXnXnXmXcXcXcXcXcXnXSXSXVXMXMXSXSXSXnXcXcXcXcXnXGXcXfXfXcXMXMXMXMXMXnXvXnXMXVXMXMXnXnXnXnXnXMXSXSXSXMXMXVXSXSXJXKXSXSXSXSXVXMXMXMXMXMXPXGXJXJXJXJXKXJXKXJXVXMXMXvXMXBXDXKXKXDXSXLXSXSXVXSXSXSXKXSXVXVXDXDXSXVXVXSXSXSXJXKXJXJXSXSXSXSXSXSXSXMXSXSXKXSXDXVXBXnXvXgXMXMXVXVXVXVXVXSXSXSXSXSXSXSXSXSXMXMXMXSXSXSXSXSXSXSXSXSX",
"6X7X7X8X8X8XpX3X>XeXaXaX9X2X2XOX0X2X0X9XsXsXsXsXhXhXgXgXgXhXhXpXfXrXeXeXeXeXeXeXeXeXeXtXcXcXtXwXeXeXeXeXeXeXwXwXeXyXtXtXtXtXtXyXwXyXeXeXyXyXyXyXrXrXrXrXyXwXwXwXeX7X7X,X.X].}.>X6X8X8X8X6X2X8X9X9XeXrXpXrX9X9XrXrXrX8X8XrX8X8XrXeX7X7X8XrXaXaXaXrXeX7X>X.X,X9X9XpXpXrX8X8XrXrXpXgXgXhXhXhXhX9X9X'.'._.oX+X_._._.'.@XiX0XpXpX9XrXhXgXvXvXvXMXBXBXSXSXVXBXMXvXvXvXgXvXvXvXvXvXvXMXvXvXnXMXMXVXVXSXVXMXMXAXSXSXVXMXfXMXVXSXMXvXvXvXfXaXcXVXVXVXVXKXSXMXcXfXfXaXaXvXMXMXnXvXcXnXnXvXMXSXSXSXSXMXMXnXMXMXnXnXMXKXSXMXMXSXSXVXMXMXMXvXvXMXMXMXMXSXSXMXMXSXSXVXSXSXMXvXfXtXfXnXJXJXZXMXnXnXnXnXMXnXcXcXMXVXVXVXVXVXMXvXvXMXVXVXMXMXVXVXVXMXMXMXMXMXVXGXGXGXJXGXMXMXMXVXMXAXMXnXcXnXMXMXnXcXcXcXzXtXtXNXcXdXtXcXMXMXMXMXMXnXcXvXMXMXMXvXMXnXnXnXnXMXSXJXMXMXvXcXcXcXcXMXMXMXMXMXMXMXMXMXnXnXMXMXMXMXPXMXSXSXSXSXVXMXMXMXfXDXDXBXSXBXMXHXVXKXSXSXVXMXKXKXBXVXVXVXVXSXSXKXKXJXJXSXSXSXSXSXSXSXSXSXSXVXSXLXKXKXSXDXVXMXgXhXvXvXMXVXVXVXVXVXSXVXVXSXSXSXSXMXMXMXMXSXSXSXSXSXSXSXSXMX",
"8X9XrXhXaXaXaX7XaXaXaXaXsXpX9X0X9X0X9XsXsXsXsXhXgXgXgXjXgXhXhXhXeX7X7X7XeX7X3X3XrXrXrXaXaXaXtXeXtXtXtXtXtXtXtXyXtXtXtXaXaXtXtXyXeXrXtXtXtXtXtXtXtXtXtXrXyXwXwX7XeXeXeX7X,X.X>X7X8XeXrXeX8X8XrXhXrXrXhXhXhXrXrXrXrXhXrX8XrX7X>X8X8X7X3X7XeXrXeXeXaXeX8X3X,X8XhXhX6X8XrXpXhXhXhXpXhXhXpX9X9X8X2X2X9X0X0XiXOX_.{.: _.+XiXiXhXpXpXaXnXSXJXSXSXDXVXMXfXfXcXfXaXrXrXpXrXaXfXgXvXvXvXMXVXVXVXVXVXVXSXSXMXMXMXSXSXMXMXnXaXfXMXVXMXcXfXfXfXaXfXvXMXVXVXKXVXrX,X3XrXaXaXcXMXMXMXnXvXnXVXVXMXMXMXvXcXcXnXnXMXMXnXnXMXMXMXMXMXSXSXSXSXVXMXnXvXvXnXnXnXMXMXMXnXnXnXnXMXSXSXSXnXnXnXAXJXJXMXMXMXMXnXMXGXJXMXnXBXVXMXnXvXvXvXcXaXcXvXMXvXcXMXSXmXcXcXcXmXnXnXMXnXnXmXcXtXtXcXcXcXnXnXbXnXnXnXcXnXcXcXcXtXyXtXcXcXcXcXnXMXJXJXSXVXMXMXMXMXVXVXMXMXMXMXnXnXnXMXMXMXvXcXfXtXtXfXfXMXMXMXMXMXMXVXVXJXJXSXMXMXMXVXJXMXMXVXMXVXVXVXVXvXKXVXvXKXKXnXBXMXSXSXSXMXvXSXKXVXVXVXSXVXSXKXKXKXJXJXSXSXSXSXSXMXMXSXMXnXnXMXSXSXSXSXDXSXVXMXvXvXMXMXVXVXVXVXVXMXnXMXMXVXVXMXnXnXnXnXMXSXSXMXMXMXnXnXnX",
"hXhXhXpXeXhXnXnXaXaXaXgXgXgXsXiX9XpXsXsXsXpXpXpXgXhXpXaXgXvXgXhXaXpXpXhXfXaXtXtXrXrXaXaXaXaXaXaXtXtXtXtXtXtXtXyXtXyXyXeXeXeXyXyXtXtXtXtXtXtXtXtXaXtXtXrXtXtXrXwXeXeXrXrXrXrXpXhXhXpXrXrXpXhXhXhXhXhXhXdXrXrXeX7XrXhXrX8X8X,X>X8X8X8XwXeXrXrXwX<X8X7XeXhXhXgXhX8XXX,X8XpXaXpXrXrXhXvXhXhXhXpXrXhXhX6X9XiXjX9XBXjXiXjXhXhXjXDXBXMXSXAXbXtXrXeXwX7X<X7XwXeXeXeXtXaXrXfXnXBXVXVXVXSXSXVXnXnXMXMXMXMXMXMXMXSXSXMXvXcXaXfXMXMXMXvXcXcXvXcXcXvXcXcXvXnXvXwX>X3XfXvXvXMXnXMXMXnXnXnXMXMXMXMXvXfXfXfXcXMXcXcXnXvXcXcXcXnXnXMXVXMXMXMXMXnXnXnXcXcXvXnXMXVXMXMXMXnXnXMXMXMXSXMXnXMXMXMXnXcXnXcXcXcXMXPXJXPXVXVXMXvXcXvXvXcXaXcXvXvXcXaXcXMXnXcXcXnXMXnXnXMXnXnXcXcXaXaXcXvXbXnXnXnXMXSXMXnXMXMXMXnXNXcXcXcXnXnXnXnXMXJXKXSXJXSXMXMXVXVXVXVXMXVXVXVXMXMXnXnXnXvXcXcXnXMXnXcXMXJXJXSXMXMXnXcXnXnXnXvXcXcXcXnXnXMXMXMXMXMXVXVXMXLXSXMXLXLXMXBXMXJXJXLXKXMXJXKXVXSXSXSXVXVXSXJXJXJXSXSXSXSXSXSXSXSXMXnXnXnXgXgXBXBXSXDXSXDXSXVXBXVXVXSXSXVXVXVXMXMXVXSXSXSXVXMXvXvXnXnXMXMXMXnXnXvXcXcX",
"pX9XhXrX8XaXfXvXvXvXgXhXpX8XiXsXsXsXsXhXpX9X8XrXrX8X7X8XpXaXrX8XaXrXeX8X7X3X3X3X3XeXrXaXaXtXtXtXtXtXtXtXtXtXtXtXtXtXtXtXtXtXaXaXtXtXtXtXtXaXaXtXtXeXwXeXtXaXtXrXaXtXpXhXgXgXfXhXhXhXpXhXhXgXhXhXhXhXdXrXeXeX8X7XrXrXeX8X7X2X8XhXrXhXfXgXcXfXtXrX,X:X<X8XeXrX8X,X7X7XrXpXpXrXrXpXpXfXhXpXpXrX9XhXhX9XhXhXBXhXBXjXDXBXBXnXnXSXSXSXLXLXJXMXnXnXcXtX7XwXeXtXaXaXfXcXfXgXnXMXBXBXVXVXSXBXvXvXvXMXMXMXMXvXnXMXMXvXfXcXvXMXMXVXVXBXBXMXMXMXMXMXcXaXrXeXtXrXaXvXMXMXVXKXMXSXVXMXMXMXnXnXMXMXMXnXnXnXnXMXcXcXnXnXvXcXnXMXnXMXMXMXMXSXSXMXSXMXnXnXnXnXMXSXMXMXMXMXMXSXMXnXSXMXbXnXMXMXnXcXtXtXtXtXcXnXMXMXKXVXMXvXvXMXMXMXvXvXnXBXMXvXMXKXMXnXnXMXSXMXMXMXnXnXMXMXMXMXMXnXMXAXMXnXnXMXMXnXnXnXnXMXPXMXMXnXnXnXnXnXMXSXSXMXVXMXMXnXMXMXMXMXMXMXSXSXSXVXMXMXnXnXnXnXnXMXcXfXaXnXSXSXMXnXcXtXrXtXfXaXeX7XwXrXgXvXnXcXvXvXvXMXcXSXVXnXBXBXvXMXMXKXSXKXJXVXJXVXVXSXSXVXMXMXMXMXMXVXSXJXKXKXSXSXSXSXMXnXSXSXnXgXnXnXBXSXDXDXSXVXDXVXSXSXSXSXVXVXSXSXSXSXSXSXSXMXcXcXcXnXnXMXMXMXMXnXMXMX",
"8X8XgXhXaXvXaXfXfXaXsXsXiXpXgXDXgXhXpXpXpXrXrXpXpXrXrXrXaXaXrXeXrXeXrXrXrXeXaXfXrXaXaXfXcXcXcXcXzXzXzXzXaXaXaXaXaXaXaXzXzXcXcXcXcXfXtXtXtXtXtXtXwXwXwXyXtXtXtXtXvXfXhXhXhXfXhXpXhXhXhXhXhXhXhXhXdXdXdXrXrXrXeX7XdXeXeXeX8XeXhXfXrXgXnXnXnXnXbXfXfXrXeXrX9XrXhXhXnXMXnXVXnXvXnXVXDXSXBXnXnXjXhXnXgXhXjXhXgXgXnXAXgXnXSXSXvXvXMXMXcXNXMXMXJXJXnXcXcXcXcXcXcXcXcXcXvXvXgXgXvXvXMXMXVXVXMXMXMXVXVXVXnXcXfXcXcXfXcXMXVXMXMXVXVXBXVXBXBXBXBXBXnXcXaXtXaXcXBXVXVXVXVXSXSXSXSXMXAXAXMXnXnXnXMXSXSXMXnXnXnXnXnXMXVXMXMXSXVXSXVXMXMXKXKXJXJXSXMXSXSXMXMXJXnXMXMXMXMXSXSXMXJXMXcXnXMXZXMXMXNXNXNXnXMXMXJXJXJXKXVXMXBXVXVXMXMXnXMXVXGXVXVXKXSXnXnXZXSXMXMXAXnXnXnXnXMXMXnXnXMXMXnXcXcXcXcXcXbXcXnXMXPXPXMXNXnXnXnXnXnXMXMXMXMXMXnXmXvXvXmXMXvXnXMXMXMXMXMXnXvXMXMXnXcXaXtXrXyXcXMXnXnXnXvXfXfXcXcXrX,XXX7XeXrXhXhXhXhXhXvXMXVXVXVXVXVXVXMXMXvXVXMXSXSXMXSXMXSXSXKXSXMXMXMXnXMXMXMXJXSXSXSXSXMXnXnXvXnXDXSXSXBXBXBXBXSXSXVXVXDXVXVXVXSXSXSXVXSXAXMXAXSXSXAXMXnXnXnXnXnXMXAXAXSXSXSXJX",
"hXrXnXgXhXBXvXMXvXfXaXgXBXCXgXgXBXhXrXrXaXhXhXfXvXvXfXaXtXrXtXaXeXrXaXfXaXrXaXfXvXfXfXfXcXcXcXcXcXcXcXcXcXcXcXcXaXaXzXcXcXcXzXaXcXcXtXtXtXtXtXrXyXrXtXtXtXtXtXfXaXhXaXaXaXfXgXgXhXhXfXhXaXpXpXrXrXtXrXrXrXfXdXrXhX8XeXhXrXdXfXeX8XrXfXgXfXcXcXcXhXrXtXdXeXrXhXfXvXMXVXSXBXnXnXVXSXVXvXhXnXnXgXnXnXnXAXvXMXnXMXJXKXnXvXvXvXvXvXtXcXbXcXcXNXMXMXnXcXcXcXmXMXMXMXnXVXMXvXgXMXVXVXVXMXVXVXVXMXMXMXVXSXvXfXgXcXcXMXSXVXMXMXMXBXBXBXMXMXVXMXMXMXBXVXVXVXVXVXVXGXJXVXMXSXAXnXnXnXAXMXnXnXcXnXMXMXnXcXnXMXcXcXMXJXSXVXVXVXSXMXnXMXSXKXJXJXSXJXJXJXSXMXSXJXSXMXcXnXMXSXSXJXnXcXnXMXJXMXMXMXMXPXMXMXnXnXnXKXKXVXVXVXKXVXMXKXMXMXMXMXcXcXnXKXnXnXZXJXSXMXSXSXnXcXcXcXnXnXcXbXnXMXnXcXcXcXcXbXNXMXMXMXMXMXNXNXnXnXnXnXMXMXnXMXMXMXmXcXvXmXnXcXcXvXvXnXvXvXvXcXMXJXMXcXaXfXfXcXMXMXnXcXnXnXnXfXgXrX,X'.'..X,XrXrXhXhXgXvXVXKXKXvXcXMXVXKXVXcXnXMXnXMXMXnXSXMXSXKXJXJXSXMXMXMXMXMXMXMXMXMXMXAXnXMXnXgXgXnXMXnXSXSXVXSXSXSXDXVXVXnXMXnXVXSXSXSXSXSXAXAXSXSXSXSXSXSXMXnXnXMXMXMXMXMXSXSX",
"pXgXMXMXMXvXcXcXgXvXvXvXMXvXhXpX7XaXgXrXrXhXhXrXtXfXcXcXcXcXcXcXcXfXaXfXfXfXfXcXvXfXfXcXvXcXfXfXfXvXnXcXcXcXcXcXcXcXcXcXcXcXcXcXvXcXcXcXcXcXtXeXtXfXfXtXtXtXtXtXcXaXaXaXaXfXfXfXfXaXaXaXtXaXaXaXtXfXgXtX9XhXhX9X6X.X6X9X6X7X8XpXfXfXfXhXhXfXfXgXfXfXhXrXrXrXhXvXnXnXMXnXvXcXcXvXMXvXpXrXgXnXvXBXMXMXVXMXnXnXnXnXMXMXMXMXMXMXnXnXnXbXcXcXnXnXNXcXcXcXNXNXNXbXNXNXvXMXMXfXcXMXMXnXMXMXMXnXnXMXMXMXMXnXnXMXnXnXMXJXvXcXcXnXMXMXVXMXVXVXVXJXJXKXSXMXVXSXVXMXMXVXVXMXVXMXMXMXnXnXnXbXcXcXnXMXMXMXMXnXMXnXNXbXNXnXMXMXNXNXNXNXMXMXPXJXMXMXGXGXGXVXMXMXMXGXMXcXcXMXVXMXSXnXcXcXnXMXVXVXKXSXVXMXMXVXVXVXKXKXKXKXKXVXMXMXMXMXVXSXcX3X3XtXnXMXMXMXPXJXJXJXnXcXcXcXcXcXnXJXMXJXJXZXMXMXPXJXKXJXMXMXMXMXMXnXMXnXnXnXMXMXMXMXnXMXMXMXMXnXMXMXMXnXcXcXnXnXnXcXnXvXvXnXMXMXMXMXMXSXVXnXcXcXnXnXaXfXaXwX3X3X7X3XaXtXrXaXnXSXJXSXSXnXfXfXvXnXMXnXnXnXnXMXMXMXMXMXMXMXMXMXMXMXMXMXnXMXMXPXJXJXMXMXnXnXcXaXtXcXnXMXnXnXSXSXSXSXSXAXSXSXSXAXMXAXSXSXJXJXJXJXJXSXSXSXVXVXVXVXMXMXMXMXMXSXSXJX",
"fXgXvXvXcXfXfXcXfXfXfXgXcXgXaXrXeXaXaXwX3X8XrXtXtXtXaXzXcXcXcXcXnXnXnXMXnXvXnXMXnXcXcXvXnXcXcXfXfXcXcXfXfXfXcXfXcXcXcXcXcXmXmXmXvXcXcXcXvXcXfXtXaXfXfXtXtXtXtXtXaXaXaXaXcXcXcXfXaXtXtXaXaXaXaXaXcXtXaXgXhXrXpX9XoX_.|.9XgXhX7X7X7XwXrXaXfXhXaXrXeXrXrXrXrXaXvXnXnXMXSXSXMXnXnXnXSXVXgXfXMXVXMXBXMXPXPXMXMXMXMXMXMXMXMXMXMXMXMXMXnXnXnXMXMXMXnXcXcXcXNXNXbXcXNXcXMXMXcXeXrXcXnXcXMXMXMXMXMXSXSXSXMXnXnXMXMXVXSXJXMXnXnXnXMXMXMXMXMXMXMXVXJXJXJXSXMXMXMXnXMXVXVXMXMXMXMXMXnXnXbXcXcXbXMXPXPXPXMXMXMXMXMXMXMXMXMXPXMXMXMXMXMXMXPXMXMXMXMXMXMXMXMXMXmXMXnXcXcXMXMXnXMXnXcXcXnXMXMXMXSXVXMXMXMXMXnXnXMXMXVXVXBXMXvXvXvXvXMXBXcXeXeXtXJXJXJXJXJXJXJXPXMXMXnXnXnXcXnXJXMXMXJXJXJXJXJXJXJXMXMXMXPXJXMXMXMXnXnXnXMXMXMXMXMXMXSXMXMXMXMXMXMXnXnXnXMXMXnXnXMXMXnXMXMXMXnXcXcXcXnXcXcXcXcXcXvXaXeXeXcXVXvXeXeXrXaXcXVXJXSXMXnXvXcXcXvXvXvXvXnXMXVXSXSXMXMXnXnXnXnXMXMXMXMXVXMXPXPXJXJXJXJXJXMXMXnXcXcXnXMXMXnXnXMXSXSXSXSXSXSXSXSXSXSXSXSXSXSXSXSXSXSXSXSXJXVXSXSXSXVXVXVXVXMXSXSXSX",
"fXcXcXfXaXaXfXcXfXfXaXfXfXfXtXrXcXcXfXrX7X3XeXaXtXtXfXfXcXcXnXMXvXnXMXMXnXcXnXVXMXvXcXvXnXcXfXfXfXfXfXfXtXfXfXfXcXcXcXcXvXvXmXnXcXcXcXcXcXcXfXtXfXfXaXtXtXcXcXfXcXcXaXaXaXaXtXtXeXeXeXtXtXaXtXtXvXcXcXgXpX9X8XOX).- : _.pXnXrXaXaXaXfXcXvXcXaXeXeXeXeXrXaXfXvXMXnXMXSXSXSXSXMXVXSXSXVXMXSXSXVXVXMXMXMXMXnXnXnXMXMXnXnXMXMXMXMXMXnXnXMXSXJXMXMXnXMXMXMXMXMXMXMXMXJXSXcXtXtXcXnXcXMXMXMXnXMXMXMXMXnXcXcXvXMXVXMXVXSXMXMXMXMXVXVXMXSXMXMXMXJXJXKXJXJXJXVXMXMXVXSXVXVXAXAXAXMXnXnXcXcXnXMXMXJXPXMXMXnXMXMXMXnXnXMXJXJXJXMXMXMXMXMXMXnXnXMXMXMXMXnXnXcXnXnXcXvXMXMXnXMXnXnXnXMXMXMXnXMXMXMXMXMXnXcXcXcXcXvXnXnXvXvXvXMXMXMXVXBXvXvXcXMXnXnXnXMXJXJXMXMXMXMXMXMXnXMXMXMXMXSXSXJXJXSXJXMXMXnXnXMXSXSXMXMXnXnXnXMXMXMXMXSXSXSXMXMXMXMXSXMXMXnXMXMXMXnXvXnXnXnXvXvXcXcXcXcXcXcXcXcXnXnXcXvXvXvXvXMXVXVXMXvXnXMXSXSXJXSXnXnXnXnXnXnXvXcXcXnXMXSXKXKXSXMXnXnXMXMXMXMXMXVXSXMXPXJXJXJXJXJXJXVXMXnXvXMXMXMXnXMXnXMXMXAXSXSXSXJXJXSXSXSXSXSXSXMXMXMXMXMXSXJXJXSXSXJXJXKXKXSXVXMXMXMXVX",
"fXfXfXaXtXaXfXcXcXfXfXfXfXtXrXrXtXrXrXrX7X,X,X3XwXyXyXrXtXtXtXfXfXaXfXfXfXfXfXnXvXgXfXcXcXcXfXfXcXcXcXcXfXfXcXcXnXvXcXvXcXcXcXvXcXcXcXcXcXcXaXtXfXcXcXcXvXMXMXvXvXcXaXtXeXeXwXwXwXeXeXeXwX3XwXeXcXMXMXrX8XhX9X.X: - - ).7XnXfXVXKXSXMXMXBXMXvXfXfXaXfXfXvXMXMXnXnXMXVXSXSXSXSXSXSXSXVXVXKXSXVXVXVXMXMXnXvXvXnXnXnXnXnXnXMXMXMXMXMXMXSXJXJXJXJXMXKXKXJXJXJXJXJXKXKXKXMXvXnXJXSXnXMXMXMXnXnXnXnXnXcXcXfXcXMXMXMXVXKXJXMXMXMXVXVXMXMXMXMXMXJXKXKXJXKXJXVXMXMXSXKXSXSXSXSXSXSXAXMXnXnXnXnXMXPXPXPXMXnXMXMXnXnXnXMXPXMXMXMXnXnXMXMXMXnXnXnXnXnXMXMXMXvXMXMXnXMXVXVXMXMXMXnXnXMXMXMXnXMXMXMXMXMXnXcXcXcXvXnXMXMXMXBXVXVXVXVXVXVXKXSXMXcXcXcXcXnXMXMXMXnXnXnXMXMXMXMXMXSXSXMXMXMXMXMXMXMXnXnXnXnXMXMXnXnXnXnXnXMXMXMXMXMXMXMXnXnXnXnXMXnXnXnXMXMXMXnXcXcXcXcXvXnXnXnXnXMXnXcXfXcXnXMXnXfXVXKXSXvXcXnXVXKXJXJXSXSXVXMXMXMXVXMXMXnXnXnXvXcXnXMXSXSXSXMXMXSXSXSXVXVXVXSXSXMXMXPXPXPXPXPXPXSXMXMXnXVXSXVXnXMXMXMXMXMXMXSXSXJXJXJXSXSXSXSXZXJXSXMXMXMXSXKXKXSXSXSXJXKXKXKXVXMXMXMXMX",
"aXfXfXfXfXfXcXcXnXcXtXaXaXrXwXwXrX7X<XwXwX<X,X<X7XwXrXrXrXrXrXrXtXwX7XwXrXtXtXfXfXtXtXfXfXfXaXaXcXcXcXfXfXaXfXfXaXtXaXcXcXfXcXnXnXnXcXcXcXcXfXtXfXcXcXcXnXMXnXcXaXtXeXwX3X3XwXeX<X3X3X<X}.}.:X<XtXvXMXtXeXgXgX8X'.'.'..XfXSXcXnXVXMXvXvXBXVXSXVXMXMXMXMXVXVXMXMXMXMXMXnXMXMXSXSXSXSXVXVXJXSXMXMXVXMXnXcXcXnXnXMXnXnXnXMXVXVXVXMXMXMXSXJXJXJXKXKXJXJXJXJXJXLXLXLXJXJXVXMXSXJXVXcXMXVXMXMXMXMXMXnXnXcXnXMXVXVXSXJXJXSXMXMXMXMXMXMXnXnXMXMXJXJXSXSXMXMXnXvXvXVXVXMXMXAXSXSXSXSXMXMXnXnXNXNXnXnXMXMXMXNXcXcXcXnXMXMXnXNXcXcXcXcXcXcXnXnXnXnXnXnXnXMXcXnXnXnXnXMXMXnXMXnXvXvXnXMXMXnXMXMXnXMXMXMXMXnXMXMXBXVXVXVXSXKXMXVXVXMXMXBXMXvXMXMXnXnXnXMXnXcXnXnXnXnXnXnXnXnXSXMXnXnXnXnXMXMXMXMXnXnXnXnXnXnXcXcXcXcXnXMXMXMXnXnXnXcXcXcXnXnXvXnXnXMXMXnXvXcXcXcXnXnXMXMXSXSXMXnXcXfXcXnXMXnXMXVXVXBXMXMXvXcXVXMXMXnXMXMXSXJXSXVXnXnXnXMXnXnXvXnXnXMXMXMXVXVXKXJXJXJXSXSXSXSXJXJXPXPXMXMXVXVXSXVXMXMXSXKXSXMXJXSXMXMXMXMXMXSXJXJXJXJXSXSXMXMXJXSXMXMXMXSXJXJXVXVXSXSXSXVXVXVXMXMXMXMX",
"tXtXfXfXcXfXfXfXcXtXrXtXtXyXwXwXrX7X<X7XyXyXwXwXwXrXtXfXfXfXfXaXeX3X,X<X7XwXeXrXrXrXeXrXtXtXtXtXrXrXeXwX7X3X7X7X7XwXyXfXcXcXvXMXMXMXnXnXcXcXcXfXtXfXtXtXtXtXrXwXwXwX3X3X3XeXtXaXMXMXMXcXtXeXaXvXmXcXmXvXfXfXnXgXhXhXnXgXVXJXnXnXvXcXfXvXBXVXVXMXBXVXVXVXVXVXVXVXSXSXMXnXnXMXMXSXSXKXVXVXBXMXvXvXvXcXfXaXfXcXnXnXvXvXnXnXMXMXMXnXcXcXnXnXnXnXMXMXnXnXnXMXPXPXPXPXJXKXMXnXMXMXMXcXcXnXnXnXnXMXMXnXnXnXMXVXVXMXSXJXVXMXnXnXnXMXMXMXcXcXnXnXMXMXMXnXMXMXnXvXMXVXVXMXMXMXMXMXMXMXnXnXnXnXNXcXcXnXMXMXnXNXbXbXnXnXnXnXMXnXNXcXcXcXcXcXvXcXcXcXcXvXnXnXcXcXcXcXcXcXcXcXnXcXcXcXcXvXnXnXMXnXnXnXMXMXMXMXBXVXVXVXVXVXVXKXnXMXMXvXcXcXcXcXnXMXMXnXnXMXnXnXMXMXnXnXnXnXnXcXnXcXcXcXnXMXMXSXMXMXMXnXnXnXnXnXcXcXcXcXnXnXnXMXnXnXnXnXcXcXnXnXnXnXMXMXMXMXnXvXcXcXnXnXnXnXMXMXnXnXvXvXMXSXMXnXMXMXnXMXVXVXMXvXMXnXMXMXMXMXMXSXSXMXnXnXnXMXMXnXMXMXMXnXnXMXMXVXMXVXSXJXJXJXJXSXJXJXJXJXPXPXSXSXSXSXSXVXSXKXKXSXKXSXMXMXMXMXMXSXJXSXSXSXMXMXMXMXSXSXMXMXMXMXMXMXMXMXMXVXVXVXVXBXMXMXMXMX",
"tXaXfXfXfXfXtXtXtXyXyXtXaXtXrXtXyX<X<X<XuXwX3X<X,X<X7X8XwXwXwXwXwX3X<X3X7X7X7X7X7X3X3X7XeXwXwXwX7X<X,X<X,X,X,X7X7XwXtXcXvXcXnXSXSXMXMXnXnXvXcXcXcXcXtXyX7XwXwX7XeXeXrXrXtXaXcXMXvXMXMXvXcXcXvXMXHXMXMXVXvXgXvXvXBXvXBXnXfXMXMXVXMXMXMXMXBXMXMXvXMXBXVXVXVXVXVXSXSXAXMXnXcXvXnXnXMXVXMXvXMXvXfXvXcXfXtXtXtXcXcXvXcXcXcXnXMXMXvXcXfXcXcXcXcXcXcXcXcXcXcXmXnXMXMXmXJXSXMXnXnXnXnXcXfXcXcXcXvXnXnXnXnXvXvXMXMXMXMXMXMXnXnXvXnXMXMXMXcXbXbXnXnXnXnXcXMXMXMXnXMXVXVXMXMXnXnXvXcXcXcXcXvXvXvXcXnXnXnXnXcXcXnXnXMXMXnXnXMXMXnXvXcXcXcXcXvXcXcXcXcXcXnXnXvXcXcXcXcXcXcXcXcXcXcXcXvXnXnXvXnXnXvXvXnXMXMXMXBXBXMXMXMXMXVXVXBXMXnXnXvXvXvXvXcXnXMXMXnXnXnXnXSXVXnXcXcXvXvXcXcXcXcXcXnXMXMXMXnXnXnXnXnXnXnXnXnXnXvXvXnXnXnXnXnXMXMXMXnXnXnXMXnXMXMXMXMXMXnXnXcXvXnXvXcXcXnXnXnXnXMXMXMXSXMXnXvXMXVXVXVXBXVXVXSXMXVXSXSXMXnXMXMXMXMXMXnXnXMXMXVXMXMXnXnXnXMXMXMXMXSXJXJXSXSXVXKXJXJXJXSXVXVXSXSXSXVXBXBXSXSXSXJXJXVXMXMXVXJXJXJXSXSXMXMXMXVXSXMXMXMXMXMXMXMXMXMXMXMXMXBXVXMXMXMXMXPXGX",
"fXfXfXfXfXtXtXrXtXwXyXfXcXcXfXcXtXtXeXyXyXyX7X,X:X>X,X<X3X7X7X8XwXwXwXeXwX7X7X7X<X,X,X<X7X<X<X<X<X,X,X7X7X7XwXtXaXaXcXMXMXcXvXMXSXMXMXnXnXnXnXnXMXMXcXtXwXeXtXtXfXcXvXvXcXvXnXMXBXBXBXVXGXKXKXKXVXVXBXnXvXVXVXhXVXaXMXVXcXvXmXMXVXVXVXMXMXMXVXVXMXVXVXVXMXMXBXSXVXMXnXcXcXfXfXfXfXvXfXfXvXvXfXnXMXvXcXaXfXcXcXcXcXcXnXMXMXMXnXcXcXnXMXMXnXcXcXcXcXcXcXmXMXMXMXNXcXnXnXnXvXnXcXcXcXvXnXnXnXnXnXvXMXcXcXnXMXMXMXnXMXnXcXcXnXMXMXMXnXnXnXcXnXnXnXvXvXnXnXnXMXVXMXvXMXnXnXcXfXfXcXcXcXvXnXnXnXnXnXnXcXnXMXSXMXMXnXnXnXcXcXcXcXcXcXcXnXnXcXcXcXnXnXMXMXnXnXvXcXcXcXcXcXcXvXnXMXnXnXvXnXvXcXvXnXnXMXMXMXMXnXvXvXvXMXMXVXvXvXMXMXnXnXMXnXSXJXSXnXvXcXcXMXMXcXfXfXvXnXcXcXcXcXnXMXMXMXnXcXcXcXcXcXnXnXMXMXMXnXnXnXnXnXcXnXMXMXMXMXnXnXnXnXMXMXMXMXnXnXnXnXMXMXnXnXnXMXMXnXnXnXcXcXnXnXvXVXVXVXVXVXVXVXVXKXVXMXVXVXMXMXMXnXMXSXSXVXMXMXVXMXnXnXnXnXnXMXVXVXSXJXJXKXSXMXMXJXJXJXPXMXMXMXVXVXSXVXnXvXMXVXVXSXSXVXVXVXSXKXJXJXSXSXMXMXVXSXSXMXSXSXSXSXMXMXMXMXMXMXMXBXMXMXMXMXMXGXJX",
"tXtXaXfXtXrXeXrXrXtXcXcXvXnXnXcXcXzXzXcXvXcXtXyXwX7X3X7X7X8X8X8XrXfXcXfXtXrXrXtXwXwXwXrXtXtXhXtXfXhXaXfXgXgXgXcXnXnXMXMXnXvXnXMXnXnXnXnXnXvXcXcXVXSXVXMXnXvXMXMXMXnXMXMXMXMXnXnXvXnXvXvXMXKXKXVXMXvXvXMXVXMXMXMXvXvXnXvXcXcXvXMXMXMXvXcXvXMXnXvXMXMXVXVXMXMXMXnXnXcXcXvXcXtXtXfXcXvXnXnXnXMXVXVXVXMXMXMXMXVXVXBXSXVXMXMXVXVXVXVXnXMXSXSXnXtXtXfXcXnXGXJXJXGXMXGXMXMXnXvXnXnXMXMXvXnXnXcXvXnXnXcXvXvXcXcXnXnXcXnXnXnXnXnXcXcXnXMXnXcXcXnXnXnXnXcXnXnXnXMXMXMXVXVXSXVXcXfXcXcXaXfXgXvXnXMXMXMXMXMXnXMXSXSXSXMXMXnXcXcXcXvXcXcXcXfXcXaXfXvXMXnXnXnXnXnXnXvXcXcXnXnXnXnXMXMXMXMXMXMXMXnXcXcXvXvXnXnXMXMXnXvXvXvXvXMXnXvXvXvXvXMXMXMXSXVXMXvXcXfXfXfXfXcXcXfXfXnXnXnXcXcXfXnXSXVXcXcXvXnXcXaXfXnXVXMXSXnXcXvXnXvXvXvXMXKXJXnXcXvXnXmXMXMXnXnXnXnXnXMXMXMXVXMXVXJXSXMXSXMXMXvXnXSXKXJXKXKXKXKXVXVXVXSXMXMXMXVXSXSXSXMXSXSXSXSXSXMXMXMXMXMXMXMXMXMXMXSXVXMXMXMXKXKXJXKXSXMXMXSXVXMXMXVXVXKXvXVXVXaXBXSXMXMXMXMXMXMXMXVXMXVXVXMXMXMXMXMXJXJXZXMXMXMXVXMXMXMXMXVXVXVXVXVXPXPXMXMX",
"cXfXfXfXtXtXrXtXcXcXcXcXcXnXcXfXcXcXcXnXMXnXcXcXfXfXaXhXfXfXfXaXvXMXMXMXnXcXcXnXfXgXcXvXnXnXMXnXMXvXnXMXvXgXcXnXnXcXcXnXnXnXcXvXMXnXcXcXcXcXnXnXMXMXMXnXcXcXvXMXnXvXvXcXcXcXcXcXcXcXcXcXMXVXVXVXMXvXvXMXMXMXvXvXvXvXvXcXcXfXcXcXvXvXcXaXcXvXvXcXcXcXvXnXMXMXMXMXnXcXcXvXcXfXfXcXvXnXnXnXnXMXVXVXVXMXMXMXMXVXVXMXVXBXMXVXSXSXSXVXSXSXSXSXnXtXrXrXcXnXMXMXMXMXnXMXnXnXcXcXcXnXnXnXnXnXnXcXcXnXnXcXcXcXfXcXvXcXfXvXcXcXcXcXcXcXvXnXnXcXcXcXcXnXnXcXcXcXnXVXSXVXVXMXnXnXcXfXcXcXfXfXcXnXVXMXMXSXSXMXMXVXSXSXMXMXvXcXvXvXcXcXvXnXMXMXfXfXfXnXMXnXcXcXvXnXnXnXvXvXvXvXcXnXnXMXMXMXMXMXMXMXMXMXMXMXMXMXVXVXMXnXvXcXcXvXvXvXcXcXvXMXMXMXSXMXcXfXtXaXfXfXnXnXcXfXfXcXnXnXnXnXnXMXSXMXcXcXnXnXvXcXcXMXMXVXVXnXnXMXMXnXcXcXnXSXJXMXvXMXMXnXnXnXnXnXnXnXMXMXMXVXVXMXMXMXMXnXnXMXVXSXJXJXMXnXcXvXMXVXVXVXVXVXVXVXSXSXJXKXJXKXKXKXJXSXVXMXMXMXMXMXMXMXMXMXVXJXKXMXnXvXnXMXVXVXVXMXVXSXMXnXMXVXMXKXMXSXHXvXBXMXMXnXnXnXnXMXMXMXMXMXMXnXcXcXvXnXJXMXMXMXMXMXMXMXMXMXVXSXVXVXVXVXGXPXMXMX",
"cXfXtXtXtXtXtXfXnXnXnXcXnXnXvXcXcXcXcXMXMXnXvXvXnXnXMXMXMXMXnXcXcXvXnXvXcXcXcXcXnXnXMXVXSXSXSXSXMXnXnXnXcXfXgXnXnXgXfXnXMXnXcXgXnXnXcXcXcXvXnXnXnXnXMXnXcXcXcXnXMXnXvXcXcXcXcXcXcXcXcXvXvXvXMXMXMXvXvXvXnXvXvXvXvXcXcXvXcXvXcXcXcXcXcXaXaXcXcXfXaXaXaXcXvXnXMXnXnXcXcXcXcXfXcXcXnXnXmXmXnXMXBXBXMXvXaXaXcXvXvXfXvXvXvXMXVXSXSXSXnXMXMXMXMXcXfXfXtXcXvXnXvXcXcXmXnXnXvXnXnXMXMXMXMXMXnXcXcXnXvXcXcXcXcXcXvXcXcXnXnXcXcXcXnXnXnXcXcXcXcXcXcXcXcXcXfXcXnXMXVXVXMXMXcXvXcXcXnXnXfXcXcXMXVXMXMXSXSXMXMXMXMXMXnXMXvXcXvXcXcXcXcXvXnXnXfXfXvXMXMXnXcXfXcXnXMXMXnXvXcXcXcXcXcXnXnXnXMXMXMXMXMXMXnXnXMXnXVXVXVXMXvXvXvXnXMXvXcXcXvXMXnXvXnXnXcXfXaXfXfXcXvXnXvXfXcXnXMXnXcXMXMXMXSXnXcXnXMXnXvXnXnXcXvXnXnXvXvXvXvXgXgXcXcXMXMXMXmXMXMXMXnXnXnXnXnXMXMXMXMXMXnXnXnXnXvXcXtXcXMXSXKXSXnXcXtXaXnXVXVXVXBXMXVXSXJXKXKXKXKXKXSXSXJXSXVXVXMXMXSXVXMXMXMXMXSXJXJXMXnXvXnXMXMXMXMXMXMXnXvXaXaXcXvXVXvXvXMXMXBXMXMXnXnXnXnXMXMXMXMXGXGXnXcXcXcXMXSXMXMXnXMXMXMXMXJXSXVXSXKXKXVXVXGXGXMXMX",
"fXtXrXrXtXtXfXvXnXnXnXnXMXMXMXMXMXnXnXMXnXcXcXcXMXMXMXMXMXMXMXnXMXMXnXnXnXnXnXnXvXnXnXMXSXSXMXnXMXvXvXvXcXfXvXnXnXvXfXcXnXvXcXcXcXnXnXMXMXnXnXvXcXcXvXvXnXnXnXMXMXMXnXvXcXvXvXvXMXvXvXMXvXcXvXMXVXMXMXMXnXvXvXnXvXcXcXvXMXVXMXvXvXvXvXcXcXvXvXcXcXaXaXaXcXcXcXcXvXcXcXcXfXfXcXcXnXMXmXmXnXvXnXmXcXaXrXrXaXaXaXrXtXtXaXfXMXMXBXMXcXvXnXMXMXMXMXnXcXcXnXnXcXcXcXcXcXcXfXcXcXcXvXcXMXMXnXcXcXnXnXcXnXMXnXnXMXnXvXVXMXnXcXcXMXMXMXnXMXnXcXcXnXnXnXcXcXvXnXnXMXMXMXMXcXvXcXvXMXMXcXvXgXMXnXcXcXMXSXnXcXcXnXnXnXnXnXnXvXvXvXcXgXgXgXgXnXnXMXVXVXMXcXcXvXnXMXMXnXvXvXvXcXcXcXcXvXnXnXnXMXMXMXnXvXnXMXMXVXVXVXVXVXVXVXVXVXMXvXvXMXMXvXfXfXfXcXvXvXcXcXcXcXnXnXnXnXMXMXMXvXMXnXMXMXnXnXSXMXcXcXcXcXaXaXgXvXgXhXhXtXrXfXvXfXvXnXvXmXnXMXnXnXnXnXnXnXnXMXMXMXnXnXnXnXMXnXvXcXcXnXMXVXSXMXnXcXvXMXVXVXVXBXVXVXVXVXSXSXSXSXSXMXMXMXMXMXVXSXSXSXMXMXMXnXMXMXSXMXMXMXVXSXSXVXMXnXMXMXvXaXrXrXaXvXMXpX3X7XaXMXBXMXnXmXnXMXMXMXMXGXGXVXMXmXcXmXMXMXMXnXnXnXMXMXMXJXJXVXSXKXKXSXVXGXGXGXMX",
"gXrXrXrXtXhXcXvXnXnXnXAXSXSXMXMXJXSXSXVXMXcXcXcXMXVXMXMXnXMXSXMXVXMXnXnXnXMXnXnXnXnXMXMXSXSXMXnXMXvXgXgXvXvXnXMXMXvXfXfXfXfXfXcXnXnXMXMXMXnXvXcXcXcXcXcXMXVXMXMXvXvXcXcXcXcXvXvXVXMXMXBXMXvXvXVXDXBXnXnXnXnXnXnXnXvXvXMXVXVXBXMXnXMXMXnXvXvXvXcXcXcXaXaXcXcXcXcXvXcXcXcXcXcXcXvXMXMXMXMXnXnXnXnXvXaXrXrXaXfXaXtXrXrXrXaXvXnXvXvXvXMXnXMXvXcXcXvXVXVXVXVXvXcXaXaXcXcXcXcXnXnXnXnXnXnXnXcXvXMXMXnXVXSXMXMXSXMXnXSXSXnXcXcXMXSXSXMXSXMXMXMXMXMXnXcXcXnXnXcXvXvXvXcXcXvXcXvXVXVXMXMXvXVXVXvXhXvXnXgXfXfXfXfXvXnXnXnXVXMXvXvXfXvXvXMXnXMXMXMXnXnXnXcXnXnXnXnXnXnXnXnXvXcXcXcXcXcXvXvXnXMXnXcXcXnXMXMXBXVXVXSXSXSXKXJXVXBXMXMXVXMXvXaXrXaXfXvXvXvXvXMXMXVXMXMXMXMXVXVXMXVXMXvXMXvXMXKXMXfXaXfXaXtXaXvXgXhXhXhXpXpXfXMXvXvXvXcXcXvXMXMXnXnXnXnXnXnXnXvXMXnXnXnXSXJXJXSXMXMXMXMXMXSXVXMXvXMXBXVXVXBXMXMXvXcXnXMXMXMXVXSXnXnXnXnXMXMXMXVXMXMXnXnXnXnXMXMXnXnXMXVXSXSXVXMXMXVXMXnXaXrXrXrXfXvXpX>X>X8XaXnXMXmXmXmXMXVXVXVXMXMXMXMXMXMXMXnXMXnXnXnXnXMXMXMXJXSXVXVXSXKXVXVXJXJXVXMX",
"vXfXdXhXhXfXgXvXDXnXgXbXnXAXnXvXSXSXMXMXMXnXvXnXnXMXMXcXcXnXMXnXcXgXcXcXcXcXfXfXnXMXMXMXSXSXSXMXSXvXgXgXvXnXnXnXSXMXvXvXvXcXnXMXMXnXvXcXcXcXcXvXcXfXcXcXMXSXVXMXMXnXvXvXcXvXcXcXMXMXMXBXVXVXVXVXDXBXBXBXBXnXMXBXMXvXvXvXMXBXMXvXvXMXMXnXvXvXvXvXvXcXcXvXvXvXvXvXnXnXMXvXcXvXnXMXMXBXBXBXMXMXmXmXvXfXaXaXaXaXaXaXaXaXaXfXvXvXvXvXvXvXvXfXaXaXaXfXMXVXVXKXVXMXMXVXMXMXnXnXMXMXMXVXcXnXnXnXnXMXMXMXMXMXnXnXMXnXcXnXMXvXcXcXnXMXMXMXnXnXnXnXMXnXcXfXcXnXMXvXvXvXcXaXaXcXaXcXMXMXvXMXVXSXVXvXgXgXhXhXfXhXaXaXfXvXvXvXnXvXfXaXaXfXBXSXnXMXMXnXnXnXnXnXMXnXnXcXcXcXnXMXcXcXcXcXcXcXcXcXcXcXcXtXtXcXnXnXBXVXVXSXVXVXVXVXMXMXMXMXVXMXvXvXaXaXfXfXfXcXMXVXSXVXMXcXcXMXVXVXVXMXaXaXfXfXfXMXvXfXaXaXfXfXvXMXvXgXgXnXnXvXvXMXMXvXvXcXcXvXmXMXnXnXnXnXvXcXcXcXcXfXfXcXMXSXJXJXMXMXVXMXMXMXcXfXaXcXnXBXVXMXvXcXaXfXcXvXnXMXVXSXMXMXnXnXnXnXnXnXMXnXnXvXnXnXnXnXnXnXnXnXnXnXnXnXMXMXnXcXaXrXrXeXrXfXvXeX7XeX7XrXMXmXvXmXMXVXVXVXVXMXMXVXKXKXVXMXJXMXMXMXZXJXJXJXMXMXMXMXVXVXVXVXKXJXVXMX",
"AXgXhXgXvXvXvXvXAXrX,X6XhXnXnXvXnXnXvXMXnXnXnXnXcXMXMXcXcXcXcXcXcXcXnXnXnXnXnXnXnXnXnXMXMXMXMXnXnXvXgXvXnXvXvXnXSXnXcXnXMXMXMXMXnXnXcXcXcXcXcXnXcXvXnXMXMXMXMXMXMXMXMXMXMXnXnXnXnXnXvXvXMXVXSXVXBXBXBXBXBXnXnXBXvXvXcXcXvXvXvXcXcXmXMXmXmXmXMXmXmXMXMXMXMXMXMXMXMXMXMXnXnXMXMXMXMXMXVXVXMXMXmXnXcXfXaXaXpXpXaXaXfXaXaXhXvXvXvXvXfXfXaXrXrXaXcXcXfXvXMXVXVXVXVXKXnXcXfXaXfXcXcXcXcXnXnXnXMXSXVXMXMXMXcXcXMXnXcXcXcXcXfXcXcXnXnXnXcXcXcXcXcXcXcXaXcXnXMXvXvXvXcXaXcXcXaXaXvXvXfXfXMXnXnXnXvXgXgXvXnXgXhXhXhXgXgXgXgXhXaXpXaXgXBXDXnXnXnXvXvXnXnXnXnXvXcXfXfXfXcXnXcXcXcXcXcXcXcXcXaXcXcXfXtXcXcXcXMXVXVXVXVXVXMXMXvXvXMXnXnXvXvXMXfXvXvXgXfXgXMXVXVXBXnXgXgXnXVXVXMXfXeXeXaXhXrXhXfXgXfXfXgXMXnXVXnXgXgXnXnXnXvXvXvXvXvXvXvXvXvXvXcXcXvXvXcXcXcXcXfXtXtXfXnXMXMXMXnXnXMXMXMXvXcXtXtXaXcXnXMXvXvXvXcXcXcXmXnXMXMXMXVXMXMXnXmXvXmXmXnXnXvXvXnXnXvXcXvXvXvXcXcXcXcXcXcXcXaXtXrXaXrXeXeXfXVXfXfXaX3XeXVXMXmXMXVXKXGXVXGXGXGXGXGXGXGXMXVXMXMXMXSXSXSXMXnXMXMXMXMXMXVXVXSXSXVXMX",
"AXnXgXnXAXAXBXnXgXXX'.'.8XjXAXnXnXvXcXnXMXMXnXnXvXMXSXnXcXvXcXcXfXcXnXnXnXnXMXnXMXnXnXnXMXMXMXMXnXvXvXnXnXnXnXSXnXfXaXcXVXSXMXnXcXcXvXvXvXvXvXvXnXVXKXJXMXnXMXMXvXnXnXMXMXBXMXMXvXMXvXcXnXVXVXvXnXnXnXnXnXvXvXMXvXfXfXfXvXvXvXvXfXnXMXnXnXMXMXMXMXVXGXGXVXMXVXVXMXPXGXMXnXMXMXnXvXmXMXMXMXvXvXnXcXfXfXaXaXpXaXaXhXaXpXaXfXgXvXgXvXfXrXwXrXaXcXfXvXMXVXVXMXvXcXcXMXnXcXcXcXcXcXvXcXnXMXMXMXSXVXMXVXMXcXcXVXnXcXcXaXaXaXfXvXnXvXcXnXcXcXcXnXnXnXcXnXMXnXfXaXvXnXcXMXMXaXaXfXaXrXaXfXaXhXnXMXvXnXSXSXnXgXhXgXgXvXgXhXfXgXvXMXnXVXVXnXMXVXMXnXMXMXMXcXcXcXfXfXfXcXvXtXfXcXcXcXcXcXcXcXMXMXnXcXnXnXvXMXVXVXKXVXVXVXBXvXnXnXvXcXfXvXMXvXMXVXVXMXMXnXVXhXgXvXvXMXBXVXnXnXhX8XeXgXvXaXaXfXvXvXvXvXMXVXMXnXgXhXhXgXgXfXvXcXfXcXvXvXvXcXcXcXcXcXcXcXcXcXcXcXtXtXcXnXMXMXMXnXMXMXMXMXMXvXfXaXaXcXcXcXvXmXMXmXnXnXnXnXnXnXnXMXMXMXnXmXmXnXnXnXnXvXnXnXnXvXcXcXcXnXMXMXnXcXcXfXaXaXrXaXaXaXeXaXaXBXcXvXvXeXaXVXVXMXVXKXKXJXKXVXVXVXMXMXvXMXMXnXcXcXcXmXmXcXcXcXnXMXnXvXvXMXSXSXSXVXMX",
"BXjXDXgXgXDXhXhXnXXX: ).].9XAXgXfXgXbXnXnXnXnXvXnXnXnXbXcXdXdXfXcXfXdXdXcXcXcXcXMXnXcXnXMXVXMXvXvXvXvXvXnXnXnXnXfXhXfXcXnXnXnXnXnXnXnXcXvXMXMXnXnXMXMXMXMXVXVXMXMXnXcXcXcXcXnXVXMXMXnXnXnXcXrX7XtXwXwXfXnXvXcXcXfXnXvXgXpXsXCXgXhXhXSXcXnXbXAXnXnXnXnXMXPXMXmXvXcXnXnXnXnXMXnXvXcXcXcXtXfXcXvXcXfXgXgXgXgXfXfXhXfXMXvXaXfXvXvXvXhXhXhXfXfXgXcXnXMXMXvXtXcXyX].].aXcXMXVXMXnXMXVXVXVXMXMXVXBXMXvXMXnXfXvXVXMXvXnXMXfXaXaXfXgXvXnXvXMXVXSXVXnXVXSXSXVXMXvXvXMXvXhXMXvXfXhXMXMXfXfXfXaXfXfXfXgXMXMXVXvXvXBXVXMXvXvXMXVXBXVXMXnXnXMXnXMXMXnXnXMXMXnXnXvXcXcXcXfXcXcXaXtXaXaXtXaXvXvXVXMXMXMXMXvXMXMXBXMXnXvXvXMXMXVXMXMXcXaXaXaXfXcXvXgXfXfXfXgXvXvXaXaXfXfXfXvXvXvXfXfXtXtXvXVXMXaXfXvXcXfXcXBXVXmXvXnXMXMXvXgXvXvXnXvXvXvXvXvXcXcXcXcXcXcXcXcXcXcXtXaXcXnXMXSXKXKXSXSXVXMXMXvXcXfXcXfXfXvXnXMXMXMXVXnXcXvXnXvXcXcXMXMXMXnXnXMXMXnXvXvXvXmXMXMXvXvXMXvXvXnXMXMXMXvXcXcXvXcXvXnXcXaXcXcXcXcXvXcXcXcXVXVXBXVXVXSXVXVXVXMXcXfXMXVXVXVXVXfXvXJXmXGXLXzXzXuXFXcXMXSXLXLXKXMXBXKX",
"hXrXgXhXhXCXhXhXBX6X[.[.XX9XhXgXgXgXfXgXfXcXbXbXnXbXcXbXbXfXhXfXtXtXtXdXcXcXcXcXMXnXmXnXVXVXMXMXnXvXfXfXgXvXMXSXMXMXnXMXMXMXMXMXnXnXnXcXnXMXMXMXcXnXnXnXnXMXMXnXMXvXcXcXcXcXcXnXcXnXMXcXtXwXwXrX<X,X<XtXfXdXrXrXfXhXpXhXsXgXBXhXgXhXnXhXnXnXAXfXMXMXnXnXnXmXcXcXcXcXcXcXcXcXcXcXcXcXcXfXfXcXcXtXaXaXhXhXfXfXhXaXfXMXvXfXvXMXMXMXvXvXvXnXnXnXMXMXnXMXnXfXcXtX<X3XcXcXcXvXMXBXMXMXvXmXMXnXvXvXvXvXvXfXaXfXMXBXMXVXVXvXaXfXfXfXgXvXgXvXMXMXvXvXgXvXvXMXMXMXnXVXMXgXvXvXfXgXBXnXfXvXMXfXvXvXaXfXvXfXVXMXvXBXVXMXvXvXBXVXJXKXBXnXmXmXMXVXMXMXnXMXMXnXvXnXMXnXcXcXcXcXfXtXtXrXeXtXvXvXcXcXcXcXcXvXvXMXMXMXBXBXMXvXcXaXcXcXaXaXaXaXcXfXhXhXaXtXaXhXfXgXaXaXtXrXrXaXcXvXMXnXcXgXvXMXaX7XvXMXvXaXzXmXVXnXnXBXSXSXSXVXBXMXMXMXnXvXvXvXvXcXcXcXcXcXcXcXcXcXcXcXcXnXMXJXJXJXMXMXMXMXnXnXcXcXcXcXcXcXnXnXMXSXMXcXcXcXcXcXcXcXvXvXnXvXvXMXmXnXvXcXcXvXvXvXvXvXvXvXcXvXvXnXvXcXmXMXMXMXVXVXVXmXmXvXvXvXcXcXcXcXaXfXcXnXVXVXBXMXnXvXvXMXVXVXnXfXvXBXLXLXmXNXzX[.- - [.yXLXSXvXMXLXSXDXDX",
"nXpXgXnXfXvXvXgXDXhXrX9XhXhXrXnXnXbXfXfXdXfXcXbXbXfXfXcXnXbXfXdXcXcXcXcXnXMXMXMXMXnXnXMXGXGXVXMXMXnXcXcXvXMXJXKXKXJXJXSXMXMXMXMXnXnXnXcXnXMXMXMXcXnXnXnXnXMXnXnXvXcXcXvXcXcXfXcXvXcXcXcXfXaXtXtX<X<XwXdXcXcXfXfXBXvXnXnXsXhXBXCXBXnXCXhXvXnXSXnXnXbXcXcXcXcXcXcXcXcXcXtXtXfXcXcXfXcXcXcXfXcXcXcXfXfXfXvXvXvXfXaXvXBXMXcXMXVXMXnXnXnXAXSXSXSXSXSXJXJXKXnXmXmXcXVXvXaXtXaXvXBXMXvXcXvXvXcXaXaXcXvXvXfXrXaXMXVXMXVXBXMXcXvXvXvXvXMXnXMXMXMXvXvXgXgXhXvXMXnXVXVXnXvXMXnXvXMXVXvXhXMXVXgXfXaXrXpXfXhXMXvXfXcXvXfXaXfXcXvXVXVXVXMXMXMXMXMXMXnXnXMXMXnXnXMXSXSXnXcXcXcXcXtXtXtXeXtXcXcXaXaXcXcXvXvXMXMXvXcXaXaXcXvXvXvXcXaXaXaXcXcXcXfXfXfXfXfXfXgXcXcXvXcXaXrXtXaXvXMXVXnXcXcXMXMXvXaXMXMXcXaXzXmXmXcXnXMXVXVXVXMXMXMXMXMXvXvXvXvXcXcXcXcXcXcXfXfXfXcXcXcXcXcXnXMXMXMXnXnXnXMXnXnXnXvXnXcXcXcXcXcXcXMXMXcXcXcXcXcXcXcXvXvXMXnXMXBXBXMXMXnXvXvXMXBXMXvXMXvXvXMXMXBXMXvXcXmXBXMXMXVXBXMXnXnXvXvXcXcXaXaXrXrXaXvXMXMXnXvXvXvXMXVXBXcXeX2X7XrXrXeXwXzXzX[.- ; - [.MXKXnXSXvXvXMXMX",
"eX2XfXVXvXvXBXBXDXnXSXBXnXhX9XnXMXnXbXfXfXfXcXbXcXfXcXnXZXMXbXcXnXnXnXMXSXJXSXVXnXnXnXMXGXVXVXMXnXMXMXMXSXSXSXSXSXSXSXSXMXcXcXnXvXnXnXcXvXMXMXMXnXMXMXMXMXnXcXcXcXcXcXcXcXcXfXfXcXcXcXvXMXMXcXtXtXtXcXbXnXbXcXcXhXpXBXhXXXXXpXCXpXnXCXgXvXgXnXcXcXcXcXcXcXcXvXcXcXcXcXcXfXcXcXcXcXcXcXcXcXcXnXMXMXvXvXMXVXMXfXtXvXMXvXfXvXMXvXvXbXnXnXAXSXAXMXMXnXnXMXcXaXcXaXMXvXaXrXaXvXVXBXnXvXvXvXcXcXcXcXvXMXvXaXaXMXBXvXMXVXnXvXnXMXVXVXVXVXMXMXnXVXBXMXvXfXgXgXgXvXMXnXMXVXnXMXSXVXhXrXnXVXfXpXrX8XrXgXvXfXaXaXaXaXaXfXfXaXcXvXMXMXMXMXMXMXSXSXMXMXMXMXMXMXVXSXSXMXnXvXcXfXaXcXvXaXaXcXaXaXcXvXvXvXMXMXvXcXaXtXaXcXMXMXVXMXvXcXcXvXvXvXcXnXnXnXnXMXMXnXnXMXMXvXcXcXvXBXSXVXvXfXfXMXVXVXSXMXvXaXaXcXmXnXzXvXgXfXaXrXpXaXaXvXvXcXcXcXcXcXaXvXcXcXcXcXcXcXcXcXcXcXcXvXnXnXnXnXnXnXnXMXMXnXnXMXMXnXnXcXtXfXcXMXnXcXcXcXcXcXvXMXMXVXVXVXKXGXVXKXVXMXMXVXKXVXMXBXMXMXMXVXVXBXMXcXnXMXnXcXvXvXvXnXnXMXMXvXcXcXaXaXaXfXvXMXMXvXvXvXvXMXBXMXfXeX,X,X>X.X.X}.].).; ; ; ; - [.,X>XXX7X>X,X2X",
":X>XeXvXaXaXMXVXnXgXSXSXAXgXeXvXAXMXnXbXcXcXcXcXbXnXnXSXSXAXMXMXMXnXnXMXMXMXnXnXnXnXnXMXMXMXMXMXcXvXnXMXMXMXnXvXnXnXMXMXMXcXcXmXnXMXMXnXnXMXMXMXMXMXMXMXMXnXcXcXvXvXvXcXcXcXcXcXaXcXMXMXnXnXnXMXMXMXnXbXcXdXtXtX7X>XaX7X[._.].2XiXCXhXnXDXBXnXgXfXfXcXnXnXnXvXvXcXvXvXcXcXcXcXcXcXcXnXnXnXnXMXVXnXcXcXvXnXnXfXrXaXfXfXtXcXnXcXcXcXcXbXnXnXnXnXvXcXaXcXfXaXzXtXaXvXcXaXcXMXSXVXBXVXBXnXvXvXvXvXvXBXnXfXfXMXMXcXvXMXvXvXnXMXVXVXSXMXnXnXnXSXSXVXMXVXnXhXrXaXvXMXMXVXMXMXSXVXaXrXnXMXfXaXaXrXfXvXvXhXaXrXtXaXvXMXMXBXMXMXMXMXnXMXMXJXJXJXVXMXSXJXSXSXVXMXMXVXMXMXnXcXcXnXMXvXcXcXtXfXcXcXtXtXfXcXcXcXcXcXnXMXVXMXnXJXMXnXnXnXMXMXMXMXnXnXnXnXnXnXnXnXMXVXBXMXMXVXSXSXnXfXfXcXvXvXMXvXcXaXaXcXnXcXaXfXaXrXeX8XeXeXrXfXfXfXfXvXvXcXcXcXcXcXcXcXcXcXvXvXcXcXnXnXMXMXMXnXnXnXnXMXMXnXnXVXVXVXMXnXfXaXfXcXcXcXcXcXcXnXMXMXBXVXGXKXKXGXGXVXVXMXBXVXVXMXMXMXMXvXMXMXMXMXvXnXBXVXnXcXcXcXcXvXMXVXSXVXMXvXvXcXvXvXvXnXMXMXMXvXvXvXMXMXBXMXnXVXnXgXMXcX3X{.- ; - ).'.}.}..X8X>X'.[.[.",
"- UX'.cXJXMXcXaXMXMXVXnXSXnXgXnXMXnXnXbXcXcXcXcXcXcXnXAXAXnXnXMXMXMXMXnXnXnXnXcXnXnXnXnXMXMXMXMXnXvXvXcXcXcXvXvXvXnXMXSXSXMXnXnXMXSXSXMXMXMXSXVXSXVXVXSXSXMXMXVXnXnXnXcXvXnXMXnXSXSXVXMXMXMXVXJXSXMXbXcXcXcXfXfX'.{.,X0X.X3XaXBXCXCX}..XrXnXDXnXnXbXnXMXMXnXvXcXcXcXcXcXfXcXcXfXcXcXnXMXMXvXcXcXcXcXcXvXnXnXcXaXrXtXrXtXcXnXvXnXcXcXcXgXcXcXcXcXcXtXnXnXcXMXcXzXaXaXcXcXvXMXMXMXKXVXMXMXMXMXMXvXMXvXfXfXMXvXfXvXvXvXvXvXMXMXMXBXMXMXMXBXDXSXSXVXKXBXhXrXaXvXMXMXMXMXvXBXVXfXhXnXnXgXvXMXvXvXvXaXrXaXaXaXfXvXMXVXMXMXMXnXnXMXMXMXVXSXVXMXMXVXSXSXJXSXMXMXVXSXMXMXnXcXvXnXcXcXcXfXcXcXtX3X<XwXtXtXcXcXcXvXnXMXMXMXMXMXnXnXnXMXMXSXMXnXvXcXcXcXvXnXvXMXVXSXVXBXVXVXnXgXfXcXcXaXtXaXcXaXaXaXcXcXcXaXaXaXrXrXrXaXpXpXaXfXfXcXvXvXvXvXfXcXcXcXcXcXcXcXcXcXcXnXMXMXMXMXnXnXnXnXnXnXnXnXvXvXnXMXnXfXtXtXtXtXtXcXcXcXnXMXMXnXMXVXVXBXBXBXBXMXBXVXVXVXMXMXVXMXnXMXVXBXMXvXBXVXVXMXvXvXcXcXvXMXVXKXVXMXvXvXvXvXvXvXvXMXVXVXVXMXnXvXMXVXSXKXBXnXvXBXVXMXvX3XvXrX].>X8XhXhXhX.X[.'.>X",
"[.,X3XaXMXcXvXMXvXSXMXMXSXnXnXnXMXnXnXcXcXcXbXnXcXcXcXnXnXnXnXnXSXMXMXMXMXMXMXMXMXMXnXnXvXvXvXMXMXnXvXcXcXvXMXMXMXnXMXJXKXSXMXMXVXJXJXVXMXSXKXKXJXSXSXJXJXSXSXKXnXMXMXnXnXMXMXMXLXJXMXMXJXJXJXMXMXnXcXbXnXnXcXfX:X'.aXSXhXvXvXvXgXiX).).'.8XnXnXnXnXnXnXnXnXvXcXcXcXcXaXtXfXcXfXcXfXcXcXvXcXcXcXvXvXnXnXMXMXnXcXtXhXtXfXMXMXnXMXnXcXcXcXcXcXcXcXfXeXvXvXaXvXcXaXaXaXaXcXcXcXcXvXMXMXMXMXMXMXMXnXvXvXfXfXvXfXaXvXvXvXvXMXvXvXvXMXBXBXVXVXVXVXVXVXVXVXvXcXvXMXMXnXvXMXvXMXMXvXvXMXMXvXMXVXMXvXcXrXrXaXfXvXvXMXMXvXcXcXvXnXMXMXVXVXnXMXnXvXnXMXVXMXJXJXMXMXMXMXMXMXMXcXcXcXfXcXvXcXvXvXfXeXwXtXfXfXcXcXcXcXfXcXMXSXvXnXnXnXnXnXMXSXnXnXcXfXfXcXvXnXvXMXVXVXBXMXBXVXvXfXfXnXnXaXaXcXcXcXaXcXcXcXcXfXfXaXrXrXaXhXhXhXfXfXaXfXvXvXvXvXfXcXcXcXcXcXcXcXcXcXcXnXnXMXnXvXnXnXnXvXvXvXnXnXcXcXcXnXvXfXtXeXfXtXcXcXvXcXvXnXMXvXmXBXBXmXvXnXvXMXVXSXSXVXVXVXVXVXVXVXSXSXVXMXVXVXBXMXMXMXMXvXvXMXVXVXVXMXnXMXMXMXMXMXvXMXBXVXSXVXMXMXMXMXVXSXDXKXDXSXSXVXSXMXtXMXvXBX9X0XiX9XXXXX8XAX",
",XMXaXzXKXvXcXcXaXKXnXnXnXgXnXcXMXnXnXcXcXbXnXMXAXnXbXnXAXAXAXMXMXMXnXnXMXMXMXMXVXMXMXvXvXvXvXMXcXcXcXcXvXMXMXVXSXMXMXSXKXSXGXMXMXSXJXVXMXSXJXJXKXVXMXMXMXnXnXMXnXMXMXnXnXMXMXnXMXSXKXJXMXMXMXMXnXnXnXbXnXcXeX<X[.{.rXKXMXSXVXBXiXiX).{.|.rXnXBXSXnXnXnXnXnXnXvXvXvXcXtXtXcXcXcXnXfXtXtXfXcXcXnXnXnXMXMXnXnXcXcXcXvXcXcXMXMXnXMXnXnXnXbXcXcXcXcXnXaXVXVXcXMXMXvXvXcXcXcXcXcXcXvXcXcXnXnXvXvXvXMXMXnXfXaXfXaXtXcXvXvXvXMXMXvXvXMXMXMXMXMXMXMXvXvXMXVXVXVXVXVXVXnXMXVXMXvXMXnXvXMXMXcXvXvXvXvXfXrXrXgXMXVXVXVXMXvXnXMXMXBXVXBXMXMXMXMXMXnXnXVXJXJXKXKXSXVXMXMXMXnXMXcXcXcXcXcXvXcXvXVXVXnXvXnXnXcXMXVXSXVXnXcXcXcXcXvXMXMXvXcXnXMXbXcXfXdXdXfXcXnXvXnXMXMXcXcXnXVXMXcXcXMXMXfXcXBXvXcXcXzXzXzXcXvXvXaXeX8XeXrXaXaXaXhXaXfXfXfXfXfXcXcXcXnXnXcXcXcXMXMXMXMXMXnXcXcXcXcXcXcXcXcXvXvXMXnXnXMXnXcXtXrXnXnXnXMXMXvXcXnXMXMXMXVXVXnXcXnXaXcXBXVXVXVXVXKXKXVXVXVXKXKXVXVXVXVXVXVXVXKXKXVXSXKXJXKXVXVXVXSXBXVXVXMXnXnXMXBXBXVXVXVXVXVXVXSXDXKXMXvXMXSXLXDXSXKX8XXX[.6XDXgXgXgXBXDX",
"zXzXNXmXMXMXvXcXvXnXnXnXnXcXcXcXnXnXnXnXnXnXnXMXMXMXSXJXJXJXMXMXMXMXMXMXMXnXnXnXnXnXMXcXvXnXfXMXgXnXMXnXMXnXnXSXSXSXSXKXKXKXGXMXSXSXSXSXMXMXSXKXSXSXSXJXKXJXKXSXMXVXMXSXnXcXnXnXnXnXnXnXnXnXnXnXJXcXtXfXnXMXnXcXwXtXcXcXaX<X,XrXiXiX8X3XeXvXBXBXvXcXvXnXnXnXnXMXnXnXnXcXfXcXvXMXnXvXcXcXcXcXvXvXcXcXvXvXvXnXnXnXSXMXMXVXJXSXMXMXnXnXnXcXcXNXnXMXcXMXMXnXvXnXMXMXVXMXvXcXcXvXcXcXvXcXcXcXcXcXcXcXcXcXcXcXcXfXfXfXcXcXvXMXMXnXnXMXSXVXfXfXMXvXvXMXBXMXMXBXVXVXVXVXMXSXMXnXnXnXnXcXfXfXcXcXcXfXcXvXgXvXMXMXMXnXnXMXnXMXMXMXSXJXJXJXJXMXMXSXMXMXJXSXJXSXSXSXMXMXMXVXMXMXMXnXnXnXvXcXvXMXMXVXMXMXMXSXVXJXMXcXcXnXcXnXMXMXMXMXMXSXMXMXMXbXfXfXfXcXcXcXnXnXnXcXnXMXmXVXJXnXcXnXMXvXMXKXMXVXVXMXvXvXvXvXfXpXeXeXrXaXfXfXvXgXfXgXvXvXvXvXcXcXcXcXcXcXnXnXVXSXSXSXVXMXMXMXnXnXnXnXnXnXnXnXMXnXcXcXcXnXnXnXnXcXvXMXMXMXMXMXVXSXVXMXMXKXKXKXvXMXVXVXVXKXKXJXJXKXVXVXVXVXVXBXVXVXVXVXMXVXVXVXVXVXKXSXSXVXVXVXMXVXMXvXBXVXVXSXKXSXVXVXVXSXVXBXSXDXBXgXgXnXMXvXnXDX9X_._.OXBXDXDXKXDXnX",
"mXmXmXMXMXMXMXMXMXMXMXnXnXnXnXnXMXMXMXMXnXnXMXMXMXMXMXMXSXSXMXMXMXMXMXMXMXnXnXnXvXnXMXnXMXMXhXMXvXVXnXnXMXMXnXMXMXMXMXVXSXJXJXVXSXJXKXJXSXSXSXJXKXJXSXMXMXMXMXMXMXMXMXJXMXcXMXMXnXnXMXMXnXnXnXvXnXcXcXnXMXMXnXcXtXcXcXcXtX7X7XaXBXCXvXsXaXfXvXaXcXfXcXvXnXvXvXMXMXMXMXnXvXnXnXMXMXMXMXnXMXnXnXnXvXnXnXnXnXnXnXMXMXMXnXSXKXJXVXMXMXMXnXnXMXMXGXGXMXMXMXnXMXBXMXcXMXvXvXcXcXcXcXcXcXaXaXaXcXcXcXcXcXcXcXcXcXcXcXcXcXcXcXnXMXnXvXnXMXMXfXaXvXcXcXMXBXMXMXMXBXVXVXMXSXSXSXnXvXvXcXfXcXvXMXnXMXnXMXMXnXnXMXMXnXvXvXvXnXnXMXMXMXVXJXJXKXMXMXSXMXMXSXSXKXJXSXMXMXnXnXnXnXnXnXvXnXMXMXnXnXnXnXnXnXnXnXnXcXnXMXnXnXMXcXtXcXfXcXMXMXnXMXSXMXnXnXnXMXMXMXnXMXVXSXnXaXzXvXGXMXVXVXnXcXcXMXVXMXMXBXBXnXfXvXMXgXhXrXrXpXhXvXMXvXvXvXvXvXvXvXvXcXcXvXnXMXMXMXMXSXSXSXSXSXSXVXMXMXMXMXMXMXMXMXMXnXvXcXcXnXMXMXnXMXnXcXvXnXMXMXSXKXKXKXKXKXVXmXaXrXcXVXVXVXVXVXVXKXVXVXVXVXBXMXnXvXnXvXvXvXvXvXnXVXVXVXVXVXVXVXVXVXVXVXMXVXVXBXSXSXSXSXSXSXSXSXVXnXBXnXnXnXMXnXgXhXBX9X_.{.'.hXBXnXDXSXBX",
"JXGXVXMXMXMXVXJXSXVXMXMXMXMXMXMXMXMXMXMXnXnXMXMXMXMXMXMXMXMXMXMXMXMXMXMXMXMXMXMXMXMXSXnXnXgXeXfXcXnXnXfXvXnXcXcXnXvXvXnXMXVXGXGXSXSXKXKXJXSXSXJXSXVXMXnXnXMXVXSXLXnXMXKXnXaXcXvXcXvXnXnXnXcXcXaXcXbXNXnXMXMXnXnXcXnXnXcXcXcXnXKXHXHXVXCXCXBXnXaXcXfXgXnXnXnXMXMXMXMXMXMXVXVXMXMXVXVXSXSXJXSXMXMXnXMXnXnXnXnXnXnXnXnXnXMXJXJXMXMXMXPXMXMXMXPXGXGXMXMXMXnXMXMXnXcXnXnXMXnXvXvXcXvXcXcXcXcXcXcXcXcXcXcXcXcXcXvXnXnXnXcXvXnXnXvXcXcXvXvXfXaXcXfXcXVXBXMXMXMXMXVXBXMXSXSXVXnXnXvXcXfXvXMXVXSXSXSXVXMXSXMXMXnXMXnXnXcXnXnXnXnXnXMXMXMXMXMXMXSXMXnXnXnXMXMXMXMXMXMXMXMXnXnXnXnXnXMXMXMXMXnXnXnXMXMXMXnXMXnXnXnXtXyX:X[.tXcXMXnXnXnXMXMXMXAXAXSXJXJXJXMXSXMXGXJXJXGXVXnXmXmXcXcXcXvXvXvXSXvXaXvXBXVXvXvXnXgXfXhXhXgXnXDXnXMXMXMXMXnXvXvXcXcXMXSXJXJXJXSXSXSXSXJXSXSXSXSXSXVXVXMXMXMXMXMXnXnXnXMXMXVXMXnXMXnXnXMXMXMXSXJXMXMXvXcXaXeX:X].}.3XaXvXvXvXVXKXVXVXVXMXMXMXvXcXvXvXvXvXvXvXvXvXVXVXMXMXMXVXVXVXVXSXVXVXSXVXVXKXHXSXSXSXSXSXVXVXVXnXVXSXDXBXnXnXgXhXOX{.)._.9XDXSXSXVXvX",
"JXHXVXMXnXMXVXJXJXSXMXMXSXJXSXAXMXMXMXnXnXnXnXMXMXnXnXMXZXSXZXMXPXJXJXJXSXSXSXSXSXMXSXSXBXgX7XeXtXvXvXfXcXcXfXcXcXcXcXcXnXMXMXVXSXSXSXSXSXSXSXJXMXMXvXvXnXMXVXVXMX<XyXfXcXcXMXMXcXcXnXnXnXcXfXtXcXcXcXcXcXNXMXPXcXMXMXNXMXKXLXLXVXVXHXVXVXSXVXnXbXcXbXnXMXMXMXVXSXMXMXVXJXJXVXMXMXMXMXSXKXJXJXSXMXMXMXMXnXnXnXnXcXcXcXnXMXMXMXMXPXPXPXMXMXMXMXnXcXnXnXvXcXcXvXMXMXVXVXVXBXMXMXMXMXMXMXnXvXvXcXcXcXcXcXcXcXvXnXnXnXnXnXcXcXcXcXcXvXnXfXfXvXnXMXSXVXMXMXMXMXBXVXVXMXMXMXnXnXnXnXnXvXnXMXVXSXVXMXMXMXnXvXnXMXVXMXMXnXnXnXvXvXnXnXMXMXnXcXvXMXMXMXSXMXMXMXMXMXJXKXJXMXMXMXnXMXMXMXnXMXnXnXnXMXMXSXSXcXrXtXfXyXwX:X[.<XfXMXcXcXJXJXMXAXZXSXSXJXJXJXSXJXnXcXMXMXGXLXGXJXMXvXnXVXMXvXvXaXvXVXVXvXfXvXBXnXnXnXgXgXgXnXDXVXVXVXVXVXBXMXvXnXMXVXJXJXJXKXJXSXSXSXSXSXVXVXMXSXSXVXMXMXMXMXMXMXMXMXMXMXMXMXnXnXnXMXVXSXMXMXMXVXBXMXMXVXBXvXaXaXnXVXVXvXvXMXSXVXVXVXMXMXnXvXcXvXvXvXvXvXvXMXMXBXMXMXMXMXMXVXVXSXSXVXVXJXVXVXKXSXSXSXJXJXSXVXBXDXBXVXKXKXDXBXVXnXgXrX6X6X9XhXMXVXSXVXvX",
"GXVXMXMXnXMXVXSXKXJXMXMXSXJXSXSXMXMXnXnXnXnXnXnXnXMXMXSXJXJXSXMXJXJXJXJXJXJXSXSXSXMXSXSXDXhXoX}.<XhXnXcXnXnXnXMXcXcXcXcXcXnXMXMXSXVXMXMXMXVXSXJXJXMXcXcXnXvXcXtX].).{.'.wXtXnXMXnXnXMXVXMXMXnXvXNXbXcXzXcXNXMXMXNXPXMXNXMXJXJXKXKXKXJXGXJXSXMXMXnXbXnXMXVXVXVXVXSXMXnXMXSXJXVXMXMXMXMXMXVXSXSXSXMXMXZXMXMXnXnXnXcXfXcXnXnXnXnXMXPXFXMXMXMXMXmXNXcXtXtXtXaXcXvXMXMXVXKXKXVXVXMXVXMXMXMXMXvXvXcXcXvXcXcXcXcXcXcXcXcXcXcXcXtXtXcXvXMXMXcXcXMXVXVXKXVXBXMXMXMXVXVXVXMXMXnXMXMXMXMXMXnXnXnXMXMXMXMXMXnXvXcXnXMXSXSXSXVXMXMXnXnXnXnXMXSXnXtXtXnXMXvXMXMXMXMXMXnXMXSXMXJXJXSXMXMXZXMXnXnXnXnXnXnXMXMXJXcXtXcXnXcXcXrX].:XyXnXJXKXJXMXMXZXZXZXZXZXZXMXMXMXJXJXLXKXnXKXJXGXGXGXMXvXvXcXcXfXfXfXfXMXBXMXaXhXgXnXnXvXvXBXSXDXSXSXDXDXDXVXVXSXJXKXKXJXJXKXKXKXKXJXSXVXMXMXMXSXSXVXMXMXMXMXMXSXVXMXMXMXMXMXnXcXcXnXMXMXnXnXnXMXnXmXMXVXVXJXJXKXKXKXVXMXMXBXVXVXVXVXVXVXMXvXcXcXvXvXMXMXMXMXBXBXVXVXMXMXMXVXVXHXSXMXMXVXVXVXSXVXVXVXSXJXJXSXVXVXMXMXSXSXVXBXSXSXnXMXSXKXSXDXVXMXSXVXvX",
"VXVXMXMXMXMXVXSXJXJXMXMXSXSXSXAXZXMXMXMXMXMXMXMXMXMXZXJXJXJXSXMXMXMXPXJXSXMXVXVXMXnXSXnXBXrX[.{..XeXcXgXcXnXMXSXnXvXcXcXnXnXMXMXSXMXnXnXnXMXSXJXKXMXnXnXMXnXcXtX].).{.{.<XeXtXcXnXMXMXMXVXMXMXMXMXnXNXnXnXnXnXcXNXPXPXNXMXPXPXPXJXJXJXPXMXMXMXnXnXnXnXMXVXMXVXVXSXMXnXnXMXSXVXMXVXMXnXnXnXMXMXMXMXMXZXZXMXMXMXMXcXcXcXnXMXnXnXMXMXmXNXmXMXPXMXMXcXyX<XwXfXMXMXvXMXBXVXVXVXMXMXMXvXvXvXvXcXvXvXnXMXnXnXcXcXcXcXcXcXcXvXcXcXcXnXMXMXMXcXaXMXVXBXVXVXMXnXvXMXVXVXKXVXMXMXMXMXMXMXMXMXnXnXnXMXMXMXnXMXnXvXnXMXMXMXMXJXVXMXnXnXnXMXMXMXMXcXcXSXfX.X].tXcXMXnXnXMXVXMXMXSXMXMXMXZXMXnXnXMXMXMXnXnXMXJXMXnXSXJXnXcXtX].).).'.cXLXMXMXLXZXSXSXZXMXMXMXMXNXMXtXnXKXMXJXGXGXGXnXcXvXKXVXaXnXfXrXaXMXHXMXeXrXhXnXBXSXBXBXDXDXSXVXSXSXSXSXSXKXJXJXKXJXJXKXJXKXKXJXJXVXMXMXMXSXSXSXSXVXMXMXMXMXMXMXMXMXMXMXMXMXnXnXMXMXnXMXSXLXKXJXJXKXVXVXVXvXvXvXMXVXVXVXVXVXVXVXVXVXVXMXvXvXvXMXMXVXVXVXVXBXVXBXVXVXVXVXVXMXSXBXvXMXVXVXVXMXMXBXVXSXJXSXVXBXVXMXVXSXSXDXSXKXVXMXMXvXvXVXLXSXKXJXMX",
"VXVXMXMXMXMXMXSXSXSXSXSXSXSXAXAXJXJXPXJXJXJXMXMXMXMXPXJXJXJXJXMXMXMXMXPXMXMXMXMXVXMXAXgXgXhX}.[.>XrXcXfXfXnXMXMXMXnXnXnXnXMXMXMXMXMXnXnXMXMXVXVXMXMXMXVXVXVXVXMXcXwXaX>XnXcXtXMXMXMXMXMXMXMXMXMXMXMXMXMXGXMXnXcXMXPXFXMXPXPXPXJXMXMXMXPXPXMXMXMXMXMXnXMXMXMXMXVXVXMXMXMXVXSXVXMXSXMXMXnXMXMXMXMXMXMXJXJXJXJXPXJXnXnXnXMXMXnXnXMXMXmXNXNXMXPXPXPXmXtXwXtXvXMXMXvXBXMXMXMXMXMXMXvXvXvXvXvXvXnXMXVXGXPXMXnXnXNXNXnXnXnXnXnXMXMXMXcXcXnXcXaXvXMXvXMXMXnXvXvXnXBXVXKXJXMXMXMXMXnXnXMXMXMXnXMXMXMXMXnXMXnXnXnXnXnXnXbXMXnXnXcXcXnXnXMXvXVXMXVXJXwX[.).:XyXvXnXMXMXSXVXMXMXMXnXnXMXnXcXMXMXMXMXMXMXMXSXcXnXnXnXnXMXcXtXwX:X<XSXLXbXcXKXMXMXZXZXMXMXMXMXPXcX[.].tXcXMXGXKXVXMXMXmXaXaXvXfXcXvXBXfXrXfXDXhXgXBXDXDXDXDXAXDXSXVXBXVXSXSXSXJXSXSXSXSXSXJXJXJXKXKXSXVXMXMXMXSXSXSXSXSXSXVXVXMXMXSXJXSXMXMXMXMXnXMXSXVXVXSXKXBXMXMXVXKXVXVXVXKXVXMXVXVXMXvXvXMXMXMXBXVXVXMXvXMXMXVXVXVXVXVXVXMXvXvXMXVXVXnXfXeXMXBXfXvXVXBXVXMXMXMXVXVXVXVXBXVXSXVXVXSXKXKXSXMXVXJXLXKXVXVXKXKXKXMXcX",
"VXVXMXMXMXMXMXMXAXSXSXSXSXAXAXSXSXPXPXJXJXJXMXMXJXMXMXPXJXJXJXPXPXPXJXPXMXMXMXMXMXMXnXfXBXKXvXhXrXnXMXcXcXMXMXnXMXnXnXnXMXMXMXMXMXMXnXnXMXMXMXMXnXMXSXSXMXMXVXKXSXMXLXrXKXnXtXLXSXMXMXMXMXMXVXSXMXMXMXMXMXPXPXMXMXPXFXMXMXnXNXPXMXnXMXMXPXMXMXMXMXnXMXMXVXMXMXVXMXMXMXSXSXSXSXVXVXMXMXMXMXSXSXSXMXMXJXJXJXJXJXJXMXMXMXMXMXnXnXnXPXMXNXNXMXPXFXMXcXcXcXvXnXnXMXSXVXVXBXMXVXVXMXnXVXMXBXMXnXMXVXKXKXJXPXMXnXnXnXnXnXnXcXnXMXMXcXyXzXvXcXaXcXvXvXvXMXvXcXcXvXMXVXKXJXMXMXSXSXMXMXSXMXMXMXMXSXSXMXnXnXnXnXnXbXcXcXfXcXcXfXfXcXcXnXMXMXJXnXcXMXwX'.[.].wXnXVXMXMXMXnXMXMXnXnXcXnXcXcXcXcXcXnXMXSXMXMXMXJXMXcXnXMXMXMXKXcXtXcXcXcXnXZXnXMXMXZXMXMXMXMXcXMX].<XKXmXcXcXcXcXGXKX<X).[.cXLXcXeXcXSXMXvXMXnXBXSXKXKXSXSXBXSXVXnXMXMXBXVXVXnXnXMXMXMXMXSXSXSXSXSXMXMXMXMXMXSXSXSXVXVXVXVXVXMXJXJXKXKXMXnXvXcXcXnXSXSXVXVXJXJXMXnXBXVXVXMXMXMXcXcXvXvXvXvXMXvXvXvXMXVXMXMXvXvXnXMXnXnXvXvXnXnXhXpXfXBXBXhX8X.XaXMXfXvXSXJXSXVXVXVXVXBXMXvXvXMXVXVXVXVXHXSXVXVXMXMXVXGXGXGXJXLXVXeX>X",
"VXVXMXMXMXMXMXVXSXVXMXMXSXSXSXMXSXSXSXSXMXMXMXMXMXSXSXMXMXMXMXnXMXnXnXMXMXMXMXMXMXMXMXMXVXSXSXSXVXMXMXMXMXSXSXMXJXMXMXnXMXMXSXSXnXnXMXZXSXSXMXMXnXvXcXvXvXvXvXvXzXcXcXcXcXcXMXKXcXMXJXMXvXnXGXKXKXMXMXMXMXSXJXnXnXnXMXMXMXnXnXnXcXnXnXnXnXnXMXMXMXMXMXMXMXMXMXMXnXMXSXSXSXSXSXVXJXSXMXMXSXSXSXMXMXMXMXMXSXJXJXSXMXnXnXMXMXnXnXMXMXMXMXnXnXnXMXPXMXnXNXcXcXNXMXMXKXJXVXMXMXMXMXMXMXnXvXcXnXMXSXJXSXJXSXMXMXMXMXMXcXMXMXcXcXnXMXnXNXcXcXtXzXcXmXmXMXvXcXvXMXMXVXKXJXJXGXGXGXGXMXMXMXMXMXMXMXVXMXMXSXMXMXMXMXMXcXcXcXcXcXcXcXcXcXnXMXMXMXnXcXcXcXnXMXnXcXtXtXtXrXyXfXnXMXMXMXcXcXcXcXcXcXcXcXMXVXMXSXMXMXMXSXSXMXMXnXMXnXcXcXcXnXMXbXnXnXnXnXnXMXMXnXvXvXMXMXnXcXcXcXcXfXKXnX{.Q ].tX).- ).rXvXrXrXwXfXSXKXSXMXMXMXMXMXMXVXMXnXcXvXnXcXcXcXcXnXMXMXMXnXnXnXMXMXMXMXnXMXMXMXMXMXMXnXMXnXMXMXMXcXcXcXtXaXvXVXVXvXvXMXMXvXvXMXVXVXMXvXcXvXfXcXSXJXMXcXcXMXMXvXvXvXvXfXnXgXnXAXvXgXvXhXBXhXhXDXDXBXBXBXXXhXfXhXHXKXBXKXBXHXGXVXnXBXLXSXGXtXJXvXMXMXcXJXKXMXMXLXGXmXGXFXuX].].].",
"VXVXSXVXVXVXSXSXJXSXMXMXVXVXMXMXSXSXSXSXMXMXMXMXnXMXMXnXnXMXMXnXMXMXMXMXMXVXVXMXMXMXMXSXSXJXJXJXMXSXJXMXMXSXSXMXJXSXMXMXMXMXMXMXMXMXMXMXMXZXMXMXvXcXcXcXvXMXMXMXcXmXMXMXMXMXMXVXnXGXJXMXnXMXVXJXMXcXnXnXnXMXMXnXcXnXnXnXnXnXnXnXvXnXnXMXMXMXMXVXSXMXMXMXMXMXMXMXMXVXSXJXSXJXJXJXJXSXMXMXVXSXSXVXMXMXnXnXMXMXMXnXnXcXcXnXMXnXMXMXMXMXMXnXnXnXnXnXnXnXNXNXNXnXMXMXnXvXcXcXnXnXnXnXnXnXcXcXnXMXJXJXMXMXMXMXMXnXnXnXnXMXMXnXcXcXcXcXnXnXcXcXcXcXmXmXMXvXcXnXMXMXVXSXMXMXMXMXVXMXMXMXMXMXnXMXMXMXMXMXMXMXMXMXJXSXMXnXnXcXcXcXcXcXcXnXnXnXMXMXMXMXMXMXMXnXnXnXnXcXcXtXtXnXMXMXJXJXMXMXnXnXnXcXcXnXVXJXMXMXMXMXSXJXJXSXJXSXMXnXnXnXnXMXnXnXnXnXnXnXMXMXMXnXvXnXMXnXMXMXbXnXrXtXLXPXuX:X:X{.{.:XMXJXMXZX7XtXnXMXMXMXVXKXMXvXcXnXVXVXMXMXnXcXcXcXcXcXnXnXMXnXvXvXnXMXMXnXnXMXMXMXMXMXnXnXnXnXnXMXMXnXvXnXvXcXvXMXMXvXaXaXvXvXvXMXMXMXMXMXfXnXnXMXVXMXMXVXvXnXMXMXBXVXVXBXfXnXnX7X,XrXAXDXDXDXDXBXCXBXDXCXXXBXKXvXCXBXBXBXVXBXnXKXBXzXBXMXvXKXVXcXJXnXLXLXMXMXmXMXmXFXJXGXPXtXtXNX",
"VXVXSXSXSXSXSXVXJXSXMXMXMXMXMXMXMXMXMXMXMXMXnXnXnXMXMXMXMXSXSXMXMXMXMXMXVXSXSXVXMXMXSXKXKXKXSXSXMXJXJXJXSXSXSXSXJXJXSXMXMXMXMXnXMXMXnXnXMXMXVXVXnXvXcXvXMXMXMXMXnXMXVXJXJXSXMXMXnXMXMXMXMXMXMXMXMXnXnXnXcXnXMXnXcXbXnXnXnXnXnXnXnXnXMXMXMXMXMXSXSXMXMXMXMXMXMXMXMXMXMXMXMXVXSXSXJXSXMXMXMXSXSXJXMXMXnXnXnXnXcXcXcXcXcXnXMXMXMXZXMXMXMXMXMXMXMXnXMXMXMXMXMXMXMXMXnXcXcXcXcXcXcXbXnXcXcXnXnXMXSXJXSXMXnXMXMXMXnXnXMXnXMXSXMXcXcXnXnXMXnXnXcXnXnXmXMXMXnXMXMXMXnXvXMXMXMXMXVXVXMXMXMXMXMXMXMXMXMXMXMXMXMXMXSXJXMXMXnXnXcXcXfXcXnXMXSXSXMXSXJXMXMXnXnXnXnXnXnXnXnXnXMXJXZXMXZXJXMXnXMXnXcXcXtXtXcXnXcXnXnXnXnXnXMXMXJXSXMXMXMXMXnXnXnXnXnXnXnXMXMXMXMXvXcXcXcXvXnXMXfXMXMXnXPXPXPXPXFXFXPXGXMXcXcXbXMXVXJXMXnXcXcXnXnXfXtXcXMXSXMXMXnXvXcXcXcXcXvXnXnXnXvXvXnXnXnXnXvXnXMXMXMXMXMXnXnXnXMXVXSXVXMXSXSXMXvXMXMXvXaXrXcXcXvXnXMXMXMXMXnXnXnXMXnXfXfXvXVXBXMXMXMXvXvXvXnXSXSXdX9XhXBXBXBXDXCXhXjXDXBXiX|.sXDXBXBXCXhXgXBXBXBXLXVXnXLXLXmXMXzXmXKXcXGXMXGXLXGXmXJXGXNXNXLXJXGXLX",
"MXMXMXVXVXMXMXMXVXMXMXMXMXMXMXMXnXnXnXnXnXnXnXnXnXnXMXMXSXJXSXMXSXVXVXVXJXSXSXVXMXSXJXKXKXJXSXVXMXSXJXJXMXMXSXZXJXJXJXSXJXSXMXMXnXcXcXcXnXMXJXKXMXMXMXnXvXMXnXvXMXMXMXMXVXSXVXMXMXMXMXVXSXSXMXMXJXSXJXSXnXnXSXMXnXnXMXMXnXnXnXnXnXMXMXMXMXMXMXVXMXMXMXMXMXMXnXnXMXnXnXMXVXMXMXVXVXMXMXMXMXMXVXSXMXMXnXMXMXnXcXcXcXbXnXMXJXSXMXMXMXPXJXJXJXJXPXPXMXMXPXJXJXJXJXPXJXMXMXnXMXMXMXMXnXnXnXnXMXMXMXSXJXMXnXMXMXSXMXnXnXMXMXJXSXMXMXMXMXMXMXMXnXMXMXmXMXMXMXMXMXvXfXaXnXnXMXMXSXSXMXMXSXVXMXVXSXJXJXKXMXMXnXnXMXMXMXnXnXnXcXcXcXcXnXMXSXSXMXMXMXnXnXcXcXcXtXtXtXcXnXSXbXbXcXbXMXMXnXSXJXMXnXvXcXaXfXcXcXcXnXcXcXcXcXnXMXMXnXnXnXnXnXcXnXnXMXMXMXMXVXSXVXnXcXcXcXcXnXMXSXnXnXJXMXNXMXJXFXJXJXGXMXKXLXLXMXMXSXMXMXMXMXJXnXcXtXcXMXMXMXnXMXnXnXcXvXnXnXnXnXnXnXnXnXnXnXnXcXcXnXMXMXMXMXMXMXMXVXJXJXKXSXVXSXVXMXVXVXMXcXaXaXcXvXnXMXMXMXnXVXfXtXcXcXfXfXfXVXMXnXBXVXVXVXSXnXSXSXDXDXAXjXBXBXDXBXCXDXDXjXOXOX0XpXgXsX2X}.2X8XvXvXpX,X3XcXmXmXuX1X].'.].:XyXyXmXmXyXNXtXyXFXGXGXMXMX",
"VXMXMXMXMXMXnXvXMXMXMXMXMXMXMXMXnXnXnXnXMXnXnXnXnXnXnXMXMXMXMXMXSXSXVXSXSXSXSXVXJXJXJXSXSXSXVXMXMXJXKXJXSXSXZXZXSXSXSXJXJXJXMXMXnXnXcXcXnXMXJXJXJXSXMXnXvXMXMXcXMXMXnXMXSXSXSXVXSXSXSXSXSXVXnXvXcXcXMXJXMXMXJXJXZXSXJXSXMXMXMXMXnXnXMXMXMXMXMXVXMXMXMXMXMXMXnXnXnXvXnXJXJXSXMXMXMXMXnXnXnXMXMXSXMXnXnXMXMXnXcXcXnXMXJXJXJXJXMXnXMXMXMXMXMXMXJXJXMXPXJXJXJXJXJXPXJXJXMXMXMXMXSXZXMXMXMXMXMXMXMXMXMXnXnXnXMXMXnXnXnXMXSXnXMXSXSXnXnXMXPXMXnXnXnXvXnXMXMXnXMXvXfXaXnXnXMXMXVXVXMXMXVXVXSXSXSXJXJXJXMXnXcXcXcXcXcXcXcXnXnXnXnXnXMXMXnXMXMXnXcXcXnXMXnXcXtXrXyXtXcXMXKXZXZXJXZXtXyXcXcXtXtXfXcXfXfXcXcXbXbXcXcXcXcXnXcXnXMXMXnXnXnXnXMXMXMXMXnXnXMXMXSXMXnXMXMXMXMXSXJXMXMXMXMXLXLXNXGXGXGXJXJXJXMXbXcXnXnXMXMXVXKXKXVXnXnXMXVXMXMXMXSXMXMXnXnXMXMXMXnXMXMXMXMXnXnXMXvXnXMXMXMXMXMXMXMXMXVXSXJXVXnXcXcXvXMXBXVXVXMXvXcXcXvXMXVXVXvXcXfX7X7XaXfXfXvXnXMXMXMXMXVXMXvXcXSXSXgXhXhXhXpXhX9XiXiXsXjXOX+X+X'._.[.[.{.: UX).[.[.{.).UX).>XaX[.[.{.).Q [.[.).{.$X].Q - - - UX:XzXGXJX",
"VXMXMXMXMXMXnXcXvXnXnXnXnXMXMXVXMXMXMXMXMXMXMXMXMXnXnXMXMXMXMXMXSXMXMXMXMXMXMXMXSXSXSXSXSXVXVXVXMXJXJXJXSXJXJXSXMXMXMXSXJXJXSXMXJXMXnXnXMXMXSXJXSXJXMXnXMXVXVXMXMXMXMXSXJXJXSXMXMXMXMXMXnXcXhXtX7XyXcXSXSXJXJXMXJXJXJXJXSXZXMXMXnXMXMXMXMXMXMXMXVXMXMXMXMXMXMXnXcXfXcXMXSXMXnXnXnXnXnXMXMXMXMXVXnXcXnXMXSXnXcXnXMXSXJXJXJXMXnXcXnXNXcXbXcXNXMXMXMXMXPXJXJXPXMXMXMXMXnXnXMXMXZXSXSXMXMXMXnXnXnXnXnXcXcXcXnXnXcXcXnXJXSXnXcXMXnXfXcXnXMXMXnXnXvXcXcXvXnXnXMXMXMXvXnXnXnXMXMXMXMXnXMXMXVXSXVXVXVXSXnXcXfXtXtXfXcXfXcXcXnXMXMXnXMXMXnXMXMXnXcXcXnXMXMXMXnXcXtXtXcXbXMXbXcXbXtX].[.'.wX,X<XrXcXfXaXcXcXcXcXcXcXcXcXnXcXnXMXSXMXnXMXMXJXSXMXnXvXcXnXnXMXnXnXMXMXMXSXJXnXSXLXJXMXJXLXPXPXMXMXJXJXJXZXJXJXJXSXMXMXMXnXnXMXMXMXSXVXMXMXVXSXMXMXMXMXMXMXMXMXMXVXMXMXMXMXMXMXMXVXSXVXMXMXnXnXMXMXMXMXnXcXtXtXcXvXnXvXMXMXMXvXvXvXMXVXVXvXfXeX5XeXtX7XwXcXMXBXVXBXMXMXnXfXpX7X3X].].hXKXjX6XoX'._.'.+X'._._.'.|.2X0X2XOX}.|.).).).{.{.{.[.}.].).UXzXyX).{.wX:XzXzX).).).- - ).IXMXLX",
"MXnXcXvXnXnXnXcXcXcXnXnXnXnXMXVXSXSXSXJXSXSXVXVXVXMXnXMXMXnXMXVXMXMXnXnXnXnXnXvXMXMXMXSXSXSXSXVXSXJXJXSXSXJXJXSXMXMXMXMXSXSXMXMXJXJXMXMXMXSXJXSXSXJXVXnXMXVXVXMXMXMXMXVXVXMXnXvXgXcXnXMXnXfXaXaXwXyXcXnXMXSXJXMXMXSXJXSXSXMXSXSXMXMXMXMXMXMXMXVXMXMXMXMXMXMXMXMXtXrXtXcXMXnXcXcXvXnXMXMXMXMXMXVXMXbXcXMXMXnXnXMXMXJXJXMXMXMXMXnXnXNXcXcXcXcXNXnXMXMXMXMXMXMXMXMXMXnXnXnXnXMXMXMXSXMXMXnXcXcXnXnXcXcXcXnXnXnXnXnXMXSXSXMXMXMXnXcXcXnXPXMXnXnXnXvXnXnXnXnXMXVXBXVXMXMXnXnXMXMXMXnXMXMXSXVXMXnXnXnXcXcXfXfXcXcXcXtXcXcXnXnXnXnXnXnXMXMXMXnXnXnXnXMXnXMXMXnXcXcXcXnXbXMXMXMXnXtX5XwXcXyXeXcXMXvXvXMXcXcXcXcXcXvXnXnXnXMXMXVXMXMXMXMXMXnXnXcXcXcXvXnXMXnXvXnXMXMXMXVXKXMXMXKXLXJXMXGXLXJXJXJXJXMXSXKXSXVXMXVXSXJXKXKXMXMXMXMXMXnXMXSXSXVXMXMXMXVXVXMXMXVXSXSXMXMXMXMXVXSXSXJXSXSXMXMXMXMXMXnXnXnXcXtXaXcXvXcXcXvXMXMXMXMXMXVXVXVXMXnXfXrXgXfX7XwXnXnXMXMXvXaXaXVXSXBXcXfX,X>XBXDXXX{._._.: : : : : : : : _.|.9XCXCXpXvX3X}.}.'.{.}.yXyX].- {.FXwX:XuXuXyXcX].cXGXyX>X[.].wXNX",
"vXcXfXcXcXnXnXcXcXcXnXnXnXnXMXMXSXSXSXSXSXSXVXVXMXvXcXcXcXcXcXnXnXnXvXcXvXvXcXcXcXnXMXSXKXKXSXVXSXSXMXMXMXSXSXMXZXMXMXMXMXMXMXMXMXMXMXMXSXJXJXSXSXKXSXnXMXVXVXMXSXMXMXvXgXfXgXcXfXgXnXSXSXMXvXMXnXcXcXnXcXMXJXJXnXMXMXSXMXMXSXJXMXMXVXMXMXMXVXSXMXMXMXMXVXVXMXMXtXyXrXcXnXvXcXnXcXnXMXVXMXMXVXSXJXnXcXMXMXnXnXJXSXJXMXnXnXMXJXSXMXnXnXcXcXcXcXNXMXMXMXMXMXMXMXMXJXMXMXnXnXMXMXMXMXMXMXnXcXcXbXnXnXMXMXMXMXMXMXZXJXSXJXLXLXJXMXnXcXMXJXPXMXMXMXMXMXVXMXMXVXSXSXBXJXVXMXMXMXMXMXMXMXVXSXSXMXnXcXcXdXdXfXcXbXnXcXcXcXcXnXnXnXcXcXcXcXcXcXnXMXSXJXJXcXcXnXnXcXcXbXMXbXZXnXcXnXZXMXMXJXcXcXMXMXcXfXMXMXnXvXvXnXMXMXnXMXMXnXMXMXMXMXnXcXcXcXcXcXcXnXMXJXVXMXMXnXnXMXMXMXJXJXSXJXGXGXKXMXMXGXJXKXKXSXJXSXVXMXMXVXJXKXKXJXVXMXMXMXMXMXJXJXSXVXVXSXSXSXSXMXSXJXSXVXMXMXMXMXVXSXKXJXKXJXSXKXJXVXMXMXVXMXcXvXMXnXcXfXvXMXMXMXVXVXVXVXVXVXVXJXbXMXMXaXMXLXSXSXMX7X].].>X7X3X3XtXrXfXKXhX|.'.oX0X+X_.: : : {.: - - : |.hXBXgXvXvXCXBXwX].,XtXyXyXUX).zXNX$XJXLXFXLXtXLXLXGXLXFX1X:XwX",
"aXfXcXcXnXMXMXnXMXMXnXcXcXcXvXMXMXMXMXMXMXMXSXJXSXvXfXfXcXcXvXMXMXMXnXnXnXnXvXcXMXnXvXnXVXJXSXVXMXMXMXSXSXSXMXZXMXMXnXnXMXJXJXnXMXMXMXMXZXSXVXMXMXJXSXnXvXBXVXMXSXMXgXhXhXcXnXMXMXMXSXSXSXVXSXSXSXMXMXMXMXMXMXSXMXMXSXSXMXMXMXMXMXMXMXMXMXSXSXSXMXMXVXVXVXVXSXSXMXMXnXnXMXMXSXSXJXMXMXMXMXnXnXnXnXMXMXMXMXSXJXMXMXMXMXbXcXcXMXJXMXnXNXNXNXNXNXcXMXMXMXJXPXnXnXPXSXSXMXnXcXcXnXMXMXMXMXcXcXcXnXnXnXMXMXMXMXJXMXnXMXSXJXJXJXJXMXnXnXcXMXJXSXJXSXMXnXVXSXMXVXSXKXSXSXVXMXnXnXSXMXnXMXMXVXMXMXvXcXgXtXtXtXcXcXbXbXcXcXcXcXcXcXnXcXcXcXcXnXnXcXcXcXcXnXnXnXnXcXcXcXnXMXcXcXbXMXMXcXcXcXcXcXcXnXnXnXcXcXcXcXcXcXvXvXnXvXnXMXMXMXMXnXnXcXcXcXcXcXvXnXMXcXcXcXcXcXnXMXJXVXKXVXvXcXMXJXKXVXJXSXMXJXKXVXSXJXVXMXMXSXSXJXKXSXVXMXMXMXMXMXMXJXKXJXMXVXKXKXVXVXJXJXMXMXSXJXJXMXMXMXVXSXSXMXMXMXVXMXnXMXSXSXSXVXBXMXvXcXaXtXeXaXcXMXKXVXMXKXKXvXcXnXMXMXSXKXSXcXfXcXaX,X].XXeXaX3X}.'.}.8XhXjXCXjXiX+X'.'.+XiX|.'.).: _.9XCXgXnXvXBXKXJXMXvXmXFXFXlX$X[.{.[.:XmXnXMXGXJXSXJXKXLXGXvXcX",
"nXcXfXtXtXaXfXfXtXfXcXvXcXcXcXnXMXMXMXMXMXMXMXSXSXMXnXnXMXMXMXVXJXJXSXVXSXVXMXMXnXcXcXcXnXMXMXnXMXMXSXSXSXMXMXMXMXMXnXnXMXJXJXMXMXnXMXMXMXMXVXMXVXJXVXnXvXVXVXMXVXnXnXvXnXnXnXMXMXMXSXSXSXMXMXSXJXJXSXSXSXJXJXJXMXSXSXSXZXMXMXMXMXnXnXMXMXVXVXVXMXMXVXSXSXJXKXKXSXVXMXMXVXVXMXMXMXnXnXMXMXnXvXnXnXMXnXnXnXMXMXMXnXnXnXcXcXcXnXMXMXnXnXnXnXMXMXnXMXMXMXJXPXMXMXMXMXMXnXnXnXnXMXJXSXJXMXbXcXnXMXMXnXnXnXcXcXnXcXcXcXnXMXnXnXnXnXnXcXcXnXSXSXSXVXcXtXcXMXSXSXSXDXBXMXMXMXnXnXMXSXMXvXnXVXSXVXMXnXvXcXcXcXcXcXnXnXnXcXcXcXcXcXnXnXcXnXnXMXMXnXbXcXcXMXZXSXMXMXMXMXMXMXcXcXbXbXcXcXcXcXcXcXcXnXnXvXcXnXcXfXfXcXcXcXcXMXMXMXMXMXMXnXnXvXnXMXVXVXMXcXtXnXMXSXMXnXcXnXMXMXcXMXLXLXVXcXnXMXJXSXMXSXVXMXMXMXVXSXVXVXJXJXSXSXVXMXMXMXMXMXMXVXSXVXMXMXSXVXMXMXSXSXMXMXMXSXSXnXnXnXMXMXVXMXMXMXSXVXMXMXSXJXSXKXKXVXVXMXvXcXaXaXrXeXvXMXvXVXcXcXnXvXcXnXVXSXMXVXMXMXMXMXcXvXMXVXMXcXfXvXBXDXDXjXjXjXhXiXiX0X0XOXpX9XXXXXrXgXVXVXvXvXVXLXLXKXGXLXLXLXGXFXFXGXLXNXnXGXJXJXKXJXJXMXVXKXLX",
"cXfXtXwXwX7X7X7XeXtXcXcXvXvXnXnXMXMXMXMXMXMXMXMXSXMXMXSXKXJXVXSXJXSXSXSXSXSXVXMXnXvXcXcXcXvXcXcXnXnXMXMXMXMXMXMXMXMXMXZXSXJXMXnXnXnXMXMXMXZXSXJXSXVXnXcXcXMXBXMXMXMXMXSXSXSXMXnXMXMXMXSXSXMXMXSXSXSXSXJXJXJXJXJXSXJXJXJXSXZXMXMXnXnXnXMXMXMXMXMXMXMXMXSXSXKXJXJXSXSXSXSXSXVXMXnXvXcXvXMXMXnXvXcXnXnXnXcXcXnXnXnXbXbXcXcXcXcXbXnXMXnXnXMXMXPXPXMXMXnXMXPXJXMXMXMXMXnXnXcXnXnXMXSXMXMXMXcXcXnXMXSXMXMXnXcXcXnXcXcXcXnXMXMXnXnXMXMXcXcXcXMXSXSXMXfXrXfXMXMXSXSXVXMXnXMXMXnXnXMXMXMXvXnXMXMXMXnXMXMXcXcXcXcXbXnXnXMXcXnXcXcXcXnXnXnXMXMXSXSXMXnXnXnXMXMXJXSXMXMXMXMXMXMXnXNXnXbXnXMXcXnXnXMXVXVXMXcXVXnXcXcXcXnXcXcXcXcXcXcXcXcXvXvXvXvXcXcXfXwX:X]..X<XrXaXfXcXMXKXnXtXcXJXwX{.{..XcXMXVXMXMXMXmXMXvXVXSXMXMXVXJXSXSXMXMXMXMXMXMXMXMXVXMXMXMXVXMXnXMXVXSXMXMXMXVXMXMXMXMXMXVXSXVXMXVXSXVXMXMXSXJXSXKXVXVXVXVXVXnXvX3X[.[.eXKXKXKXVXnXSXnXcXMXMXnXVXMXMXMXVXKXLXJXBXvXVXSXSXSXDXDXBXDXBXBXBXDXDXBXjXjXDXKXBXnXnXgXcXnXnXnXvXMXVXSXGXFXNXFXPXGXGXGXNXLXLXKXMXMXSXSXVXKXVXMXvX",
"nXnXcXcXfXtXtXrXfXcXcXcXcXvXMXMXMXMXVXVXMXMXMXnXMXMXVXSXKXJXSXVXVXMXMXMXMXMXMXMXMXMXnXcXcXcXcXfXcXcXnXnXnXnXnXMXMXSXJXJXMXMXnXcXnXnXMXMXMXMXJXKXMXnXcXtXzXnXMXnXMXnXMXMXSXVXMXMXMXnXMXVXSXVXSXSXnXnXMXMXSXJXJXJXJXJXJXJXJXSXZXMXMXMXMXMXMXMXMXnXnXnXMXMXVXSXSXJXMXMXMXMXMXMXMXnXnXvXnXnXMXMXnXnXcXnXcXcXcXcXnXcXcXbXcXcXcXcXcXnXMXnXMXMXPXJXJXPXMXMXMXMXJXJXMXMXnXnXcXcXcXnXMXMXnXnXnXcXcXnXMXnXnXnXnXnXnXMXMXnXnXMXJXSXMXMXMXMXcXfXcXMXSXJXSXcXcXvXnXnXMXVXVXVXVXSXMXnXcXvXMXVXSXMXnXcXcXvXMXVXnXnXcXcXbXnXMXMXcXnXcXcXcXnXMXnXMXZXSXSXMXMXMXMXMXMXZXMXMXMXMXSXJXZXMXMXMXMXMXMXMXMXSXSXKXJXMXcXnXnXnXMXMXMXvXcXfXfXfXfXcXcXvXnXfXfXcXcXcXtXrXwXMXKXKXJXMXnXcXvXcXtXaXyX{.- - [.rXcXnXnXMXMXnXMXMXMXMXnXnXMXVXJXVXMXMXMXMXMXMXMXSXSXVXVXSXSXMXMXMXMXMXMXMXMXMXMXVXMXMXMXVXVXVXVXMXMXMXMXMXVXSXSXMXBXVXVXVXVXMXvX,X).).>XKXVXVXJXMXKXnXfXVXnXfXMXfXvXMXMXMXVXBXBXMXVXSXSXVXSXSXSXKXKXSXAXDXDXDXKXAXDXSXSXKXJXMXbXVXJXJXnXnXMXJXJXLXJXJXLXJXJXJXcXJXKXSXnXnXKXLXKXKXSXVXSX",
"MXnXnXnXnXnXcXcXnXvXcXcXcXnXMXSXVXVXSXKXKXVXMXvXMXMXBXBXVXVXVXVXVXMXMXMXVXVXMXMXVXMXnXnXcXcXcXaXcXcXcXcXtXtXcXbXnXnXMXMXMXnXcXcXnXnXMXMXMXMXSXJXMXnXcXaXcXMXVXBXJXMXMXMXMXVXSXSXSXMXMXSXJXSXJXKXMXMXMXMXSXJXSXSXJXJXJXSXSXSXMXMXMXMXMXMXMXMXnXvXnXnXnXnXnXMXMXMXMXMXnXMXMXMXMXMXMXMXnXnXnXMXMXMXcXnXnXcXcXnXnXcXnXnXnXnXnXnXnXnXMXMXMXMXMXPXMXMXPXMXMXPXJXJXPXMXcXcXcXcXnXMXMXMXnXMXMXnXnXnXcXcXfXcXcXnXMXMXnXMXMXSXSXSXMXZXMXnXnXfXcXnXMXJXSXnXnXnXnXnXMXVXSXSXSXSXMXcXfXcXnXVXSXVXnXcXgXvXMXSXMXMXnXnXcXcXcXcXnXnXnXcXnXMXMXMXSXJXSXMXMXMXMXSXSXJXSXMXMXMXJXJXJXZXMXMXMXZXnXcXMXMXSXVXSXSXnXcXcXcXnXnXvXvXvXvXMXvXvXvXvXMXMXMXcXnXnXnXnXnXMXVXcXcXcXnXMXMXMXnXcXcXcXtX}.{.{.'.eXgXMXMXVXVXVXGXKXnXvXMXMXnXMXSXMXMXMXMXMXMXMXMXSXVXMXVXSXSXMXMXVXMXMXVXSXVXMXMXMXMXMXnXnXnXnXMXMXMXMXMXMXMXMXVXMXMXVXVXKXVXVXMXcX].[.tXKXMXMXSXMXJXnXfXnXcXtXnXvXBXSXMXvXVXSXSXSXSXSXVXSXJXLXKXMXSXJXKXSXSXSXJXMXSXSXSXJXJXJXLXJXZXnXbXSXLXJXMXLXFXGXGXnXVXKXJXmXVXJXVXSXJXVXfXLXSXgXpX",
"nXvXcXcXcXcXvXvXnXnXnXnXMXMXMXVXVXVXVXKXKXVXMXvXMXMXVXMXMXBXVXVXMXMXMXMXVXMXMXnXnXnXnXnXcXcXcXaXcXcXcXtXtXrXtXdXcXcXcXMXMXMXnXnXcXnXnXnXnXnXMXMXMXnXcXcXMXVXVXKXKXVXMXnXMXVXKXJXKXJXSXJXJXSXVXJXJXJXSXJXSXJXSXMXJXJXSXSXSXSXMXMXMXMXMXMXMXMXnXvXnXnXnXnXnXnXnXnXMXMXnXnXMXMXMXMXMXMXnXvXnXMXMXMXnXMXMXnXnXMXnXnXnXnXnXnXnXnXnXnXnXnXnXMXMXMXMXnXPXPXJXPXPXJXMXMXcXcXcXnXMXMXSXSXMXSXZXMXnXnXcXtXtXfXcXnXMXMXnXMXMXJXSXMXMXMXnXcXnXfXfXbXnXSXSXMXvXnXVXMXVXSXSXSXMXMXnXfXfXvXnXMXnXMXnXMXMXnXMXVXJXJXMXnXcXfXfXcXnXMXnXnXMXSXSXMXJXJXMXnXnXbXnXnXMXSXSXZXMXSXJXKXJXZXZXMXZXJXMXbXMXSXSXMXVXJXMXcXaXcXcXaXtXaXcXMXVXVXVXMXMXMXMXMXnXMXMXnXcXfXcXcXVXMXnXMXMXMXnXcXcXMXMXvXfXaXeX7XaXMXVXVXKXVXMXVXVXvXcXnXMXnXnXMXMXMXMXMXMXMXMXMXSXMXMXMXMXMXMXVXSXMXMXVXSXVXMXVXMXMXMXnXnXnXnXMXnXnXnXMXMXMXMXMXMXMXBXVXVXVXVXVXVXMXvXVXMXnXKXVXMXMXvXcXnXvXfXnXSXVXMXMXVXKXKXJXSXSXVXMXVXKXJXSXSXMXPXJXKXLXKXKXMXJXKXJXJXZXPXLXMXMXbXbXMXZXAXMXJXGXJXJXMXVXKXKXJXKXSXMXnXMXaX7X[.].8XvX",
"SXMXMXMXMXVXVXVXMXMXMXMXSXSXVXMXVXVXMXMXVXVXMXnXMXVXVXMXMXBXVXVXMXMXMXMXMXMXnXvXcXcXvXnXnXvXcXcXcXnXnXcXfXtXtXcXfXtXdXnXZXSXMXMXnXnXcXnXnXnXnXnXMXnXnXnXMXMXVXVXMXnXvXcXmXMXMXVXJXMXnXMXMXMXMXMXJXSXMXMXSXSXSXSXJXSXMXMXMXSXMXMXMXMXnXnXMXMXMXMXMXMXMXMXMXMXMXMXMXMXMXMXMXnXvXcXnXnXnXcXnXMXMXMXnXMXMXnXnXMXMXnXnXnXnXnXnXnXnXnXnXnXnXMXMXMXMXnXMXJXJXMXMXMXMXnXcXcXnXMXMXMXMXMXMXMXMXnXnXnXcXfXnXnXMXJXSXMXnXMXMXSXMXnXbXnXnXnXnXcXfXbXnXMXSXMXvXnXVXVXVXSXSXSXnXnXnXvXvXMXnXnXcXvXnXMXMXnXnXMXZXSXMXnXcXcXcXcXnXMXMXnXMXMXMXnXnXMXnXnXcXcXcXcXnXMXMXSXMXMXSXSXZXJXJXZXZXZXSXMXMXSXVXMXMXKXSXnXMXnXvXcXaXfXvXMXVXVXVXMXMXMXMXMXcXvXMXMXnXnXnXMXMXnXnXMXMXMXMXnXvXMXMXvXfXgXfXhXhXMXnXMXSXVXMXmXcXcXfXrXtXcXMXnXMXMXMXVXVXVXVXVXVXnXnXMXMXMXMXSXJXMXMXMXVXMXMXVXMXMXMXnXnXnXMXSXnXvXnXMXMXnXnXMXMXMXMXBXVXVXVXMXcXMXMXvXaXaXVXnXnXcXcXnXMXMXnXMXVXBXMXMXSXSXSXBXSXSXSXSXJXJXKXJXLXJXPXFXFXLXLXLXJXJXMXMXJXPXZXMXPXPXJXJXZXAXZXJXJXKXJXJXKXVXMXVXSXMXcXcXnXMXMXnXvXBXDXDX",
"nXMXMXSXKXJXMXMXJXKXSXSXSXSXSXSXVXMXvXvXvXMXMXMXMXVXVXMXMXVXVXVXSXSXSXSXSXMXMXnXtXfXcXMXMXMXnXnXcXnXMXMXnXcXcXnXcXtXtXbXZXJXMXMXnXnXcXcXnXnXnXcXcXcXcXcXcXcXvXnXcXcXcXcXcXvXvXcXcXcXcXcXnXnXMXMXMXnXnXnXMXMXSXSXSXMXMXMXMXMXMXMXMXnXnXnXMXVXSXSXMXMXVXVXVXSXSXSXMXMXMXMXnXcXfXtXcXcXcXcXnXMXMXnXnXnXnXcXcXnXMXMXnXnXnXnXnXnXnXnXnXnXnXMXMXMXMXnXMXJXJXMXnXnXnXcXcXnXMXMXMXnXnXnXnXnXbXcXnXMXMXnXJXJXJXJXSXnXnXMXnXMXnXcXtXfXcXnXnXcXbXnXnXMXSXMXMXVXMXnXnXMXMXMXVXSXMXMXMXVXMXgXcXcXcXcXgXvXMXMXnXnXMXnXnXcXcXcXcXnXnXnXnXMXnXcXcXcXnXnXcXcXcXcXnXMXJXJXJXJXSXMXnXZXSXMXnXMXZXJXnXMXnXcXnXSXSXMXKXKXVXVXMXMXMXMXVXVXVXVXVXVXVXVXVXMXMXMXnXvXcXcXnXnXMXVXVXVXMXMXvXcXcXvXMXvXgXvXhXvXvXvXVXVXvXvXtXcXtX:X:XtXMXnXMXMXSXVXSXSXSXVXVXnXvXnXMXMXVXJXJXMXnXMXMXMXMXVXvXvXnXcXcXvXMXSXnXvXnXMXMXnXnXMXMXBXMXVXVXVXVXVXJXMXvXVXVXvXVXMXfXtXfXnXnXMXMXMXVXVXSXKXSXMXMXnXnXMXMXnXMXSXJXJXPXJXLXLXFXGXFXJXMXJXPXMXJXJXPXPXJXbXcXMXSXZXAXZXMXSXMXMXLXJXMXSXJXMXnXMXSXSXSXVXKXDXCXnX",
"MXMXMXMXnXnXcXcXnXMXJXJXJXMXJXJXGXGXGXMXnXvXnXMXMXMXMXMXMXMXJXKXMXMXMXGXJXJXGXMXvXvXmXMXVXGXMXMXMXMXMXMXMXMXJXJXSXnXnXMXSXSXMXSXMXnXcXcXnXnXnXnXnXnXnXnXnXnXvXcXNXNXcXcXcXcXcXcXbXcXcXcXNXnXMXnXnXnXbXbXnXnXnXnXMXnXcXnXnXbXnXMXMXMXnXMXMXSXMXMXJXnXcXnXMXMXSXSXJXSXVXnXcXaXtXtXcXcXcXvXnXMXnXnXcXcXnXMXMXnXnXnXnXcXcXnXMXnXcXcXnXvXcXaXcXnXMXnXnXMXJXSXMXnXvXnXnXnXMXMXnXnXnXcXnXnXnXnXMXMXMXMXSXMXMXMXMXMXnXcXcXfXfXcXcXfXcXMXnXtXtXcXMXZXMXnXnXMXMXcXcXMXMXMXMXMXAXSXSXMXnXbXcXcXnXnXnXMXMXZXMXMXZXSXJXMXnXnXMXcXcXcXnXnXNXcXcXbXnXnXnXbXbXbXnXnXMXVXSXSXSXMXnXnXnXnXMXMXMXMXcXnXnXcXMXLXJXcXMXVXSXSXSXSXSXSXMXMXnXMXVXSXSXSXMXMXVXVXMXMXnXcXnXMXMXMXMXMXMXMXnXcXfXcXcXcXnXMXcXfXcXcXnXSXnXMXnXnXeX.X}.yXnXMXvXMXVXSXSXVXVXMXMXMXSXSXVXVXSXSXMXvXcXvXMXSXMXnXvXfXvXvXaXfXBXHXVXvXvXVXKXVXVXKXMXVXSXSXJXKXKXKXJXSXSXVXMXMXMXMXvXcXfXcXvXMXMXMXMXVXSXVXMXnXcXrXfXvXnXbXfXbXnXMXMXMXJXJXJXGXGXPXMXMXPXJXJXJXSXMXZXMXMXMXSXSXMXMXMXSXSXSXSXSXSXSXSXVXnXnXMXSXSXSXCXgXhXsX",
"MXMXMXnXnXcXcXtXnXMXJXJXMXMXMXJXGXJXGXGXMXMXMXGXGXJXJXGXMXMXJXKXJXJXGXGXJXJXGXMXGXGXGXJXKXKXGXMXMXMXMXMXMXMXJXKXJXMXMXSXJXSXSXJXJXMXnXnXnXnXnXnXMXMXnXnXMXMXMXSXnXnXnXnXnXNXNXNXcXbXcXbXcXnXMXnXnXnXnXbXnXnXnXnXnXcXcXnXnXnXnXMXSXMXMXMXMXSXMXMXJXMXMXMXMXMXMXMXVXSXSXSXMXvXcXcXnXcXfXtXfXcXvXnXnXnXnXnXnXnXMXMXnXcXbXMXMXnXcXcXnXnXcXcXcXMXnXvXnXMXVXSXVXMXMXMXMXMXMXMXMXnXcXcXcXnXMXSXSXSXSXSXMXVXSXSXSXSXSXSXvXcXnXSXVXnXnXMXcXtXtXcXNXnXNXcXcXMXMXnXnXJXJXMXMXMXnXnXnXnXnXnXfXnXMXSXZXZXSXSXSXSXSXSXSXMXnXnXcXcXbXcXnXMXMXMXMXMXMXMXAXMXMXMXMXMXMXMXMXMXMXMXMXMXnXMXMXMXMXMXMXtX.X[.[.,XnXKXMXVXVXVXSXSXSXSXnXnXMXMXSXSXMXMXMXMXMXMXMXMXnXcXMXMXMXMXMXVXVXVXcXfXtXaXcXcXMXJXnXfXcXfXcXMXvXnXcXMXnXfXtXcXnXcXMXMXVXSXSXVXMXnXnXnXMXVXMXMXSXSXMXMXvXvXnXVXVXVXvXhXvXvXfXfXBXSXMXvXvXBXGXMXMXVXMXMXMXMXSXSXSXSXSXSXMXMXMXMXMXMXnXvXcXvXnXMXMXMXMXMXVXSXSXMXaX7XrXhXbXbXbXnXnXAXSXJXJXJXJXJXJXJXMXMXJXJXJXJXJXSXSXMXVXSXKXSXVXVXMXVXSXSXSXSXSXSXSXVXVXSXSXSXMXMXhXaXsXaX",
"MXMXMXMXMXnXcXfXnXMXSXJXVXMXMXMXSXVXVXVXSXJXJXJXJXJXJXSXVXSXJXJXKXJXJXJXJXJXJXGXJXJXJXKXJXKXGXMXJXJXJXSXMXMXJXJXJXJXSXSXMXMXMXSXSXMXnXMXMXMXMXMXMXnXcXcXcXnXMXSXMXMXMXMXMXMXnXnXNXNXcXnXnXMXMXMXMXnXnXbXnXnXnXnXcXcXcXbXnXnXnXnXMXMXMXMXnXnXMXMXnXMXSXSXnXcXfXcXnXMXSXKXSXMXnXnXSXMXcXfXcXcXnXMXnXnXnXMXMXMXMXMXnXnXnXMXSXMXnXnXMXMXMXMXMXSXMXnXMXMXMXSXSXJXKXJXZXZXSXZXMXnXcXcXfXcXnXMXMXMXVXSXnXMXJXKXJXSXJXJXMXMXVXJXKXMXMXSXcXcXcXcXMXMXMXMXnXMXPXMXMXJXJXMXSXSXMXcXcXnXnXcXtXgXMXSXAXMXMXMXAXSXSXSXMXMXnXMXcXcXcXNXnXMXPXJXZXZXSXSXSXSXSXSXMXMXMXMXMXMXMXMXVXMXnXnXnXMXMXnXnXcXaXrXeXtXnXSXSXSXSXJXSXSXSXSXcXcXvXMXVXSXJXSXVXMXMXMXJXJXJXMXMXMXMXMXSXSXSXSXcXcXaXfXcXcXMXKXSXnXnXcXvXVXMXSXVXJXJXVXMXMXMXMXMXMXMXMXMXMXnXvXnXnXnXMXMXMXVXSXSXVXnXMXMXMXVXSXvXfXvXMXgXvXBXVXvXcXcXMXMXmXvXmXnXnXMXMXMXVXVXVXSXSXMXMXMXMXMXMXMXnXnXcXcXvXMXSXVXMXMXMXSXMXfXwXrXfXnXAXAXAXSXSXJXJXPXMXPXPXJXJXJXJXJXJXJXJXJXKXSXSXSXSXKXKXVXVXMXSXSXSXSXSXSXSXMXMXSXJXJXSXMXvXgXgXnXCX",
"MXMXMXVXSXVXMXMXnXMXVXSXMXMXMXMXMXMXnXMXVXSXSXMXMXMXMXMXMXVXSXKXJXKXGXGXGXGXJXJXJXJXJXJXKXJXJXGXSXSXSXMXMXMXMXSXMXMXMXMXnXcXnXMXnXnXnXMXJXSXMXSXnXnXcXcXcXcXnXnXPXJXJXPXMXMXMXnXMXMXMXMXMXMXMXMXMXMXnXnXnXMXnXnXnXnXcXnXnXbXcXcXcXcXnXnXcXcXcXcXcXnXSXMXnXfXtXtXcXvXMXSXSXMXMXnXSXVXMXMXMXMXMXMXnXnXMXMXJXJXSXSXMXMXMXSXJXJXMXMXMXJXSXVXSXJXSXMXSXVXMXVXSXJXSXSXZXJXSXSXZXMXcXcXcXcXcXcXfXcXnXSXMXMXSXKXKXJXJXJXJXSXMXVXMXMXSXJXJXMXMXJXJXJXJXJXJXJXJXMXMXJXJXJXMXSXAXbXbXMXnXfXwXtXcXnXbXcXcXcXbXnXSXSXMXnXMXMXnXnXnXcXNXMXMXMXZXAXAXAXZXZXAXAXnXnXMXMXMXMXVXSXVXMXnXcXcXnXnXnXcXcXMXVXnXaXrXtXVXVXVXMXMXMXnXnXJXVXMXnXnXvXvXnXMXnXnXnXMXMXMXMXVXSXSXSXSXSXSXVXMXvXcXcXcXvXMXKXLXSXSXMXMXKXVXJXKXSXMXMXVXVXKXKXMXMXnXMXSXSXMXnXnXnXMXVXVXSXVXVXSXSXSXVXnXMXMXSXMXvXMXMXvXnXVXSXvXvXvXMXMXmXvXvXMXMXMXMXMXMXMXMXKXSXVXMXMXMXVXSXSXMXvXfXtXfXnXSXKXSXMXnXMXMXvXfXcXnXSXSXSXSXSXSXMXMXnXnXMXPXJXJXJXJXJXJXSXJXKXJXSXSXSXJXKXSXVXMXVXVXVXMXnXnXnXnXMXnXMXVXSXSXSXVXVXDXDXDX",
"nXnXvXnXMXMXVXVXMXMXMXVXMXMXnXnXMXnXnXnXMXMXMXnXnXnXnXnXnXMXMXMXMXMXMXMXMXMXMXMXVXGXGXGXGXGXVXVXMXMXMXnXnXnXnXnXcXnXnXcXcXcXcXnXcXcXcXMXMXMXMXMXMXMXMXMXMXMXMXMXJXJXJXJXMXMXnXNXMXMXMXMXMXMXMXMXMXMXMXMXMXMXMXMXMXMXnXnXnXnXcXtXtXcXnXnXcXcXcXcXMXMXJXSXMXnXcXcXcXnXMXVXMXMXMXMXMXMXMXMXMXMXMXMXnXnXnXnXMXSXJXJXMXMXSXJXJXJXSXMXMXVXMXnXnXMXMXnXVXMXMXMXMXMXMXMXnXMXMXMXMXnXbXcXcXcXcXcXaXfXnXMXVXVXSXKXKXKXJXKXKXJXMXMXMXMXJXJXJXJXJXJXJXJXJXPXMXPXJXMXMXPXMXMXcXMXnXcXcXMXMXcXrXtXcXcXcXcXcXcXcXMXSXSXJXMXMXSXMXMXnXcXNXMXMXnXZXZXMXMXMXMXMXMXnXnXMXMXMXnXnXMXMXMXnXcXcXnXnXnXJXMXMXMXnXcXcXMXnXnXvXcXcXfXtXtXcXcXvXvXnXnXnXnXMXVXSXVXnXnXnXMXVXSXSXSXSXVXMXMXnXvXcXnXnXnXMXJXJXMXKXMXMXKXMXSXMXnXMXKXKXJXSXJXJXVXMXVXJXJXSXMXMXMXVXSXSXSXVXMXMXSXSXSXMXMXMXSXVXMXMXMXcXMXSXSXBXVXVXKXGXVXMXMXVXSXSXSXSXVXMXMXJXSXVXMXMXMXVXSXMXMXnXcXaXfXnXVXSXJXSXMXMXMXMXMXnXnXMXMXnXnXnXMXMXnXcXcXnXMXJXKXJXSXSXMXMXSXJXJXSXSXSXJXSXVXMXMXnXnXcXcXcXcXfXfXvXvXnXMXSXSXSXSXSXSXBXSX",
"MXnXnXvXnXMXMXMXMXMXVXVXMXMXMXnXnXnXnXnXMXMXnXnXnXnXnXnXnXnXvXcXcXcXvXmXcXvXmXnXnXnXMXnXmXvXvXmXnXnXnXnXnXbXnXnXcXnXnXcXcXnXnXnXnXcXcXnXMXMXnXMXZXSXSXSXJXJXJXJXJXJXJXJXMXMXnXcXnXnXMXMXnXnXnXnXSXMXMXMXMXMXMXMXSXMXMXnXnXnXcXtXfXcXMXMXMXnXnXnXSXSXSXMXJXJXSXMXMXSXJXJXSXSXSXSXSXMXnXcXvXnXMXMXcXcXtXtXtXcXMXSXMXMXSXSXSXJXJXSXSXSXMXnXvXnXMXnXnXnXnXnXnXnXnXnXbXbXnXMXMXnXnXbXMXMXVXMXMXnXnXMXMXnXnXMXJXJXJXJXJXSXVXSXSXSXSXSXJXJXPXMXMXMXMXnXtXcXMXPXJXPXnXcXcXcXtXrXtXnXMXnXcXcXcXcXcXcXnXnXMXSXJXJXJXMXMXMXMXMXcXcXcXMXMXnXJXZXMXMXZXZXMXMXnXMXMXMXnXcXcXcXMXMXnXcXcXnXnXvXfXtXfXnXnXcXcXvXnXvXcXcXcXfXtXtXwXtXcXnXMXMXMXnXtXcXnXnXcXcXnXSXnXMXMXVXVXMXMXnXcXfXcXnXMXMXMXSXSXMXJXMXMXJXMXSXVXMXMXSXJXSXMXMXJXVXMXMXMXMXMXnXMXMXSXSXSXSXMXnXnXMXSXSXSXVXSXSXVXMXMXvXcXMXSXSXBXVXVXKXGXVXVXVXSXSXSXSXSXSXVXVXVXMXMXMXMXMXMXMXMXVXSXMXnXnXnXMXMXSXJXJXSXSXVXMXbXbXbXnXnXvXnXAXnXnXNXNXMXJXJXJXSXSXMXMXMXMXSXJXSXSXSXJXSXVXMXvXfXaXtXaXfXfXfXfXvXnXMXSXSXSXSXMXVXVXVXnX",
"VXMXMXnXMXMXMXMXMXMXMXVXVXMXMXMXnXnXMXMXnXnXnXnXnXnXnXMXMXMXvXcXcXvXnXnXvXcXvXnXcXcXcXcXcXcXcXvXnXMXMXMXMXnXMXMXnXMXnXnXnXMXMXnXnXbXbXMXMXMXMXMXMXMXMXMXMXMXMXMXMXMXMXMXMXnXnXcXnXnXMXMXnXnXnXnXMXMXMXMXMXMXMXMXSXMXnXnXMXMXnXcXnXnXMXMXMXMXMXMXMXMXMXMXSXJXJXMXJXJXKXKXJXJXJXSXKXMXvXcXfXcXvXnXfXtXyXwXtXcXnXMXnXMXVXMXMXSXJXVXJXKXSXMXnXMXMXMXvXnXMXMXnXnXMXMXnXMXMXMXMXZXMXZXJXJXJXSXVXMXMXnXvXcXcXnXnXMXMXMXMXMXnXnXMXMXMXMXMXMXnXNXnXMXnXcXtXcXcXMXMXMXNXcXcXdXtXtXcXnXMXMXnXbXbXbXnXnXnXnXMXMXMXMXnXnXnXnXnXnXcXcXbXMXPXMXKXJXMXMXSXJXSXMXnXMXSXMXcXcXcXcXMXMXMXcXcXnXnXcXcXcXcXnXMXMXJXKXMXMXMXMXnXnXvXcXcXnXMXMXnXcXfXtX<XwXtXtXtXrXtXfXfXcXnXMXMXMXnXcXtXtXtXcXMXSXSXMXMXnXSXMXMXSXMXSXJXSXMXnXnXMXMXMXMXMXnXvXcXcXcXcXnXnXnXMXSXSXMXMXnXMXMXMXMXVXVXSXVXMXMXvXcXMXVXVXMXVXVXVXBXMXMXMXMXVXSXSXSXSXSXSXMXMXMXMXMXMXMXMXMXMXSXSXMXMXMXMXMXVXSXSXSXSXMXnXbXgXcXnXnXnXAXSXMXnXnXMXPXJXJXJXMXZXMXMXMXMXVXSXVXSXSXJXKXVXVXMXfXaXaXfXfXcXcXcXnXnXSXSXJXSXVXMXSXSXVXVX",
"MXnXnXnXMXMXMXnXMXMXMXVXVXVXMXnXcXnXMXMXnXnXnXMXnXnXMXMXSXVXMXnXnXMXMXMXnXnXnXnXcXcXnXnXnXnXMXVXMXMXMXMXMXMXMXSXMXMXMXnXMXSXMXnXnXcXbXMXMXMXMXJXJXSXMXnXnXnXnXnXnXMXMXMXMXMXnXnXnXMXMXMXMXnXnXnXMXMXnXnXMXMXMXnXMXMXnXnXMXJXMXcXMXMXMXMXnXnXnXMXnXMXSXMXJXJXJXSXSXKXKXKXJXJXSXVXSXMXcXfXtXtXtXtXfXtXtXfXcXMXMXMXcXMXMXMXMXVXSXMXVXSXVXMXnXnXnXnXMXMXJXSXMXnXMXMXSXJXZXZXZXJXJXKXJXSXMXnXnXnXnXnXnXMXMXnXvXvXnXMXMXvXfXtXfXcXnXnXcXcXcXcXbXNXcXtXcXcXcXnXnXnXNXnXnXcXcXcXnXMXnXbXnXcXcXbXnXnXcXcXbXfXfXfXcXcXcXcXnXMXnXcXcXnXPXMXLXJXZXZXJXJXSXMXMXZXSXMXvXcXcXnXMXSXMXcXcXnXnXcXfXcXMXMXMXVXJXJXMXMXMXMXMXMXMXMXvXnXnXnXnXnXMXVXcXnXMXnXcXtXtXtXrXtXcXnXMXnXvXcXcXtXtXcXMXJXJXMXnXcXMXnXbXMXnXMXnXMXnXvXnXMXnXcXnXnXnXnXcXcXnXnXcXcXvXnXMXVXMXnXVXMXMXMXMXMXMXMXMXMXMXvXcXMXVXMXMXVXVXVXVXVXVXVXMXMXMXMXSXSXSXSXMXVXSXSXSXVXMXMXMXMXMXnXvXnXMXMXSXVXMXnXMXVXMXnXfXfXfXnXnXnXMXSXMXnXnXMXJXJXJXMXZXZXZXZXSXSXVXVXMXVXSXKXKXKXVXBXvXcXcXcXnXnXnXnXnXMXSXSXSXSXSXSXSXSXSXSX",
"vXcXvXMXMXvXvXMXMXMXVXBXBXMXMXMXnXnXnXnXvXcXcXcXnXnXMXMXMXMXnXnXcXMXMXcXcXMXMXnXcXcXcXcXnXnXMXMXMXMXnXnXnXMXMXMXnXnXMXnXMXMXMXMXnXcXcXnXMXJXJXJXMXMXMXnXcXcXnXMXcXbXnXnXMXMXnXnXcXcXnXMXMXMXMXMXMXMXMXnXMXMXnXnXcXMXMXMXMXJXJXMXSXSXMXMXnXMXMXMXnXMXMXSXJXKXKXJXKXKXJXKXJXJXSXVXMXMXnXvXvXcXcXcXnXnXcXcXcXnXnXMXcXMXMXnXnXVXVXnXMXMXMXnXcXcXnXVXnXMXSXJXSXSXSXJXJXJXJXJXJXJXSXSXMXMXMXvXvXMXMXnXvXvXvXvXnXnXMXVXMXnXnXvXvXnXnXMXnXnXMXMXMXMXnXcXcXcXcXcXcXcXcXcXcXcXcXcXcXcXbXnXcXcXcXnXnXbXcXcXcXnXMXAXMXMXSXJXMXMXMXcXzXzXcXMXZXMXMXZXJXJXJXJXMXSXJXVXMXnXnXnXMXVXSXJXJXSXMXMXMXMXMXMXMXSXJXJXMXSXSXMXMXMXMXnXcXnXMXcXnXVXSXMXMXMXMXJXSXMXcXcXcXcXcXfXfXcXvXMXMXMXMXSXSXMXMXSXnXnXbXnXbXcXcXcXnXnXnXnXnXnXnXnXvXvXnXnXnXMXMXMXMXnXnXMXMXMXMXMXMXMXMXnXnXMXMXMXMXMXmXmXvXmXMXVXVXVXVXVXVXKXKXKXSXSXVXMXMXMXVXSXSXSXSXSXKXJXVXMXMXMXMXnXnXnXMXMXMXMXMXnXnXnXMXMXbXbXvXnXZXSXSXSXMXMXMXMXMXZXSXJXJXJXJXJXSXSXVXVXSXSXSXVXVXVXVXSXMXMXMXMXSXKXSXMXMXMXSXKXJXJXKXSXSXSXSXSX",
"MXMXMXvXvXvXMXVXvXvXMXMXMXMXvXvXnXnXnXnXvXvXvXvXnXnXMXMXMXMXMXnXnXMXcXtXtXcXMXMXnXvXcXcXcXnXnXMXnXnXnXnXnXnXnXnXnXnXnXnXnXnXnXnXcXcXcXnXMXMXZXZXnXnXcXcXcXcXnXnXcXcXcXbXnXMXMXMXcXcXnXnXMXMXMXMXJXSXMXMXSXMXMXMXnXMXJXMXZXJXJXMXMXMXMXnXnXnXnXnXbXnXMXMXMXJXSXMXMXMXMXMXVXVXVXVXSXVXMXMXMXMXMXMXMXnXnXvXcXvXnXnXcXnXMXnXnXMXMXcXvXvXvXvXvXvXnXnXvXnXMXMXVXVXSXJXZXZXZXMXMXnXnXnXnXnXnXvXcXnXvXcXfXaXtXfXcXnXMXMXVXMXMXMXnXnXnXnXMXMXMXPXJXJXMXMXnXMXnXnXcXcXzXzXcXcXcXcXcXcXcXcXcXcXcXnXnXnXnXnXcXnXnXMXnXnXMXMXMXMXMXNXcXcXcXcXbXMXMXZXJXJXJXZXMXMXSXVXMXMXnXMXSXSXSXSXSXMXMXMXMXMXMXMXMXSXKXJXMXMXMXMXMXMXMXMXnXVXVXnXMXJXJXSXMXMXMXJXKXMXnXvXnXnXvXcXcXnXMXVXMXMXMXSXJXZXSXJXMXnXnXMXnXnXnXnXMXMXMXMXMXMXnXnXnXnXnXnXnXMXMXMXMXMXMXMXMXMXMXMXVXMXMXMXMXMXVXSXMXMXmXmXmXMXVXVXVXVXVXKXKXKXKXKXSXSXVXVXVXVXSXJXJXSXSXJXKXJXSXMXMXMXMXnXnXnXMXMXMXnXnXnXvXnXnXnXnXnXnXnXZXSXSXSXMXMXMXMXZXSXJXJXJXJXJXSXSXMXVXVXVXMXMXMXVXVXVXVXSXMXMXSXKXKXJXJXSXSXSXJXJXJXKXKXSXSXSXSX",
"aXfXvXcXfXfXfXtXvXvXMXBXMXMXvXcXnXnXnXnXnXnXvXnXvXnXnXMXMXMXnXvXnXnXcXtXtXcXMXMXMXnXcXcXcXvXnXnXcXcXnXnXnXnXnXcXnXnXnXcXnXnXnXnXnXbXbXnXnXMXMXMXcXtXtXtXtXfXfXfXtXfXfXcXnXMXMXSXnXnXnXnXMXMXSXSXSXSXMXMXSXMXMXMXnXMXSXMXMXSXZXnXnXnXnXnXnXnXnXnXnXnXnXnXnXMXMXnXnXnXnXnXnXMXMXMXVXMXMXMXMXVXVXMXMXVXMXMXvXcXvXnXcXMXMXMXnXMXnXcXcXcXcXvXnXMXnXnXcXnXnXnXnXMXMXMXnXMXnXnXnXbXcXcXcXnXMXMXMXMXMXnXcXcXfXcXnXMXMXMXMXMXMXnXnXvXcXcXcXcXNXnXMXMXMXnXcXcXNXnXNXbXcXbXcXcXcXcXcXcXcXcXcXcXnXMXMXMXMXMXnXnXnXnXbXcXnXnXnXnXnXnXcXcXzXtXdXnXJXJXJXJXJXPXMXPXGXGXMXMXMXMXnXnXnXnXnXnXnXnXMXnXmXcXmXMXMXVXMXMXMXnXnXMXMXMXnXMXMXvXnXMXSXMXMXMXMXSXSXMXMXMXnXMXMXMXnXMXVXJXMXMXMXJXZXZXZXJXbXcXcXnXnXbXbXMXSXVXVXVXMXMXMXnXMXMXnXnXnXMXMXMXMXMXMXMXMXMXMXMXVXVXMXMXMXVXSXSXVXVXmXmXMXVXVXMXMXVXVXVXKXKXSXVXSXVXVXVXVXVXSXSXJXSXSXSXSXSXSXVXVXMXMXnXnXMXMXMXMXnXnXnXnXnXnXnXZXMXMXMXMXSXSXSXMXMXAXMXSXSXSXSXJXJXSXSXMXMXMXMXMXMXMXMXMXMXMXMXMXMXMXSXJXKXJXKXKXJXSXSXSXSXJXJXJXJXKXKX",
"VXvXaXaXfXvXnXMXvXMXMXBXMXMXnXvXnXnXnXnXnXnXnXnXvXvXnXMXMXMXMXnXnXMXMXcXcXnXnXnXMXnXvXcXvXnXnXnXcXnXnXMXMXMXnXnXnXnXnXnXnXnXnXnXMXMXnXMXMXMXMXMXdXtXtXtXtXdXcXfXcXcXcXcXcXnXMXZXSXZXMXnXnXnXMXMXMXnXnXnXnXnXnXcXcXnXnXcXbXnXnXcXcXcXcXcXbXnXnXnXnXMXMXnXnXnXnXnXnXcXcXcXcXnXMXVXMXMXMXMXVXSXVXVXMXSXSXMXvXcXvXnXMXVXSXMXMXMXMXcXcXcXnXMXMXVXMXMXnXnXnXvXvXvXnXnXbXbXnXMXMXMXMXMXcXnXMXSXSXSXSXVXVXMXMXMXMXVXMXMXMXMXMXnXnXcXcXcXcXcXbXcXNXcXcXcXtXzXcXcXcXcXnXnXcXNXnXnXnXcXcXcXcXNXnXMXMXPXMXMXMXMXMXnXcXcXnXnXnXnXnXnXnXcXtXyXwXcXJXJXPXJXKXJXPXPXGXGXMXMXMXMXcXcXcXcXvXnXnXMXmXcXcXcXcXcXnXMXnXMXMXnXnXnXnXcXnXnXvXcXcXnXMXMXMXnXnXMXMXMXMXMXnXnXMXMXMXMXVXSXSXZXZXZXZXMXMXMXbXbXcXnXnXbXbXMXSXSXVXMXMXMXnXnXMXMXnXnXnXnXMXMXMXMXMXMXMXnXMXMXMXMXMXMXMXMXVXGXGXVXmXmXMXVXVXMXMXMXMXVXVXVXVXVXMXMXMXMXMXVXVXVXSXVXMXMXMXVXVXVXSXVXMXMXMXMXMXMXMXMXMXnXnXnXMXMXSXMXMXMXMXZXZXSXMXMXMXAXAXSXSXSXSXSXZXMXMXMXMXMXMXMXnXnXMXMXMXMXnXnXnXMXMXVXVXMXSXSXSXSXSXSXSXSXJXKXKXJX",
"fXrXrXvXMXvXfXfXnXnXvXvXvXvXMXMXvXnXnXnXnXnXnXnXMXMXMXMXMXVXMXMXnXMXVXMXMXnXnXcXvXvXvXnXMXMXnXvXnXnXnXnXnXMXMXMXMXMXnXnXnXnXnXnXMXZXZXMXMXMXMXMXcXcXcXcXcXcXcXnXnXnXnXbXcXcXnXnXAXMXnXnXbXnXnXnXnXcXcXcXnXcXcXcXcXnXnXcXcXcXcXcXcXcXnXnXnXnXnXnXMXMXMXnXnXMXMXnXMXnXnXvXnXnXMXVXSXSXVXSXSXSXSXVXMXVXVXVXMXvXvXMXMXVXVXVXMXMXMXvXcXvXMXMXMXMXVXJXMXMXnXnXnXnXMXMXnXnXnXMXMXZXMXMXcXnXnXMXMXnXMXMXMXVXSXMXMXnXnXMXSXSXSXVXMXMXMXMXNXnXnXnXNXcXbXcXcXNXNXcXcXcXcXnXMXMXMXMXMXMXMXnXnXnXMXMXMXMXMXMXMXMXnXnXbXcXnXnXnXcXNXnXMXcXtXyXuXcXPXPXMXJXKXJXJXJXMXMXMXMXMXnXmXmXnXnXnXMXMXMXmXcXcXcXcXvXnXMXnXMXVXMXMXMXnXnXMXMXMXvXnXMXMXVXSXMXcXcXvXnXnXMXnXnXMXMXMXMXMXMXMXMXMXMXMXbXbXMXMXMXMXMXZXMXMXZXVXMXMXMXnXnXnXnXMXMXnXnXnXnXMXMXnXMXMXMXMXnXMXMXMXMXMXMXMXMXVXGXGXFXmXmXVXGXVXMXmXMXMXBXVXVXVXVXVXVXMXSXSXSXSXSXVXVXVXVXMXMXMXSXKXSXSXVXSXSXVXMXMXMXMXMXMXMXMXMXMXMXnXnXMXMXMXZXAXMXMXAXSXSXSXSXMXMXMXMXMXMXMXMXMXMXMXMXMXBXMXMXnXnXnXnXnXMXMXnXMXMXSXSXSXSXVXMXKXVXVXVX",
"aXrXeXaXfXaXaXfXvXcXfXfXfXfXvXvXnXnXnXnXnXnXMXMXMXMXMXVXSXSXSXSXMXVXMXMXnXnXnXnXcXcXnXMXMXnXnXvXnXnXnXnXnXnXMXMXnXnXnXnXnXnXnXMXMXMXMXMXnXnXnXnXcXnXnXnXnXnXnXcXMXMXAXMXnXcXbXnXnXbXcXcXcXcXbXvXnXnXnXnXnXnXnXcXnXnXnXnXbXcXcXcXcXnXnXnXnXnXnXnXnXMXMXnXnXnXnXbXMXMXnXnXnXMXMXVXVXMXMXMXVXMXMXMXMXVXVXVXMXMXMXMXMXMXMXMXvXvXvXcXcXvXMXMXnXnXMXSXMXMXnXnXMXVXSXJXnXbXbXnXMXMXnXcXnXnXnXnXcXcXcXvXnXMXVXMXnXvXnXMXVXVXVXVXVXVXVXVXMXMXMXMXnXcXcXcXPXMXMXnXNXnXnXMXMXMXPXPXMXMXMXMXMXMXMXMXMXMXMXMXnXnXnXbXcXnXnXMXnXnXNXnXMXnXcXtXyXcXnXMXMXPXJXPXJXMXMXMXMXnXnXmXMXMXMXnXnXmXmXcXcXcXcXcXcXcXvXmXcXMXVXMXMXVXSXVXSXVXMXMXMXVXSXJXJXMXcXcXcXcXnXMXnXMXMXMXMXMXMXMXnXbXbXMXMXnXMXMXJXMXMXZXZXMXMXZXMXMXMXnXnXnXnXnXMXMXnXnXnXMXMXMXMXMXVXMXMXnXMXMXMXMXMXMXMXMXMXMXGXFXmXmXVXGXVXMXMXMXBXBXVXVXVXVXSXSXSXJXKXKXKXJXSXSXJXJXSXSXJXKXJXJXSXSXJXJXSXMXMXMXMXMXMXMXMXMXMXMXnXnXMXMXMXMXSXSXAXSXSXJXJXJXMXMXMXMXMXMXMXMXMXMXMXMXVXVXBXBXMXMXMXMXMXMXMXMXMXMXSXSXSXSXMXMXMXMXMXMX",
"rX3X].{.).[.>XaXgXvXfXfXfXgXvXvXvXvXnXnXnXMXMXnXMXnXnXMXSXSXSXVXMXMXMXMXnXnXnXMXcXcXnXnXMXMXnXvXcXcXcXnXnXnXnXnXnXnXnXnXnXnXMXMXMXMXMXMXnXnXnXnXcXcXcXnXnXvXcXtXbXnXAXMXnXbXcXbXbXcXcXcXcXbXcXbXnXnXnXnXnXMXnXnXMXMXMXnXnXnXnXnXnXnXnXnXnXnXnXnXnXMXMXnXMXMXMXbXMXMXnXnXnXMXMXVXMXMXnXMXMXMXnXnXVXVXVXVXVXVXMXMXMXMXMXMXvXvXvXvXcXcXvXvXcXvXnXMXnXnXvXnXMXMXMXMXnXbXcXbXnXMXnXcXMXMXMXMXnXcXcXnXnXMXMXMXnXnXnXMXMXMXnXnXMXMXMXMXMXPXJXMXMXnXnXnXJXMXMXMXMXJXPXMXMXMXMXPXMXMXMXnXMXMXMXMXMXMXMXMXMXnXnXnXnXnXMXMXMXnXnXMXMXMXnXcXcXbXcXNXMXMXMXMXMXMXnXmXnXnXnXmXmXmXnXmXcXcXzXzXzXzXcXcXcXcXcXcXcXnXMXnXnXMXSXJXMXMXMXMXMXMXVXSXJXMXnXMXMXMXMXMXMXMXSXVXMXMXMXMXnXbXbXnXMXnXMXZXMXMXMXMXMXMXMXMXMXMXnXnXnXnXMXMXMXMXMXMXMXMXMXMXMXGXJXMXnXvXmXnXMXMXMXMXMXMXMXMXmXmXmXMXMXGXVXGXVXVXVXMXMXBXVXVXVXSXSXJXJXKXJXJXVXSXJXJXJXJXJXKXKXSXSXSXKXJXVXMXMXMXMXMXMXMXMXMXMXMXMXMXMXMXMXMXSXAXMXAXSXJXJXSXMXMXMXMXMXMXMXMXVXVXSXSXVXVXVXVXVXGXJXJXJXJXJXJXGXJXJXJXJXGXGXMXMXVXMXVX",
"rXaX,X{.).[.3XaXvXvXvXnXMXMXMXMXnXvXnXnXMXMXMXnXnXnXnXnXMXMXMXMXMXMXVXSXVXMXMXMXnXvXvXnXMXMXnXnXcXcXnXnXMXnXnXnXnXnXMXMXMXMXMXMXMXSXSXMXnXnXnXnXnXcXcXnXMXnXfXrXdXcXnXMXnXbXcXbXMXMXnXnXbXbXbXcXcXcXcXnXnXnXnXnXMXnXnXnXnXcXcXnXnXnXnXnXnXnXnXnXnXMXMXMXMXMXMXnXnXnXnXnXnXMXMXMXMXMXMXMXMXMXMXMXVXVXVXVXVXSXVXMXVXVXVXMXMXMXMXMXnXcXcXcXcXvXnXnXnXcXcXcXnXnXnXvXnXbXcXnXMXMXMXnXMXMXSXJXMXnXnXVXMXMXMXMXnXnXnXnXMXnXnXnXnXMXMXMXPXJXJXJXJXPXJXJXKXJXMXMXJXJXMXnXMXMXMXPXMXMXnXnXnXMXMXMXMXMXMXMXMXMXMXMXMXMXMXMXJXMXnXMXPXPXMXnXMXbXcXcXnXnXnXnXMXnXcXcXmXnXnXmXmXnXnXnXmXcXcXzXzXcXcXcXvXmXmXmXcXnXnXcXcXcXMXSXMXnXnXMXMXMXMXSXSXMXMXSXSXVXMXMXMXVXSXVXMXMXMXMXMXMXbXMXMXbXMXMXMXbXbXMXMXbXbXMXnXnXnXnXMXMXMXVXMXMXMXSXSXSXVXMXVXJXSXMXnXcXcXcXMXMXnXnXnXmXmXvXmXmXmXFXMXMXGXGXGXVXMXMXMXMXVXVXMXMXMXSXSXSXSXVXMXSXJXJXJXSXSXJXKXSXVXSXJXJXMXnXMXMXVXVXSXSXSXMXMXMXMXMXZXSXMXMXMXMXnXnXSXJXJXZXMXMXMXMXMXnXMXMXVXVXSXJXVXVXVXVXMXVXJXJXJXJXKXJXKXJXKXJXGXGXGXVXVXVXVXVX",
"vXMXvXrXwXtXMXMXMXMXMXcXvXnXMXnXMXMXMXMXMXMXMXMXMXMXMXnXnXnXMXSXMXMXMXMXMXVXMXMXnXcXcXnXnXvXnXMXbXnXnXnXnXnXnXnXbXnXnXnXMXMXMXMXMXMXnXnXnXnXnXcXcXfXcXnXMXfXeXeXfXfXvXnXnXvXvXcXfXgXnXMXvXcXcXnXcXcXcXvXnXnXcXcXcXcXvXnXnXvXcXcXcXcXbXMXMXnXnXMXMXMXMXnXMXMXMXnXNXnXnXnXnXNXnXnXnXNXcXnXMXMXMXnXMXMXMXMXVXZXMXMXMXAXSXSXSXAXMXMXMXnXmXmXnXMXMXMXMXMXnXvXvXnXnXMXnXnXMXMXMXMXMXMXSXSXSXVXMXMXMXVXnXMXMXMXMXMXMXMXnXnXnXnXnXnXnXnXMXMXJXJXMXMXMXSXSXZXMXZXMXMXMXnXMXMXMXMXMXMXnXnXbXcXcXnXMXJXSXMXcXcXMXMXZXZXSXJXJXJXVXMXVXSXSXVXnXbXcXcXcXnXnXnXnXMXMXnXnXnXnXcXfXcXcXnXnXnXcXcXcXnXMXnXMXMXMXnXcXnXnXnXcXcXnXMXcXcXcXcXnXnXMXSXnXnXMXSXJXMXnXcXnXcXnXnXcXcXJXJXJXMXbXMXMXbXbXMXMXMXnXbXbXbXbXbXbXnXMXMXMXMXVXSXVXSXVXMXSXAXnXSXSXJXSXvXrXrXgXnXdX.X.XeXvXMXMXnXmXGXGXGXFXGXGXGXGXGXMXMXmXmXmXMXnXnXnXMXMXMXMXMXMXMXMXSXSXZXMXJXMXMXVXVXMXMXnXMXMXMXSXSXSXSXSXSXAXSXSXSXSXMXMXMXnXnXMXMXMXPXJXJXMXMXMXMXMXMXMXMXMXSXKXKXJXSXSXKXJXJXSXSXSXSXSXSXJXJXSXVXVXSXSXSXVXMXVXMX",
"VXSXVXMXSXJXJXMXnXnXvXcXcXcXvXcXnXMXMXMXMXVXSXSXVXVXVXMXMXMXMXSXMXMXMXMXVXSXJXJXMXnXnXnXnXcXmXnXnXnXnXbXcXcXbXbXcXcXnXnXnXMXMXMXnXnXcXcXcXcXcXfXcXcXcXnXcXrXwXeXfXvXnXvXfXaXaXhXfXgXvXnXnXnXnXnXnXnXcXcXcXcXcXcXcXcXcXvXvXvXcXcXcXbXbXbXNXbXNXMXMXMXMXMXMXZXMXMXMXMXMXMXNXcXcXcXnXNXcXNXnXMXnXcXMXMXMXMXZXZXMXMXMXMXAXSXSXAXAXMXJXGXMXMXMXGXSXJXMXMXMXMXMXMXVXSXMXMXSXSXSXSXSXJXSXSXSXMXMXMXMXSXMXVXVXVXVXVXMXMXMXnXnXnXnXnXnXMXnXMXMXMXnXnXnXnXMXMXMXMXMXMXnXnXnXnXMXMXMXMXnXbXcXcXcXnXMXMXnXcXcXbXMXZXZXZXMXSXJXJXSXJXSXSXMXnXnXnXnXnXnXMXMXMXMXMXMXnXnXnXvXcXcXvXnXMXMXnXcXcXcXnXnXvXnXMXMXnXcXbXnXMXnXnXnXnXbXbXcXcXnXnXMXMXnXMXMXMXMXMXnXcXcXfXcXcXtXdXMXLXJXZXMXnXbXbXbXbXMXnXnXnXbXnXnXnXbXNXMXMXMXVXVXVXVXSXBXMXSXSXAXSXSXSXSXvXgXgXgXnX.X'.'.,XdXnXSXMXMXGXHXVXmXmXmXmXMXVXGXMXMXMXMXMXnXnXnXMXMXMXMXMXMXnXMXZXMXMXMXSXVXVXVXMXMXMXMXMXMXMXSXSXZXZXZXZXAXAXSXSXSXSXMXMXMXMXMXMXMXPXJXJXMXnXnXnXMXMXMXMXMXSXJXKXSXVXVXSXSXVXMXMXSXSXJXJXJXKXJXKXJXJXJXJXnXnXMXVX",
"cXcXvXMXSXMXvXfXvXvXcXfXfXcXcXcXnXnXnXnXMXMXSXSXVXSXSXSXVXMXMXMXVXMXMXMXVXSXJXKXSXMXMXMXnXcXcXmXnXnXnXnXcXcXcXcXcXcXcXnXnXnXnXnXnXnXnXnXnXnXvXcXnXnXMXMXcXtXeXaXnXMXMXcXtXrXrXtXcXcXcXnXMXMXMXnXMXnXnXvXcXcXvXnXcXcXcXnXnXvXvXcXcXcXcXcXbXcXcXNXNXMXMXMXMXMXMXnXMXMXMXMXnXcXcXcXnXnXcXbXnXnXnXcXnXnXMXMXVXVXMXMXMXMXMXMXMXMXMXMXGXGXVXVXGXJXKXJXJXSXSXSXSXSXSXSXJXJXJXSXSXSXJXKXKXJXSXMXMXMXVXJXJXSXSXSXVXVXVXVXnXnXnXnXnXnXnXnXnXnXMXnXcXcXcXcXMXMXMXMXMXMXMXnXnXnXMXSXSXMXMXnXnXnXnXMXMXnXcXfXMXMXZXSXZXZXMXZXJXSXVXVXMXMXMXnXMXnXnXnXMXMXMXMXMXMXMXvXcXnXnXcXnXMXMXMXMXnXvXcXnXvXcXcXcXnXMXnXcXcXnXMXMXMXMXnXnXnXnXnXnXnXnXnXnXnXnXnXnXnXnXcXcXcXcXcXyXyXcXJXJXPXMXbXbXnXnXbXnXnXnXnXnXnXnXnXMXMXMXMXMXMXVXVXBXVXMXMXSXSXSXSXSXVXnXnXnXAXnXgX6XXX,XeXhXvXnXvXnXGXKXMXmXmXMXMXcXMXMXvXcXcXvXcXnXnXMXMXMXMXMXMXMXnXnXMXMXMXMXJXMXMXMXnXnXnXMXSXSXSXZXZXAXAXAXAXMXAXSXSXSXSXSXMXPXMXMXMXMXMXPXJXMXvXcXcXnXMXMXMXMXSXSXSXMXMXMXMXVXMXMXMXVXSXKXJXKXJXJXJXKXKXSXMXcXnXMXSX",
"cXcXMXSXnXcXvXSXnXnXnXcXcXcXvXvXnXnXnXvXnXnXMXMXMXMXMXMXMXMXMXMXSXMXMXMXMXMXVXJXSXMXnXMXMXmXmXmXMXMXnXnXnXnXnXnXcXbXnXnXnXnXbXbXcXnXnXMXJXJXJXVXMXVXSXSXMXvXvXMXMXMXnXcXtXrXtXfXnXvXvXnXMXSXMXnXMXMXnXnXnXnXMXMXcXvXnXnXnXnXnXnXnXcXcXcXbXcXcXNXbXNXMXnXMXMXbXcXcXbXMXMXMXnXnXcXMXnXnXnXnXnXnXcXnXnXnXMXVXSXSXMXMXMXMXMXMXMXMXMXnXMXMXMXVXGXJXJXJXJXKXJXSXMXMXnXJXSXMXMXMXMXVXSXJXKXSXMXMXMXSXKXJXSXVXMXMXMXMXMXnXnXvXcXcXvXnXnXnXnXnXnXcXcXcXcXMXMXMXMXMXMXMXMXMXMXSXJXSXSXMXMXMXnXMXMXMXMXnXcXMXMXZXZXZXMXMXMXJXSXMXnXnXnXMXMXMXMXnXnXMXMXMXnXnXnXnXcXcXnXnXnXnXMXMXMXnXnXcXcXvXcXfXfXcXvXvXcXMXnXcXcXMXMXSXMXnXnXnXnXnXnXnXnXnXcXcXcXnXnXMXMXMXnXMXnXtXtXcXMXNXMXMXbXbXZXMXbXnXnXMXMXMXMXAXAXMXMXMXMXVXVXVXBXVXBXvXgXBXDXnXnXnXMXvXvXBXAXAXgXDXnXnXgXhXgXvXcXMXMXVXMXMXMXMXMXnXMXVXnXvXvXnXnXMXMXMXMXVXSXZXZXMXnXnXMXMXMXMXKXMXMXMXMXMXMXVXJXMXZXMXMXMXMXAXAXMXAXSXSXJXJXJXSXJXPXMXMXMXMXMXPXMXcXfXfXvXMXMXMXMXMXMXMXMXnXnXnXVXMXMXMXMXSXKXJXKXJXKXJXJXSXnXcXfXvXVXSX",
"MXnXSXSXMXnXMXKXMXnXnXnXnXnXnXnXnXnXvXcXvXnXnXMXMXMXMXnXnXnXMXVXVXMXnXnXnXnXMXMXMXnXmXnXMXMXnXMXMXMXMXnXnXMXMXMXMXMXMXMXMXnXnXnXnXnXMXSXJXJXJXSXJXSXSXSXSXVXVXKXSXMXnXgXfXcXvXnXVXMXMXMXSXSXMXnXMXMXVXVXMXMXMXMXnXMXMXMXMXMXMXnXMXMXbXbXbXbXbXnXMXMXMXnXnXnXbXcXcXcXMXZXZXMXMXMXMXnXnXnXnXnXnXnXnXnXnXMXVXGXJXVXMXMXnXmXnXnXnXmXnXMXMXMXMXMXMXSXSXSXSXSXVXMXMXnXSXSXMXMXMXMXVXSXJXKXSXMXMXMXSXJXSXSXMXMXMXMXMXMXnXnXnXvXvXnXnXnXnXnXnXnXnXcXcXcXnXnXnXnXMXMXMXMXMXMXMXMXMXMXMXMXMXnXnXnXMXMXMXnXMXMXZXZXZXZXZXZXZXMXnXvXnXMXMXMXMXMXMXMXMXMXMXnXnXnXcXcXcXvXnXnXnXnXnXnXnXnXnXnXvXcXcXcXcXcXcXcXMXnXcXcXMXJXSXMXnXnXnXnXnXnXnXnXnXcXcXcXnXMXMXMXnXnXMXSXnXnXMXSXbXNXMXnXMXZXMXbXnXMXAXAXZXAXMXMXMXMXMXVXVXBXVXBXBXBXgXhXCXBXvXnXMXMXgXgXjXBXDXBXBXgXhXhXpXhXjXgXMXMXMXMXSXVXVXMXcXcXfXhXhXgXbXbXSXnXMXVXVXVXSXSXVXMXMXMXMXMXMXJXVXVXSXVXVXVXMXVXMXMXMXMXMXMXMXMXMXZXSXJXJXJXJXJXJXMXMXMXMXnXnXMXMXcXaXfXcXMXVXMXMXMXMXMXMXMXMXMXSXVXMXMXVXSXJXKXKXJXJXJXJXSXnXcXcXMXSXKX",
"MXvXcXnXSXnXnXnXVXnXnXnXMXnXvXMXnXnXnXnXMXMXMXVXMXMXnXnXvXnXMXSXMXMXnXnXnXnXnXnXMXvXcXnXMXMXMXMXMXMXnXnXnXnXMXMXMXZXSXJXSXSXMXMXMXMXSXJXJXJXSXMXKXVXMXMXVXVXVXVXVXMXcXcXnXMXMXMXJXSXVXSXSXSXVXMXMXVXJXSXMXnXnXnXMXMXMXMXMXMXnXnXMXMXMXMXMXnXMXMXZXPXZXMXMXMXnXcXcXNXMXZXSXZXMXMXnXnXnXnXnXnXnXnXnXnXmXnXMXVXVXJXMXnXcXcXmXmXmXcXnXnXMXnXcXcXcXvXnXMXMXMXVXVXVXMXSXSXVXMXVXVXSXSXJXSXSXMXMXMXVXSXSXSXMXMXMXMXMXMXMXMXnXnXnXnXMXMXnXnXnXnXnXnXnXnXcXcXcXcXcXnXnXnXMXnXnXcXcXnXnXnXnXnXnXnXnXMXMXMXMXMXMXZXZXMXMXSXnXnXMXVXSXVXMXnXcXcXcXcXnXnXnXnXMXMXnXcXcXvXnXvXMXMXMXnXnXMXMXMXnXvXcXcXcXcXcXcXcXcXnXMXJXJXMXnXnXnXnXnXMXnXMXMXMXMXnXnXnXnXnXMXMXnXMXKXSXMXMXnXNXMXMXMXMXMXnXcXMXAXZXZXZXMXnXnXMXnXnXBXBXBXBXCXBXBXgXhXCXnXgXnXVXVXnXgXgXBXBXBXhX9X9X9X0X8XsXhXrXrXhXvXSXDXDXDXhXpXrXhXhXhXhXAXAXnXnXnXnXnXnXMXVXMXMXMXMXMXMXVXVXVXSXVXMXvXcXfXMXMXMXMXMXMXAXMXAXSXSXJXJXJXJXJXJXMXMXJXPXnXnXMXMXvXcXcXvXMXSXSXSXMXMXMXSXSXSXSXSXSXVXVXSXSXSXSXKXJXKXKXKXJXSXMXMXSXKXKX",
"nXnXnXAXDXSXnXnXAXnXnXnXnXvXvXnXMXMXMXMXMXVXVXSXMXMXMXnXnXnXnXMXnXnXnXnXnXnXnXnXMXnXcXnXMXMXMXMXnXnXnXcXcXcXnXnXMXMXMXMXZXJXJXJXJXJXJXJXJXJXSXMXVXMXnXnXMXVXMXMXnXnXnXnXnXMXMXMXSXSXMXVXVXVXMXnXnXMXMXMXvXcXcXvXMXMXMXMXnXnXcXcXMXnXnXMXMXMXMXSXJXJXJXMXMXMXMXnXcXnXMXMXMXMXnXnXnXnXMXMXMXMXMXMXnXmXcXcXmXMXVXVXMXmXcXcXcXmXmXmXcXcXcXcXaXtXfXcXcXcXmXnXMXMXGXGXMXMXMXMXMXVXVXVXMXMXMXMXnXnXMXMXMXMXMXMXMXMXMXMXMXnXnXnXnXnXnXMXnXnXnXnXMXMXnXnXcXcXcXcXcXcXcXcXnXnXnXnXnXnXnXnXMXMXMXMXMXMXMXMXMXMXZXZXZXZXZXSXnXMXSXJXKXJXMXnXfXcXcXcXcXnXnXvXnXMXnXvXvXMXMXMXVXMXMXnXnXMXMXVXMXnXvXcXfXtXfXvXcXnXMXJXJXJXMXbXnXnXnXnXMXnXnXnXMXMXnXnXnXnXnXnXSXnXMXJXMXMXMXcXPXMXMXMXMXnXnXnXMXAXAXZXMXMXbXcXnXnXnXnXBXBXCXCXBXBXgXhXgXCXCXBXDXBXCXgXCXCXBXjXgX0X0X9X4X2X4X0XXX2XrXhXjXjXBXDXgXhXhXjXhX9XhXDXDXBXnXnXgXnXBXSXSXVXVXVXVXMXMXVXBXBXMXvXgXfXhXhXMXMXVXSXSXSXSXSXSXSXKXJXJXJXKXKXKXVXVXJXKXMXnXMXMXnXcXcXnXMXSXKXSXMXMXMXMXSXVXVXVXMXMXVXSXSXSXMXSXKXJXKXJXKXJXJXSXSXJXJX",
"vXSXDXSXnXnXnXSXSXnXnXnXnXvXvXnXSXSXSXSXVXMXMXMXMXMXMXMXnXcXcXcXnXnXnXMXMXMXMXMXMXnXcXnXMXnXNXnXnXnXcXcXcXcXcXcXcXcXnXnXMXMXSXJXSXSXMXMXSXSXMXMXMXnXnXnXMXVXVXMXnXnXnXnXvXcXvXnXMXnXMXMXMXnXnXnXcXnXnXcXcXcXcXnXnXnXnXnXvXcXcXfXnXcXnXMXMXMXMXSXJXJXSXMXMXMXMXnXcXcXnXnXnXvXcXcXvXvXvXvXvXvXMXMXMXmXcXcXcXnXMXVXnXcXzXcXcXnXnXnXcXcXcXcXfXfXcXnXcXcXcXvXmXMXMXMXvXnXnXnXMXMXMXMXnXMXMXnXvXvXnXnXMXMXMXMXMXMXnXnXnXnXvXcXcXvXnXnXnXnXnXnXnXnXnXnXcXcXcXcXcXcXcXcXnXnXMXSXJXSXMXMXSXSXJXJXSXMXnXnXZXZXJXJXZXZXZXSXSXSXKXJXJXKXVXMXvXvXvXnXnXMXMXnXcXnXnXnXMXSXKXJXSXMXMXnXnXMXMXMXMXnXcXcXtXrXtXvXnXnXMXMXJXSXMXMXnXnXnXnXMXMXnXnXMXMXnXnXMXMXnXnXMXcXnXMXnXMXSXSXKXMXnXMXMXnXnXMXMXAXAXAXMXnXcXhXvXgXgXgXCXBXCXCXgXgXsXsXgXCXCXDXHXBXCXgXCXBXjXhXiXOX+X0X0XOXOX6XXX2XpXhXsXiXsXgXiX9XsXhX0X.XoXhXDXAXnXnXjXnXBXDXSXBXVXSXVXVXBXVXMXMXMXvXgXgXvXMXMXVXSXJXJXJXSXSXSXSXJXJXJXJXKXKXJXSXJXKXKXMXMXVXMXMXnXnXnXMXSXJXVXMXnXnXMXMXMXnXMXMXMXVXSXSXVXMXMXSXJXKXVXMXVXSXSXSXSXSX",
"nXnXSXDXSXSXnXSXSXnXnXnXnXnXgXfXMXMXVXMXMXMXMXMXMXMXMXMXMXMXnXnXMXMXnXnXMXMXMXMXnXnXnXnXMXMXMXnXnXnXcXcXtXtXcXcXcXcXbXnXnXnXMXMXMXMXMXMXSXSXMXMXnXnXnXMXVXVXVXVXMXMXnXnXvXcXvXnXfXnXMXnXMXMXMXMXnXMXnXcXfXcXvXMXcXnXVXSXMXnXnXnXMXnXcXbXnXMXAXSXMXSXSXMXnXMXSXSXMXnXfXcXvXcXvXMXvXvXvXvXMXnXvXvXvXnXMXvXvXvXVXSXMXvXcXaXfXvXvXvXaXfXcXnXvXvXnXMXmXcXcXzXcXmXmXcXcXcXcXcXfXfXcXcXcXcXcXcXcXcXcXcXnXnXnXnXnXnXcXcXcXcXcXcXnXnXnXcXnXMXMXMXMXMXMXMXnXnXvXcXcXvXnXnXnXMXSXMXSXJXMXMXJXJXSXSXSXJXJXSXSXJXJXZXMXMXMXZXSXMXMXSXKXLXKXJXnXMXKXKXJXMXMXnXnXMXVXSXSXSXJXKXKXSXMXMXMXMXMXVXMXnXvXfXtXtXcXnXnXMXMXSXSXMXMXMXnXMXMXMXMXMXMXMXMXMXMXnXnXnXnXMXnXnXnXnXnXMXMXMXMXMXnXnXnXnXcXcXnXbXcXbXnXnXgXhXnXnXgXgXBXBXgXsXsXsXsXiXpXCXDXBXBXBXBXCXCXjXhXiX0XOXiXsX0XOXOX0X0XsXgXsX0X4X0X4XOX4XiXhXhXoX'.oXhXjXBXjXjXnXBXDXDXBXBXBXKXKXKXHXDXBXBXBXBXBXnXnXMXVXSXVXVXSXSXVXMXMXSXSXSXMXnXMXMXSXJXKXKXKXSXVXSXMXMXMXSXJXJXKXMXMXMXMXMXMXMXMXMXSXJXVXVXSXSXMXMXSXJXKXJXSXVXMXSXJXJXJX",
"nXnXAXnXSXSXnXnXnXvXgXgXvXvXbXcXvXnXMXMXMXVXSXSXMXVXSXSXJXSXSXSXMXMXnXnXnXnXnXMXnXnXnXMXMXMXMXnXMXnXnXcXcXcXcXcXcXcXnXnXMXMXMXMXMXMXMXMXMXMXMXMXVXMXMXMXMXMXMXMXMXMXMXnXnXnXnXnXnXnXcXtXtXcXnXMXnXMXMXMXcXcXnXMXMXVXKXJXMXnXnXnXnXcXcXcXnXMXMXMXMXSXSXMXnXMXAXAXSXMXnXMXVXMXnXnXMXnXMXMXMXMXMXBXMXVXVXMXMXMXMXVXVXVXvXfXcXvXvXvXcXcXcXvXnXnXnXnXmXmXcXzXcXcXcXzXzXfXcXtXtXtXaXfXcXcXcXcXcXcXcXcXvXvXvXnXvXcXcXcXcXcXvXnXMXMXnXvXMXMXMXMXnXnXnXnXvXvXvXvXvXnXMXMXMXZXMXMXMXMXMXMXcXcXnXMXMXZXMXnXZXZXZXMXMXMXMXMXZXMXVXSXJXJXSXMXSXVXVXVXVXVXMXMXVXSXKXKXJXSXJXJXJXSXMXMXnXnXMXMXMXMXMXvXcXcXnXMXMXMXMXMXMXMXnXnXnXnXnXMXMXMXMXMXnXMXMXMXnXnXnXnXnXnXMXSXZXMXnXnXNXNXnXnXnXnXcXcXcXfXfXcXbXcXdXrXhXgXgXhXhXpX0XiXsXsXpXiXpXCXBXDXBXBXCXgXsXsXiX0XOX+X0XiX0X4XiXiXpXgXjXiX4XOX}.|.|.|.|.4XiXiXiXjXhXnXAXBXnXBXBXBXDXBXBXBXBXDXHXHXBXjXgXCXVXBXDXDXVXSXSXBXVXVXVXMXMXMXMXSXMXnXvXnXMXVXKXJXJXSXMXMXMXMXMXMXMXSXSXSXSXSXSXSXSXSXSXSXVXSXJXVXVXSXJXVXSXJXKXJXKXJXSXSXSXJXKXKX",
"nXnXvXvXnXSXVXnXvXcXfXgXgXvXvXbXcXcXnXMXSXJXJXSXcXnXMXSXJXJXSXSXAXAXMXnXMXnXnXbXbXbXNXNXMXnXNXNXnXnXnXnXcXcXcXnXnXnXnXMXMXMXMXMXMXSXJXMXMXnXnXnXMXMXnXnXMXMXnXvXMXMXMXMXnXnXnXnXMXcXtXwX7XtXcXnXcXnXMXMXMXnXnXMXnXMXVXMXnXnXvXnXcXcXgXgXvXMXMXMXMXSXSXMXMXMXMXMXVXMXMXSXSXVXvXaXcXnXBXVXBXBXBXVXMXVXVXVXMXnXMXMXSXDXVXvXvXvXvXgXnXvXcXvXMXMXMXnXMXnXcXzXcXcXcXzXcXfXcXfXfXfXcXcXvXvXvXcXcXvXvXvXnXnXnXnXnXnXnXnXMXMXMXVXMXMXMXMXMXMXMXMXMXMXMXnXcXcXcXcXnXMXMXVXMXMXnXcXcXnXnXMXcXcXnXnXMXMXMXMXZXZXMXMXMXMXMXMXMXMXSXKXKXKXKXKXLXJXSXMXSXJXSXVXVXSXJXJXSXSXSXJXSXSXMXMXMXMXMXMXMXMXMXMXMXMXMXSXZXSXSXMXMXMXnXnXnXnXnXnXMXMXMXMXnXMXMXMXMXMXMXMXnXMXMXSXMXMXnXcXcXcXcXvXnXnXcXcXfXfXfXcXcXcXaXeXrXpXpX6XOX}.}.XXsXiXiXiXpXhXCXCXaXgXgXsXiXiXiX0X+X+XOXiX0X0XiXiXpXsXsXiX4X}.|._.|.|.|.OX0XiXjXBXCXAXDXDXBXBXBXBXgXCXCXBXBXCXCXBXgXhXhXgXBXBXDXDXBXBXVXBXMXBXMXMXSXMXMXMXMXvXvXMXMXVXSXSXVXMXMXMXMXMXMXMXSXSXSXVXSXJXJXSXSXSXSXJXSXSXSXMXVXJXKXJXSXSXSXSXJXSXSXSXJXJXJXJX",
"gXnXcXvXvXnXnXgXvXvXgXgXvXvXbXcXnXnXnXMXSXJXVXMXfXcXnXMXSXVXMXMXAXAXMXMXMXMXnXnXnXbXNXNXnXnXNXNXnXMXnXnXnXnXnXnXnXnXnXMXMXMXMXMXSXJXJXMXcXdXtXfXcXcXcXvXMXMXMXvXnXMXMXnXvXcXcXvXcXaXrXwXyXtXfXcXcXcXMXMXnXnXnXnXvXnXnXnXnXnXnXMXnXnXcXfXcXnXnXMXMXMXMXMXMXMXnXnXvXvXvXBXVXnXaXeXaXvXVXSXBXBXCXMXMXBXVXMXvXgXvXnXVXSXVXnXvXvXvXfXnXnXnXMXMXMXnXnXnXmXcXcXcXNXcXcXcXnXnXnXnXnXnXMXMXMXMXMXMXMXMXMXVXMXMXMXMXMXMXVXVXSXKXJXSXMXVXSXSXSXVXMXMXMXMXMXvXvXnXnXMXMXMXVXMXMXnXcXcXcXnXnXMXnXcXcXnXMXMXMXZXZXZXMXMXMXMXZXSXSXSXJXJXSXVXMXnXvXvXnXMXMXMXMXMXVXSXSXSXJXJXJXSXSXSXVXVXSXSXSXMXVXVXMXMXMXSXKXJXJXJXJXMXMXMXnXnXnXnXMXMXMXMXMXMXMXJXJXSXMXMXMXMXMXMXnXnXnXnXnXvXcXcXcXcXcXcXfXfXfXfXfXfXfXtXeX8X8XXX}.|.|.}.OXiXiXiXpXsXsXsXsX7XiXsXpXiXiXiXiXOX+X4X9X4X0X9XiX4X0X4X4X4XOX|._.|.|.OXiXiXiXgXhXhXgXnXBXCXCXCXgXgXgXgXgXsXiXiXsXsXsXhXgXBXBXBXBXDXVXBXBXBXMXMXVXSXVXVXMXMXvXMXVXVXVXSXVXMXMXMXSXMXMXMXVXSXJXSXVXMXMXMXVXVXVXVXVXSXJXSXMXVXKXJXJXSXSXSXSXSXSXSXVXJXJXJXKX",
"hXnXvXnXvXfXnXcXcXcXcXnXnXnXnXcXnXnXMXMXSXSXMXMXcXnXMXVXSXVXMXnXMXMXMXMXMXnXnXbXMXMXnXMXMXMXMXnXMXMXMXMXMXMXMXMXnXnXnXnXnXMXnXMXnXMXMXcXtXrXyXeXaXfXcXnXBXBXMXvXMXMXMXMXnXcXvXnXcXaXtXtXtXcXcXcXcXcXnXnXvXvXvXnXnXnXnXnXMXMXVXJXMXMXnXfXaXcXnXnXnXvXcXnXnXnXvXcXfXfXvXvXvXfXaXeXcXMXVXHXBXBXCXMXBXBXnXgXgXhXgXgXvXnXMXnXvXgXgXhXfXcXnXVXMXMXnXnXmXcXNXNXmXMXMXMXnXMXMXMXMXMXMXVXMXMXMXMXMXMXMXMXSXSXMXMXMXMXMXSXVXSXKXSXVXMXMXSXVXVXVXVXVXVXVXVXVXVXVXVXVXVXVXSXJXJXMXnXnXMXMXMXMXnXcXcXcXMXMXMXZXZXMXMXMXZXSXJXKXJXMXMXnXcXtXyX<XwXtXcXvXnXMXMXMXSXSXSXSXJXJXJXVXVXSXSXSXJXKXJXKXJXVXMXMXMXJXJXKXJXJXSXMXMXnXnXnXnXMXMXMXMXMXMXnXMXSXSXMXMXMXMXMXMXnXnXnXnXnXnXnXvXcXfXfXfXfXfXaXtXrXrXrXrXrXeX8X2X.X}.>X7X8XiXiX4X2XiXpXiX9X9X4X0X9X0X2X0XiXsX4XOX4X9X0X0X9X0X2X2X2X2X8X8XOX|.}.}.0XsXpXgXBXhXhXnXBXBXBXCXCXgXCXhXiX0XOXOXOXiXpXsXsXhXgXCXBXBXBXnXvXMXBXMXBXSXSXVXVXVXMXMXBXSXSXSXSXVXVXVXSXKXVXVXVXSXJXKXSXVXMXMXMXMXMXMXMXVXSXJXSXMXVXKXJXJXJXSXSXSXJXJXSXMXSXSXSXJX",
"fXvXtXnXnXtXnXcXaXfXcXnXnXnXMXnXnXnXMXVXSXJXSXVXMXMXMXMXMXMXMXnXnXbXnXnXnXnXbXbXbXbXbXNXnXnXNXNXnXcXcXcXcXbXcXcXnXnXnXnXnXnXnXMXnXnXnXnXcXfXfXfXcXvXnXMXVXMXvXcXnXMXSXVXMXnXnXMXMXcXtXtXcXcXcXvXcXvXnXnXnXnXnXnXMXMXnXnXnXMXMXMXVXVXnXaXtXfXnXnXcXfXfXcXnXvXfXfXvXMXMXvXvXcXcXfXVXVXVXBXBXBXBXBXDXDXBXgXhXhXhXgXhXnXnXnXgXgXhXpXrXfXnXMXMXMXnXnXNXcXNXmXMXMXFXGXnXnXMXMXMXMXMXMXMXMXMXMXMXMXMXMXMXMXnXnXnXnXMXMXMXMXVXMXMXMXMXMXVXVXVXBXVXMXMXMXKXKXKXKXKXKXKXJXSXJXJXMXMXSXSXMXnXnXcXnXMXJXSXMXMXMXMXMXMXMXMXMXJXMXnXnXnXcXtXyXwXtXcXMXVXMXMXVXMXMXMXMXMXMXMXMXMXMXMXVXSXSXSXSXKXJXSXMXMXMXJXJXJXJXMXMXMXnXnXnXnXnXnXnXnXMXnXnXnXMXMXMXMXMXMXMXnXMXMXJXSXMXnXnXnXvXcXcXcXcXvXnXfXaXtXrXtXaXaXtXpXrX3X2XpXsXiX8X8XOXXXOX2X2X0X9XiXiX8X2XoX2X9XsX0X2X9XpXpXsXhXsXrX9X8XpXsXsX8X4XiX4XXXOX9XgXjXrXvXBXBXnXCXgXhXpXOXOXOXOXOX+XOX0XiX9X0X2X0XsXCXBXhXpXrXaXfXaXfXBXSXBXMXMXnXvXnXDXSXSXSXSXSXSXKXKXSXSXSXSXJXKXJXSXMXMXMXVXVXSXSXSXSXSXSXMXVXJXKXJXMXMXMXMXVXMXnXvXMXMXMXSX",
"cXtX,XfXMXfXMXcXcXcXnXMXMXMXMXMXnXMXMXVXSXSXJXKXVXMXMXMXnXnXnXnXnXnXMXMXMXMXnXbXcXcXbXbXNXNXbXcXnXcXcXcXcXcXcXcXnXnXnXnXnXnXnXMXnXMXMXMXMXMXMXMXMXMXMXMXMXMXvXcXcXmXMXMXmXvXnXMXMXcXtXtXcXnXnXMXvXnXMXMXMXMXnXnXMXMXnXnXnXnXnXnXMXVXMXfXtXfXvXcXgXaXhXcXMXnXgXfXnXVXSXVXMXMXVXVXBXBXBXBXBXBXBXBXBXBXBXjXhXhXhXjXhXjXBXBXjXhXhXpXeXrXfXcXnXMXMXMXmXcXmXMXMXMXMXMXnXMXMXMXMXnXnXnXnXnXnXnXnXnXnXnXnXnXnXnXnXMXMXVXVXMXMXMXMXMXMXMXBXBXVXBXVXVXVXVXVXKXKXKXKXKXSXSXVXSXSXMXMXSXSXMXMXnXnXMXJXJXJXMXMXMXnXnXMXMXMXMXMXMXMXVXJXSXMXcXMXVXJXJXJXKXSXVXnXMXMXnXnXnXnXMXnXMXMXMXVXMXMXMXJXKXSXSXSXSXJXKXSXMXMXnXnXnXnXnXnXnXMXMXMXMXMXMXnXMXMXMXMXMXMXMXMXMXSXJXSXMXnXnXnXmXvXnXMXMXMXMXMXnXvXvXnXMXnXMXnXnXfXhXgXhXiXiXiX7XXXXXOX2X0X9XaXaXpX0X2X8XsXhXsXiXsXgXgXBXBXvXvXgXgXgXvXgXaXsXgXiX2XOX9XfXhXrXhXfXhXaXsXpX0X4X}.}.OXiXiXOXOXiXiX9X4XOX2XiXgXCXpX3X3XeXrXeXaXvXnXvXvXvXvXvXnXDXSXSXSXSXVXVXKXKXSXSXVXVXSXJXJXJXMXMXVXVXSXSXSXSXVXSXSXVXVXSXJXVXMXMXMXMXMXMXcXfXmXnXMXMX",
"cX7X].wXMXcXMXcXnXMXMXMXMXMXSXSXMXMXSXSXVXVXSXJXJXSXVXMXMXnXMXMXAXAXZXZXMXMXMXMXbXcXNXNXMXMXMXnXMXMXnXnXnXMXMXnXnXnXnXnXnXMXMXMXnXnXMXMXSXJXJXJXKXSXMXnXvXvXcXcXtXtXcXcXcXcXvXMXmXtXtXzXmXMXMXMXvXnXMXVXMXMXnXnXMXMXMXMXMXMXMXMXnXVXMXcXfXcXnXcXvXfXfXnXVXMXnXcXnXSXKXDXBXVXSXJXvXBXBXVXHXBXCXvXhXgXnXnXjXgXnXBXnXBXDXBXnXgXpXrXrXrXrXhXnXMXMXMXnXmXmXMXMXNXmXMXMXMXMXMXMXMXnXMXnXnXnXnXnXnXnXnXvXnXnXMXMXSXJXKXJXSXMXMXJXJXJXVXVXVXVXVXVXVXVXVXVXVXVXVXVXVXVXVXSXSXJXZXVXJXJXJXJXnXcXcXnXMXMXnXMXMXbXnXMXZXMXMXMXSXJXJXJXJXVXMXMXMXnXMXVXSXSXMXMXMXMXMXMXMXVXSXMXMXMXMXMXMXMXMXSXSXSXSXSXSXSXSXSXMXMXnXnXMXMXMXMXMXMXMXSXSXSXJXMXMXMXMXMXMXMXJXSXMXMXMXnXnXnXnXMXMXMXMXSXSXVXMXSXSXMXSXSXJXSXSXnXDXVXBXBXCXvXBXCXaX9X7X0XpXpXrXhXhXhXsXpXhXjXCXCXgXCXBXBXHXHXvXMXnXMXMXVXBXBXBXCXBXgXhXnXvXfXnXMXVXBXnXvXgXsXpXgXpXiXiXiXiXiXsXsXsXiX9X9XsXhXgXpX7X3XeXpXeXaXMXnXgXvXvXnXvXnXSXVXSXVXSXVXVXVXJXSXSXMXMXSXSXJXJXMXMXMXVXVXSXSXJXMXSXSXVXVXSXSXMXSXVXVXSXKXSXnXcXmXmXmXmX",
"cX<X[.<XSXMXMXvXnXnXnXMXJXJXSXMXMXMXMXnXVXSXSXSXJXSXSXMXMXnXnXnXMXnXnXnXMXMXMXMXMXnXcXcXcXnXnXnXMXMXMXMXMXMXMXnXnXMXMXMXMXJXSXnXMXSXJXSXSXJXSXVXMXSXJXMXnXvXvXcXzXtXtXcXcXaXcXmXvXcXtXcXnXMXMXMXSXVXMXMXMXMXMXSXSXJXJXMXMXKXJXSXnXMXnXcXnXnXcXnXnXbXcXnXMXSXMXMXBXBXBXvXvXnXBXBXnXMXnXvXnXBXnXhXaXhXfXfXgXvXBXDXBXBXBXvXhXsXpXpXrXrXaXfXvXMXVXKXVXBXMXMXmXmXmXvXMXMXVXVXMXMXVXVXSXMXnXMXMXMXMXVXvXnXnXMXMXMXVXSXSXVXVXSXJXJXSXVXVXVXMXMXVXKXKXKXBXVXBXVXVXVXMXvXVXVXVXVXVXMXMXVXnXvXcXcXbXnXnXbXnXnXMXMXMXMXPXKXLXJXMXnXnXMXMXMXMXnXnXMXVXMXMXMXnXJXvXVXSXcXKXLXVXMXMXMXMXMXnXnXMXJXJXJXSXSXJXSXPXMXMXMXMXPXJXKXMXnXMXJXJXJXJXJXJXAXMXZXMXMXMXSXSXSXSXMXMXMXBXMXMXMXMXSXKXSXMXnXnXVXSXSXVXMXnXnXnXMXMXnXvXvXnXnXSXnXBXBXnXgXnXMXvXnXnXvXvXnXBXBXDXDXBXBXCXCXCXCXnXMXSXMXMXSXKXSXSXSXVXSXMXMXnXnXMXMXnXMXnXgXhXaXvXnXnXgXgXgXCXBXBXBXBXBXMXnXBXBXfXaXaXvXnXgXvXnXnXAXSXMXnXAXSXAXSXZXVXSXJXJXGXMXMXMXSXSXSXVXVXVXMXMXVXVXVXVXSXSXVXVXMXMXMXMXGXGXGXVXVXJXKXKXGXMXMXMXnXmX",
"nXcXrXfXMXnXnXnXMXnXnXMXMXMXMXnXnXnXMXMXSXSXJXJXSXSXSXSXnXMXnXnXnXnXnXnXnXnXnXcXcXcXcXcXcXcXbXcXnXMXMXMXMXMXnXnXMXMXMXMXSXJXSXMXMXSXJXSXJXKXKXSXMXKXJXSXMXMXVXMXcXzXcXmXnXcXcXMXnXvXmXMXGXGXMXMXSXSXVXMXMXVXSXSXMXSXJXSXSXJXKXJXMXSXnXnXMXMXnXMXMXnXnXnXSXJXMXnXBXBXvXhXaXgXBXBXVXBXgXhXfXnXBXnXvXvXvXcXcXvXBXVXBXBXCXfXaXpXaXaXcXcXvXMXBXVXVXVXVXBXMXnXmXmXmXMXMXMXMXMXMXMXMXVXSXMXMXMXMXMXMXSXnXMXMXMXMXMXVXVXVXMXMXMXVXVXMXMXVXVXMXMXVXVXKXGXVXVXBXBXVXVXVXMXMXMXVXBXnXnXMXVXnXnXnXnXMXMXMXnXMXnXMXMXMXnXnXMXMXMXnXnXnXMXMXMXMXnXnXMXVXVXSXJXJXMXnXSXSXnXSXSXVXVXMXMXMXMXMXnXMXSXKXSXMXMXMXMXMXMXPXMXMXMXJXJXMXMXMXJXJXMXMXSXZXMXMXMXMXnXnXAXMXVXVXMXMXMXBXMXVXMXnXSXSXMXMXnXMXMXMXMXMXnXnXvXMXSXAXnXnXnXMXMXSXnXnXVXMXvXBXnXMXAXSXAXMXSXSXSXDXVXBXBXBXCXCXCXBXJXKXSXVXJXKXJXSXSXSXJXSXSXSXVXVXVXnXnXnXMXnXgXvXvXvXvXvXvXMXMXVXSXSXBXVXVXVXDXVXnXMXVXDXBXBXSXnXSXSXSXMXSXSXSXSXSXZXSXJXJXPXMXMXMXMXMXMXMXMXMXMXMXMXVXSXSXSXSXJXGXGXVXGXVXGXJXGXMXnXMXGXJXJXJXGXVXMXMX",
"cXMXJXcXnXMXnXMXMXnXvXvXnXnXnXcXcXvXnXMXMXMXVXSXSXSXSXMXMXnXnXvXnXnXcXcXcXcXcXcXfXfXcXcXcXcXcXcXnXnXMXMXMXMXMXnXMXMXMXMXMXJXSXnXnXMXMXMXMXMXMXMXnXMXVXMXMXSXSXSXcXcXnXMXMXnXnXVXVXMXMXMXMXMXMXMXJXSXSXSXSXSXJXJXMXVXSXKXSXMXSXKXMXMXnXbXMXMXnXMXMXnXnXMXSXJXMXnXMXMXvXhXhXvXMXVXSXnXvXfXgXBXSXDXSXBXBXMXnXMXVXSXVXBXvXfXaXaXfXvXVXVXVXKXKXVXVXBXVXMXMXmXmXmXMXVXMXMXMXnXnXnXMXMXMXnXnXMXMXMXMXVXMXMXMXMXMXMXMXMXVXMXMXMXMXMXMXMXVXMXMXMXBXVXVXVXMXMXMXMXVXMXMXvXMXMXVXVXMXMXMXMXMXMXMXMXMXMXMXnXcXcXbXnXcXcXcXcXnXcXcXnXMXMXMXnXMXMXMXMXSXSXJXKXMXyXaXMXSXKXSXSXMXVXSXSXSXMXMXnXMXVXSXMXnXMXnXnXnXMXMXMXMXMXMXJXMXMXMXMXMXMXMXSXAXMXMXMXMXnXnXMXMXMXMXvXvXMXMXMXMXnXnXMXBXMXnXnXVXVXVXVXSXSXVXnXAXSXSXMXnXMXVXVXSXMXSXSXMXvXMXnXnXnXMXMXnXnXMXSXHXSXVXVXBXBXBXBXVXJXJXSXMXVXVXMXMXMXVXSXKXJXJXJXVXnXMXvXnXnXvXvXgXgXgXvXvXMXMXnXMXMXMXMXMXMXMXVXVXMXMXVXVXVXVXSXnXSXJXSXSXSXJXJXSXVXMXMXMXMXMXMXVXMXMXMXMXMXMXnXnXMXMXMXVXVXVXVXSXSXVXVXVXVXSXSXVXnXcXcXnXVXKXJXKXJXSXSX",
"vXnXSXcXnXLXnXMXMXnXvXcXnXnXnXnXnXvXvXcXgXgXcXcXnXnXMXMXMXMXnXnXMXnXnXnXnXnXcXcXcXcXcXcXnXnXnXnXnXnXMXMXMXMXnXnXnXnXnXnXMXMXMXcXnXnXMXnXnXnXnXvXcXcXcXcXcXnXMXnXnXnXMXSXSXMXMXSXJXMXnXnXcXcXnXMXSXSXSXSXSXSXSXSXJXVXMXMXnXvXMXJXMXMXnXcXMXMXnXMXnXnXnXMXSXSXMXnXvXnXMXMXnXMXMXnXnXMXvXvXMXVXDXDXKXSXSXVXVXVXSXKXBXVXMXvXcXvXMXMXVXSXKXKXKXVXVXVXMXMXMXMXmXMXMXVXnXnXnXnXvXnXnXMXnXnXnXMXMXnXMXVXSXVXMXMXMXMXMXMXVXMXMXMXVXSXSXVXVXMXMXMXMXBXBXMXMXMXVXSXSXVXMXvXVXVXSXVXVXVXMXVXMXMXZXMXMXMXnXNXcXcXcXnXnXcXcXcXnXcXnXnXMXZXMXMXSXSXVXSXSXSXJXJXwX].7XcXnXKXJXJXVXSXJXKXJXSXMXMXMXVXMXMXnXMXMXnXnXMXSXSXMXMXMXJXMXMXMXMXMXMXMXSXAXMXAXMXMXnXnXnXMXMXMXvXfXvXMXMXvXvXvXvXvXvXnXnXnXnXVXSXSXDXBXnXnXMXAXMXMXMXVXMXSXMXSXSXMXvXMXnXbXbXnXnXnXnXMXSXSXBXVXVXBXVXBXBXVXVXMXMXnXnXnXnXnXnXMXMXSXJXKXJXVXMXvXgXgXvXvXvXgXgXfXvXMXMXMXnXvXvXvXvXvXnXMXMXVXMXMXVXVXMXMXMXvXSXJXSXSXSXJXJXSXMXMXMXMXMXMXMXVXVXMXMXMXMXMXMXMXMXMXMXMXMXMXMXVXMXMXMXMXMXMXMXMXMXnXvXnXMXSXJXJXSXJXSX",
"JXMXMXcXMXKXcXnXMXMXvXvXnXMXMXMXnXMXnXcXfXhXfXcXnXnXMXMXMXMXMXMXMXMXnXnXnXnXnXnXZXMXnXcXnXMXMXMXMXMXMXnXnXnXcXcXnXnXnXnXnXMXnXcXnXMXMXnXnXMXnXvXcXcXfXaXcXvXnXcXnXnXMXSXSXMXMXVXMXMXnXvXcXfXvXMXMXMXMXMXMXMXSXSXSXMXcXfXtXaXcXMXMXJXMXcXnXMXnXMXnXnXnXMXMXMXMXnXnXMXMXMXMXMXMXMXnXvXnXMXMXVXVXSXSXSXSXSXSXSXVXSXVXMXMXMXMXMXMXMXVXVXVXMXVXVXMXVXmXmXmXVXVXVXMXMXMXMXMXnXnXnXMXMXMXMXMXSXVXMXVXKXSXMXMXnXnXnXnXMXMXMXMXMXMXSXSXSXGXVXMXMXMXBXVXBXVXMXMXVXVXMXnXMXVXVXKXKXSXSXSXJXKXKXJXMXMXMXMXMXnXnXMXSXJXMXMXMXnXnXcXnXMXMXMXnXVXSXSXSXSXSXMXMX<X].wXnXnXJXSXJXVXSXJXJXJXJXSXMXMXVXVXMXMXVXMXMXnXMXSXSXMXMXSXSXJXSXMXnXnXnXnXnXMXMXMXMXMXnXnXnXMXMXMXvXcXcXvXvXMXnXvXfXhXfXgXgXfXvXBXBXnXfXsXpXfXbXnXnXMXAXMXnXnXvXMXMXMXMXSXSXMXMXnXbXnXAXJXLXMXMXMXMXVXVXVXVXVXMXnXnXnXcXcXcXnXnXnXMXMXMXSXSXSXVXMXnXMXMXMXMXgXfXfXvXMXBXMXnXMXMXnXMXMXMXVXVXVXVXVXSXSXVXVXVXvXSXJXSXSXSXSXSXSXMXMXMXMXMXMXMXSXVXVXMXMXVXSXSXJXVXMXMXMXMXMXMXVXVXVXVXVXMXMXMXMXMXMXMXMXMXMXMXMXMXMXVX",
"VXnXnXcXnXnXcXVXMXnXnXnXMXMXMXMXMXMXMXnXcXcXnXMXVXVXVXSXSXVXMXMXMXMXMXnXMXMXMXnXJXMXnXcXcXnXMXSXMXMXMXnXnXcXcXcXnXnXnXcXnXnXnXcXvXnXnXnXnXnXnXvXMXnXcXcXcXMXMXvXvXnXMXMXMXMXnXMXMXnXMXMXMXvXnXMXnXnXMXMXMXnXMXMXMXnXaXwXwXtXfXcXfXMXMXcXnXnXcXcXnXnXnXMXMXMXMXMXVXMXMXMXMXMXMXSXnXcXcXnXnXnXMXSXMXMXMXVXVXVXMXMXnXnXMXMXMXMXMXvXMXMXMXmXmXmXmXmXNXmXMXGXGXGXMXmXVXVXVXMXMXMXMXVXMXMXMXMXMXnXMXSXVXMXnXvXcXvXnXMXnXnXvXnXnXMXMXMXGXVXMXMXVXVXVXVXvXaXtXrXrXeXaXvXMXMXVXVXMXMXSXSXKXJXJXMXPXMXPXMXMXMXMXSXJXMXMXMXnXnXcXcXnXnXnXnXnXMXSXSXSXSXMXMXaXeXnXKXKXJXKXKXVXJXJXKXJXKXSXSXSXSXVXMXMXSXSXMXMXMXMXMXMXMXSXSXJXJXMXcXcXcXcXcXnXMXMXMXnXnXnXcXMXVXVXnXcXcXcXvXVXBXnXfXsXaXhXhXhXvXBXBXgXpXrXeXhXcXnXnXMXAXMXvXvXnXMXMXvXMXVXSXnXnXbXtXrXbXSXSXMXMXVXVXVXVXSXSXSXMXnXnXnXnXnXnXMXMXMXMXMXMXSXSXSXVXVXBXVXBXBXnXvXvXvXvXMXBXMXMXVXMXMXMXMXMXBXBXVXVXSXSXSXSXSXVXMXSXSXSXSXSXSXSXSXVXMXMXVXSXGXVXSXVXMXMXMXVXSXSXJXSXMXMXMXSXSXVXJXJXJXJXSXSXSXVXMXSXJXKXJXMXMXnXnXnXMXMX",
"cXnXcXcXvXcXnXMXMXnXvXnXMXMXMXMXMXVXSXVXMXMXMXSXSXSXSXVXVXVXVXVXMXMXMXMXMXMXMXMXSXnXcXcXcXnXMXSXMXMXMXnXnXcXcXcXvXnXvXcXvXnXcXfXcXcXcXcXvXnXMXnXSXMXvXcXnXMXMXnXnXnXMXMXMXMXMXMXMXnXMXMXMXnXvXnXMXMXMXnXMXMXMXSXnXMXfXeXeXaXaXeX<XtXcXcXnXcXcXcXnXMXMXMXnXnXMXMXSXMXMXMXMXnXnXMXnXcXcXnXnXnXMXSXnXnXnXMXMXMXnXnXnXnXnXnXMXMXnXvXmXmXMXMXMXMXmXmXmXmXMXGXGXGXFXmXMXMXMXMXMXMXMXMXnXnXnXnXvXcXnXMXMXMXnXcXcXvXnXMXnXvXcXcXcXnXnXnXVXMXMXMXMXVXVXVXfXrXeXeX7X3XeXhXnXnXnXnXnXnXnXMXGXJXJXGXPXPXPXPXMXnXnXMXMXMXMXMXMXMXnXnXMXMXnXnXvXMXMXMXVXSXSXMXMXKXJXLXJXSXKXKXSXSXJXJXKXKXJXJXJXJXVXMXMXSXSXMXMXMXMXMXMXSXSXSXJXJXMXcXcXcXvXcXMXSXJXMXMXMXnXcXnXVXVXMXcXcXcXvXMXBXnXhXpXhXhXhXhXgXnXnXnXgXhXhXvXnXnXMXAXSXSXnXMXMXMXnXaXaXvXcXfXMXcX<X:XyXcXnXMXMXVXVXVXVXKXKXJXMXnXMXMXMXMXVXSXSXVXVXVXSXSXSXVXVXVXVXVXVXMXMXMXMXMXMXMXMXVXVXVXMXvXvXvXvXvXcXMXVXVXSXSXSXVXBXSXSXSXMXMXSXVXMXMXMXMXVXSXSXGXVXVXMXMXMXMXMXMXMXSXVXMXVXKXJXKXSXJXJXKXKXKXJXSXSXMXSXSXJXSXVXMXMXnXMXMXMX",
"cXSXfXcXnXvXMXcXMXnXvXvXnXMXnXnXnXMXSXSXMXMXMXMXMXMXMXMXMXVXSXSXVXMXMXMXMXMXMXMXMXnXcXcXcXnXMXSXMXMXnXnXvXvXcXcXcXcXcXcXcXcXcXtXcXcXvXnXnXVXSXVXSXMXcXcXcXMXMXcXnXMXMXMXMXMXMXMXMXnXcXvXcXcXcXnXMXMXnXMXMXMXSXSXMXSXMXtXtXfXtX<X].wXcXnXMXMXMXMXMXZXZXMXnXnXMXSXMXMXSXJXSXnXnXnXnXnXnXMXMXnXnXMXMXnXnXnXnXMXMXnXnXnXnXnXMXMXnXcXvXmXMXVXVXVXVXVXmXmXMXFXGXFXFXMXnXMXMXMXnXnXnXnXMXMXMXnXvXcXnXSXMXMXvXcXcXnXMXMXMXnXcXcXcXcXcXcXmXvXvXvXnXMXMXMXvXfXfXfXfXrXaXvXMXMXMXnXcXcXcXcXnXMXGXGXPXPXPXMXSXMXnXMXSXSXSXJXSXVXMXVXSXSXVXMXnXMXMXMXMXSXSXMXcXKXnXnXMXvXJXVXSXSXSXJXJXJXKXJXJXJXVXMXMXVXMXnXVXMXnXnXMXSXSXVXVXSXMXvXcXMXMXMXMXJXKXJXSXVXMXnXnXMXSXMXcXcXcXcXgXnXgXhXpXhXhXhXhXhXhXjXBXDXBXBXMXAXMXMXAXSXSXMXMXnXMXfXrXaXvXgXfXJXMX<X.X7XcXnXcXnXMXMXvXvXVXSXJXMXnXMXSXSXSXKXJXSXSXVXVXSXSXJXVXBXSXSXSXSXVXMXMXBXVXMXMXMXVXSXVXMXvXvXcXfXfXaXMXBXVXVXSXSXSXSXSXSXMXnXMXMXMXcXnXnXMXMXVXSXMXMXMXMXMXnXnXnXnXnXMXMXMXKXKXLXJXSXJXJXKXKXJXJXVXMXMXVXVXVXMXVXSXKXMXMXMXMX",
"cXnXMXnXcXcXnXMXMXMXnXnXnXMXMXMXMXVXSXSXMXMXMXMXnXnXnXMXVXMXMXMXMXMXMXMXMXMXMXMXMXcXaXfXcXcXcXnXcXcXvXvXvXcXcXcXnXnXnXnXnXvXcXtXcXvXnXvXnXMXJXSXMXVXMXMXMXSXMXvXnXMXMXMXMXMXMXMXMXvXvXnXMXMXMXnXnXnXnXnXMXSXSXSXSXMXvXhXtXvXcXwX<XtXcXcXnXMXnXnXSXSXSXMXnXnXMXMXnXnXMXMXMXMXnXnXnXMXMXnXnXSXSXMXnXMXMXMXMXMXMXMXMXMXMXnXnXnXnXnXMXMXVXVXVXVXGXGXGXGXGXGXGXGXHXHXMXvXcXvXcXfXcXMXnXMXMXvXnXJXKXMXnXnXvXcXvXnXMXMXnXcXcXfXcXcXcXcXzXcXvXvXvXvXvXvXvXvXcXvXvXaXfXvXcXcXcXcXcXfXzXzXcXnXMXMXMXMXMXVXVXMXMXVXSXJXSXSXJXSXSXSXSXSXMXnXMXVXSXSXMXMXMXMXnXnXMXnXvXcXnXMXnXMXMXMXSXSXVXVXMXMXMXVXVXSXSXJXVXnXnXnXMXVXVXVXSXSXMXnXMXVXMXnXVXMXMXSXSXMXMXMXvXMXVXMXcXcXcXcXMXnXvXfXfXgXfXaXpXhXfXgXvXMXVXSXMXnXnXMXSXJXJXSXSXMXSXcXaXvXcXnXcXSXSXcXfXMXMXcXvXMXVXVXVXVXVXVXMXMXMXMXMXMXVXSXMXSXSXSXSXSXSXSXBXVXVXBXVXVXVXVXVXVXVXVXMXvXnXVXVXBXMXvXcXcXcXcXMXMXMXVXVXVXVXVXMXKXVXaXcXVXVXMXvXvXvXvXnXMXMXVXMXMXMXnXnXnXnXMXVXMXSXJXJXSXMXnXMXMXSXSXSXSXSXVXSXSXSXSXSXSXSXSXSXVXMXVX",
"nXMXMXMXnXnXnXMXMXMXMXMXMXVXSXSXVXVXMXMXMXMXMXMXMXnXnXMXSXVXMXMXMXMXMXMXMXMXMXnXMXcXaXfXcXfXcXcXcXcXcXnXnXnXnXvXnXnXMXMXMXMXnXcXnXMXMXnXnXMXMXMXMXVXMXMXMXSXVXnXnXnXMXMXnXnXvXvXvXnXnXnXnXvXcXcXnXnXnXnXnXVXSXSXSXMXMXnXcXnXMXfXrXcXbXcXnXMXMXMXSXJXSXMXnXnXnXMXnXnXnXnXnXnXnXnXnXMXMXnXnXMXSXMXMXMXMXMXMXMXMXMXMXMXMXnXnXnXnXnXMXMXMXVXVXVXVXGXGXGXGXGXVXGXGXGXnXcXcXnXvXcXcXvXnXMXMXvXnXVXSXMXnXnXvXcXvXnXMXMXnXnXcXcXcXcXcXcXzXcXcXvXcXcXvXvXcXfXcXvXvXvXvXnXnXnXcXcXnXnXnXvXmXnXMXMXMXMXGXGXSXMXMXVXSXSXSXVXSXSXSXSXSXSXVXMXMXMXVXMXMXnXnXMXnXMXMXMXnXvXnXMXnXnXMXMXVXVXMXMXMXMXMXVXSXJXKXJXSXVXMXnXMXMXMXMXMXnXvXcXnXVXMXnXMXMXMXMXVXMXMXMXMXMXVXMXnXnXnXnXBXBXBXnXnXnXvXfXgXgXvXnXnXBXVXSXSXSXSXJXJXJXJXSXSXMXJXnXvXMXMXVXVXSXSXVXMXMXMXMXnXnXVXSXVXVXVXVXSXSXVXVXVXVXMXMXMXSXSXJXKXKXJXJXBXVXVXBXSXSXSXVXSXVXVXVXMXvXMXVXVXVXMXMXMXMXMXMXMXMXMXBXVXVXVXMXMXVXvXaXaXfXfXnXcXcXcXvXMXMXVXVXMXVXVXMXMXMXVXSXJXSXSXKXJXMXvXcXnXMXVXSXSXSXSXSXSXSXSXSXSXSXJXJXJXSXSXSX",
"nXMXMXMXnXnXMXMXMXMXMXMXSXSXJXKXJXVXMXMXMXSXVXMXMXnXnXMXJXJXMXMXMXnXMXMXMXMXMXnXMXvXcXcXcXfXfXfXfXcXcXnXnXMXMXMXMXMXMXVXVXVXVXSXSXJXSXMXMXMXMXnXMXMXMXMXVXSXSXMXnXnXnXnXnXvXcXcXnXMXMXMXvXcXcXcXvXvXvXvXMXnXVXSXSXnXSXSXnXnXSXnXcXMXMXcXnXMXMXMXSXSXSXMXMXnXnXMXMXnXnXnXMXMXMXnXnXnXnXcXvXMXMXMXAXMXnXnXnXnXMXAXAXMXMXMXMXMXMXMXVXMXMXnXnXMXMXMXMXMXMXmXMXMXMXVXcXcXcXnXnXcXfXcXvXcXcXcXcXcXcXcXnXnXnXvXnXMXMXMXMXnXnXvXvXnXvXvXcXcXcXcXcXcXcXvXfXfXvXvXMXMXMXVXnXbXcXcXnXMXMXMXMXMXMXMXVXVXKXKXSXMXMXMXVXVXnXnXnXnXnXMXVXSXVXMXMXMXMXMXMXMXMXMXMXMXVXMXnXnXnXMXvXnXMXMXVXMXMXMXMXMXMXVXSXSXJXJXSXSXMXMXMXMXMXnXnXcXfXaXcXMXMXMXMXMXMXVXVXMXMXMXGXJXMXMXMXPXPXMXVXSXSXVXVXSXVXMXVXDXSXSXSXSXSXSXJXJXJXJXJXJXJXJXSXVXJXMXMXSXMXVXSXMXBXSXSXvXvXVXBXBXDXSXSXSXSXSXVXVXSXSXSXSXSXSXVXSXJXJXJXJXKXJXSXVXVXSXSXJXSXSXSXSXVXVXMXMXMXVXSXVXMXMXVXVXVXVXVXBXBXBXVXVXMXMXVXVXvXaXvXMXvXfXaXcXcXvXvXMXMXMXMXSXSXSXSXSXKXJXJXSXSXSXVXnXcXcXvXnXMXSXSXSXSXSXSXSXSXSXJXJXJXJXJXJXSXSX",
"nXMXMXMXMXnXMXMXnXnXMXMXMXVXSXSXKXVXMXMXSXKXKXJXSXnXnXMXKXJXVXMXnXnXnXMXMXMXMXnXMXMXnXnXnXcXcXcXfXcXcXnXnXMXMXnXMXMXVXVXMXMXSXJXKXKXSXVXVXVXMXMXMXMXMXMXVXSXVXMXvXnXmXnXnXnXnXnXMXMXMXMXvXcXcXvXvXvXvXvXMXnXMXMXnXvXMXSXMXnXMXnXnXZXMXcXnXMXMXMXMXMXMXMXMXMXMXMXMXMXnXnXMXMXnXnXnXnXvXcXvXnXMXMXMXnXnXbXnXnXnXAXSXSXAXAXMXMXMXMXSXVXMXvXfXcXcXvXcXcXcXcXvXvXmXMXcXcXcXnXnXcXcXcXcXaXtXfXcXaXfXcXnXnXnXnXMXMXVXSXVXMXMXMXMXMXMXMXmXvXvXcXcXcXcXvXvXvXvXMXMXMXMXnXnXbXcXcXnXMXMXVXSXJXSXSXVXKXJXKXSXMXMXMXnXMXvXcXcXcXcXnXMXMXMXMXMXMXMXVXVXVXVXVXSXSXSXMXnXvXvXnXvXnXMXMXMXMXMXMXMXMXMXMXMXMXMXMXVXVXMXMXMXMXnXnXvXfXtXtXfXnXMXMXVXMXMXVXGXGXGXJXKXKXMXMXPXJXJXMXMXSXVXVXVXSXVXMXSXSXJXSXSXSXVXSXSXSXSXJXJXJXJXJXKXSXJXMXMXVXMXMXDXMXBXSXVXgXfXMXVXBXVXSXSXSXSXDXMXMXSXJXKXKXKXJXSXJXJXKXKXJXJXJXKXSXSXSXSXSXSXVXSXSXVXVXVXVXVXSXKXVXMXMXVXVXVXVXVXVXVXVXVXVXMXnXvXMX7X}.7XVXBXrXcXcXcXvXvXvXcXcXMXMXVXSXSXSXKXJXJXSXVXSXVXnXvXvXcXnXMXSXSXSXVXMXSXSXSXSXSXSXJXJXJXSXSXVX",
"nXMXMXMXMXMXMXMXnXnXMXMXMXMXMXMXSXMXnXnXMXJXKXJXSXnXnXMXSXSXMXMXMXMXMXVXVXBXMXnXMXVXVXVXMXMXMXvXcXvXvXMXMXMXMXMXMXVXVXVXVXVXSXKXJXSXMXVXSXVXMXMXnXnXnXMXMXMXMXMXnXnXnXnXMXMXMXMXGXMXMXmXnXMXMXMXMXMXnXnXMXMXMXMXVXvXMXVXMXnXnXvXcXMXnXcXnXMXnXnXMXMXMXMXMXMXMXMXMXMXnXMXMXnXnXvXMXMXvXvXvXvXnXSXVXnXvXgXvXnXnXAXSXSXSXSXVXnXMXMXSXBXMXgXgXvXvXMXcXcXcXcXvXvXvXvXvXcXcXvXnXcXcXcXcXfXfXcXnXcXvXMXMXnXnXMXMXMXSXSXSXVXVXMXMXMXMXMXMXMXvXvXvXvXvXcXvXMXMXMXMXMXMXMXnXAXAXnXnXnXSXSXJXKXSXSXSXSXSXKXSXVXMXBXBXMXvXcXvXvXvXMXMXMXMXnXMXMXMXVXVXSXVXVXMXMXMXMXnXnXnXnXnXnXMXMXMXMXMXMXMXMXMXMXMXMXMXMXVXVXVXVXMXMXMXvXvXfXaXaXfXvXMXMXVXMXmXMXGXKXJXKXKXKXPXMXPXJXJXMXnXMXMXAXVXSXMXnXMXAXSXSXMXMXMXMXMXMXSXJXSXSXJXJXSXMXVXcXvXMXvXMXBXBXBXBXBXnXvXnXBXnXBXDXDXBXBXSXSXSXJXKXJXKXKXJXJXKXJXJXJXJXKXJXKXJXKXKXKXKXVXVXVXVXVXVXSXKXJXKXKXVXBXBXVXVXVXnXMXMXMXMXBXMXvXvXMXMX3X].:XvXVXvXnXnXMXnXvXvXcXcXnXMXMXMXVXSXJXJXJXVXMXSXSXMXMXMXnXMXVXSXSXSXVXMXVXVXSXSXSXSXSXSXSXSXVXMX",
"MXMXMXMXMXMXMXMXnXMXMXMXnXnXMXMXMXnXvXvXnXMXVXVXVXnXvXMXVXMXMXMXVXMXMXVXVXBXMXnXMXVXVXVXMXBXBXMXMXMXMXBXBXBXBXVXVXVXVXVXVXVXKXJXSXMXMXMXMXMXnXnXnXnXnXMXMXMXMXMXMXMXMXMXmXmXmXMXGXMXmXmXMXPXPXMXSXSXSXSXVXMXnXMXSXMXnXnXvXvXMXcXcXnXcXcXnXnXnXnXMXnXnXnXnXMXMXMXMXvXvXvXMXnXnXgXgXgXgXgXgXfXvXnXSXnXvXgXvXnXAXAXSXSXSXSXSXnXnXnXBXnXMXnXMXMXVXVXBXMXMXnXvXvXvXcXvXcXcXcXvXvXcXcXcXcXcXnXnXnXMXJXMXMXMXMXMXMXVXSXMXVXVXVXMXMXMXMXVXMXnXnXvXvXvXvXvXMXVXMXMXVXVXnXnXAXAXnXvXvXnXSXVXMXVXVXVXVXVXVXSXSXVXVXVXVXMXvXMXMXMXMXVXVXBXMXMXMXMXMXVXVXMXMXnXnXnXnXMXMXMXMXMXMXMXMXMXMXMXMXnXnXMXMXMXMXVXSXVXVXVXVXMXvXvXvXMXvXfXfXfXfXcXvXMXvXcXvXVXVXVXGXJXJXPXMXPXJXPXMXMXMXMXMXMXSXMXnXMXSXSXSXMXMXMXMXMXSXSXJXMXMXMXMXMXvXnXfXcXMXvXMXBXBXBXgXfXvXvXgXBXvXvXBXDXBXBXVXKXJXKXKXJXSXSXMXVXVXSXSXJXKXKXKXKXJXKXKXSXVXBXMXMXVXVXVXVXJXKXKXKXVXVXVXVXVXMXvXvXvXvXMXMXMXvXvXVXVXvXfXcXvXMXKXMXMXMXMXMXMXMXMXMXMXMXMXMXMXSXKXSXMXMXSXKXSXSXSXSXSXSXSXSXSXSXSXSXVXVXMXMXnXnXnXSXVXMXSX",
"MXMXMXMXVXMXMXMXnXMXMXMXnXvXnXMXMXMXnXnXnXnXMXMXMXmXvXnXMXnXnXMXVXVXBXBXBXBXMXMXMXVXVXVXMXVXVXVXVXVXMXMXMXMXBXBXVXVXVXVXVXKXKXKXVXMXnXMXVXMXnXnXMXnXMXMXMXMXMXMXPXPXFXMXMXMXMXFXPXPXFXPXGXGXJXGXSXSXSXVXMXnXvXcXvXnXnXcXtXgXnXvXcXnXcXcXMXMXnXMXMXnXnXcXnXnXnXMXvXfXfXvXBXBXnXgXaXaXhXfXhXaXfXnXBXnXhXhXgXnXBXBXBXBXAXAXAXBXBXnXnXnXnXMXBXBXVXVXVXVXVXBXMXMXvXvXnXvXcXvXnXMXnXcXcXcXvXnXnXnXMXSXnXnXnXnXMXMXMXMXMXMXMXMXMXnXMXMXMXMXnXMXMXMXMXvXfXnXMXMXMXBXBXMXgXgXgXgXgXhXgXvXvXvXMXMXVXDXBXBXSXSXVXVXVXVXMXvXMXMXnXVXDXDXVXBXMXMXMXMXVXVXMXMXnXnXnXMXMXMXSXSXVXMXMXnXnXnXMXMXnXnXMXMXVXSXSXJXSXSXDXVXMXvXMXMXVXVXnXMXvXaXaXcXnXzXaXcXmXMXMXMXMXMXMXMXPXJXJXMXMXZXZXMXMXJXPXMXJXJXJXPXMXMXMXZXMXMXJXMXMXnXMXMXnXcXmXcXcXVXvXnXgXgXgXpXpXsXaXaXgXhXhXCXBXCXCXBXVXVXMXMXMXMXMXMXnXnXnXMXMXSXJXJXKXKXVXVXVXVXMXMXvXMXBXVXVXKXKXVXMXVXGXKXKXVXMXvXmXmXMXMXVXVXMXMXvXBXVXHXJXMXcXMXBXBXBXBXBXBXVXVXMXMXMXnXnXMXMXJXSXMXVXKXJXJXSXSXSXSXSXSXSXSXSXSXSXSXVXnXMXvXvXvXnXnXnXMX",
"nXnXMXMXMXMXnXnXnXnXMXnXcXcXnXMXSXSXVXMXnXnXnXMXnXmXvXnXnXmXmXMXKXVXVXBXBXBXMXMXMXVXKXVXMXVXVXVXMXMXMXMXnXMXMXMXMXMXMXVXVXKXKXVXMXnXnXMXJXSXMXMXMXMXMXVXVXMXMXGXPXMXFXMXFXPXPXGXFXGXJXJXJXJXJXJXSXSXVXMXnXcXfXhXtXgXvXtXwXaXMXnXnXnXcXcXMXMXMXJXJXMXnXcXcXnXnXnXfXhXfXnXBXDXBXvXfXfXgXvXgXfXgXBXnXgXhXhXgXvXnXnXnXBXBXBXSXBXBXBXMXBXBXBXMXMXMXnXBXVXBXBXMXMXMXnXMXnXnXMXMXVXMXvXnXMXMXMXnXMXVXSXnXnXnXnXnXnXnXnXnXnXMXMXnXvXnXnXmXvXvXMXMXBXMXMXfXvXMXvXvXvXvXgXgXhXhXfXhXhXhXhXgXgXgXMXVXSXSXBXSXVXnXnXVXBXMXvXMXMXMXVXBXSXVXMXSXMXMXVXSXSXVXMXMXMXMXMXMXMXVXMXSXMXnXvXvXnXMXMXMXMXMXVXVXSXSXJXSXDXSXVXMXMXBXVXDXSXSXSXvXaXrXfXnXaXaXaXmXMXnXMXnXMXMXMXJXJXJXMXSXSXSXMXSXJXJXZXVXVXMXMXnXnXnXnXvXnXMXMXnXnXMXMXMXvXBXvXvXVXvXcXgXhXpXiX9XiXpXhXgXsXsXCXBXCXCXCXvXvXvXvXvXMXMXMXfXfXcXcXnXMXJXJXVXVXVXVXVXVXMXMXcXnXMXMXVXKXVXnXvXMXVXKXGXVXMXmXMXMXVXVXKXKXGXVXSXJXMXfXBXKXVXBXVXBXBXMXMXMXVXVXMXMXnXcXcXnXMXVXJXVXSXKXJXSXMXMXSXSXSXVXVXVXSXSXSXSXVXMXnXvXcXcXhXfXgXcX",
"MXMXMXMXMXMXMXMXnXnXnXvXnXnXMXMXVXMXMXnXnXnXnXMXvXvXcXcXcXvXnXmXMXnXvXnXMXSXJXJXSXMXMXMXMXMXMXMXMXMXMXnXnXnXnXMXcXnXMXMXnXnXMXVXMXMXMXSXSXVXMXVXSXnXcXvXMXMXGXJXMXMXPXPXJXJXJXJXJXJXJXJXJXKXGXMXVXMXnXvXcXcXfXfXtXfXcXaX7X3XeXvXMXMXMXMXMXnXMXMXMXMXMXMXMXMXVXVXvXvXvXMXMXnXgXhXgXgXvXCXvXaXaXvXMXMXvXfXvXvXcXnXBXBXBXMXnXMXBXBXMXMXMXMXMXMXMXBXSXVXVXMXVXSXSXMXSXSXVXMXMXnXnXnXMXBXBXMXMXMXMXMXnXnXnXnXnXnXvXnXvXvXMXMXMXvXmXMXnXcXcXnXMXnXnXnXvXvXnXvXMXMXnXgXhXhXhXhXhXhXsXpXsXhXvXMXVXJXKXJXBXBXVXMXVXVXVXvXMXMXMXMXVXVXMXMXMXZXJXJXKXKXJXJXKXVXVXVXKXVXVXVXVXMXvXcXcXvXnXBXBXVXVXVXVXVXVXKXSXSXVXMXMXMXMXMXSXSXMXvXcXcXnXMXfXaXaXfXBXVXVXMXVXMXMXMXMXMXMXMXBXSXSXVXKXSXBXBXMXMXMXMXvXgXgXgXvXvXnXnXnXvXvXgXvXhXfXCXCXhXhXgXhXsXiX9X0XiXiXsXjXsXiXiXiXjXBXCXhX0X9X9XpXBXBXDXVXVXnXvXcXcXMXSXSXSXVXSXSXSXMXMXMXnXcXnXMXMXMXMXnXMXMXVXSXSXVXMXSXJXKXJXKXKXKXSXJXJXVXVXVXMXMXnXVXSXVXnXvXnXVXMXMXnXcXcXcXvXMXVXVXBXSXKXSXVXMXnXBXMXnXnXBXBXBXBXAXDXDXBXnXnXnXnXgXaXrXaX",
"MXMXnXMXMXMXMXMXvXnXnXvXnXnXMXMXMXMXnXnXnXnXnXMXnXcXfXtXtXfXvXmXcXcXcXcXMXSXJXJXVXMXMXMXMXMXMXMXMXMXMXMXnXnXnXMXvXnXnXnXnXMXMXVXMXnXMXSXSXMXMXVXSXnXcXnXMXMXMXGXMXnXMXMXPXPXGXMXMXGXGXGXGXGXVXMXMXnXcXcXcXfXaXtXtXfXcXaXeX3XrXvXMXMXBXMXMXMXBXBXMXMXMXMXMXVXVXVXvXvXvXMXMXnXgXhXsXpXaXaXpXeXpXaXvXnXfXaXvXvXcXmXVXVXBXmXnXnXMXBXvXnXMXMXMXMXMXMXSXVXVXVXVXSXSXSXSXSXSXSXMXMXMXMXBXBXVXMXMXMXMXMXMXMXMXMXMXMXMXnXvXvXMXMXMXvXmXMXnXcXcXvXnXnXnXnXMXVXBXnXBXVXBXgXfXhXhXhXhXhXhXsXsXhXvXnXVXSXKXSXVXVXVXMXVXSXVXMXMXMXMXMXVXVXMXMXMXMXVXSXSXSXSXSXKXVXVXVXSXSXVXVXVXVXVXVXVXVXMXnXBXVXVXVXVXVXVXSXSXSXVXMXMXMXMXMXMXMXMXvXfXfXcXnXfXfXfXcXMXVXVXMXVXVXMXMXMXMXMXMXMXBXvXfXnXvXfXgXvXvXvXgXhXhXhXhXgXgXgXgXgXgXgXgXhXhXhXCXCXhXsXhXiX9XOX+XOX0XiXiXsXiXiXiXiXhXjXhX0XOX9XpXhXDXDXKXSXSXSXBXvXgXcXnXnXnXnXnXSXSXVXMXMXvXcXnXMXMXMXMXMXMXMXMXSXSXSXMXSXSXJXJXKXJXKXSXJXSXMXMXnXnXcXcXnXMXVXMXnXMXVXSXMXnXvXcXcXvXMXVXVXVXBXSXSXMXnXMXnXvXvXnXnXBXVXVXBXBXBXBXnXnXnXnXvXfXaXaX",
"nXnXnXnXMXMXMXnXvXnXnXnXnXnXMXMXnXMXnXnXnXnXnXMXMXnXcXtXtXcXmXmXfXaXaXcXnXVXSXSXMXMXMXMXVXVXMXMXMXMXMXMXMXMXMXMXnXnXnXnXnXMXMXVXnXMXMXVXSXMXMXMXVXMXnXMXMXMXMXMXnXnXnXnXMXMXMXnXnXMXMXMXVXVXMXMXmXcXcXcXfXfXtXtXaXaXfXaXeXwXpXvXMXVXVXVXMXMXBXVXMXMXMXMXMXVXVXVXMXvXvXvXnXnXgXhXpXpXsXsXpXeXrXaXfXgXaXaXcXcXcXvXVXVXBXnXnXvXnXMXvXvXvXMXvXnXnXnXMXMXMXMXMXVXSXSXSXSXSXSXVXVXMXMXVXVXVXBXMXvXvXMXVXVXMXMXBXBXMXMXnXvXMXMXMXvXvXMXnXcXcXcXvXcXvXnXVXVXSXVXVXSXBXvXgXjXjXhXgXCXgXhXsXhXvXCXVXSXKXSXVXVXMXMXVXSXVXMXMXMXMXMXVXVXMXMXMXMXMXMXMXMXVXVXKXVXVXVXSXSXVXVXMXMXVXVXVXVXvXcXMXVXVXVXVXVXVXKXSXSXVXVXMXnXnXnXnXnXMXnXgXfXcXvXvXvXvXnXMXVXVXVXVXVXMXMXMXMXMXMXMXMXfXaXgXvXfXvXvXgXfXhXhXhXhXhXgXhXhXhXhXhXhXhXhXhXgXCXjXhXiXiX9XOX|.|.+XOXiXiXiXiXiXiXiXhXjXsX9X0XhXCXCXDXDXDXMXBXSXSXMXnXMXVXnXnXvXnXVXSXVXMXnXcXcXcXMXMXMXMXMXMXMXMXMXSXSXSXSXSXSXKXJXJXJXSXJXVXMXnXnXcXfXaXvXMXVXMXMXVXSXJXMXMXnXcXcXnXMXSXVXVXVXVXMXvXnXBXnXgXgXvXnXBXBXBXnXnXnXnXnXnXnXBXMXvXhXfX",
"nXmXvXnXnXMXnXnXcXnXnXnXnXnXnXMXMXnXnXnXnXnXMXMXMXMXMXnXnXnXmXcXtXtXtXcXnXMXVXVXMXMXMXVXSXSXMXMXMXMXMXVXVXMXMXMXnXnXnXnXnXMXMXVXMXnXMXVXVXMXMXMXMXMXnXMXMXMXmXmXnXmXmXmXnXnXmXNXmXmXnXMXMXMXMXMXmXcXcXcXcXfXfXaXaXaXaXaXrXeXaXvXVXVXVXVXVXVXBXVXMXMXMXMXVXVXVXVXMXMXvXvXnXnXjXgXhXhXaXaXaXpXaXaXhXfXaXaXcXcXcXnXVXVXBXnXvXvXvXvXcXvXvXMXnXvXvXvXnXcXcXcXnXMXMXMXMXMXVXVXMXMXMXMXVXVXVXBXMXvXvXvXVXVXBXBXBXBXMXMXMXnXvXMXMXvXmXnXnXcXcXcXcXcXvXMXVXSXSXVXVXVXBXvXvXnXCXgXCXBXCXhXgXgXBXBXBXHXKXSXVXBXVXMXVXSXVXMXMXMXMXMXVXVXMXMXMXnXnXnXnXMXMXVXKXVXVXVXKXKXVXVXMXMXvXvXMXMXvXcXMXVXVXVXVXVXVXVXSXSXVXVXMXnXnXMXvXMXMXnXnXvXvXnXMXMXMXMXBXVXVXVXVXBXMXMXMXvXvXvXBXBXvXfXMXnXvXBXnXvXfXfXhXhXgXjXgXhXsXsXsXsXhXhXhXgXCXBXBXhXpXiX0XOX|.|.|.OX0XiXsXiXsXsXsXhXjXiXsXsXDXDXDXDXBXnXgXnXBXDXSXSXJXKXSXSXnXAXSXSXMXMXcXfXcXcXnXMXMXMXVXMXMXMXMXVXSXSXVXVXSXJXKXKXSXVXVXMXMXMXMXnXcXcXcXMXSXSXVXSXJXSXJXMXnXcXvXnXMXJXVXVXBXMXMXvXnXBXBXnXnXnXnXnXnXnXgXnXnXnXnXnXnXBXMXvXfXvX"
};
