/* XPM */
static char *cac6b86955cc46e7855f57db9d5c7d10f31AMqw2YhGACyNZ[] = {
/* columns rows colors chars-per-pixel */
"672 672 256 2 ",
"   c #005C9C",
".  c #0169A8",
"X  c #0274AC",
"o  c #027BB5",
"O  c #027CBB",
"+  c #0375B4",
"@  c #0A73B0",
"#  c #02629F",
"$  c #057DC5",
"%  c #0C7DCF",
"&  c #0583BB",
"*  c #0E8BBA",
"=  c #2D8EB6",
"-  c #66A2BA",
";  c #0685C6",
":  c #0799C6",
">  c #158ED0",
",  c #2698D1",
"<  c #16A4CD",
"1  c #19A7D3",
"2  c #11A6CF",
"3  c #28ACD6",
"4  c #35ADD7",
"5  c #2BB2D9",
"6  c #34B3DB",
"7  c #39B5DA",
"8  c #2CA7CC",
"9  c #149CF7",
"0  c #1295F9",
"q  c #149BF9",
"w  c #1B9EF9",
"e  c #189AF6",
"r  c #108FF7",
"t  c #249DF3",
"y  c #16A2F9",
"u  c #1CA4FA",
"i  c #1CA5F8",
"p  c #39B7E3",
"a  c #23A4FA",
"s  c #2BA5FA",
"d  c #24AAFA",
"f  c #2CABFA",
"g  c #27A7F7",
"h  c #33ACFA",
"j  c #3BACFA",
"k  c #36A8F8",
"l  c #35B2FA",
"z  c #3CB4FA",
"x  c #3CB5F9",
"c  c #2EB0F4",
"v  c #4BA8CB",
"b  c #55A9CB",
"n  c #55ADD2",
"m  c #47B7DA",
"M  c #54B3D4",
"N  c #5BBCDC",
"B  c #58B8D8",
"V  c #50AFD0",
"C  c #63BCDC",
"Z  c #68B8D7",
"A  c #76B9D6",
"S  c #6CAFCA",
"D  c #46BBE3",
"F  c #59BDE2",
"G  c #4CAAF6",
"H  c #46ABF8",
"J  c #54AEF8",
"K  c #43B5FA",
"L  c #4BB4FA",
"P  c #45B9FA",
"I  c #4CBBFA",
"U  c #48B6F7",
"Y  c #53B5FA",
"T  c #5BB4F9",
"R  c #53BDFA",
"E  c #5BBCFA",
"W  c #57B7F7",
"Q  c #46ADE4",
"!  c #6CBDF7",
"~  c #63B5F9",
"^  c #63BCFA",
"/  c #6BBCF9",
"(  c #65B8F7",
")  c #72BEF8",
"_  c #66BEE1",
"`  c #519EC2",
"'  c #59C1DE",
"]  c #68C1DD",
"[  c #77C3DB",
"{  c #5AC3E3",
"}  c #4EC0FA",
"|  c #55C1FB",
" . c #5CC3FB",
".. c #5BC4F7",
"X. c #4CC4E8",
"o. c #65C4E4",
"O. c #63C4FB",
"+. c #6BC4FA",
"@. c #65C9FB",
"#. c #6BCAFB",
"$. c #68C4F6",
"%. c #74C3F9",
"&. c #7CC5F9",
"*. c #73CCFB",
"=. c #7BCCFB",
"-. c #78C5F7",
";. c #7DD1FB",
":. c #77D1FB",
">. c #74CAEA",
",. c #76E5FF",
"<. c #3BC2E3",
"1. c #97A7B6",
"2. c #B5ADAB",
"3. c #B9AEAC",
"4. c #B4AAA5",
"5. c #BBB2AE",
"6. c #B7B2AC",
"7. c #A6ACB8",
"8. c #ABB2BC",
"9. c #BCB4B2",
"0. c #BEB9B5",
"q. c #BDBBBB",
"w. c #B6B4B7",
"e. c #AFABAC",
"r. c #9E9998",
"t. c #C2B7AD",
"y. c #C1B6B3",
"u. c #C4BBB5",
"i. c #C8BEB6",
"p. c #C4BDBA",
"a. c #C9BFB9",
"s. c #C0B7B8",
"d. c #C6C1BD",
"f. c #CBC2BC",
"g. c #CAC1B7",
"h. c #D1C6BE",
"j. c #CCC1AF",
"k. c #8BB8CF",
"l. c #ABB7C8",
"z. c #B3BCCC",
"x. c #B8BBC5",
"c. c #ADBCD3",
"v. c #B3BED3",
"b. c #A4AEC1",
"n. c #80BFE0",
"m. c #C2BFC3",
"M. c #92C4DA",
"N. c #BBC2CC",
"B. c #B5C3D4",
"V. c #BBC4D4",
"C. c #B5C4DB",
"Z. c #BAC6DA",
"A. c #BCCBDC",
"S. c #B9CAD8",
"D. c #BBD1DE",
"F. c #AAC6D7",
"G. c #84CBF6",
"H. c #8ACDF6",
"J. c #83CBFA",
"K. c #8BCEF9",
"L. c #81C7F9",
"P. c #83D4FA",
"I. c #8CD5FA",
"U. c #8ED9FA",
"Y. c #89D3F6",
"T. c #93D3F7",
"R. c #93D3FA",
"E. c #9BD6FA",
"W. c #93DAFB",
"Q. c #9CDCFA",
"!. c #9AD9F6",
"~. c #90CEEF",
"^. c #BDCDE2",
"/. c #B7CBE2",
"(. c #BDD3E3",
"). c #B9D7E8",
"_. c #A3DCFA",
"`. c #AADEFB",
"'. c #A4DBF7",
"]. c #AED7ED",
"[. c #99E5FD",
"{. c #A4E1FB",
"}. c #ACE3FA",
"|. c #ABE4F8",
" X c #B3E5FA",
".X c #BAE6FA",
"XX c #B5E9FC",
"oX c #BCEAFB",
"OX c #B7E5F6",
"+X c #B4F6FE",
"@X c #C4C2C3",
"#X c #CCC5C1",
"$X c #CEC9C4",
"%X c #C7C7CB",
"&X c #D0C7C1",
"*X c #D2CAC4",
"=X c #D3CDCA",
"-X c #D9CEC7",
";X c #D9D2CB",
":X c #C3CBD5",
">X c #C2CDDC",
",X c #C7CBD5",
"<X c #C4D1DD",
"1X c #CBD3DD",
"2X c #CCD2D7",
"3X c #D6D5D8",
"4X c #D2CED3",
"5X c #C2CEE2",
"6X c #C6CEE4",
"7X c #C4D3E4",
"8X c #CAD5E4",
"9X c #C5D9E6",
"0X c #CBDAE5",
"qX c #C5D5E9",
"wX c #CAD6E9",
"eX c #C5DBEA",
"rX c #CBDBEB",
"tX c #D2DBE5",
"yX c #D2DDEB",
"uX c #D7DAE4",
"iX c #CBDDF1",
"pX c #D2DEF1",
"aX c #CDE1ED",
"sX c #C6E1ED",
"dX c #D4E2ED",
"fX c #DAE4ED",
"gX c #DBE6EB",
"hX c #CDE3F2",
"jX c #C3ECFB",
"kX c #C9EEFA",
"lX c #C7E7F6",
"zX c #D3E4F2",
"xX c #DAE6F2",
"cX c #D5E9F5",
"vX c #DCEAF4",
"bX c #DCECFA",
"nX c #D5E9FA",
"mX c #CCF1FB",
"MX c #C5F4FE",
"NX c #D3F4FB",
"BX c #DBF5FB",
"VX c #DBF9FC",
"CX c #E5E7EA",
"ZX c #E2ECF5",
"AX c #E3EEF9",
"SX c #E8ECF4",
"DX c #E4F2FC",
"FX c #EBF4FC",
"GX c #EDF9FF",
"HX c #E6F5F9",
"JX c #F3FBFE",
"KX c #F5F9FC",
"LX c #F2EEEC",
"PX c #E3DCD7",
"IX c #BEC0BD",
"UX c #7F7877",
/* pixels */
"+.+.#.#.#.+.#.#.#.+.+.+.#.#.#.+.+.+.#.+.+.+.+.+.+.+.+.+.#.#.#.#.#.#.@.$.+.$.O.O.@.O.O.O.O.^ ^ E E E  . . . .E E E E  . . .E E E ..E R R R R R R I R I I R I I I I I I I I I I I I I I R R R R I R I I I I I I I I I I I I I I I I I I I R I I I I I I I I I I K I I I I I I I I I I I I I I I I I I I I P P K K P P P P K K K x x x x x x x z z z z z x x x l l f h f c f f d d f f d d d d d d d d i i i d d f d f f f f l l l l l h f f f f l l l c h l z j l l x z z z l l l l l c c f f f l l l h h h f f d g g d d d a a a d d d a i i i i i i i i i i i i u u u u u i i u i i i i i i i i u u i i i i i i i i y i i i i a i i i i i u u i i i i i d d d i i i d d d a a a d g a a i i i i u u u i i u y y y y u u u u u u w u u u u u y y y u u u u u i i i i i i a d g a g g g g d d g g d d d d d d d d g g d d f d d f s f f f f h s f s s f f d d g d g f s g g g g g g g g g g g g d d d d g g g h s s f f h f f f h h h h h f g g g d g a g d d d d s d s d d a a i u y 9 9 9 9 y y u w 9 9 9 9 q q q q q q 0 0 0 q 0 0 0 0 0 0 0 0 0 0 0 0 0 0 0 0 0 0 0 0 0 0 0 0 0 0 0 0 r 0 0 0 r r 0 0 0 0 0 0 0 0 r r r r r r 0 r r r 0 0 r r r r 0 0 0 0 r r 0 0 0 0 r r r 0 r r r r r r r r r r r r r r r r r r r r r r 0 0 r r 0 0 r r r r 0 0 r r r 0 0 r 0 r 0 0 0 0 0 0 0 0 q q w w w w q q q q w u a a w t t t t s s s k s s k k j j j j k k k k k s s s s s k k k k s s s s s s s k s ",
"+.+.+.#.#.#.#.#.#.#.+.+.+.+.+.+.+.+.+.+.+.+.+.+.+.$.$.+.+.+.@.@.@.@.$.$.$.$.O.O.O.O.O.O.O.O.O.O.^  . . . . . .E E E  . . . .E E E R R R R R R R R R R R R R I I I I I I I I I I I I R R R R R R R I I I I I I I I I I I I I I I U I I I I I I I I I I I I I P K I I I I I I I I I I I I I I I I I I I I P P P P P P P P K K x x x x x x x z z z z z z x x x l l l l h l l l f f f d d d d d d d d d d d d d f f f l f f l l l l l c f f f f l l l l l l l z z j z x z z z l l l l c c c f f f h l l h f f f f d d d d d d d d d d d a i i i i i i i i i u i i i u i i u u u i i i i i i i i i i i i i i i i i i i y i i i i i i i i i i d i u i i i i i d d d d i i d d d d g a d d a a i i i i i i i i i i u u y u i u u u i u u u u u u u y y u u u u u u i i a a a i a d a a a g g d d g g g d d d d d d f f g g d d d f d f f h f f h f s h s s g f d f d f d f f g g g g g g g g d d f f d f d d d f f h h f f s f f f h h h h h h f d g g g g a g g d d d s s g a a a i u u y y 9 9 9 9 y u 9 9 9 9 q q q q q q q 0 0 0 0 q 0 0 0 0 0 0 q 0 0 0 0 0 0 0 0 0 0 0 0 0 0 0 0 0 0 0 0 0 0 0 0 0 0 0 0 0 0 0 0 0 0 r r r r r r 0 r r r 0 0 0 r r r r 0 0 0 r r r r 0 0 r r r r r r r r r r r r r r r r r r r r r r r r r r r r r r r 0 r r r r 0 0 r r r 0 0 r 0 0 0 0 0 0 0 0 q q q w w e e e q q 9 w w u w a t t t t s k k k k k k k j k j j j j j h h k s s s s k k k k k s s s s s s s s s ",
"+.+.+.#.#.#.#.+.#.#.+.+.+.+.+.O.O.O.@.O.O.+.+.+.O.O.O.O.@.@.@.@.@.@.O.O.$.O.@.@.+.@.O.O.O.O.O.O.O. . . . . .E E E E E  . . . . .E E R R R R R R R R R R I I I I I I I I I I I I I I R R R R R I R I I I I I I I I I I I I I I I I I I I I I I I I I I I I I I I I I I I I P P P U P I I I I I I I I I I P P P P P P P P K K K x x x x x x z x K K x x x x x z l l l l l l l l f f f f f f f f f f f f d d f f f f f l f h l l l l c f f f f l f l l l l l l z z z z z z l l l z l l h h h f f h l h h f f f f f d d d d d d d d d d d d i i i i i i i i u i i i i i i i i i i i i i i i a a i i i i i i i i i i y i i i i i i i i i i u i u i i i i i i i d d d i i i d d d d d a g a a a a a i i i i i u i i i u i i i i i i u u u u u i i i i i i i i u u a a a a a a a d g g a g d d d d d d g g d d f f d g d d d g g f f f f f f f f f g f g g g f f f f f f f f s s g g g g g f f f h h f d f f f h h h h h h k h h s h h h h h h f d g g g g g a a a g d d d a a u u u u y y 9 9 9 9 y y 9 9 9 9 q q q q 0 q q q 0 0 0 0 0 0 0 0 0 0 0 0 0 0 0 0 0 0 0 0 0 0 0 0 0 0 0 0 0 0 0 0 0 0 0 0 0 0 0 0 0 0 0 0 0 0 0 0 r r r 0 r r r 0 r 0 r r r r r r r r 0 r r r r r r r r r r r r r 0 r r r r r r r r r r r r r r r r r r r r r r r r r r r 0 0 0 r 0 0 0 0 0 0 0 0 0 0 0 0 q q e w w e e e 0 q w w w w w w t a s s k h j j k j j j k j j j j j k h k k s s s s s k s k k s s s s s s s k k ",
"$.+.+.+.+.+.+.+.+.+.+.O.O.O.O.O.O.O.O.O.O.O.O.O.O.O.O.+.@.@.@.@.@.@.O.O.$.O.O.@.+.@.O.O.O.O.O.O.^  . . . . . . .E E E  . . . . .E ..E R R R R R R I R R I I I I I I I I I I I I I I R R R I I I R I I I I I I I I I I I I I I I I I I I I R R I I I I I I I I I I I I I P U U K P P I I I I I I I I I I P P P I P P P P P P P K P x x K K x x P P K K x x x z z l l l l l l l f f f f d d d d f f d d f f f f d f f l l l l l l l l h h h f f f f f f l h l z z z z z z z l l z z h l h l h h h h l h f f d d f d d d d d d a i d d d d i i i i i i i i i i i i i i i i i i i i i i i i d d a i i i i u i i i i i i i i i i i i i i i u i u i i i i i i i d d d i i i i d d a a a g d a d d d i i i i i u u i u i i i i i i i u u a i i i i i d i i i i i i a a a a a a a d d g g g d d g d g d g g d d d d g g d d g g g f d d d f f f f f g f g f d f g f d f s f f s s s s g d f f g g f f g g f f f h h k h j h h h h h h h h h h h f g g g d d g g a a a a a a a u u u u y y 9 9 9 9 9 9 y 9 9 9 9 q q q q q q q 0 0 0 q q 0 0 0 0 0 0 0 0 0 0 0 0 0 0 0 0 0 0 0 0 0 0 0 0 0 0 0 0 0 0 0 0 0 0 0 0 0 0 0 0 0 0 0 0 r r r r r r r 0 r r r r r r r r r r 0 0 r r r r r r r r r r r 0 0 0 r r r r r r r r r r r r r r r r r r r r r 0 r r r r 0 0 0 0 0 0 0 0 0 0 0 0 0 q q q q q e e e e e e e q w w w w w t a s s k h j j k j j j j j j j j j j k k k k s s s s s k s s k s s s s s s k k k ",
"O.O.O.O.O.O.O.+.O.O.O.O.@.O.O.O.O.O.@.O.O.O.O.O.O.O.+.+.@.@.@.@.O.O.O.O.O.O.O.O.O.O.O.O.O.O.O.O.^  . . .O.O.O.O. . . . . . . . . . .E R R R R R | R R R I I R I I I I I I I I I I I R R R R I I R I I I I I I I I I I I I I I I I I I I I I I I I I P P I I P P P P P P P K K K P P U I I I P P I I I I I I I I I I I P I I P K P P P P P z z K P K K z x x x x z l z l l l l l l f f d d d f f f f f f f f f f f f l l h h l l h l l h h h l l f f f h l l l z z z z z x z x z z z l l l h h h f f f f f d d d d d d d d d i i i i i i i i i i i i i i i i i i i i i i i i i i d d d d d d d a d i i i i i i i i u i i i u d i u i i i d i i i i i d i i i i i i i i i d d a a d d d d d d a i i i i i i i i i a a a a a a a a d d d a i i i i i i i i a a a a g d d g g g g g g g g g s g s g f d d f f f f f f d f g g d d g d d g d g d g f d f f f g g g f f s f f s f s f f f h s g s h g f h f s h h k h j h h h h h h h h h h h f g g g d g a a a a u u a a u u 9 u u y 9 9 9 y 9 9 9 9 q q q q q q q q q q q 0 0 0 0 0 0 0 0 0 0 0 0 0 0 q 0 0 0 0 0 0 0 0 0 0 0 0 0 0 0 0 0 0 0 0 0 0 0 0 0 0 0 0 0 0 r r 0 0 0 0 r 0 r r 0 r r r r r r r 0 0 r r 0 0 0 r r r r r r r 0 r r 0 r r r r r r r r r r 0 0 r r r r r r r r r r r r 0 0 0 0 0 r r 0 0 0 0 0 0 0 0 0 0 0 q q q q 0 e e e e e q w w w w w t a g s k h k k k k j j j H H K H j j k j j s s s s s s k k s s k k s s s s k k s s ",
"O.O.O.O.O.O.O.O.O.O.O.O.O.O.O.O.O.O.O.O.O.O.O.O.O.O.O.O.O.O.$.$.O.O.O.O.O.O.O.O.O.O.O.O.O.O.O.O.^  . . .O.O.O.O.O. . . . . . . . .E E R R R | | | R R R I I I I I I I I I I I I I I I I I I I I I I I I I I I I I I I I I I I I I I I I I I I I I I P P I I P P K K P P P K K K P K K U U U U K I I I I I I P P I I I I P P P P P K K P K z z K K K x z z z z x z z x x l l f l l f f d d f f f f f f f f f f f f f l l l h l l l l l l h f l l f f f h l h h l z z z P z z z z z z l l l h h f f f f f d d d d d d d d d d d d i i i i i i i i i i i i i i i u i i i i i i i i d d d d d d d a d d i i i i i i u u i i i i i i i i a a d a i i i i i i i i i i i i i i d d a a d d d d d d a a i i i d i i i i a d a a a a a a a a d a i i i i i i a d d a a a a g d d g g g d f d s f f f f s g f d d f f f f f f f f f f d g g g g d g d g f g f f f g f g f s s h h h h h h f f h h s f f s f h h f h s k h h h h h h h k h h h h f g g g g g a u u a a u u u u u u 9 y y y 9 9 9 9 9 9 9 9 q q q q q q q q 0 0 0 q q 0 0 0 q q 0 0 0 0 q q 0 q 0 0 0 0 0 0 0 q 0 0 0 0 0 0 0 0 0 0 0 0 0 0 0 0 0 0 0 0 0 0 r 0 0 0 0 0 0 0 0 0 0 0 r r r r r r r r r r r r 0 0 r r r r r r 0 r r 0 0 r r r r r r r 0 r 0 0 0 0 r r r r 0 0 r r 0 0 0 0 0 0 r r 0 0 0 0 0 0 0 0 0 0 0 e q q q 9 e e e e e e e w w w w t a g s k h j j j H j H H H H H K j j j j j j k s s s s s k k s s s s s s s s s k s s ",
"O.O.@.@.O.O.O.O.O.@.@.O.O.O.O.O. .O.O.O.O.O.O.O.O.O.O.O.O.O.O.O.O.O.O.O.O.O.O.O.O.O.O.@.@.O.O.O.O.O.O.O. .O.O.O.O. . .E  . . . .E E E R R | R | R R R R I I I I I I I I I I I I I I I I I I I I I I I I I I I I I I P P P P I I I I I I P P P P I I I P P P P P P K K K K K P K K P P P U U U P I I I I I P P P I I I I I P P P K K K K K K K K K K z z z z z x z z z l l c f l l f f f f f f f f f f f f f l l f h l l l l l l l z l l l h l l f f h h l h c l z z z z z z z z z l l h l l f f f f d d d d d d d d d i i i d d i i i i i i i i d d i i i i i i i i i i i a a a a a a a d d a a d a i i i i i i i i i i i i i i d i d i d d d d d d d i i i i i i i i i i d a a a d d g g g d a i i a d d i i i d d i i i i a i i a a i i i d d i i a a d d g g g g g d d d f f f h h h h h h f g f d d g g d d f f f f f f f g g g g d g d g f g f f h s h s s g f h h h h h f f f h h s s s s f f f f s s h h h h h h k s s h h h f g g g g a a u u u u u u u w u u y 9 9 y y 9 9 9 9 q 9 9 9 q q q q q q q q q q 0 0 q 0 0 0 q q q 0 0 0 0 q 0 0 0 0 0 0 0 0 0 q q 0 0 0 0 0 0 0 0 0 0 0 0 0 0 0 0 0 0 0 0 0 0 0 0 0 0 0 0 0 0 0 r 0 0 r r r r r r r 0 0 r r r 0 0 0 0 r r r r r r r r r r r 0 0 0 0 r r 0 0 r r 0 0 r r 0 0 0 0 0 0 0 0 0 0 r r 0 0 0 r 0 0 0 e q q e q e e e e e e e w w e e t t a s g s s h j j j H H H H H H H H H H j j j j j j k k s s s s s s s s s s s s s s s s t s ",
"^ O.O.@.O.O.O.O.O.O.O.O.O.O.O.O.O.O.O.O.O.O.O.O.O.O.O.O.O.$.O.O.^ ^ ^ O.O.O.O.O.O.O.O.@.O.O.O.O.O.@.O.O. .O.O.O. . . .E E  . . . . ...R R R R R R R R R R I I R I I I I I I I I I I I R R R R I I I I I I I I I I I P P U P I I I P P I P P P P P I P P P P P P P P K K P P P K P P P P U K U P I I I I P P P I I I I I P P P P K K P K K K K K K x z K z z z z z x l l l f f f f f f f f f f f f f f f l h l l l l l l l l l l l z l l l l l l l f h l l h l z z z z z z z z z z l l l l l f f f f d d f f f f d d d d i i d d i i i i i i i i i d i i i i i i i i i i a d d a d d a a d d a a d i i i i i i u u i i u u i i i i a d d f d d d d d d i i i i i i i i i i i a a a d d a a a a u i i a d a i i i d d a i i a d a a a i i i i i i a a a a g d d g g d d d d d f f h h h h f h h h f f f d d g g g d f f d d f d a g g g g g d g f g f f h h h f s g s h h h h h h h h h h g s s g f d g f s s h h h k k k k s h h h f f d g g a a a u u u u u u u 9 u y y 9 9 y y 9 9 9 9 q 9 9 9 9 q q q q q q q q q 0 0 0 q q q q q q q 0 0 0 0 0 0 q 0 q 0 0 0 0 q q 0 0 0 0 0 0 0 0 0 0 0 0 0 0 0 0 0 0 0 0 0 0 0 0 0 0 0 0 0 0 0 r 0 0 0 r 0 r r r r r 0 0 r r 0 0 0 0 r r r r r r 0 r r r 0 0 0 0 0 0 r 0 0 r 0 0 0 r r r 0 0 0 0 r r 0 0 0 r r 0 0 0 r 0 0 e 0 e e q 9 e w e e e e w w w w t a s s h h j k j j j H H H H H H H H H H H H j H j j j j k s s s s s s s s s s t s k k s s s s ",
"O.O.O.@.@.@.O.O.O.O.O.O. .O.O.O. . . . .E E O.O.@.O.O.O.O.O.O.O.O.O.^ ^ ^ O.@.@.@.O.O.O.O.O.O.O.O.O.O.O.O. . .O.O. .E E  . . .E .. . .E R R R R R R R R I I I I I I I I I I I I I I I I R R I I I I I I I I I I I I I I I I I I I P P I I P K P P P P P P P P P P P P P K K K K K K K P P P P P P I I P P P P I P P I I P P P P K K K K K K z z x x K x x x x x x x z l l f f l f f f f f f f f f f f f f c h h l l h l z z l l h h l l l l l l h c h l l l l z z z z x z l l z l l h h f f f d f f d d d d f f d d i i i i i i i i i i i i i i i i i i d d i i i d d i i i a a a a a a a d a a d i i i u d u i i i i u u i i i d d d d f d d d a d d d d i i i i i d i d d d d d d d d d g g a i i a d a a a a a a a a i i i u i i i i i a i i a i a a g d f g d d d f f s f h f f h h h h h h f f f f d g d g d f d g g f f s g g g d d g g d g h h f h h s f s f f f f f f f f f s g g g g g d g f f g s h h k h h h h h f f f d g d g a a a a u u u u u u u w y y 9 y 9 y y 9 9 9 9 9 9 9 9 q q q q q 0 q q 0 0 0 0 0 q 0 0 0 0 0 0 q q q 0 0 0 0 0 0 0 0 0 0 0 0 0 0 0 0 0 0 0 0 0 0 0 0 0 0 0 0 0 0 0 0 0 0 0 r r r r r 0 0 0 0 0 0 0 r r r r r r r r r r 0 0 0 r r r 0 0 r r 0 0 0 0 r r r r 0 r r r 0 0 r 0 0 0 0 0 0 0 0 0 0 0 0 0 0 0 0 0 0 0 0 0 0 0 e 9 w e e e w w w w w t t t t t s k k h k j j j j H H H H H H L H H H H H H K H H j j j k k s s s k k s s s s s s s s s k s s t ",
"O.O.O.O.O.O.O.O.O.O.O.O. . .O.O. . . . . . .O.O.O.O.O.O.O.O.O.O.O.O.^ O.O.O.O.O.O.O.O.O.O.O.O.O.O.O.O.O. . . .O. . . . . . . .E ......E R R R R R R R R I I I I I I I I I I I I I I I I I I I I I I I I I P I I I I I I I I I I I I I I I P P P I I P P P P K P P P P P K x x K K K P P P P P P P P P P P P P P I I P P K K P P K P P K K K z z K K x x x x x x x x l l l f h l f f f f f l l l l l l l l l l l l z l h z z l l l l l z l l l l l l h l l l l z l j z z z x h h h l h f f f f d f f f f d f d f d d i i d d d d i i i i i i i i i d i i d i i d i i d i d d d a a a a a a a a i i i i i i u i i i i i i i i i i g d d d d d d d d a a d d d i i i i i i i i d d d d d d d g d a d d d d a a i a a a a a i i i i i i i i i a a i a a d d d d f d d d d f f f h h h h h h h h h h f f f f d g d g d f f f f f f d f d d d d d d f g h h f h h s h s g f f f f f f f f f f f f f f d g f f s f h h h h h h h h f f d g g g a a a a i u u u u u u 9 y y y 9 9 9 9 9 9 9 9 9 9 9 9 q q q q q q q q q q q q q q q 0 0 0 0 0 0 q q q 0 0 0 q q 0 0 0 0 0 0 0 0 0 0 0 0 0 0 0 0 0 0 0 0 0 0 0 0 0 0 0 0 0 0 0 r r r r 0 0 0 0 0 0 0 r r r r r r r r 0 0 0 0 0 r r r 0 0 r r r 0 0 0 0 0 r r r r r r 0 0 r 0 0 0 0 0 0 0 0 0 0 0 0 0 0 q 0 0 q 0 0 0 0 9 e w w w w e w w a a a s t s s s k j k k j j H H H H H H H H L L H H H H H H K H j j k k j k k k s s s s s s s s s s s s s s s t ",
"O.O.O.O.O.O.O.O.O.O.O. . . . . . . . . . . .O.O.O.O.O.O.O.O.O.O.O.O. .O. . . . .O.O.O.O.O.O.O.O.@.O.O. .O.E  .O. . . . . . . . .......R R R R R R R R R R R I I I I I I I I I I I I I I I I I I I I I I P P I I P P P P P P P I P I I P P P P P P P P P P P P P P P P P x x K K K K K P P P P P P P P P P P P P P P P P P P P P P P P K K x x x K K x x x x x x x x z l l h f l f l l l l l l l l l x x l z z z z z z z z z l z z z l z z l c l l l l l z l z z h h l z z l h h h l l f f f f d f d d f f d f d d d i i d d d u i i i i i i i i d d i i i i i d i d d d d d d d a d d a i i i i i i i i i i i u i i i i i i i i g d d g d d d d d d d d d d i i i i i i i d d d d d d a d a d a d d d d d a a a d a d a i i i i i a i i i i i i i u a d d d d d d d d d f f f f f f h h h h h f f d d d g g g g g d f f f f f d f f d d f f f f g f f f h h s h s g f f f f f f f f f f f f f f d d f f s h h h h h h h h f d g g a a a a a u i i u i i u u w 9 y y y 9 9 9 9 9 9 9 9 9 9 q q q q q q q q q q q 0 q q q 0 0 0 0 q q q q q q 0 0 0 0 0 q q 0 0 0 0 0 0 0 0 0 0 0 0 0 0 0 0 0 0 0 0 0 0 0 0 0 0 0 0 0 0 r r r r r 0 r r r r r 0 r r r r 0 0 0 0 0 r 0 0 0 0 r 0 0 0 0 0 0 0 0 0 0 r 0 0 0 0 r 0 0 0 0 0 0 0 0 0 0 0 0 0 0 0 e 0 0 q q q 9 0 e 9 9 w w a w w w a a s s s k k k j j j H H H H H H H H H H H H H H H H H H H H H H H j j k k k k k k k s s s s s t s s a s s s t t t ",
"@.O.O.O.O.O.O.O.O.O. . . . . . .O. . . . . .O...O.O.O.O.O.O.^ ^  . . . . . . . .O.O.O.O.O.O.O.O.@.O. . .O.O. . . . . . . . . . .| ....R R R R R R R R R R R R I I I I I I I I I I I I I I I I I I I U P P P P I P P P P P P P P P I I P K K P P P K K K P P P P P K P P P P K K K K K K K P P P P P P P P P P P K K P I I P P P P P P K K K K K K K K K K K K K x x z l l l h h f l l l z l l l l x x x l z z z z z z z z z l l z z l z z l l c l l l z z z l l h h l z z l l l l l f f f f f d d d d f f f d d d d i i i d d i i i i i i i i i d d i i i i i d d d d d d d d d d d d d i i i i i i i i i i i i i i i i i i i d a d d g d d d d d d d d d d i i i i i i i i d d d d d a d a a a d d d d d a a a d a a a i i i i i a i i i i i i i u u a d d d d d d d g d f f g s g s f f f f f f d d d g g g g a g g f f f f f f f d d f f s f s f f f h h k h s f f f f f f f f f f f f s s d f f f f f h h h h h h h f d d g a u u u u u u i u u i i u u u 9 9 y y 9 9 9 9 9 9 9 9 9 q q q q q q q q q q q q 0 q q q 0 0 0 0 q q q q q q 0 0 0 q q q q 0 0 0 0 0 0 0 0 0 0 0 q 0 0 0 0 0 0 0 0 0 0 0 0 0 0 0 0 0 0 0 r r r r 0 0 r r r r 0 0 0 0 0 0 0 0 0 0 0 0 0 0 0 0 0 0 0 0 0 0 0 0 0 0 0 0 0 0 0 0 r r 0 0 0 0 0 q 0 0 q q q 0 e e 0 0 e q e e e 9 9 9 e w a w w t a s s k k j j j H H H H H H H H H H H H L L H H H H H H H H j j H H j j k j k k k k j k s s s s t s a t a a s t t w ",
"O.O.O.O.O.O.O.O.O.O. . . . . . .O.O. . . . . ... . .O.O.O.O.^ E  . . . .E E  . .O.O.O.O.O.O.O.O.O.O.O.O.O.O. . . . . . . . . ...R | | R R R R R R R | | R R R I I I I I I I I I I I I I I I I I I U U P P P P P P P I I I I I I K I I P K K P P P K K K P P P P P P P P K x x x x x K K K P P P P P P P K P P K K K K K K P P I P P P P P P P P K K P P P P P P x x x z z l l l l l z z z z z l x x x z x x z z z z z z z z l l z z z z l z l c l l x z z x z l z z z z l l l l l l f f f f f d d d d f f d d i d d d d d d d i i i d d i i i i d d i i i i i d i i i d d d d d d d a i i i i i i i i i i i i i i i i i i i d d a d d g f f d f g g d d d d d d i i i i i i d d d d d a d a a u d d d d a a a g d a a a i i i i a a a a i i i i d i a d d f f d d d d g g d d g g f f f f f f d d g d d g g d g g g g s s f h f f f f f f f f f f f h h h h h h f f f h f s s s h h h f f f f f h h h h h h h h h h h f f d g a a u u u u u u u u u u i u u y y 9 y y 9 9 9 y 9 9 9 9 9 q q q q q q q q q 9 q q 0 q q q q q q q q q q q q q q q 0 q q q q q q q 0 0 0 0 0 0 0 0 q q 0 0 0 0 0 0 0 0 0 0 0 0 r r 0 0 0 0 0 0 r r 0 0 0 r 0 0 0 0 0 0 0 0 0 0 0 r r r r r r 0 0 0 0 0 0 0 0 0 0 0 0 0 0 0 0 0 0 0 0 0 0 0 q q 0 e e e q q q e e e 9 9 e w w e e e e e w w w t s s s k k j H H H H H H L L L L H L L L L H H H H H H H H H H H H H K j k j k j j k k k s s s s s a a t a a a w w w ",
"O.O.+.+.O.O.O.O.O.O. . . . . .O.O.O. .O. . . ... .O.O.O.O.O.O.E  . . .E E E  . .O.O.O.@.O.O.O.O.O.O.O.O.O.O. . . . . . . ...E R R R R R R R R R R R R R R R R I R I I I I I I U I I I I I I I P P U U P P P P P P P P I I I I P P I I P P P P P P K K K P P P K P P P P P x x x x x P P P P P P P P P P x P P x K K K x K K P P P P I P P P P P P P P P P P P P K x x x x x z l z z z z z z z x x x x x z z z z z z z z z z z l z z z l l z l l l l z x x z z z z z z l l l l l l l l f f f f d d d d f f d d d d d d d d d i i d i i d d d d i d d i i d d i d i i i i i i d d d d i i i i i i i i i i i i i i i i i i d d d d d d d g d f d f d d d d d a d d i d i i i i d d d d d d d a a u d d d d d a g d d a a d i i d d a a a a i i i i d i a a d d d d d g g g g g g g d d f d d d d d g g g d g d d d f f f f f f h h f f f f f f f f f h h h h h h h f f f f s s s f h h f f f f h h h h h h h j h h h h h f g a a u u u u u u u u u u u u u w w y y 9 y y 9 9 9 y 9 9 9 9 9 q q q q q q q q q q q q q q q q q q q q q q q q q q q q 0 q q q q q q q 0 0 0 0 q q q 0 q q 0 0 0 0 0 0 0 0 0 0 0 0 0 0 r r 0 0 0 0 r r 0 0 0 0 0 0 0 0 0 0 0 0 0 0 0 0 r r r r 0 0 0 0 0 0 0 0 0 0 0 0 0 0 0 0 0 0 0 0 0 0 q q q q q 0 e e q e e w w w w e e w w e e e e e w t t t t s s j H H H H L L H L L L L L H L L L H H H H H H H H H H H H H H j k j j j k k k s s s s s s s a a t a t t t w w ",
"O.O.O.O.O.O.O.O.O.O.O.O.O.O.O. . . . . . . . . . .O.O.O.O.O. . . . . . .E  . . . .O.O.O.O.O.O.O.O.O.O.O.O.O.O. . . . . . ...E R R R R R R | R R R R R R R R R I I I I I I I I I I I I I I I P I P P P P U P P P P P P P P I I P I I I I P P P P K K K K P P P P K P P P P K K K K K K P P K P P K P P x x P z x x K K K P K P P P P I P P P P P P P P P I P P P K x x x x x z z z z x z z K P K x x x x z z x K P P P z z z z l l z z z z x x l z x z z z z z z z z l l l l l l l l l f f f f d d f f d f d d f d f d d d a a i i i i i d d d d d d i i i i i i i i i i i i i a d d i i i i i i i i i i i i i i u i i i d d d d d d d g d g d d f f d d d a d d i d d i i d d d d d d a d i a i i a d d d d a d a a d d i i u d d d d d d i i i i i i a a d d d g g g g g g g g g s g g g d d g d g d d d d f d f f h h f f h h f h h f f f f f h f h h h h h h h f h h h s s h h h h h h h h h h h h j j j h j h h h g a a a u u i i i u u u u u u u u u u u y w u u 9 9 w u 9 9 9 9 q 9 9 q q 9 9 9 9 9 9 9 9 9 9 9 9 9 9 9 9 q q q q q q q q 0 0 q q q q q q 0 0 0 0 0 0 0 0 q 0 0 0 0 0 q q 0 0 0 0 0 0 0 0 r r 0 0 0 0 0 0 0 0 0 0 0 0 0 0 0 0 0 0 0 0 r r 0 0 0 0 0 0 0 0 0 0 0 0 0 0 0 0 0 0 0 0 0 0 0 0 q q q q q 9 9 9 e e e e e w w w w e 9 w w w w w w w w w a s s s k j H H H L L L L L L L L L L H H H H H H H H H K H K K H H j j j k k k k k j k k s s s s s g g a a a w w w w w ",
"O.O.O.O.O.O.O.O.O.O.O.O.O.O.O.O. . .O.O.O. . . . .O.O.O.O.O. .E  . . . . . . . . .O.O.O.O.O.O.O.O.O.O.O.O.O.O. . . . .E ..E E | R R R R R | R | R R R R R | R R I I I I I I I I I I I I I I I I P P P P P K P P P K K P I I I I I I P I P K K P P K K K K K K K P P P P K K K K z x K K K K K K x K P x x z x x x x K P P P P P I P P I P P K P P P P P P P P P P K K K x x z x z x z z z K K x x x x x P K P P P P P P z z z l z z z z x x x x z x z z z x z z z z z l l l l h h l l f f d d d d d f d f d d f f f d d d d d d i i d d d d d i d d i i i i i i i i i i i i i d i d i i i i i i i i i y i i i u i i i i a i d d d f f g g g d f d d d d d d a d d d d d d d d d d d d i a i a a a d d d d a a a d a d d i i i d d d d d d i i a i a d d a d d d d g g d s g g g d s d g g d d g d d d f f f f f f f h h h h h h h h h f s f h h h h h h h h h h h h h h h h h h h h h h h h h h h j j k j j h h h f g g a a a i u i i i u u u u u u u u u u u u u u u 9 9 9 u 9 9 9 9 q 9 9 q q 9 9 9 9 9 9 9 9 9 q 9 9 9 9 9 9 q q q q q q q q 0 0 q q q q q q 0 0 0 q q 0 0 0 0 0 0 0 0 q q q 0 0 0 0 r 0 0 0 r r 0 0 0 0 0 0 0 0 0 0 0 0 0 0 0 0 0 0 0 0 0 0 0 0 0 0 0 0 0 0 0 0 0 0 0 0 0 0 0 0 0 0 0 q q q q q 9 9 q q q q w w w w w w w w w e w w w w w a w a a a s s k k k H H L L L L L L L L L H H H H H H H H H j H H H H K K j j j j j j k k k k h k k s s s s s a a a a a w a w w w ",
"+.+.+.+.$.O.O.O.O.O.O.O.O.O.O.O.O.O.O.O.O.O.O.O.@.O.O.O.O.O.O. . . . . .O.O.O.O. .O.O. .O.O.O.O.O.$.O.O.O.O.O. . . . . . ...R R R ....R R | ....R R R R | | R R R I I U I I R I I I I I I I I I P P P P P P P P P P K P I P P I P P P P P K K P K P P K K K P K P P P P K K K P x x x x K K x x x z z x z P z z x x P P P P P P P P P P P K K K K K K K K K P P P P P K z z x x x x K K K K z x z x P P P P P P P K K z x z z l l z z z z z z z z z z z z z z z z z z z l l l l l f f f f f d g d d f f f f f f d d d d d d d d i i i i i i i i i i i i u i i u i i i i i i i u d d d i i i i i i i i i i i d d d a a a g d d d d g d f d d d d d d d d f d d d d d d d d d d d a d d d a a a g d a a d d a d d d d d d d d d i d d d a a a a a a a a d d d d d d f d d d g g g d d d d g d d g d d d d f f f f f h h h h h f f h h h s h f h h h h h h h h j j h h j j h h h h h h j j j j j j k k j j h h h h f d g g a u u a u u u u i u u u u u u u y y u y y y y y y y 9 9 9 9 9 9 q 9 9 9 9 9 9 9 9 9 9 9 9 9 9 9 9 9 9 q q q q q q q q 0 q q q q q q q q q q q q 0 0 0 0 q 0 0 0 0 0 0 0 0 0 r 0 0 0 0 r 0 0 0 0 0 0 0 0 0 0 0 0 0 0 0 0 0 0 0 0 0 0 0 0 0 0 0 0 0 0 0 0 0 0 0 0 0 0 0 0 0 0 0 0 0 0 q q q 9 9 9 w w w w e w w w w w w w w w w w t w w a s s s s k k j H H H L L L L L H U L L H H H H H H H H H H H j H H H H H j j j k j j k k h h k k k s s s s s s a t t w w w w w w ",
"+.+.+.+.+.$.O.O.O.O.O.O.O.O.O.O.O.O.O.O.O.O.O.O.O.O. . .O. . . . . . . .O.O. . .O.O.O.O.O.O.O.O.O.O.O.O.O.O.O.O.O. . . .....| E R R | R R | ....R R R R R R R R R R R R R R R I I I I I I I I P P P P P P P P P P P K P P P P P P P K P K K K K K P P K K K P P K P P P K K K P x K x x P x x x x z z x z z x x x x x x x x z P z x K x K x x x x x x x x x K K P P P P K K x x K P K K K K K z K K P P K K K P K K x K z x z l h z z z z z z z z x z z z z z z z z l l l l h f f f f f f f f d d f f f f f f d d d d d d d d d i i i i i i i i i i i i u u u u i i i i i i i i d d i i i i i i i i i i i d d d a a a a a d d d f f f d d d d d f d d d d d d d d d d d d d a a d d d d a d g a d d d d d a a d d d d d d i i i a d d d g d d d g g g g d d d d d d d f d d g g d d d d g g d g d d f d h h h h h h h h h h f s h h s h f f h h h h h h k j j j h h j h h h h h h h h j j j j j j k j h h h f d d g a d a a a a u u u u u u u u u u u u y y u y y y y y y 9 9 9 9 y 9 9 9 q q 9 9 9 9 9 9 9 9 9 9 9 9 9 9 9 9 9 q q q q q q q q 0 0 q q q q q q q q q q 0 0 0 q 0 0 0 0 0 0 0 0 0 0 0 0 0 0 0 0 r 0 0 0 0 0 0 0 r r 0 0 0 0 0 0 0 0 0 0 0 0 0 0 0 0 0 0 0 0 0 0 0 0 0 0 0 0 0 0 0 0 0 0 0 0 q q q 9 9 9 w w 9 9 9 e w w w w w w w w w t t t t s s s k k k j H H H L L H L L H H H K H H H H H H H H H H H H H H H H H j j H j k k k k s h k s s s s s s s s s a a a a a a u u w ",
"+.+.+.+.+.+.O.O.+.O.O.O.O.O.O.O.O.O.O.O.@.@.O.O.O.O.O.O.O. . . . . . . .O.O.O.O.O.O.O.O.O.O.O.O.O.O.O.O.O.O.O.O.O. . .E ....E E R R R R R R E ..R R R R R R R R I I R R R R I I I I I I I I I P P P P P U U P P P K K P P P I P P P P P P P P P K K K K P P P P K K K K P P K K P K K K P x x x x x z x x z x x l l z x x x x x z z z x z x x x x x x x x x x x z P P P P P K K K P P K K P K x K x P P K K P P K K K P z z x x l z l l l l z z x x x z z z z z z z l l l l h f f f l f f f d d f f d d f f d d d d d d d d d d i i i i i i i i i i i i i i i i i i i u i i i i i i i i i i i u i i i i d d d d d d d d d d f f f d d d d d d f d d d d d d d d d d d d d g g a d d d i i d d a d d d d d a a d d d d d d i i i a d d d d d d d g g d d d d d d f f d d d f f f d d d d g d d d d d d f h h h h h h f f h h h h h h s h f h f h h h j h h j j j j h h h h h h h h h h j j j j j j j h h h g g d a a a d a a a a u u u u u u u u u u u u y u u y 9 9 y y y 9 9 9 9 9 9 9 9 9 9 9 q 9 9 9 9 9 9 9 9 9 9 9 9 9 9 9 q q q q q q q q 0 0 0 q q q q 0 q q 0 0 0 0 0 q q q 0 0 0 0 0 0 0 0 0 0 0 0 0 0 0 0 0 0 0 0 0 0 r 0 0 0 0 0 0 0 0 0 0 0 0 0 0 0 0 0 0 0 0 0 0 0 0 0 0 0 0 q q 0 0 0 0 0 0 q q q q q 9 9 9 9 e e e e w w w w w w w t t t s s s k s k h j j K H L L L L L L H L L H H H H H H H H H H H H H H H H K H H j j H j j j j j k k k s s s s s g g s s a a w a u w w e q ",
"+.+.+.+.+.+.O.O.@.+.O.O.@.@.O.O.O.O.@.@.@.@.@.O.O.O.O.O.O. . . . . . . .O.O.O.O. .O.O.O.O.O.O.O.O.O.O.O.O.O.O.O. . . . . ... .E E | | R E E .. .R R R R R R R R I R R I I I R R I R I I I I I I P P P P U U P P P K P P K P I P P P P P P P P P P K K K P P P P P P K K P P K K K K K K x x x x x x x x x x x x l l x x x x x x x z z x x x x x x x x x x x x x x P P P P P K K K K P K P P K x x x P P P P P P P K P P x z x z z z x z l l z z z x x z z z z z z z z l l l h h f f f f f f d d d d d d d f d d f f d d d d d i i d i i i i i d i i i i i i i i i i i i i i i d i i i i i i i u u i i i d d d d d d d d d d f f d d d d f d d d d f d d g g d g d d d d d d d a i d d i i d d d d d d d d d d d d d d d i i i d d d d d d d d d d d d d d d d f f f f d d d f f d d d d d d f d f f f h h h h f h h f f h h h h h h f h f h f f h h h h h j j h h h h h h h h h h h j j j j j j h h h h f g g d d a a a u u u a u u u u u u u u u u u u y y u y 9 9 y y 9 9 9 9 9 9 9 9 9 9 9 9 9 9 9 9 9 9 9 9 9 9 9 9 9 9 9 9 q q q q q q q q 0 0 q q q q q 0 q q q 0 0 0 0 0 q 0 0 0 0 0 0 0 0 0 0 0 0 0 0 0 0 0 0 0 0 0 0 0 0 0 0 0 0 0 0 0 0 0 0 0 0 0 0 0 0 0 0 0 0 0 0 0 0 0 0 q q q q q 0 0 q 0 0 q q q q q q e e e 9 e w w a a a a t t s t t s s k k k k j j K H H L U L L L L L H L L H H H H H H H L H L L H H H H H K j H j j j j j j j k s s s s s s a s s s a a w w w w w e q q 9 ",
"+.+.O.O.+.+.O.O.@.+.O.O.@.O.O.O.O.O.O.O.@.@.@.O.O.O.O. . . . .O.O.O.O.O.O.O.O.O. . . . .O.O.O.O.O.O.O.O.O.O.@.@.O.O.O.O. . .E E  ...E E ..E  . . .E R R R R R R R R R I I I R R I I I I I I I P P P P P U U U U P K P P K P I P P P K K K K P P P P P P P P P P P P P P P P P P x x x x x x x x x x x x x x z z x x x z z l x x x l l x x x x x x x x x x z z x z z P P K K P P P P P P P P P K x x K P P P P P P K K x z z x l x x z l l l l l l x x x x x x x z x z z z l l h f f f l f f f f d d d d d d d d d d d d d d d d d d d i d d d d d d d i i i i i i i i i i i i d i i i i i i i d i i i d d d d d d d d d d d d d d f f f f d d d d f d d g d d d d d d d d d d g d d d i d d d d d f d f d d d d d d d d i i i d d d d d d d d d d d d d d d d d f f f f f d d d d g d d g d d d f f f h h h h h f f f f f f h h h h h s f f h f h h j h h h h h h h h h h k h h h h h h h z z h h h f d g a a a a i u u u u u u u u u u u u u u i i i u y u y 9 y y y y 9 y y 9 9 9 9 9 9 9 9 9 9 9 9 9 9 9 9 9 9 9 9 9 y 9 9 9 q 0 q q q q q q q q 0 0 q q q q 0 q q 0 0 0 0 0 0 q 0 0 0 0 q q 0 0 0 0 0 0 0 0 0 0 0 0 0 0 0 0 0 0 0 0 0 0 0 0 0 0 q q q q 0 0 q q q 0 0 0 0 q q 9 q q 0 q q q q q q q q q q q w w w w w w w a w t a a s s s s s k k k k k j k k j K H H H L L L L L L L H L L H H H H H H L L L L L L H H H H j j j j j j j j k k k s s s s s a a a a a w w w e e e e q q q 0 ",
"+.+.O.O.+.+.O.O.@.@.O.O.@.O.O.O.O.O.O.O.@.@.@.@.O.O.O. . . .O.O.O.O.O.O.O.O.O. . . . . .O.O.O.O.O.O.O.O.@.@.@.@.@.@.O. . . . .E E  .E E  . ... . .E R R R R R R R R R I I I I I I I I I I I I P P P P P U U U U P P P P K P P P P P K K K K P P P P P P P P P P P P P K P K P P x x x x x x x x x x x x x x z x x x x x x x x x l x x x x x x x x x x x x z z x z z z K K P P P P P P P P P P P x K K K P P K K K x x x z z z x x x z l l l l l l x x x z x x z x x z z z l l h f f f l f f f f d d d f f f f d f d d d d d d d d i i i i d d i i d d i i i i i u i i i i i i d i d i i i i i i i i i d d f f f d d d d d f f d d d d d d d d d a d d d d d d f d d d d d f d d d d d i d d d d d f f d d d d d d d d a i i i i a d g g d d d d d d d d d d d d f f f f f f d d d d d d g d d d d f f f h h f f g d f f f f h h h h h g f f h f h h j h h h h h s s f h h h h h h h h h h h h h h f f g a a u i i u u u u i u u u u u u u u u u i u u u y y y 9 y y y y 9 y y y 9 9 9 9 9 9 9 9 9 9 9 9 9 9 9 9 9 9 9 9 9 9 9 9 q 9 q q 9 q q q q q 0 0 q q q q 0 0 0 0 0 0 0 0 q q 0 0 0 0 q q 0 0 0 0 0 0 0 0 0 0 0 0 0 0 0 0 0 0 0 q 0 0 0 0 0 0 q q q q q q q q q 9 0 0 9 9 w 9 9 9 9 9 e q q q q q q e e e w w w a a w w a a a s s s s s s h k k k j j j H K K H K H L U L L L L L L H L H H H H H H H L L L U H K H H j j k k j k j k j k s k s s s g a a a a w w w w w e e 9 0 q q q q q ",
"+.+.O.O.+.+.+.+.@.@.O.@.@.O.O.O.O.O.O.O.O.O.O.O.O.O.O. . . . .O.O.O.O.O.O.O.O. . . . . . .O.O.O.@.O.O.O.@.@.@.@.@.O.O. . . . . . . . . . . ...E  .E R R R R R R R R R I I I I I I I I I I I I P I I P P U U U P U U K K P P K P P P K K P P P P P P P P I P P P P P P K x x P P x x x x x x x x x x x x x x l l l l x x x x l x x x x x x x x z x x z z x x x x z x x K P P P P P P P K K K P P K K K K P K K K P x x x z z z z z x x z l x x x x x z z x x x z x x x x x z l l l l l l f f d d f f f f f f f d d d d d d d d d d d i i d d d d d d d i i i i i d i i i i i d d d d d d d d d d d a a d d f f f f f d d f d d f d f d d g d d d g g d d d d d d d d d d d f d d d d d d d d d d d f f d d d d d d d d d i i i d d d d d d d d d d d d d f f f f f f f f f f f f f f f f d d d d f f f h f f s s g d d d f f f f h f f g f f h h h h h h h h h h s s f f h h h h h h h h h h h f s g g g a u u u i i i i u u u u u u u u u u i i i u u u u y y y y y y 9 9 9 y y 9 y y 9 9 9 9 9 9 9 9 9 9 9 y 9 9 9 9 9 9 9 9 9 9 0 9 9 9 9 q q 9 q q q q q q q q q q q 0 0 0 0 q q 0 0 0 0 0 q 0 0 0 0 0 0 0 0 0 0 0 0 0 0 0 0 0 0 0 q 0 0 0 0 0 q q q 9 9 9 9 9 9 e e e 9 e 9 w 9 9 9 e 9 9 9 9 e e e e e e e w w a s s s t s s s s s k h k k k k k j H H H H H H H H L L L L L L L L L H H H H H H H H H H H K H H H H j k j j j j k j k k k s s s s s a t e w w w w w w e e 0 q 0 0 q q q q ",
"+.+.O.O.+.+.+.+.@.@.@.@.@.O.O.@.O.O.O.O.O.O.O.O.@.O. . . . . . .O.@.@.@.O.O.O. . . . . . .O.O.O.O.O.O.O.O.O.O.O.@.O.O. . . . . . . . . . . ...R R R R R R R R R R R R R R I I I I I I I I I I I I I I P P P P I P P P P P P K P P P K K P P P P P P P I I P P P P P K K x x K K x P x x x x x x x x x x z l l l l l l l l l l l l x x x l l l x x x x x x x x x z x P P P P P P P P K K x K P P P K K K K K K P K K x x z z z z x z x z z x x x x x x x x x x x x z x x z z h c l l l l f f f f f f f f f f f d d d d d a a d d d i i i d d d d d d d d i d i i i i i i d i d d d d d d d f d d d d d d f d f h f f d g g d d f f f f d f d f d d d d d d a d d d f f d d f f d d i i d d d d d d f f d d d d d d d d d a i a d d d d d d d d d d d d d f f f f f f f f f h f f d g d f f f d d f f h h f f f s f f f f f f f f f f g f f f s h h h h h h h h h s s s f h h h h h h h f h h h f g a a a a i u i i i i i u u i i i a i u u i i u i u u i u y y u y y 9 9 9 9 y y y y y y y y 9 9 9 9 9 9 y y y y 9 9 9 9 9 9 9 9 9 0 q 9 9 9 q 9 9 q q q q q q q q q q q 0 0 0 0 q q q 0 0 0 0 q 0 0 0 0 0 0 0 0 0 0 0 0 0 0 0 0 0 0 q q 0 0 q q q q q 9 9 w w w 9 9 9 9 w w w w a w w a w w w w 9 w w w w w w w a a s s s s s k k k k h j j j j j j H H H H H H H L H L L Y L L L L L L L H H k H H H H H H H H H H j j j k k j j k j k k h k k s s s a s a w w a a w e e w e q q q q q q q q q ",
"@.O.O.O.O.@.@.@.@.O.+.+.+.+.+.@.O.O.@.@.@.@.@.O.@.O. . .O. ...O.O.O.O.O.O.O.O.O.O. ....... .O.O.O.O.O.O.O.O.@.O.O.O.O.O. . . . . . . . ... . .R R R R R R R R R R R R I I I I I I I I I I I P P I I I I P P P I I I P P P P K K P P P P P P P P P P P P P P P K P P K x x x x x x x x x x x x x x x x z z l l l l l l l l l l l l l l x x x x z z z x z z x z z x x x K K K P P P P P P x x x P P P K K K K K K K K x x x x x x z x z z P x x x P P P P P K K K x z j x z l h c l l l l f f f f f f f f f f f f f d d f d d d d d d d d d d d i d d d d d d a d d i i d d i i d d d d d d a d d d d d d f f f h f f f f f f f f f f f f f f d d d f d g g d d d d d d f f f d d d d d i d d a d d d d f d d f d d d d a a a d d d d d a d d d d d d d d f f f f f f f f f f f f f g g d f d d d f f f h h s f h f f f f f f f f f f f f f f f h h h h h s s f f f g g f f f f h h f h f f d g g g a u u u i i u u u i i i i u i i i i i u u u i i u u u u y y y y y y 9 9 9 y y 9 y 9 9 9 y 9 9 9 9 9 9 9 9 9 9 y y 9 9 9 9 9 9 9 9 9 9 9 9 9 9 q q q q q q q 0 0 0 q q q q q q 0 0 q q 0 q q 0 0 0 0 0 0 0 0 0 0 0 0 0 0 0 0 0 0 0 0 q 0 0 q w w 9 q w w u w 9 w w a a d a a a a a a a a a a a t t a a a a s s s s k k h h k k k k j j j j K H H H H L H L L L L L L L L L L H L L L L H H H H H H H H H K K K H j j j k j k j k k k s k k k s s s g a a a a a w w w w e 9 9 9 9 0 0 0 q q 0 q ",
"O.O.O.O.O.@.O.O.O.O.O.O.$.+.+.+.O.@.@.+.@.@.@.O.O.O. .O.O.O. .O.O.O.O.O.O.@.O.O. . ....... . .O.O.+.O.O.O.O.@.O.O.O.O.O.O.O.O.O. . . . ..... ...R R R R R R R R R R I I I I I I I I I I I I I I I I I I I I I I I P P P P P K K P P K K K P P P P P P P P P P P P K x x x x P x x x x x x x x x x x z z z z l l l l l l l l l l l l l l l l x z z z x x x z z z x x x K K K K P P K P K K K x P K K K K x K K K z z x x x x z z P x z x x x x K P P P P P P K K K x j x z z l l l l l h f h f f l l l f f f f f f f f f f d d d d d d d d f d d d d d d d d d d d d d d d d d i d d d d d a d d f d d d f f h h f f f f f f f f f h h f f f f f d f f d d d d d d d f f f f d d d d d d d d d d a d a d d d d d d d d d d g d d d d d a d d a a d d d d f f f f f f h h f f f f f f f f f f f f h f f h h s f f f f f f f f f f h h h f f f f f f s s f s g f d d g g f f f f f f f f f d f d g a a i u i i i i u i i i i i u i u u i i u u u u i u u u u u y y y y y 9 y y y y y y 9 9 y y 9 9 9 9 9 y 9 y 9 9 9 9 9 9 9 9 9 9 9 y 9 9 9 y 9 9 q q q q q q 0 0 0 0 q q q q q q q q q q 0 0 q q 0 0 0 0 0 0 0 0 0 0 0 0 0 0 0 0 0 0 q q q q q q q 9 9 9 w u u 9 w a g g d s s a g a a g s s g s s s a a s s s s k k j j j j j j k j j K H H H H K U L L L H L L L L L L L L L L H L U U L H H H K j j j H H H j H j j j j k k k k s s s k s s t a t a a a a w w w u w w 9 9 9 9 0 0 q q 9 q q q ",
"O.O.O.O.O.O.O.O.$.O.O.O.$.+.+.@.O.+.@.@.@.@.@.O.O.O.O.O.O.O. .O.O.O.O.O.O.@.O. . . ..... . .O.O.O.+.O.O.O.O.O.O.O.O.O.O. .O.O. . . . . .E E .... . .| R | | R R R R I I I I I I I I I I I I I I I I I P I I I I P P P P P P P K P P P P P P P P P P P P P P P K P P P P x x x x x x x x x x x x x x z z x x z l l l l l l l l l l l l l l x z z P P x x P P P x x z x P x x K P K K K P P P K x x x x x x x K K x x x x x x x x P K z K x x x x P K K P P P P P P K z x x z z l l l l l l l f f f f f f f f f f f f f f d d d d d d i d d d f d d d f d d d d d d d d d d d d d d d d d d d f f f f f f f h h h h h f h f f f f h h h h h h h h f f f f h f d g f d f f f f f d f d d d d d d a a d a d d d f d d d d d d d d f f d d a d d d a d d d d f f f d f f h h h f f f f f f f h f h h f f h h h h h h f f f f f f h h h h h h f f f f f f s f s g d d d g g d d d f f f d d d d g g g i i i i i i i i i i i i i i u i u u i i u u u u u u u u u u u u y y y y y y y y y u y 9 y y 9 9 9 y y y y y y y 9 9 9 9 9 9 9 9 9 y 9 9 9 y y y 9 9 9 q q q q 0 0 0 0 q q q q q q q q q 0 0 q q 0 q q 0 0 0 0 0 0 0 0 0 0 q q q 0 q q q q 9 e e e 9 w w w u a w w a g g d s s a s s s s s s s s s s s s s k k k h j j j j j H H H K H K H H H U U U L L L L L L L L L L H H L L L L U K K K H j j j k k j k j k j k k k k s k k k s k s s s s s s a a a a a w a w u w w 9 9 9 9 9 0 9 9 w 9 9 9 ",
"O.O.O.O.O.O.O.O.O.O.O.O.O.O.+.+.+.@.@.@.@.@.@.O.O.O.O.O.O.O.O.O.O.O.O.O.O.O.O. . . . . . .O.O.@.O.O.O.O.O.O.O.O.O.O. . . . .O. . . . . .E | ....E  .| | | | R R R R I I I I I I I I I I I I I I I I P P I I I I I P P P P P P K P P P P P P P P P P P P K K K K x K P P x x x x x x x x x x x x x x x x x x z l l l l l l h h f l l x l l z z z z z z z P P P P P x x P x x K x x x K P P P K x x x x x P P P K x x K P z z x x z z z x x x x K x x x K P P P P P K x P x z z z z z l l l l f f f f f f f f f f f f f f f d d d d d d d d f f f f d f d d d d d d d d d f f f f d d d f f f f d f f f f f h h h h h h h f f f f h h h h h h h h f f f f f f d d f f f f f f f f f f d d d d d a d d d d d d d d d d d d d d d f f d f a d d d a g d d g g d f g f f h h f f f h f f f f f h h h s h h h h h h h f f f f f f h h h h h h f f f f f f s f g g d d g d d g d d f d d d g g g g g a i i i i i i i i i i u i i i u i u u u u u u y y u y y u u u y y y y y y y y y y 9 y y y y 9 9 y y y y y y y y y 9 9 9 9 9 9 9 9 9 y 9 9 9 9 y 9 9 9 q q q q q 0 0 q q q q q q q 0 0 q q 0 q q q 0 q q 0 0 0 0 0 0 0 0 0 q q q q q q q 9 9 9 e 9 9 w u u u a g w w a g a a s s a s s s s s s s s s k h h h k k k j k j j j H H K H H L H L L L L L L L L L L L L L L L H H H H L H H H K K K H j k k k k k k j k k j j k k k k k s s s s s s g a s a a w a a w w w w w w w w 9 9 9 9 9 9 9 9 9 9 ",
"O.O.O.O.O.O.O.O.O.O.+.+.+.+.+.+.+.+.+.+.@.@.@.O.O.O.O.O.O.O.O.O.O.O.O.O.O.O.O.O. . . ... . .O.O.O.O.O.O.O.O.O.O.O.O. .O.O.O.O.O. . . . .R R | R |  .| | | | R R R R I I I I I I I I I I I I I I I I P P I I I I I I P P P P P P K K K K P P U P P P K K K K x x x x x x x x x x x x x x x x x x x x x x l l l l l l l l l l l l c l l l l z z x x x z z P P P P P x z z x x x x x x x x P P P P x x P x P P P P x x x K K x x x z z x x P x x x x x x x x x P P K K K P P x z x z l l l l l l l f f f f f f f f f f f f f d d d d d f d d f f f f d f d d d d d d d d f f f f f d d d d d d f f f f f f h h h h h h h h f f f f h h h h h h h h h h f f f d d f d d f f f f f f f f f d d d d a d d d d d a d d d f d d d d f d d d f g d g d d d d d d f f f f f f f f f f h h f h f f f h h h h h h h h h h h h h f f f f h h h h h f f f f f f s d d g g g a a g d g d d d g d d d g g a a i i i i i i i i i u u u i i i u u i i y y y y y y y y y y y y y y u y y y y y 9 9 9 y y y y 9 9 y 9 9 9 9 y y y y y 9 9 9 9 9 9 y 9 y 9 9 9 9 9 9 9 9 q q q q q 0 q q q q q q q q 0 0 q q 0 q q q q 0 0 0 q q q q q q q q q 9 9 9 q 9 9 9 9 9 w w w a a a a d s a t a g a a a s s s s h h h h k k k h h j j j j k k k j j j H H H H H H L H L L L L L L L L L L H H H H H H H H H H H H H H H j k k k j k k k k s k k k k k k k s s s s s s s s a s a a w w w w e w w w 9 w w 9 q 9 9 q q 9 q w w ",
"O.O.O.O.O.O.O.O.O.O.+.+.+.+.+.+.+.+.@.+.@.@.@.O.O.@.O.O.O.O.O.O.O.O.@.@.O.O.O.O. . . ... .O.O.@.O.O.O.O.O.O.O.O.O.O.O.O.O.O.O.O. ...E E R R R R R | | | | | R R R R I I I I I I I I I I P P I I I I I I I I I I I I P P P P P P K K P P P P U U P P P K K K K x x x x x x x x x x x x x x x x x x x x x l l l l l l l l l l l l l l l l x x z x x x z z x P P x P z z z z x x x x x x x x x P P x x x x x x x x x x x x x x x x z x x P x x x x x z x x x x K P z z K K x z z z z l l l l c f l f f f f f f f f f f f f f d d d d f f d d d f f f d f f d d d d d d d f f d d f d d d d d d f f f f f f l h h h h h h h f f f f l h l l h h h h f h h f f f d f f f f f f f f f d d f d a d d d d d d d g a d d d d d d g d d d d g d g d d d d d d d d d f f h f f h h f h h h h h h h f h h l h h h h h h h h h h f f f f h h h h f f f f f f h f f d g g d g a a g g a g g g d d d d g a i i i i i i i i i i i i i i a i u i u i y y y y y y y y y y y y y y y y y y y 9 9 9 9 9 9 9 y y 9 y 9 9 9 9 y y y 9 y y 9 9 9 9 9 y 9 y y 9 9 9 9 9 q 9 q q q q q q q q q q q q q q 0 0 q q q q q 0 q q 0 0 q q q q q q q q q 9 9 9 9 9 q 9 9 9 u u a a g g a s s a a a g g a a s s s s k h h k k k k h h h h h j k k j j j H H H H H L L L L L L L L U L L L L H H H H H H H H H K H K K H H j k k k k k k k s s s k k s s s s s s s s s g s s a t a a a w w w w w e 9 9 9 w w 9 q 9 9 q w w 9 q 9 ",
"O.O.O.O.O.@.O.O.O.O.@.#.#.+.+.+.O.@.@.@.@.@.@.O.O.@.O.O.O.O.O.O.O.O.O.O.O.O.O. . . . . . .O.@.@.O.O.O.O.O.O.O.O. . .O.O.O.O.O. . .E ..E R R R R R R | R R R R R R R I I I I I I I I I P P P P I I I I I I I I P P P P P P P P P K P P P P K U U P P P P P P P x x x x x x x x x x x x x x x x x x x x x x l l l l l l l l l l l l l l l x z z z x x x x x x x x z z z z x l x x x x x x x x P P K x x x x x x x x x x K K x x x x x x x x x z z x x z x x P P P K x z z z z z z z z l l l l f l f f f f f f f f f f f f f d d d d d d d d f f d d d f f f d d d d d d d d d d f d f f d d d d f f f f f h h h h h h h h h h f f h h l l h h h f f h f f f f f d f d f f f f f f f f f d d d d d d d d d d a d d g d d d d d f f d d d g d d f d f d d f f f f f f h h h h l h l h h h h h h h h h h h h h h h h f f f f f f h h h h f f f f f f f f f f d d d d d d d a a a g g d d d g a i i i i i i i i i i i i i i i i u u i i y y y y y y y y y y y y y y y y y y y 9 9 9 9 9 9 9 9 y y 9 y 9 9 9 y y y y 9 y y y y 9 9 9 9 9 9 y y 9 9 9 9 9 9 9 9 q 9 q q 9 9 9 9 q q q q q q q q 0 0 q q q q 0 0 q q q q q q q q q q 9 9 w w w w w w a a a a s s a s s a a a s g g a s t t s s h k k k k k h h h k k k j k j j j H H H H H L L L L L L L L L H L H H H H H j H j H K K K K j K j j k k k k s s s s s s s s s s s s s s s s s s s t a w w t e w e w w e w e e e e e e q q 0 q q 9 e q q e ",
"O.O.O.@.#.#.O.O.O.@.#.#.#.#.+.@.@.@.@.O.@.@.@.O.O.@.O.O.O.O.O.@.O.O.O.O.@.O.O. . . . . .O.O.O.O.O.@.O.O.O.O.O. . . .O.O.O.O.O. ...| ....R R R R R R R R R R R R R I I I I I I I I I I I P P P I P P P I I P P P P P P P P P P x K P P P K K K U P P P P P P K x P P P x P x x x x x x x x x x l x x x x x l l l l l l l l l l l l l l l x x x x x x z z x x x x z z x z l l x x x x x x x x K P P x x x x x x x x x K P P K x x z z x x x x x x x x z z x x x z x x z x x z z z z l l l l l l l f l h f f f f f f f f f f d d f f d d d f f f d d d f d d f d f d f f d d d f d f f f d d f f f f f f f f f h h h f h h h l f f f h l l h h f f f f f f f f f d f f f f h h h h f f f d d d d d d d d d a a d d d g g f f f f f f d f f f f f d f d f f f f f f f f h l l l h h h h h h h h h h z h h h h h h h f f f f f h h h h h h f h h h f h f f f d d d d d d d a a a g d g g a a i i i d i i i i i i i i i i i i u u u i u y y y y y y y y y y y y y y y y y y y 9 9 9 9 y 9 9 9 y y 9 y 9 9 9 y y y y 9 y 9 9 y 9 9 9 9 9 9 y 9 9 9 9 9 9 9 9 9 q 9 q q 9 9 9 9 q q q q q q q q q q q q q q 0 0 0 q q q q q q q q 9 9 9 w w u u u u a a d g s g a a g a g a g g g a s s s s h h k k k k k k h h j j j j k k k k k H H H L L L L L L L L L L L L H H H H K j j j j K K j j j j k j k k k k s s s s s s s s s s s s s a s t a t a w a w w w w a w w w e w e e e e e e q q 0 0 q q q q q e ",
"O.O.O.O.+.#.+.+.#.@.@.+.#.#.#.+.+.@.@.@.@.@.@.@.O.O.O.O.$.O.O.+.O.O.@.@.O.O.O. . . . . .O.O.@.O.O.O.$.$.O.O.O.O.O.O.O.O.O. . . ...| | R R R R R R R R R I I I I I I I I I I I I I P P P P P P I P P I I I I P P P P P P P P P P P P P P P P P P P K K K K P K P K K K K P P P P x x x x x x x l x x l l l l x l l l x l l l l l l l l l x x x l x x x x x x x x x x x x x x x x x x x x x K K K x P x x x x K K P x K K P P K x x x x x z x x x z z z z x x x x x x x x x x x x x l l l l l l l h f h f h h f f f f f f f f f f f d f f f f f f d d f f f f d f d d d f f f f f d f f d f f f h l l f f l f f f h f h f h l l h f h h h h f f f f f f f l f f f f h h l l l h h h f f f f f d d d d f d a d d f d d f f h h h h h f f h l l h f h h f f f f f f f h h h h h h h h h h h h z z z z j h h h h h f f f f h h h h h h h h h h h h h h h f d d d d d d d d g a a g d a a a a i i i i i i i i i i i i i i i i u u u u i y y y y y y y y y y y y y y y y y 9 9 9 9 y 9 9 9 y y 9 9 9 9 9 9 9 9 y y y 9 y y 9 9 9 9 9 9 9 9 9 9 9 9 9 9 9 9 q q q 9 q q 9 9 9 9 q q q q q q q q 0 0 q q q q 0 0 0 0 q q q q q q q 9 9 y y u u u a d d d d d g a w w a g g s s s g a g g f h h s s s s s s k h h h h h h k h k k k j H H U L L L L U L L H H H H H H H H H H j j k k j j k k k h j k k k k k s s s s s g a a a s d a w t a t w w w w w w w w w w w w e w e w e e q w 9 q 0 q q q 9 9 9 9 ",
"O.O.O.O.+.#.@.+.+.+.+.@.@.@.+.+.+.+.+.+.@.@.O.O.@.@.+.O.O.O.O.+.@.@.@.@.@.O.O. . . . . .O.O.@.@.O.O.O.$.O.O.O.O.O.O.O.O.O.O. . . .| | R R R R R R R R R I I I I I I I I I I I I I P P P P P P I I I I I I I I I I P P P P P P P P P P P P P P P P P P P P P P P K K K K P P P P x x x x x x x x x x x l l l l l l l x l l l l l l l l l x x x x l x x x x x z z x x x x l x x x x z P K K K K K P P P x x x K K x x K x K K K x P z z z z z x z z z z z x x x x x x x x x x x x l l l l l l l l h h h h l l f f f f f f f d f f f d f f f f f d d d f f f d d f f d f f f f f f d f d g f f f h l l h f h f f f h f f f f f h f f f f h h f f f f f f f f f f f f h l z z l h l h h f h l h f f f d f f g f f f f f h h h h h h h c c l z z j c h h h h h h h h h h h h h h h h h h h h h z z z h h h h h h h f f f f f h h h h h h h h h h h h f f f f f f f d d d d g a a g g d a a a a d i i i i i i i i d i i i i i u u i i i y y y y y y y y y y y y y y y y 9 9 9 9 9 y 9 9 9 9 9 9 9 9 9 y 9 9 9 y y y 9 9 9 9 9 9 9 q q 9 9 9 9 9 9 9 9 y y q q q q q 9 9 9 q q q q q q q q q q q q q q q q 0 0 0 0 q q q q q q 9 9 9 9 y y u i a d d d d g a a a a a a a g s g s s g g s f h f h k k s s h h h h h k h s h k k j H H K U L U L U H L H H H H H H H H H H H j j k k k k k k h h h k h k s s s s s s s t a a a a a a w w w w w w 9 w e e w e w w w w w w e 9 e e q q q q q q q q 9 q q 9 ",
"O.O.O.O.+.@.@.@.O.+.@.+.O.O.+.+.+.O.O.@.@.@.@.+.@.@.@.@.@.O.O.+.@.@.@.O.O.O.O. . . . ... .O.@.O.O.O.O.O.O.O.O.O.@.O.O.O.O.O.O. . . .| | | | | | R R I I I I I I I I I I I I I I I P P P P P P P I I I I I I I I I P P P P K P P P P P P P P P P P P P P P P P P P K K K P P P P x x x x x x x x l x x l l l l l l x x x l x x x l l x l x l l l l x x x x x x z x x x x l x x x x z K K K P P K K K P x x x x x x x K K K K K K P P z z z x x x x x x x x x z z z x x x x x z l z z l l l l h f f l l l l f l l f f f f d d f f f f f f d f f d d d f f f f f f f f f f f f f f f f f f f f h l h l h f h f f h f f f f f f f f f f f f h f f f f f d g f f f h h h l z z z z z z z h l l l h h h f f f f f f f h h h j z z z l l l l z z z z h h h h h h h h h h h h l l l h h h j h h h z z z h h h h h h h f h f f f h h h h h h h h h h h h h f d f f f d d d d d g g g g a d g g a d d a i i a a a a a a a i u u u u u u i u y y y y y y y y y y y y y y y 9 9 9 9 9 9 9 9 9 9 9 9 9 y 9 9 y y y y y y y 9 9 9 9 9 9 9 q 9 9 9 9 9 9 9 w w y 9 9 9 q q 9 q 9 9 9 9 q q q 0 q q q q 0 0 q q q q 0 0 0 0 q q q q 9 9 9 9 9 9 u u u i a a d d g a w a a a u u w a a a a g g d f h h h h s s s k k k k k h h h s h k k j H H H H L K K H H H H H H H H H H H H H j H j k j k k k h k k k h k k s s s s s s s t a w w w w w w w w 9 w 9 9 9 9 9 w 9 w w w u w w 9 w w 9 q q q q 9 9 9 9 9 q e e ",
"O.@.@.@.+.@.@.@.+.@.#.+.O.O.O.+.O.O.O.@.@.@.@.@.+.@.@.@.@.O.O.O.@.@.O.O.O.O. . . . . ... .O.O.O.O.O.O.O.O.O.O.O.@.O. .O.O.O. . .....| | | | | R R R I I I I I I I I I I I I I I P P P P P P P I I I P I I I I P I I P P P P P P P P P P P P P P P P P P P P P P P P K P P P P x x x x x x x x x l l x x x l l x x x x x x x x x l l x x x l l l x l l x x x x z x x x x l l x x x P K K K K P P K P K K K K x x P P P P P P P P P z z z x x x x x x x x x x z x x z x x x x x x z z l l h h f f f f l l l l l l l f f f d f f f f f f f d f f f f f f f f f f f f f f f f f f f f f f f h f h l h l h h h f h f f f f d f f f f l f f f h h f f f f f f f h h h h z z z P z z x z x z l z l h z l h l l h z l l z z z z z z z z z l z z z z z z j j j h h h h h l h h z z z l l h h h h h h h h h h h h h h f f h f f f h h h h h h h h h h h h h f g d f d d d d d d g g g g g a d g g g d a a a a a a i i i i i u u u u u u u u y y y y y y y y y y y y y y y 9 9 9 9 9 9 9 9 9 9 y y y y 9 y y y y y y y y 9 9 9 9 9 y 9 9 9 9 9 9 9 9 w w w 9 y y y q q q q 9 9 9 9 9 9 q q q q q q 0 0 0 q q q q q 0 q q q q q 9 9 9 9 9 9 u i i i u u u u u u w u w e 9 u w u a a a g d f f f f f s s s s s s k k h h h h k k k k k H H H H K H H H j j j j H j j j H H j j j j k j k k h h h k s s k k s s s s a a a a w a u w 9 w 9 w w w 9 w 9 e 9 9 e w 9 w w w u w w w w w w w w 9 9 9 9 9 9 9 9 e e ",
"O.@.#.@.+.+.@.@.@.#.#.@.O.O.+.+.O.O.@.@.+.+.@.#.+.+.@.@.@.@.O.O.O.O.O.O.O.O.O. ... . . . .O.O.@.O.O.O.O.@.O.O.O.O.O. . . . . . .....| ..| | R R R R I I I I I I I I I I I I P P P P P P I P P I P P I I I I I P P P P P P P P P P P K K K K P K P P P P P P P P P P P P P P P x x x x x x x l l l x l x x l l l x x l l x x x z l l x x l l l l x l l x x x x x z x x x x l x x x P P P P P P P P P P P P P K P P K P P P P P P P x x x x x x x x x x x x x l l z x z x z z z z l l l l h h f f f f l l l l f f f f d d f f f f f f f f f f f f f f f f f f f f f f f f f f f f f f f l h f f h l h h h l h l f f f f f f f f f f f f f h h l l f h h h l c c l z z P P P K K K x x z z z z z z z h z z z z z z z P P P z z z z z z z z j j z j j j j z j l z z z z h z z z l l h h h h h h h h h h h h h h h f h f f f h h h h h h h h h h h h h f g d f d d d g d d g g d d d d d d g a a a a a a a a u u i i i u u u u u w u u y y y y y y y y y y y y 9 9 9 9 9 9 9 9 9 9 9 y y y y y y w 9 9 y y y y y y y 9 9 9 9 y 9 9 9 9 9 9 y y y y 9 w u u w 9 q 9 9 9 9 9 9 9 q q q q q q q 0 q q q q q q 0 q q q q q q q 9 9 9 9 9 9 y u u u 9 9 u u 9 w u u 9 9 u w u u a a d d f g g g g g s s f s s f h h h s k k h k k k j j H H H H H j k j k k j j j j H K H k j k k j k k h h k s s s s s s g g g a a w u a w w w w 9 9 w w 9 9 w w 9 w q 9 e e w w w w w w w 9 9 w w w 9 q 9 9 9 9 9 9 9 e ",
"O.@.@.@.@.@.@.@.@.#.#.@.@.@.@.+.O.O.@.@.+.O.+.@.+.+.@.@.@.@.+.+.O.O.O.O.O.O.O.O... . . . .O.O.O.O.O.O.O.@.O.O.O.O.O. . .O. . . . .........| | R | | I I I I I I P I I I I I P P P P P P P P P P P I I I I I I P P I P I I P P P P P K K K K P P P P P P P P I I P P P P P P x P x x x x x x l l l l x x x l l l x l l z x x x x l l l l l l l x l x x x x x x P x x x x x x x x z P P P P P P P P P x x P P K P K K x x P P P K P x x x P x x z x x x x z l l l z x z x x z z l l l l l l l f f f f f f l l f f f f d d f f f f f f f f f f f f d d d f f f f f f f f f f f f f f f f l f f h h h h h h l h l f f f f f f f f h f f f f h h l l h l h h l h l z z z K K P P K K K K x z z j z P z x K P z z z z z z P z x x x z z z z z j j j j j j j z j z z z z z z z z j h h h h l h h h h h h h h h h h l h f f f f h h h h h h h h h h f f f f d d d d d d g d d d d d d d d d d d g g g a a a a u u u i i i i u u u u w u u y y y y y y y y y y y y 9 9 9 9 9 9 9 9 9 9 y y y y y y 9 9 9 9 y y y y y y y y y y y y 9 9 9 9 9 9 y y y y 9 9 w u w 9 9 9 9 9 9 9 9 q q q q q q q q q q q q q q q 0 q q q q q q q q 9 9 9 9 9 9 y y 9 9 9 9 u 9 9 9 u u u y w 9 w w u u a d a g d d d d d d a g s f f s s s k k k k k j j j H H H j j h h h h h j j j K K j j j j k k h h h k s s s s s s s g a a u w w 9 u w w u w 9 9 9 w 9 9 w w q w 9 w 9 w u u w w w w w 9 9 w w w 9 q q q 9 q e e e 9 ",
"$.O.@.+.O.@.@.O.@.@.@.@.+.@.@.O.O.O.+.+.@.O.+.@.+.O.@.O.@.O.O.O.O.O.O.O.O.O.O.O. . . ... . . . .O.O.@.@.@.@.O.O.O.O.O.O.O.O.O.O. . .........| | | | | I I I I I P P I I I I I P P P P P P P P P I I I I I I I I I I I I I I P P P P P P P P P P K P P P P P P P P U P P P P P P P K x x x x z x l l x x x x x x x x x z x x x x z x l l l x x x l x x x x x x P z x x x x x z x x P P P P P P P P K x K K K P P P K z x K P P P P K K P K P x x x x x x l l l l l z z l l l l l l l l l f f f f f f f f f f f f f f f f f f f f f f f f f f f f f d d d f f f f f f f f d d d d d f f f f l l f h f f f f f f f f f l l f h f f l l h h h h h c h h c c z z z z z z K K P P P P P K K x K K K P P z P P K z x z z z z z z z z z z z z z z z K z z z z z z z z z z z z l h h l l h l l l h h h h h h h h h l h h f h h h h h h f h h h h h f f g f f d g g d d g a d d d g d d d d d d d a g g a a a i u u u i i i i i i u u u u u y y y y y y y y y y y y 9 9 9 9 9 9 9 9 9 9 9 y y u u w 9 9 9 y y y y 9 9 y y y y y y y 9 9 9 9 9 9 9 y y y y 9 9 u w u u u 9 9 9 9 9 9 9 q 9 q q q 0 q q q q q q q 0 q 0 q q q q q q 9 9 q 9 9 9 9 9 9 9 9 9 9 9 q 9 y y y 9 9 9 9 9 9 9 w u u a a g d g g g a g s d s s s s s k h k k j j j K K j k h h h f s f h h h j j j j j j j j h h h s s s s s a s s g a t w w u u u 9 w u w 9 9 w w w w w w w w 9 w w w a a w a w w w w 9 w w w w 9 9 9 9 w w 9 9 w ",
"O.O.+.+.O.O.O.O.$.O.O.+.O.+.@.@.+.+.+.@.@.@.+.+.+.+.+.O.O.O.O.O.O.O.O.O.O.O.O.O. . . ..... . .O.O.O.@.@.O.@.O.O. . .O.O.O.O.O.O. . .......| |  .| | R I I I I I P P I I I I I P P P P P K P P I I I I I I I I I I I P I I I I P P P P P P P P P P P P P P P P P P P P P P K P P P P P x x x x x x x x x x x x x x x z x z z x x x x x x x x x l x x x x x P P x P z x x x x x x P P P P P P P P P P K P P P P P P K x K P P P P P P P P P P P P x x z x l l l l z z z l l l l l h l l l f f f f d d d d f f f d f f f l f f f f f f f f f f f f f f d d f f f f f f f f f d d d d f f f f f l f h f f f f f f f f f l f l h f f l l h l h h h h l h c h z z z z P K K K K P P K P P K K K K K K K x K K K x x K z z x x z x x j z j z z z K K K K z z K z j j z z z z l h h l l h l l h h h h h h l l h h h h h h h h h h h h h h h h h h h f f g f d g g d d g a a g g g a g a g d a a a a g a i i a i u i i i i i i i u u u u y y y y y y y y y y y y y 9 9 9 9 9 y y y y 9 9 y y w w w w w w y y u y y 9 y y y y y y y y 9 9 9 9 9 9 y y u u u u u u u i u 9 9 9 9 9 9 9 9 9 q q 0 0 q q 0 0 q q q 0 0 0 q q q q q q 0 9 9 0 9 9 9 9 9 9 9 9 0 q 9 9 9 9 9 9 w 9 9 9 9 9 w u w 9 u u a a a a d s d d s s s s s k h s s h j j j j j s k f h f g g s h k k k k j j j j j h h k g a a a a a t w a a w w w u u 9 w u u u 9 9 w u w w u w w w w w w w a a a d a a w w w u w w w w 9 9 9 w w w w w ",
"@.#.@.@.O.$.O.O.O.O.O.O.O.O.@.#.@.@.@.@.+.O.O.O.O.O.O.O.O.O.O.O.O.O.O.O.O.O. . . ........... . .O.O.O.O.O.O. .O.O.O. . . .O.O.O.O. . .....| | ..| | I I I I I I P P I I I I I U P P P P P I I I I I I I I I I P I I I I I I I I P P P P P P P P P I P P P I P K P P P P P P P P P P P x x x x x x x x x x x x x x x x x x x x z x x x x x x x x x x x K K P P P x P x x x x x x x K P P P P P P P P P K K K P P K K K K K P P P P P K K K K x x x x x x x l l l l l l l l l l l l l l f l f f f f f f f f f f f f f f f f f f f f f f d d d f d f f d f f f f f f d d d i d d f f f f d f f f f f f f f d d f f f f f f f l l f f f h l h h l l l l h l h z z P z z P P L P P P P P K K K K K K K K K K K K z z j j x x j j j z j x z x x z z z z z z z z z x z z z z h h h h h h h h h h h l l z z l h h h l l l h h h h h h h h h h h f f f f f f g d f f d g a d a a a a a i a a a u a a a i i u i i i i i i i u i u u u y y y y y y y y y y y y y y y 9 9 y y 9 9 9 y y 9 9 y 9 9 9 9 9 9 u y y y y y y y y y y y y 9 9 9 9 9 9 y 9 y u u u u u u u u u w 9 y y 9 9 9 9 9 q 0 0 0 q q q q q q q 0 0 q 0 q q q q q q q q 9 9 9 9 9 9 9 9 q 0 0 0 0 q 9 9 9 q 9 9 9 9 9 9 9 9 9 u 9 9 u a u a d d d d g g d a s s s s s s k j j h k h h g s s g a s s s s s s k h h h h k s s a a a w w a a a w u w w w w w u u u u w a w a w w w a u 9 w e u a a a a a a a a w w w w w w w w w w w w w w w w ",
"@.O.O.O.O.O.$.O.$.$.O.O.O.O.@.@.+.+.+.+.O.O.O.O.O.O.O.O.O.O.O.O.O.O.O.O.O.O. . . ..... . ... . . . .O.O.O.O. . .O. . . . .O.O.O. . . . ....... .| | R I I I U U P P I I I I I P U P P P P I I I I I I I I I I I P I P P I I I P P P P P P P P P P I I U P P P P P P P P P P P P P P P P P x x x x x x x x x x x x x x x x x x x z z x x x x x x x x K K P P P P P P P x x x x x x K K K P P P P P P K K K P P P K K K K P P P P P P K K K K x x x z x z z x l l l l l l l l l l f f f f f f f d f f f f f f f f f f f f f f f f f f f d d f f d f f f f f f f f f d d d i d d d f f f f f f f f f f f f d f f f f f l f f f f f f f h h h l l l l l l l l z z z K K K P P P P P I P P P K K P P K K K K K K z z x x x x j j j z x x z z z z x z K K z K K K K P z z z l h h h h h h h l l l l l l h h h h l l l h h h h h h h h h h h h h f f f d g g g d d d g a a a i d d d a a i i i u i i u y i i i i i u i u u u u u u u y y y y y y y y y 9 9 y y y 9 y y y 9 9 9 9 9 9 9 9 9 9 y y 9 u u y y y y y y y y y y y y 9 9 9 9 9 y y 9 y u u y u u u u u u 9 9 y 9 9 9 9 9 9 q q q q q q q q 0 q q 0 0 q q q q q q q q q q q 9 q q 9 q 9 9 q q 0 q q q q 9 9 q q 9 9 9 9 9 w 9 0 9 9 9 w u w u w a a a a a g g a a s s s s s h h k k f s a a a t t a s s s s s s s s s s g a a a t w w w w w w 9 w w w w w w a w w u w a w a a u w a u w w e w w w w t w w w w w w w w 9 9 w w w w w w w w w w ",
"$.$.$.O.O.O.O.O.O.O.O.O.O.$.O.@.@.@.@.O.O.O.O.@.O.O.O.O.O.O.O.O.O.O.O.O.O.O.O. . ..... . . . . . . .O.O.O.O. . . . . . . . .O.O. . . . . .......| | | R I I U U I I I I I I I I U P P P U I I I I I I I I I I I P P I I I I I P I I I I P P P P U I I I U U P P P P P P U U U U P P P P P P P P x x P x x x K P K P x x x x x K x P P P K P P K P P P P P I I I P P K x x x x x x x K K K P P P P P K K K P P K K K K P P P P P P P K K P K x x x z x x x x l l l f f f l l l l f f f f f f f f f f f f f f f f f f f f f f f f f f f f d f f f f f f f f f f f d d d d d d i d d d d f f d f f f f f f d f f f f f l f f f f f h h l l h h z z l l z z z z K K P K P P L P P P I P P P P P P K K K K K K K K K K K z z z z j j z z z z x x x x x z z z z z z z z z z h h h h h h h l l l l l l z z l l h h h l h h h h h h h h h h h h f f f f d g g g d d d d d d i i a d i i i i i i i i i y y i y y y y u i u u i y i i y y y y y y y y y y 9 9 y y y y y y y y y 9 9 9 9 9 9 9 y y y y y y u u y y y y y y y y u u u w w u 9 y y y u u u y u u u u u u 9 9 y 9 9 9 9 9 9 9 q q q q q q 0 0 0 0 0 0 0 q q q 0 0 0 0 q q q q q q q q q q q q q q q q q q q q q 0 q q q 9 9 9 9 y 9 9 w u w u w w w w u a a d a a a g s g g s s s g s g a w u w w w a a a a g s a a a a a t w w w w w w w w w w w w w w w a a a w w w a w a a a w a a a a w w t w a a t t a w w w w w 9 9 w w w w w w w w w w ",
"@.@.O.O.O.O.O.O.O.O.O.O.O.$.O.O.@.@.@.O.O.O.O.O.O.O.O.O.O.O.O.O.O.O.O.O.O.O.O.O. ....... . . . . . .O.O.O. . . . . . . . . .O. .O.O.O. . . .E ..| | | | R I I I I I I I I I I I P P P P I I I I I I I I I I I I I P I I I I P I P P I P P P P P P I I I U P I I P P I P P U U U P P P P P P P P P P P P P x P P P P P x x P P P P P P P P P P P P P P I I I I I P P P K x K K K P K K K K P P P P P P P P P K K K K K K P P P P P P P P P P P K z x x x z z l x l l l l l l l c f f f f f f f f f f f f f f f f f f f f f f f f f f f f d f f d d f f f f f f f d d d d d d i i d d f d f d f f f f f f f f f f f f f f f f h l l l l l z z z z z x z x z K P P P P P P P I I I I P P P P P P K K K K K K K K K K K K z K K K z K z z z x x x x x x z z z z z z z h h c c c h h f h l l l l l l z z l l h h h h h h h h h h h h h h h f f f f f f d d d d d d d d d a i i i i u i i u i i i i i i i y y y y i i i i y y y i y y y y y y y y y y y y y y y 9 y y y y y 9 9 9 y y 9 9 y y y y 9 y y y y y y y y y y u u u u u w u 9 y y u u u y y u u u u u u u w 9 9 9 9 9 9 9 9 q q q q q q q q 0 0 0 0 0 0 0 0 0 0 0 0 0 q q q 0 q q q q q q q q q q q q q q q q 0 q q q q 9 0 9 9 9 9 9 9 9 9 w w w w w w u u a a u a d g a g a a a a u w w w w w w a w w a a a t w t a w w w 9 9 w w w w w w 9 w w w w w w a w w w w w w w a a w a a a a w a a t a a t a s w a a a w 9 9 w w w w w w u u w 9 ",
"@.@.#.@.O.O.O.O.O.O.O.O.O.O.O.O.O.O.@.O.O.O.O.O.O.O.O.O.O.O.O.O. .O.O.O.O.O.O.O. . ..... . . . . . . .O.O. . .O. . . . . . . . .O.O.O.O. . ...| | | R R R I I I I I I I I I I I I P P P I I I I I I I I I I I I I I I I I I I I I P I I I I I I I I I I I I I I P I I I I I P P I I I P P P P P P P P P P P P P P P K K K K P P P P P P I I I P I I I I I I I I I I I U U P P P P P P P P P P P P P P P P K P P K P P P P P P P I P P P P P K x x x x x x l z x l l l l l l l l c f f f f f f f f l f f f f f l l f l l l f f d f f f f f f f d f f f f f f f f d d d d d d d d d d f f d f f f f l f f f f f l c f f f f h l l l l z z z z z z z x K K K K P L P K P L I I R R I P P P I I L P K K K K K K K K K K K K K K K K K K z z z z x x z z z z z z z z z l l c c c h h f l l l h h l l h l l l h h h h l h h h h h h h h h h h h h f f f f f f d d d d d d a i i i i i i i i y i i i i u i u u u y i y y u y y y y y y y y y y y 9 9 9 y y y y y y y y y y y y 9 y y y 9 9 9 y y y y y y y y y u u y i u u i u u 9 u u u u u u u u u u u u u u y y y y 9 9 9 9 9 9 9 9 q q q q q q q q 0 0 0 0 0 0 0 0 0 0 0 0 0 q 0 0 0 q q 0 0 0 0 0 0 0 0 0 0 q 0 0 q q q q 0 q q q q 9 9 9 q 9 9 9 9 q q w w w w w w w 9 9 u w 9 u u w 9 9 w w w w u u u u w w w u a w e w u w 9 w w w w 9 9 9 e 9 e w w 9 w w w u w 9 w w w w w a w t w a a w a a w w a a a a a a w w w w w e w w w w w w w w w e ",
"O.O.@.+.O.O.O.@.O.O.O.O.O.O.O.O.O.O.O.O.O.O.O.O.O.O.O.O.O.O. .O. . .O.O.O.O.O.O. . . . . .O. . . . . .O.O. . . . . . . . . . . . .O.O.O. . . . ...| R R R R R I I I I R I I I I I I P I I I I I I I I I I I I I I I I I I I I I P P I I I I I I I I I I I I I I P P P P I P P P I I I P P I I P P P P P P P P P P P K K K P P P P P P P P I I I I I I I I I I R R I I I I P P P P P P P P P P P K P P P K K P P P P P P P P P I I P P P P P K K x x x x x x x x x z l l l l l l l l l l l f f f l f f f f f f l l l l l f f f d f f f f f f f d f f f f f f d f f d f d d d d d f f f f f f f f f f f f l l l l l l f h h h l z z x z x K K K K P P P K K P P P P I I R R R R R R I P I I I L L P K K K K K K P P K K K P P P P P P K z z K z z z z z z z z z z z l l l h h h h f h l l h h h l h h h h h h l h l h h h h h h h h h h h h f f f d f f d f f d d d d a a i i i i u i y y i i i i y i i i i u i y y i i i i y y y y y y y y 9 9 9 y y y y y y y y y y y y y y y y 9 9 y y y y y y y y y y u i i i u u i i u u u u i i i i u u u u i i u u u y y y 9 y 9 9 9 9 9 0 q q q q q 0 0 0 0 0 0 0 0 0 0 0 0 0 0 0 q q 0 0 0 q q 0 0 0 0 0 0 0 0 0 0 0 0 0 0 0 q q 0 0 q q q q 9 9 9 w w 9 w 9 w w w w w w w u 9 9 9 9 9 9 9 9 9 w w u w w w w w w w u 9 w w 9 e w w w 9 9 w w w 9 9 9 w w w w w w u w w w u u w a w w w a w w w t t w a a w a w w a a a a w w w w w e 9 9 w w w w w w w w ",
"$.+.+.O.O.O.@.@.O.@.O.O.O.O.O.O.O.O.O.O.O.@.O.O.O.O.O.O. . . . .O.O.O.O.O.O.O.O.O.O. . . . .O.O. . . .O.O. . . . . . . . . . . .O.O.O.O.O. . .....| R | | | | | R | R R R R I I } I I I I I I } I I I I I I I I I I I I I I I I P P I I I I I I I I I I I I I I I I I I I U P P P P I I I I I I I P P P P I I I P P P P P P P P P P I P I I I I I I I I I I R R R R R R R I I I I I I I I I P P P P P P P P P P P P P P P I I I I I P P P P P P x x x x x x x x z z x l l l l l l l f f l f l f l f f f h h l l l l l l f f l f l l f f f l f f f f f f f f f d f f f d d d d d f f l f f f f f f l f f l l l l l l l l l z z z z K K K P P P P P K P U P P I I I R R R R R R R R I I I I I I P P P P P K K P P P P P P P P P P P K K K K K K K z z z z j j j z z l l l h h h f f f f f f f h h h h h h h h h h h h h h h f f h h h f f f f f f d f f f f f g g d d d d i i i i u i y y i i i i y i i i i u i u u i u i u u u y y y y y y y y y y y y y y y y y y y y 9 y y y 9 y y y y y y y y y y y u i i i i u u u u u u u u i i i i i u u u i y u u u 9 9 y 9 9 y y 9 9 9 0 q q q q q 0 q 0 q q q q 0 0 0 0 0 0 0 0 q 0 0 0 0 0 0 0 0 0 0 0 0 0 0 0 e e e q 0 0 q 0 0 0 q q q 0 0 q 0 q w 9 u 9 9 9 w 9 9 9 w y w 9 w 9 9 9 9 w w u u u w w 9 9 9 9 u u u u u 9 9 w w u w 9 9 9 9 9 9 9 w u u u w u u u u u a a a a u a w w w a w u u w a w w a w w a a w w a a w w w w 9 e w w w u w w w w ",
"@.O.O.O.O.O.@.@.O.@.O.O.O.@.O.O.@.@.@.O.O.O.O.@.O.O.O.O. . . . .O.O.O.@.O.O.O.O.O.O.O.O. .O.O. . . . .O.O. . . . . . . . . . .O.@.O.O.O.O. . ......... . . .| | | | R R R | R I I I I I I I I } I I I I I I I I I I I I I I I I I I I I I I I I I I I I I I I I I I I I I I I I I I I I I I I I I I I P I I I I I I P P I P P P I I I I I I I I I I I I I R R R R R R R R I I I I R R R R I I I I I P P P P P P K P P I I I I P I I P P P P K K P K x x x x x x z z x z l x l l l l l l l l l l l f f h l h l l l l l l f l l f l f l f f f f f f f f f f f f f f f f f d f d d d f f l l f f f f l f f l l l x l l z z z z z K P P P P P P I I P U P I I R R R R R R R R R R R R R I I I I I I P P P K K K K P K K P P K P P P K K K K z z K K z z z z z z z z l l l l l h h f h f f f h h l l h h h h h h h h h h h h f f f h f h f f f f f f d f f f f f f g d d d d a i i i i i y i u u i i i a i i i u i i i i i i y y y y y y y y y 9 y y y y y y y y y y y y y y y y y 9 y y y y y y y i y y u i i i i i i i u u a a a i u i i i u u y y y y y u u y 9 y 9 y y y y 9 9 0 q q q q q q q q q q 0 q q q 0 0 0 0 0 0 q q 0 0 0 0 0 0 0 q q 0 0 0 0 0 e e e q q 0 0 0 0 0 q 0 q q q q 0 9 w 9 w 9 9 9 9 9 9 9 9 y y y 9 9 9 9 9 w w w w w 9 9 9 9 9 9 u u u u u w w w w u w w 9 w w 9 9 q w w w u w u u u w u w u w a w a w w w a u u a a a w w a e e a a w w w w w w w w w w w w w a a a w w ",
"O.@.@.O.O.O.@.O.O.@.@.O.O.O.O.O.O.O.O.O.O.O.O.O. . . . .O.O.O.O.O.O.@.@.@.@.O.O.O.O.O.O.O.O. . .O.O.O.O. . . . . . . . . . . .O.O.@.O.O.O.O. . . . . . . . . .| | | R R R R I I I I I I I I I } I I I I I I } I } I I I I I I I I I I I I I I R R R I I I I I I I I I I I I I R | R I I I I I I I I I U U I I I I I I P P P I I P I I I I I I I I I I R R R R R R R | R R R | | | | R R R R I I I I P U U P P P P P I I I I I I P P P P P P P P K K K P K x x z P P x x z z z x x l l l l l h h h h l l l l l l l l c l l c f l l l l f f l l f f f d f f f f f f f f f f f f f f f f l f f h h h c h l l z z z z z z z K K K P P K I I P I I I P I I R R R R R  . .E E E E R R R R R I I I I I P P P K K K P P P P P P K K P P K K K z z z z z j z z z j z z z z l l l l h h h f f f h h h h l h h h h h h h f c h l h h f f f f f f f f f f d g f f f d f f f d d d d g a i i i i i i d d i i a a a a a a d d a i i i u y y y y y y y y y y y y y y y y y y y y y y y 9 y y 9 y y y y y y y y y y i i i i i i i i u u u i i i u u i i u u u y y y u y y y y y 9 9 9 9 9 9 q 9 q q q q q q q q q q q q q 0 0 0 0 0 0 0 q 0 q q 0 0 0 0 0 0 q 0 q q q 0 0 0 0 0 0 0 0 0 0 0 0 0 q q q q 9 q 9 q y y 9 9 9 9 9 0 9 9 9 0 0 9 y y 9 q q w w w w w 9 9 9 9 9 u u u w u u w w u u w 9 9 9 9 9 9 w u w w w w a u w 9 w w w w w w a a a a a a a d a w w w e w w a a a w a a w w w w w a a w w a w w w ",
"O.@.@.O.O.O.O.O.O.@.O.O.O.O.O.O.O.O.O.O.O.O.O. . . . . . . . . .O.O.O.O.@.@.O.O.O.O.@.@.O.O. .O.O.O.O.O.O. . . ...R  . . . . .O.O.O.O.O.O.O.O. .O.O. . . . . . . .| R R R R I I I I I I I I I I I I I I I I I } } } I I I I I I I I I I I I I R R R I I I I I I I I I I I I R R R R R I I I I I I I I I I I I I I I I I I I I I I I I I I I I I I I I I R R R R R | ..| R R R R | | | | R R R I I I P U U U P P P P P I I I I P P P P P P P K K K K K P P K P P P x x x x z z x x l l l l l l l h l l l h l l l z l l l l l l l l l l l f l l f f f f f l f f f f f f f f d f f f f l l h h h h c c c l x z z z z z P P P P P L I I I I I I I R I R R R R R R R  . . .E E E E E R R R I L P P P P P P K K K K K K K K K K K P P z z z z z z z z z z x z z z z z z z l l l h h h l l h f h h h h h h l l h h h h h h h h h h f f f f h h f f f f f f f f f d f f d g g g d d a i i i i i d d d d d d d d d d d d d a i i u y y y y y y y y y y y y y y y y y y y y y y 9 9 y y 9 y y y y y y y y y y u i i i u i i i u u u i i i i i u u u u u u u u u y u y y 9 y 9 9 9 9 9 9 9 q q q q 0 q q q q q q q q q 0 0 0 0 0 0 0 0 0 q 0 0 0 0 0 0 0 0 q q q q 0 0 0 0 0 0 0 0 0 0 0 q q q q q q q q 9 y y 9 y y 9 9 9 9 9 9 9 9 9 9 9 w w w w u w w w w w w 9 9 w u w w w u w u u u w w w w w w w u a u u w e 9 w w w w w w w a a a a a a a a a a u u u u w w w w w w w u a w w w w w a a w a a a a a ",
"O.@.@.O.O.O.O.O.O.O.O.O.O.O.O.O.O.O.O.O.O.O. . . . .O.O.O.O.O.O.O. .O.O.O.O.O.O.O.O.O.O.O.O.O. .O.O.O.O.O. . . .R .. . . . .O.O.O.O.O.O.O.O.O. .O.O. . . . . . .| R R R R R I I R I I I I I I I I I R R R } } } } } R R | I I I I I I I I I I | R R I I I I I I I I I I I I R R R R R R R R R R I R I I I I I I I I I I I I I I I I I I I I I I I I R R I R R R R |  .| | R R R R | | | | | R I I I I I I I P P P P P P K P P P P P P P P P P K P P K P P K K P P K x x x z x x x x z z x l l z l z z l z z z z z z z x l l l l l l l l h l f l l l f f l l l l f f f f f f f f l l l l l l l l l l l x x z x x K P P P L I I I I I I I I I I R R R R R R E E E E  . .E E E E E E R R I L L I P P P P P P P P P K K K K K K K K K K z z z z z z z z z z z z z l l l h l h h h h l l l f h h h h h l l l l h h h l h h h h f f f f h h h f f h f f f d d f f f f f g g d d d d i i i i i d d d f f f f f d d d d d d a i y 9 9 y y y y y y y y y y y y y y y y y y y y y y y y y 9 y y y y y y i y y y y y y i i i i i i u i i u i u u u y y u u y y y y y y y y y 9 9 9 9 9 9 9 q q q 0 0 q q q q q q q 0 0 0 0 0 0 0 0 0 0 0 q 0 0 0 0 0 0 0 0 q q q q q q 0 0 0 0 0 0 0 0 q q q q 0 q 9 9 q 9 9 u 9 9 u 9 9 9 w w w w w u w 9 w w w u u w w w w w w q 9 w w w w w w w w u u u w w w w w w a a u a u u a a w u u w w a a a a a t a a a a a w a u u w a a w w w w w w w w w w e t a a a a a s a ",
"@.@.@.@.@.O.O.O.@.O.O.O.O.O.O.O.O.O.O.O.O.O. . .O.O.O.O.O.O.O.O. . .O.O.O.O.O.O.O.O.O.O.O.O.O.O.O.O. .O. . . . . . . . . . . . . .O.O.O.O.O.O. .O.O. . . . . . . .| R R R R R R | R I I I I I I I I R R R R } } I } R | R I I I I I R I I I I | R R } } } } } I I I I I R R R R R R R R R R R R R R I I I | R I I I I I I I I I I I I I I I R R I I R R I R R | R | | R R R R R R | | | | | R R R I I I I I I I I I P P K K K K P P P K P P P P P P P P P P K K P K K K K P P x x x z z x x z x z z z x z x x x z z z z x l l z l l z l l l h l l l f l l l l l f l l l l f l l l l l x z l l l z z z z x x K K P P P P L I I I I I R I R R R R R R E E E E E E E E  .E E E E E E R R R Y R I L P P P P P P P P K K K K K K K K K K K z z z z z z z z z z z z l l l h l h h h h l l l l h h h h l l l l l h h h l h h h h f f f f f h h f f f f d d f f f f d d f f d d d d d i i i i d d d d f f f f f f d d d d a i u u y y y y y y y y y y y y y y y y y y y y y y y y y y y y y y y y y y y y y y y y y u i i u u u u i u u u u u u y y y y 9 9 y y y y y y y 9 9 9 9 9 9 q 0 q q q q q 0 0 0 q q q 0 0 0 0 0 0 0 0 0 0 0 0 0 0 0 0 0 0 0 0 q q q q q q q q 0 0 0 0 0 q q q q q q 9 9 9 q w q u w w u w w w w u w w w w u w 9 w w w u w w w w w w w 9 9 w w w 9 w u u w u u w w w w a a w w a a a a d a a u a a a a g g a a a a t a a u w a w w w a a w w w w u w u a a w w t a a a a a a t ",
"+.+.+.@.@.O.O.O.O.O.O.O.O.@.@.O.O.O.O.O.O.O.O...O.O.O.O.O.O.O.O.O.O.O.O.O.O.O.O.O.O.O.O.O.O.O.O. . . . . . . . ....... . . . . .O.O.O.O.O.O.O. .O.O. . . . . . .......R R R R | | R I I R R R I I R R R R R R R R | R R R I I R R R I I I I I R I I I R R I I I I I | | R | R | R R R R R R R R | R | R R R R I I I I I I I I I I I I I I I R R R R R R R R R | |  .R R R R R R R | | | | | | | | R R I I I I I I I P I P P P P P P K K P P P P P P P P P P P P P K K K K K K x K x x x x x P z x x x z z x x x z x x x x x z z l l z l l l l l l x l l l l l l l l l l h c l l l l l x z x x x x x x x x K K P P I I P I R R R R R R R R R R R R E E E E E E E E ^ E E E E E E E E E R R R R I P P P K P P P P P P P P P P P P K K K K K z z z z z z z l z l h l l h l h h h h l l l h h h h h h l h h h h h h h h h h f f f f f f f f f f f f f f d d d d d d d d d d d d d d a d d d d d d f f f f f f f d d d a i u i u i u y y y y y y y y y y y y y y y y y y y y y y y y y y y y y y y y y y y y y y y i u u u i i i u u 9 y y y y y y y y u y y y y y y y 9 9 9 9 9 9 9 q q q q q q 0 0 0 0 0 0 q 0 0 0 0 0 0 q 0 0 0 0 0 0 0 0 q q q 0 q q q 0 q q q q 0 0 0 q q q q q q 9 9 9 9 9 9 9 q u w u u u u u u u w w w w w u w u w u u w w w w w w w w w w w w w w u u w w a w w w a a a a w d a a w a a a a a a a a g g a a a a a a a a t a w w w w w w w a a a a a a a a w a s a a a a a a ",
"@.@.@.@.@.@.@.@.O.O.O.O.O.@.@.O.O.O.O.O.O.O.O.O.O.O.O.O.O.O.O.@.O.O.#.#.@.O.O.O.O.O.O.O.O.O.O. . . . . . . . . . ... . . . . . .O.O.O.O.O.O.O. .O. . . . . . . .....E R R R R R R R R | | R R I I R R R I R R R | | R R R R R R | R I I I I R R I I I R I I I I I I R | | R R R | | R R R R R R | | | | R R R I R I I I I I I I I I I I I R | | R R R | | | | .. . .| R R R | R | | | | | | | | R R R I I I I I I I I I I P P P P K K K P P P P P P P P P P P P P K K K K P K K K K K K P P P P x x x z z x P x P x x x x x x z z z z z z z l l l z l l l l l l l l l l l h l z l z x z z z z z x K K K K P P P P I I L L R R R R R R R R R R R E E E E E E E E ^ E  .E E O.E E E E E E R R R I I P P P P I I P P P P P P L P P K K K K K K K z z z z z l z z h l l h h l h h h l h h h h h h h l h h h h h h h h h l h h f f f f f h h f f f f d d d d d d d d d d d d d d d d d d d d d d d f f f f f f f d d a i i i i i i u y y y y y y y y y y y y y y y y y y y y y y y y u y y y y y y y y y y y y y y i u i i i i u u y y y y y y y y u u u y y y y y y y y 9 9 9 9 9 9 q q 0 0 0 0 q q 0 0 0 0 0 0 0 0 q q 0 q 0 0 0 0 0 0 0 q q q q q q q q q q q q q 0 q q q q q q 9 q q 9 9 9 9 9 9 e u w u a a a u u u u u u u w w u u u u u w 9 9 w w u w w w w w w w w u u w w w w w w a a a a a a a w w a a t a w a a g g g g a a a a a a a a a w w w w a w w a a a a a a a a w t a a a a a a w ",
"@.@.@.@.@.@.@.#.O.O.O.O.O.@.O.O.O.O.O.O.O.O.O.O.O.O.O.O.O.O.O.O.O.O.@.@.O.O.O.O.O.O.O.O.O.O.O. . . . . ..... . . ... . . . . .O.O.O.O.O.O.O.O.O.O. . . . . . . . .....R R R R R | | | | R R I I R R R I I I I I | R R R | | R R | | R R R R | | R R R } R R R } R R R | | | | R ..R R E E ....| ..| ..| | R | | R I I R R R R R R I I I R R R  .R R | .. ....... . . ... . ...| | | | | | | | | R R R R R R I I I I I I I I P P K K K K P P P P P P P P P P P P P K P P P P P P K P P K P P P P P P x z x K K K K x x x x x x x z z z z z z z z z x l l l l l l l l z z l l l z l z x x x K K K K P P K P P K K I I I L I R R R R R R R R E R E E E E E E E E E E O.^ E E ^ E E E E E E E R R R R I I I I I R R R I I I I L P P P P K K K K K z z z z z z z l h z l h h l c h c h h h h h h h h h f f f h h h h h h h h h f f f f f h h h h f f d d d d d d d g d d d d d d d d d d a d d d d d f f f f f d d g a i u i i i u y i y y y y y y y y y y y y y y y y y y y y y y y u y y y y y y y y y y y y y y y y i i i i i y y u y y y y y y y y y y y y y y y y y 9 9 9 9 9 9 q q q 0 0 0 0 q 0 0 0 0 0 0 0 0 0 0 0 0 0 0 0 q 0 0 q q q q q q q q q q q 0 q q q q q q q 9 9 9 9 9 9 9 9 9 w u w a u a a a a u u u a a a u w 9 u 9 u u w w 9 w w u u u u w w w 9 9 w u u u w t w t a a a a a a w a w w a a a a a a a g g g a a a a a a a a a a a t a a a a a a t t a a a t t t w w t w a w w w ",
"@.+.@.@.@.@.@.#.@.@.@.O.O.O.@.O.O.O.O.O.O.O.O.O.O.O.O.O.O.O.O.O.O.O.O.O.O.O.O.O.O.O.O.O.O.O.O. .O. . ....... . . ... . . . . . .O.O.O.O.O.@.O.O.O. . . . . . . . . ..... . . .| | | | | R R I I R R I I I I I I I I I R | | | | | | | | R R | | | | | | | R R | | | | |  . ..... .E E E ............ ...| | R | R R R R R R R | R I I I R R R ..| R R .............. ... . . .....| | | | | | | R R R R R R R I I I I I I I P P K K K K P P K K P P P P P P P P K P P P P P P P K P P P P P P P P K K z z z K K x x x x x x x x z z z z z z z x z x z x x l x l z z x x x z z z z x x x K K P K P P P K K P K P P I R R R R R R R R R R E E R E E E E E E E E E E E E E E E E E E E E E E E R R R R R R R R R R R R R R R I I I I I P P K K K K x z z z l l l h z l l h h c h c h h h h h h h h h f f h h h h h h f f h h h f f f f h h h h l f f d d d d d d d f d d d d d d a d d a d d d d f f f f d f d d a i i i i i y y y i y y y y y y y y y y y y y y y y y y y y y y y u y y y y y y y y y y y y y y y y i i i i i i i y y y y y y y y y y y y y y y y 9 y y 9 9 9 9 9 q q q q q q 0 0 0 0 0 0 0 0 0 0 0 0 0 0 0 0 0 q 0 0 q q q q q q q q q q 0 0 0 q q q q 9 9 9 9 9 9 9 9 9 9 w u i w a a a a a a u a u a a a u w 9 9 9 9 u w w w u w u u u u u w 9 e 9 u a a a a a t a a s a a a a a a w t t a a s s g g s g g a t t a a t a a a a a a a a a a a g a a a a a a t t w w e w a w w w ",
"@.@.#.#.@.@.@.@.+.+.@.+.O.O.O.@.@.@.O.O.O.$.O.O.O.@.@.O.O.O.O.O.O.O.O.O.O.O.@.O.O.$.O.O.O.O. . . . . . . ... . . . . . . . . . . . . . .O.O.O.O.O. . . . . . .O.O. .E .. . . .R | | | | R R R R | R I I } I I I I I I } R | | | | R R R | | | R | | | | | | | | | |  . . . . . . . .O.O.O. . . . . . . .....R ..R R R | R R R R R R R R R R | .. ....... . . . . . . . . . ...........| R R | | R R R R R R R R R R I I I I I P P P P P P P P K P P P P P P P P I I I P P P I P P P P P P P P P P K K K K P P P P P K x x K x x z x x z z z z z x z z z z x z x x x x z z z z z x K K P P K P I I I P P P P P I R R R R R R E E E E E E E W W E E  .E E E E E E E  .O.O.E E E O. . .E E E E E E W W R R R R R R R R R Y Y R R L I I I K K K K K z z z j z z z h z z x l l l l c c c c h h h h h h h l h h c h c c h h c h h h c f h h h f h h f d f d d f f d d f f d d i i i i d d d d d d d d d f f d d d d i u i i y y y y y y y y y y y y y y y y y y y y y y y y y y y y y y y y y y y y y y y y u i i i u y y i i i i u u i i y y y y y y y y y y y y y y y y 9 9 9 9 9 9 q q q q q q 0 0 0 0 q q 0 0 0 0 0 0 0 0 0 0 0 0 q q q 0 q q q q q 0 0 q q q q 9 9 9 9 9 9 9 9 9 9 9 9 u u u a a a d a u a a a u a u i u u 9 u u u u w 9 9 w u u a w w w e e w w w w u a a a a a t a s s s s g a s s a t t t s s s g g s g s s a a a g a s a g a a a a a a t t a t t a a t t a a a w w a a w w w ",
"@.@.@.@.@.@.@.@.+.@.@.@.O.O.O.O.#.@.O.O.O.O.O.O.O.@.@.O.O.@.#.#.O.O.O.@.@.@.@.@.O.$.O.@.@.O. . . . . . ..... . . . . . . . . . . . . . .O.O.O.O.O.O. . . . . .O.O. ..... . . . .R R R R R | | | | R R R I I } I I I } } | | | | | | | | | |  .| .. .......| ............ . . . .O.O.O.O.O.O.O.O. . . . . .........| | | R R | | | R R R | | .. . ... . . . . . .O.O.O.O. . . . . . .........| | | | | | R R R R R R R I I I I I I P P P P P P P P P P I P P U U P P P P P P I I P I P P I I P P P K K K K P P K P P K K x x x x z x x z z z z z z z z z z x x x x x z x z z z z K K P P K K P I I I P I I I I R I R R R R E E E E E E E E E E E  . .O.O.O.^ E E E  .O.^ E E E ^  . .E E E E E E W W W W E E E E E E R R R R R R I I I P U K K K z z z z z z z l l l l l x z z z l h h h h h h h l l l h h f h l h h h h h h h h h h h f h h h f f f d d f f f f f f d d d i i i d d d d d d d d d d d d d d d i i i u y y y y y y y y y y y y y y y y y y y y y y y y y y y y y y y y y y y y y y y y u y y y i y y y y i i u u i i y y y y y y y y y y y y y y y y 9 9 9 9 9 9 q q q q q q q 0 0 0 q q 0 0 0 0 0 0 0 0 0 0 0 0 q 0 0 0 q q q q q 0 0 q 9 9 9 9 9 9 9 9 9 9 y 9 u u u u u i a a u a a u u u u u u u u u u u u u u u u 9 w w u u w 9 w w w w u u a a a a a a a a a s s s g s s a s a a a s a a s a a s s g g g s g g g g s a a a a g g g a a a a t t a a t t a t a a w w w w e e ",
"#.#.@.@.@.@.@.#.@.@.@.@.@.O.O.O.#.O.O.O.@.@.@.O.+.@.+.O.O.O.+.+.O.O.O.O.O.O.O.O.O.O.O.O.O.O.O.O. . . . . ... . . . . . . . . . . . . . . . . . .O.O.O.O. . . .O.O. . ...........| R | | R R R R | | | | } } } } I } | | | | | | | | R | |  . . . . . . . ... . . . . .O. .O.O.O.@.O.O.O.O.O.O.O.O.O.O.O. . . . . ......... . . . ........... . . . .O.O.O.O.O.O.O.O.O.O.O. . . . . . ............... . .E E E R R R R R R } I I I P U U P P P P I U K U I I I U P I I I I I I I I I P P I I P P P K K K K P P K K P K K x x x x K K K K z z z x x x x x z z z z x x z z z z x x P K K P K U P I I I I I I I I R R R R E E E E E E  . . .O.E E O.O.O.@.@.@.O.O.O.O.O.O.O.O.O.O.O.O.^ O.O.E E E E ^ E E E E E E E E E E R R R R R R R I P U K K P K K K z z x z j j j x x x x x z z z x z l l h h l h l c c f h l z z z l h h h h h h h f f f f f f f f f f f f f f d d d d d d d d d d d d d d d d d d d i i i i i u y y y y y y y y y y y y y y y y y y y y y y y y y y y y y y y y y y y y y u y y y y y y u i i i i i i u i i y y y y y y y y y y y y y y y y 9 9 9 9 9 9 9 9 q q q q q q q q 0 q q 0 0 0 q q 0 0 q q q q q q q q q q 0 0 q 0 0 0 0 9 9 9 9 9 9 9 9 9 9 y y y u u u u u i a a u a u u u 9 9 9 u u u u u u u u 9 u w w 9 u u u w 9 a a a a a a g a a a a a s s s s s s s s s a a s s s s s s g s s s s g g g s s s s s s g g g a s g g s s a a s s s s a a a a a a w w w w e e ",
"#.#.#.#.#.#.#.#.@.@.@.@.@.@.@.+.#.@.O.@.@.@.@.@.@.@.O.O.O.O.O.O.O.O.O.O.O.O.O.O.O.O.O.O.O.O.O. . . . . . . . . . . . . . . . . . . . . . . . . . .O. .O. .O. . .O. . ....... .....| | | } R R R | | | | | } } | | | | | | | | | | | R | | .. . . . . . . . . . .O.O.O.O.O.O.@.O.O.O.O.O.O.O.O.O.O.O.O. .O.O.O. . . . ... ... . . . . . . . . .O.O.O.O.O.O.O.O.O.O.O.O.O.O. .O. . . . ... .....E  . . . . . .E  .R R R | R | R I I I I I I I I I I I U I I I I I I I I I I I I I I I I I I I P P I P P P K P P P K P K K x x x K P P K K K K K K P z x x x x z z x z z z z x x x K P K K U U I R R R R R R R R R R R E E E E O.O.O.O.O.O.O.O.O.O.O.@.@.@.@.O.@.@.@.@.@.@.O.O.O.O.O.O.O.O.O.O.O.O.^ ^ ^ ^ ^ ^ O.O.E E E E R R R R R R R I L U P K K P K K x z z x z z z z x x x x z z z z z z z z l l z h z l z z z z z z j h j h h h h h h h f f f f f f f f f f d d d d d d d d d d d d d d d d d d d d i i y i y y y y y y y y y y y y y y y y y y y y y y y y y y y y y y y y y y y y y y y u y y y y y y y i i i i i i i i i y y y y y y y y y y y y y y y y 9 9 9 9 9 9 9 9 9 9 q q q q q q q 0 q 0 0 0 q q q q q q q q q q q q q q q 9 q q 0 0 0 q 9 9 9 9 9 y y 9 y y y y y y u u u u a a u a u u u 9 u 9 9 9 u u u u u 9 9 u w w 9 u u u w w a a a a g a a a a a a a s s s s k s s s s s t s s s s s s g g s s s g s s g s s t s s s s g a s g g g s a a s s g g a a g a a u w w w w w w ",
"#.#.#.*.#.#.@.@.@.@.@.#.@.#.@.@.@.@.@.@.@.+.@.@.@.+.O.O.O.@.@.@.O.@.O.@.O.O.O.O.@.O.O.O.O. . . . . . . . . . . ....... . . . . . . . . . . . .O. .O.O.O.O.O. . . . . ... .......| R R R R R R | | | | | | | | | | | | | | | | | | ...... . ....... . . .O.O.O.O.O.O.O.@.@.O.O.O.O.O.O.O.+.O.O.O.O.O.O.O.O.O.O.O.O. .O. .O. .O.O.O.O.O.O.O.O.O.O.@.O.O.O.O.O.O.O.O.O.O.O.O.O.O.O.O.O. . . . ... . . . . . . . . .E ..R | | R R R I I I I I I I I I I I I I I I I I I I I I I I U I I I I I I I I I U P P K P P P P P P P K K K K P P P P P K K P P K K x x x x x z z x x x x K K P P P P I I R R R R R R E E R R E E E ^ O.O.O.O.O.O.@.O.O.O.O.O.+.+.#.#.+.+.@.+.@.@.O.O.O.O.O.O.O.O.O.O.O.O.O.O.O.O.O.O.O.O.O.O. . . . .E R R R R R R I L U U K K P P K K K z z x z z z z x x z z z z x z j z z z z z z z z x z K x z z z j j j z z h h h h c f f f f f f f f f d f f f f d d d d f d d d d d d d i i d i i i i y y y y y y y y y y i y y y y y y y y y y y y y y y y y y y y y y y y y y y y u u u u u y y y i i i u i i u i i i y y y y y y y 9 y y y y y y y 9 9 9 9 9 9 9 9 9 9 0 9 9 9 q q 0 0 q 0 q q q 0 q q q q q q q q q 9 9 9 9 9 9 9 9 9 9 9 y 9 9 9 y y y y y 9 9 9 y y u u u u w u u a u u u 9 9 9 9 u u u u u 9 9 w u u u w w w w w t a a a a g g a s s s s s g s k k s s h h k s s s s s s s s g s s s s s s s s s s s s s s s g s s s s s a a s s s s s a a a a w w w w w w w w ",
"#.#.#.*.#.#.#.@.@.@.@.#.#.#.#.#.@.@.#.#.@.+.O.@.@.+.O.@.@.O.@.@.O.@.@.O.O.O.$.O.O.O.O.O. . . . . . . . . . . . ..... . . . . . . ..... . . . .O.O.O.O.O.O.O. . . . . . . . . ...| R R | | R | | R R R | | | | | | | | | | R | | ........ . ... ... . . .O.O.O.O.O.O.O.O.O.O.O.+.+.+.#.#.@.@.O.O.O.O.O.O.@.@.O.O.O.O.O.O.O.O.O.O.O.O.O.O.O.O.O.@.@.@.O.O.@.@.O.O.O.O.O.O.O.O.O.O.O.O.O.O. . . . .O. . . . . . .O. . . . . .| | R R I I I R I I I I I I I I I I I I I I I I R I I I I I I I I I I I U P P K P P P P P P P K K K K P P P P P P P P P P P K P x x x x x x x P K P P I P I R R R R E R E E E E  . .E E E ^ O.O.O.O.O.+.@.@.@.@.#.+.#.+.+.%.#.+.+.+.+.+.+.+.O.$.@.+.+.$.O.@.@.+.+.+.+.O.O.O.O.O.O.O.O.E  . . .E R R R R R R R I U U U P P P P P K K K K K x x x x x x P x z z z z z z z z z x z z K K P K z z z z j j z z z h h h h c h f f f f f f l f f l h f f f d d f d d d d d g d i i i i i i i y y y y y y y y y y y y y y y y y y y y y y y y y y y y y y y y y y y y y y u u u u u u u u i i i i u u i y u i y y y y y y y y 9 9 y 9 9 y y 9 9 9 9 9 9 9 9 9 9 9 9 9 9 9 9 9 0 0 q q q q q 0 q q q q q q q 9 9 9 9 w w w w w u u u u y y y y y y y y y 9 9 y y y u u 9 9 w w u a u u u u 9 9 w u u u u u u u u u u u w w u u w a a a a g s s s s s s s s s s k k k k k h s s s s s s s s g g s s s s k k s s k s s s s s s s g g s s s s a a s s s a t a a a u w w w w w w w ",
"#.#.*.*.#.#.@.#.#.#.#.#.#.#.#.#.#.#.#.#.@.+.+.@.@.@.@.@.@.O.O.O.O.@.@.@.O.$.O.O.O.O.O.O. . . . .O. . . . . . . ..... . . . . . . ..... . . . . .O.O.O.O.O.O. . . . ..... . . . . .| | | | R R | | R | |  .| | | R R | | |  . . . ............... . .O.O.@.@.O.O.O.O.O.@.O.+.+.#.#.#.#.#.@.@.O.O.O.O.O.O.+.@.@.@.O.O.O.O.O.O.@.O.O.O.O.O.O.O.O.+.@.@.@.@.@.@.O.O.O.O.O.O.O.O.O.O.O.O.O.O.O.O.O.O.O.O.O.O.O. .O.O. . . . . .| | | R R I I R I I I I I I I I I R R I R I R | | | R I R I I I I I I I U U P K P P P P P P P K K K P P U P P P P P I I P P P P P K K x x x K K P P I I I R R R E  . .E  .E  . .O.O.O.O.O.O.O.O.O.$.@.+.#.#.#.#.*.%.%.+.+.*.*.*.#.+.+.+.+.+.+.+.+.+.+.#.@.#.@.+.+.+.+.O.O.O.O.O.^ E E E E E E R R R R R R R R I L P I I I I P P P P K P K K K K K K z P K z z z z z z P x K x z K K K P K K K K K K z z z z z h l c c h h h h h h l l h h l l h f f f f f f f d d d g d d i i i i y y y y i i i y y i y y y y y y y y y y y y y y y y y 9 y y y y y y y y i i y y y u u u u i i i i i i i i i i u u i y y y y y y y y 9 y y y y y 9 9 9 9 9 9 9 9 9 9 9 9 9 9 9 9 9 9 9 9 9 0 9 9 q 0 9 9 9 9 9 9 9 9 w w u u i u u u u u u u u y y y y y y y y y y y u u u u 9 9 w w u a a a a u u u w u u u u u u u u u i i a a a a a a a g g s h s s s k s k s k k k k k k k k k s s s s s s s s s s s s k k k k k k s s s s s g g g g s a a a a a s s s s t a a a a w w w w w w w ",
"*.*.*.*.#.#.#.#.#.#.#.#.#.#.#.#.#.@.@.@.@.+.+.+.@.+.@.#.#.@.+.+.@.@.@.@.O.$.O.O.O.O.O.O. . . . .O.O. . . . . . ..... . . . . . . . ... . . . . . . .O. . . . . . . ..... . . . . .| | | | R |  ...|  . . .| | ..| |  . . . . . . . . ..... ... . . .O.O.@.O.O.O.+.+.+.+.+.+.#.#.#.#.#.#.@.@.O.O.O.O.+.#.@.#.#.#.+.@.+.O.O.O.#.#.@.@.@.O.O.$.$.O.O.O.@.@.@.O.O.O.O.O.@.@.@.@.@.@.@.O.O.O.O.O.O.O.O.O.O.O.O.O.O.O. . . .E E  .R | | R R R R | | | R | | R R R R R R R R R | | R R R R R I R I I I I I I I P P P P P P P P P P P P I I I I I K P I I I P U P P P P P K P K P K P P I R R E E  . .O.O.O.O.O.O.@.@.O.@.@.@.+.+.$.$.+.+.#.*.*.*.*.%.%.*.+.*.*.*.*.%.%.+.+.+.+.+.+.#.#.+.+.$.$.$.$.$.$.O.^ ^ ^ E E E E E E R R R R R R R R R R I I I I I I I I P P P P P K K K K K K K K z z z z z z P x x P x P K P K P K K K P P K K z z z z z l l l l l l l l l l l h h l l l l l h h l f f f d d d d d i i i i y y y y i i i y y y y y y y y y y y y y y y y y y y y y y y y y y y y y i i y y u u i i u i i i i i i i i u i i i i u y y y y y y y y u u u y y 9 9 9 9 9 9 9 9 9 9 9 9 9 9 y y 9 9 9 9 9 9 0 9 9 9 9 9 9 y y y y y u u i i i d a a i u u u u y w y y y y y y y y u u u u u u u u u a a a a a u u u u u u u u u u u u a a a a a d g a a g g s f h s s k k k k k k s k k k k k k k s s s s s s h s g s s k k k k k k k s k s k s s s s g a a a a a a s s s s a a a w w w e e w w w w ",
"#.*.*.*.*.#.*.*.*.*.*.#.#.#.#.#.#.#.#.#.#.@.+.+.#.#.#.#.@.@.@.#.#.@.O.O.O.O.O.O.O.O.O.O.O.O.O.O.O.O.O.O.O.O. . . ... . ..... . . . ..... . . . ... . . . . . . ... ....... . .| | |  . . .|  . . . . . . . . . . . . . . . . . . . . . . . . . . . .O.O.O.@.@.O.+.+.#.#.+.#.#.#.#.#.#.#.@.@.+.+.+.+.@.@.#.#.#.#.#.#.+.+.+.@.#.#.@.O.O.O.O.O.O.O.O.@.+.O.+.@.+.O.O.O.+.@.@.@.O.+.+.+.+.O.O.$.O.O.O.O.O.O.O.O.O.O. . . . . ...R R  . . .....R R R R R R R R R R R R R R R R R R R R R R I R R I I I I I I I I P P I P P P P I P P I I I P P K U I I I I K K K K U K P P K K U I I R R .. . . .O.O.O.O.O.O.O.O.@.+.@.#.#.+.+.+.+.+.%.%.*.*.*.*.*.*.+.+.+.+.%.%.+.+.$.$.+.+.+.#.+.+.@.$.O.O.+.+.O.O.^ ^ ^ ^ E E W E E R R R R R R R R R R R R R R I I I I I P P P P P K K P P K K P P P K K K z K K K P K P P P P P P K K K P P P P K K z z z z z z z z z z z z l l h z z z z l l l h h h f d d d d d i i i i i i i y y y y y y y y y y y y y y y y y y i y y y y y y y y y y y y i u i i i i i i d i a u i i i i i i i d i i i i i i y y y u i u y u u u u u u u u u u u u 9 9 9 9 9 u u u u u y y w w u w w u u u y y u u u u u y u i i i i i i i u i i u u i u u u y 9 9 u u y u u u u u u u a a a a a a u u u 9 9 9 9 w u u w u w a a a a a a s s s s s s s k h h k k k k k k s s k k k k k k s k k k s k k s s s k s s k s s h s s k k k k s s g g t a t a a a g a a a a a a t w w w w t w w w ",
"*.*.*.*.*.*.*.*.*.*.*.*.*.*.*.*.*.#.#.#.#.@.+.+.#.#.@.@.@.@.@.@.#.@.O.O.O.O.O.O.O.O.O.O.O.O.O.@.O.O.O.O.O.O.O.O. . . . ..... . . . ..... . . . ... . . . . . . . . ..... . . . .|  . . . . . . . . . . . .| |  . . . . . . . . . . . . . . . . . . .O.O.O.@.@.+.$.+.#.+.#.#.#.#.#.#.#.#.#.@.@.+.@.@.#.#.#.#.#.#.#.#.+.+.#.#.#.#.@.O.O.O.O.O.O.O.O.O.+.+.+.@.@.O.O.O.+.+.@.@.O.O.O.+.@.O.O.O.$.$.O.O.O.O.O.O.@.@.O. . . . ....... . . . .....| | | R R R R R R R R R | ..R R  .R R R R R I R R I I I I I I I I I P P P P P P P P I P I P P U I I I I I I I I U U I I I U I I I R R E  . .O.O.O.@.O.O.$.$.@.#.#.#.#.#.#.#.+.+.+.+.*.*.*.*.*.*.*.*.*.*.*.*.%.%.+.+.+.+.+.+.+.+.+.+.$.$.O.O.O.O.O.O.O.^ ^ ^ E E E E E R R R R R R R R R R R R R R R I I I P P P P P P P P P P P P P P P K K K K K K P P K K P P P P P P K P P P P P P P K z z z z z z z z z z z z z z z z z z z l l h h h f d d d d d i i i i i i i y y y y y y y y y y y y y y y y y y i y y y y y y y y y y y i i i i i i i i i i a a i a a i i i i d d i i i i i i i y y u i u u u u u u u u u u a a a d a a a u a a a i i i i i i a i i i a i i i i i i i i i i u i i i i i u u u u u u u u u u u u 9 9 u y y u u u u u w u a u a a a a a u u u u w w a a a a a a g g g a g g s s s s k k k k h k k k s k k k s s s k k k k k s k k k k k k s s s s s s k s s h s k k k k s s g s g a a t a a a a g g a t a a t t t t t t s s s ",
"*.*.*.*.*.*.*.*.*.*.*.*.*.*.*.*.*.*.*.#.#.@.@.@.@.+.+.+.@.@.@.@.@.@.@.O.O.O.O.O.O.O.O.O.@.O.O.@.O.O.O.O.O.O.O.O. . . ... . . . ... ..... . . . ... . . . . . . . ..... . . . . ... . . . . . . . ... . . . . . ... . . . . . . .O.O.O....... . .O.O.O.O.O.@.@.@.#.+.#.#.#.*.*.*.#.#.#.#.#.#.@.@.#.#.#.#.#.#.#.*.*.#.#.#.#.#.#.@.#.@.+.O.O.O.O.O.O.O.+.@.@.#.@.@.+.+.+.+.@.O.+.O.O.@.@.@.+.O.O.O.O.+.O.O.O.O.O.O.O.O.O.O. ..... . . . . . . ...........E E E E R E R .. .E E E R R R R R R R R I I I I I I I I I P P K K P P I I I I I I I I I I I I I I I I I I I I I I I I R R .. . .O.O.O.O.+.+.+.+.+.#.#.*.#.*.*.*.*.*.*.*.*.*.*.*.*.*.*.*.*.*.*.#.#.+.+.+.+.+.#.+.$.+.+.+.+.O.O.O.O.O.O.^ ^ O.O.O.^ O.E E E E R R R R R R R R R R R R R R R I I I I I P I I P P I I P P P P P P K K K K K K P P K P P P P P K P K P P P P P P K z x x x x x j z z z z z z z z z z z z z l l h l l f d d d d i i i i i y y i y y y y y y y y y y y y y y y y i y y i i y y y y y y y y y i i i i i i i i i i i u a a a i a d d d d d a a a a i i i u u i u i i i u u u u u a a g d f f d d s s g g a d d d d d d a d d a i i i i u y y y y y u i u u u u u u 9 u u 9 u u u u i u u u u u u i u u u u u u a a a a a a a a u u u u u a a g s g g f s s s s s s s s k k k k k h k k k k s k k k s s k h h h k k k k h h k s s s s s s k s s k k s s s s s s s s s s s a w w a w t a a t a a a a a s s s s h h h ",
"*.*.*.*.*.*.*.*.*.*.*.*.*.*.*.*.*.*.#.#.#.#.#.#.#.#.@.@.@.@.@.@.#.@.#.@.O.O.O.O.O.O.O.O.O.O.O.O.O.O.O.O.O.O.O.O.O.O. . . . . . ... . ... . . . . ..... . . . . . ..... . ... . . . . . . . . . . ... . . . . . ... . . . . .O. .O.O.O. ..... . .O.O.O.O.O.#.#.#.*.*.*.*.*.*.*.*.#.#.#.#.#.#.@.@.#.#.#.#.#.#.*.*.*.*.#.#.#.#.@.+.#.@.+.O.@.@.@.@.O.O.@.#.#.#.@.@.+.+.+.+.@.@.O.@.@.@.@.@.+.O.O.O.+.+.+.+.O.O.O.O.O.O.O.O.O. . . . . . . . . . . . . . . . ...E E  ... . .E R R R R R R | | | R R I I I I I I I I P P P P P I I I I I I I I I I I R R R R R R R I R R R R R R R R  .O.O.O.O.$.+.+.+.+.+.#.*.*.*.%.*.*.*.*.*.*.*.*.*.*.*.*.*.*.*.*.*.#.#.+.+.+.+.$.+.+.$.$.$.+.+.O.O.O.O.O.O.O.O.O.O.^ O. . . .E ..R R R R R R R I R R R R R R R R R I I I I I I I P P P I P P P P P P P P K K K K P P P P L P P P P P K P P P P K P K z x x x x x j z z z z j z z z z l l z l l c h l f f d d d d i i i i y y y y y y y y y y y y y y y y y y y y i i i i u u u u y y y y y y i i i i i i i i i d u u a a a a a a a d d d g d d d d d a a a a a a d d d a a u a g g s d f f f f f f s g g g d d d d d a d a u u u i u y y 9 9 y y 9 u u u u u u u 9 u u u u u u u i u u u i u u i i i u u u u a a g a a a a a a a a a a a g g g s s f f f s s k s s s k k k k k k h k k k s k k k h k h h k h s s s k j h k k s h f s k k s s s s s s s s s g s f g g s a a w w w w a a t a g g s s h h h h h j j ",
"*.*.*.*.*.*.*.*.*.*.*.*.*.*.*.*.*.*.*.#.#.#.#.*.#.#.#.#.@.+.+.@.#.#.@.@.@.O.O.O.O.O.O.O.O.O.O.@.O.O.O.O.O.O.O.@.@.O. . . . . . ... . . . . . . . . ... . . . . . . ... . ..... ............... . . . . . . . . . . . . . .O.O.O.O.O. . . . . . . .O.O.O.@.#.*.*.*.*.*.*.*.*.*.*.#.#.#.#.#.#.#.#.#.#.#.#.#.#.#.#.#.#.#.#.@.@.@.#.@.@.+.O.O.@.@.@.O.O.@.#.#.#.#.#.#.@.@.+.O.O.O.@.@.@.@.@.@.+.O.O.$.O.+.+.+.+.O.$.O.O.O.O.O.O.O.O. . . . . . . . . . ........... . ... . .E ......R R R R R R R R R I I R R I I I I P P P P I I I U U I I I I I I R R R R R R R R R R | | | |  .E  .O.O.O.+.+.+.*.*.*.*.*.%.*.*.%.%.%.*.*.*.*.*.*.*.*.*.*.*.*.+.#.#.+.+.#.+.+.+.+.$.O.O.$.O.O.O.O.O.O.O.O.O.O.O.O.O. . . .E E E R R R R R I I I I I I I R I I I I I I I L L L P P P P P I P P P L L I L P P P P P K P K K K K P K P P P P P P P K P K K x x x z z z z z z x z z l l l l l l l f f l l f f d d d i i i i i i y y y y y y y y y y y y y y i y y y i i i u u i i i i y y y y y y i i i i i i i i d d g a a g g d d d d d d d d d d d d g a a g g g g d d d d g g g g f f f f h h h h h h f s g g g g d a a a a u u i u y y y y y y y 9 u u y u y u u u u u i i i i u i u u u u u u i a i i u u u a a g g a a g g g a a a a g s f s s s h h h k s k h h h k h h h h h h k k k h h k k j k k k k h k k k j j k k k h h h s h h s s s s s s s s s s s g s a a a g w w a w g a t s s s s k s k j k j k k ",
"*.*.*.*.*.*.*.*.*.*.*.*.*.*.*.*.*.*.*.#.#.#.#.#.#.#.#.#.@.+.#.#.#.#.#.@.@.@.+.O.O.@.O.@.@.O.O.O.O.O.O.O.O.@.O.@.@.O.O. . . . . . . . . . . . . . . . . . . . . . . . . . . ... ............... . . . . . . . . . . .O. . . .O. .O.O. . . . . ..... .O.O.+.@.#.#.*.*.*.*.*.*.*.*.#.#.#.#.#.#.#.#.#.#.#.#.*.*.#.#.#.#.#.@.+.+.@.@.@.O.O.O.O.O.O.O.O.@.@.@.@.+.@.#.#.@.O.O.O.O.O.O.O.O.+.+.@.@.O.@.O.O.+.+.@.+.O.$.#.O.O.O.O.@.O.O.O.O.O.O. . . . . ......... ... . ... . .E ....E R R R R R R R R R R R R R I I I P I I I I I I I I I I I I R R R R R R R R R R R R | | .. ... . .O.O.O.#.#.*.*.*.*.*.*.*.%.*.*.%.*.*.*.*.*.*.*.*.*.*.*.*.*.#.+.+.#.@.+.+.+.+.+.O.O.O.O.O.O.O.O.O.O.O.O.O.O.O.O.O.E  .E E E E R R R R R R I I I I I I I R I I I I I I I L L L I I I I I I P P P L L L I P P P P P P P K K K K P P P P P P P P K K K K K x x x z z z z j z z z l l l l h f l f f f f d f d d d i i i i i i i i y y y y y y y y y y y y y y y y y i i i u u i i i i u u u y i i i i y i i i i d d d d g g g d d d f g g g d f f f f f g g g g g d d f f f d d d d g d d f f f f f f f f f s g g g a a a a a i u u i y y y y y y y y 9 u u y y y y u u u u i i i i u a a a i i u u i i u u u u u a g g g a a g a g g a a g s h h h h s h h h k h h h h h h h h h h h k k k h h h k k k k k k j k k k j j j j j k k h k k j h k s k k s s s s s s s g a t t a g w w u a a a a s s s s s k k k j j k k ",
"*.*.:.*.*.*.*.*.*.*.*.*.*.*.*.*.*.*.*.*.*.*.*.*.#.#.#.#.#.#.#.#.#.#.#.#.#.@.@.@.@.@.@.@.@.$.$.$.$.$.O.O.O.O.@.O.O.O.O.O. . . . . .O.O.O. . . . . . . . . . . . . . . . . . . . ....... . . . . .O.O.O.O.O.O.O.O.O.O.O.O.O.O..... . . . ....... . . .O.O.O.+.#.#.#.#.#.#.#.#.#.*.#.#.#.#.#.#.#.#.#.#.#.*.#.*.#.#.#.#.#.@.@.@.@.@.O.O.O.O.O.O.O.O.@.O.@.@.O.O.O.@.#.@.@.O.O.O.O.O.O.O.O.O.@.@.@.@.@.@.@.O.+.+.+.O.+.O.O.O.@.@.@.@.@.O.O.O.O.O. . . ..... ... . . . . . ...R R R R R E R E  .R R R R R R R R I I I I I I I I I I I I I I R R R R R R R R | R | E | R R | .... . .O.O.O.+.#.*.*.*.*.*.*.*.*.%.%.*.*.*.%.%.%.*.*.*.*.*.#.#.+.+.+.+.+.+.+.+.+.+.+.O.O.O.O.O.O.O.@.O.O.O.@.O.O.O.O.O...E  .E E E E R R R R R R I I I I I L I I I I I I I I I I I I I I I L L L P P P I I I I P P K P P P P K P K K P P P P P P P P K x K z z z z x z z z j j h l l l l l l f f f d d d d d d d d u i i i i i i y y y y y y y y y y y y y y y y y y i i i i i i i i i i u u i i i y i i u i i i d d d d d f g f d d d f g g d f h h h h h f f f f h h f f f d d d d d d g g g g d d d g g g g g g g g a a a a u u u u u u y y y y y y y y u y 9 y y 9 y u u u i i u u i a a a a a i i i u 9 u u u a g d s g g g g g g g s s h s h h j h h h k h h h h h h h h k h s h k k k k h k k k k k k k k j j j H K K K K H H j j j k k k k k k h s s s s f s g g a a a a t a a a s g a s s s s s s k j j j j j H ",
"*.:.:.:.*.*.*.*.*.*.*.*.*.*.*.*.*.*.*.*.*.*.*.*.*.*.*.#.#.#.#.#.#.#.#.#.#.#.@.#.@.@.@.@.@.@.$.@.@.@.@.@.@.@.@.@.O.O.O.O.O. . . .O.O.O.O. .O. . . . . . . . . . . .O.O. . . . . . . . . . . . . .O.O.O.O.O.O.O.O.O.O.O.O.O....... . . . ......... .O.O.O.O.O.O.+.#.@.#.#.#.#.#.#.#.#.#.#.#.#.#.#.#.#.#.#.#.#.#.@.#.@.+.+.#.#.#.@.O.O.+.+.@.@.@.@.@.O.O.O.O.O.O.O.@.@.O.O.O.O.O.O.O.O.O.O.O.O.O.@.O.@.@.O.O.O.+.+.O.+.O.O.@.@.@.@.@.@.O. . . . . . ... . ... . . .E E  . .E R E R R R R E  . .R  .R R R R R R R I I I I I I I I I I I R R R R R R R R E E E R R R E E E E E E O.O.O.+.#.*.*.*.*.%.*.*.*.#.*.*.%.*.*.+.+.+.+.*.*.+.+.+.+.+.$.$.+.+.+.+.O.+.O.O.O.O.O.O.O.O.O.O.O.O.O.@.O.O.O.O...E  .O. .E E E R R R R R R I I I I I P I I I I I R I I I I I U I I I L P P P P P L I I I P K K K P K P P P P K P K P P P P P K K z z z z z x z x z l h h h l l l l l f d f f f d d d i i i u i i u y y y y y y y y y y y y y y y y y y y i y y i i i i i i u i i u i i i i y i i i i u u a d d d g f f f f f f f f h f h h h h h h h h h h h h h h h h f d d d d d d d a a g d g g g g g a g d a a d a a u u u u u u u u y y y y y y u u y y y y u u u u u u u u u u a a u a a i u i u u i a a d d d s g g g g s f h h h h h j j k k j k k k h h k h k k h k s s s k h h h k k k j j H H H H H H K K L H L H H H H H H j j j k k j h k s h h s s s s s s t t a s s h g s k k s h k k j j j j j j H ",
":.:.:.*.*.*.*.:.*.*.=.=.=.=.=.*.*.*.*.*.*.*.*.*.*.*.*.*.*.*.*.*.*.*.*.*.#.#.#.@.@.@.@.@.@.@.@.@.$.$.@.@.@.@.@.@.O.O.O.O.O.O.O.O.O.@.@.O.O.O. . . . . . . . . . . .O.O. . . . . . . . . . . .O.O.O.O.O.O.O.O.O.O.O.O.@.O.O.O.O... . . . . ... . . . .O.O.O.O.O.O.+.+.@.@.@.@.#.#.#.@.#.#.#.$.+.#.#.#.$.$.@.@.@.+.@.@.+.@.#.#.@.@.@.@.@.O.O.O.O.O.O.O.O.O.O.O.O.O.@.@.O.O.O. . . ...O...O.O.O.O.O.O.O.@.@.O.O.O.@.O.O.O.@.@.@.O.@.O.O. . . . . . . . ..... ... . . .E ..E | | R R R R R R R R R R R R R R R R I I I I I I I I I I R R R R R R R W R E E E  .E E E E E E E  .^ O.O.+.#.#.*.*.*.*.*.*.*.*.#.*.*.*.#.*.#.+.+.+.+.+.+.+.+.+.+.+.+.+.+.+.+.O.O.O.O.@.O.O.O.O.O.O.O.O.O.O.O.O.O.O.E E E O.O. . .E ..R R R R R I I I I I I I I I I I I R I I I I I I I I R I L P U U U P U U L U K U U P P P L P K K P L K P P P P P K z x z z x x z z l l l l h h l f f f f d f f d d d d i i u i y y y y y u y y u u y y y y y y i y y y y i i i i i i i i i i i i i i i i i i i i i i i i a g d f d f f f f h h h h h h h h h h h h h h h h h h h h h h f f d d g g g g a g d d g g g d d g g g a a a a d a u u u i i y y u u u 9 9 y u y y u u u u u i u i u u u u i u a u u a a u i u i a u a g d g g s f s s f h h h h j k h j j j k k k k k k h k k k j k k h h j h h k k j j H K K K H K L K L L L U L L L L L L H H H H j j j k k k k k s s s s s s s k s s k k h h h h j j j j k j K K j k k j ",
":.:.:.*.*.*.:.:.:.:.:.:.=.=.=.=.*.*.*.*.*.*.*.*.*.*.*.*.*.*.*.*.*.*.*.*.*.#.#.#.#.@.#.@.@.@.@.@.@.@.@.@.@.@.@.@.@.O.O.O.O.O.@.@.@.@.@.@.O.O.O.O.O. . . . . . . . .O.O. . . . . . . . . . . .O.O.O.O.O.O.O.O.O.O.O.@.@.O.O.O..... ..... . ... . . . . .O.O.O.O.O.O.O.+.@.@.+.@.#.#.@.#.#.#.#.#.#.#.@.@.@.@.@.@.@.@.@.+.@.@.@.@.O.O.@.$.O.O.O.O.$.O.O.O.O.O.O.O.O.@.@.O.O.O.O. . .O.O. ... . . .O.O.O.O.O.O.O.O.O.O.O.O.O.O.O.O.O.O. . . . . . . .E ....R  ...| | | R E R | R R R R R R R R R R R R R R R R R I I I I I I I I R R R R R R R R E R E E E  . .E E E E E E E O.O.O.O.+.+.#.*.*.*.*.*.*.*.#.+.+.#.#.#.#.#.+.+.+.+.+.+.+.+.+.+.+.+.@.+.+.O.O.O.O.O.O.O.O.O.O.O.O.O.O.O.^ ^ ^ E E E E E E E E E E R R R R R I I I I I I I I I I I I I I I I I I R I I I I I I L P P I I U U P U U U U K K P P P K K P P K P P K K K z z z z l l l l l l h h h f f f f f f f d d d i i i i i i y y y y y y y u y y u u y y y y y y i i i y y i i i i i i i i i i i i i i i i i i d d a i a a a d d f h f h h h h h h f l k h j h h h h h h h h h h h h h h h f d d g d g g g g d d s g g d d g g d d d a a a a u u u u u u y u u u 9 y y u y y u u u u u u u u u u u u a u a a a a a u u u i a a g d d g g s f f h h h h h h j k k k k k k k k j j k k j j j j j j k j h k k k j j j H U H L L L L L L L L L L L Y L L L L L H H H H H H j H j k j k k k s k h k h j j j j j j j j j j j j j j K j j j j ",
"*.=.*.*.*.*.=.=.=.=.=.=.=.=.=.=.*.*.*.*.=.*.*.*.*.*.*.*.*.*.*.*.*.*.*.*.*.*.*.*.*.#.#.@.#.#.#.#.@.#.@.@.#.#.@.@.+.@.@.@.@.O.@.@.O.O.O.O.@.@.O.O.O.O. . . . . . . .O. . . . . ... . . . . . .O.O.O.O.O.O.$.$.O.O.O.O.O.O.O.O.O... . . . . . . . . . . .O.O.O.O.O.O.O.@.@.@.@.#.#.@.@.#.#.#.#.#.@.@.@.@.#.#.@.@.@.O.O.O.O.@.O.+.+.@.@.$.$.O.O.O.O.O.O.O.O.O.O.O.O.O.O.O.O. . . . . . . ... . . . .O.O.O.O. . . .O.E  .O. . . . . . . .E E E E ....R | R R R | R R R R R R R R R R R R R R R R R R R R R R R I I I I I I I I R R R R R R R R  . . .E E  . . .E E E E  . . .O.O.O.O.+.+.+.#.*.*.*.*.#.#.#.+.+.@.#.#.#.#.+.+.+.+.+.$.+.+.+.#.@.@.O.O.O.O.@.O.O.O.O.O.E E  . . . . . . . .E E  . . . .E ^ E E E R R R R R R I I I I I I I I I I I I I I I I R R I I I I I I L P L I I I P P P P P U K P P P P P P L L P P P K K K z z z z l l l l l h l l h f f f f f d d d d i i i i i i u y y y y y y y y y y u y y y y y y y y i i y y i i i i i i i i d d d d d d d d d d d d d d d d g f f h l h l z z z z j h j j j j j j j j z z h h h h h h f h h f g g g d d g g g d f d s g f s g g d d a u u a a u u u u u u u u u u u u u u u u i i u u u u u u u a a a a a a a a a a a u u u a a g g g g g s f f h h h h h h j j k k k k j j j j j j j j j j j j j j j j k j j j j H H U U L L L L H L L L Y Y Y Y Y Y Y L L L L L H H H H H H H j H j j j j j j j j j K K H H H K j j K H H H H K K j j ",
"=.=.*.*.=.=.=.=.=.=.=.=.=.=.=.=.=.*.*.*.*.=.*.=.*.*.*.*.*.*.*.*.*.*.*.*.*.*.*.*.*.*.*.#.#.#.#.#.#.#.#.#.#.#.@.@.+.@.@.#.#.@.@.@.@.O.@.@.@.@.O.O.O.O. . . . . . . .O. . . . . ... . . . . . .O.O.O.O.O.O.$.O.O.O.O.O.O.O.O.O.O.O.O.O.O.O.O. .O. .O. . .O.O.O.O.O.O.O.@.@.@.@.O.@.+.@.#.#.#.#.#.@.@.@.@.@.@.@.@.$.O.O.@.@.O.+.+.+.@.@.$.$.O.O.O.O.$.O.O.O.O.O.O.O.O.O.O.O.O. . ... . . ... . . . . . . . . . . . . . . . . . .E E E R E R E R ....R R R R R R R R R R R R R R R R R R R R R R R R R R R I I I I I I I I I R R R R R | R R  . . . . . . . . . . .E  . . . .O.O.O.O.+.#.+.#.#.#.*.+.+.+.#.+.#.#.#.#.#.#.#.+.+.+.+.+.+.#.#.#.#.@.@.@.@.@.@.O.O.O.O.E E ^  . . . . . . . . . . . .E E E E E E R R R R R I I I R R R R I I I I I I P K I I I I I I I I I I I I I I I I I I P P P I P U I L L L L L L P L L P K P K z z z z z l l h h h l h f f f d d d d d d i i i i i u u u u y y y y y y y y y u y y y y i y y y i i i i i i i i i i i d d d d d d d d d d d d d d d f f f h h h z z j z z z z z j z z z z z j j z z z h h h h h f f f f s g d d d f g g f f f f s s f s g g d d a u u a a a i u i u u u u u u u u u i i i i a i i i u u u u a a a a d d a a d a a a u u a g g g g g g s f h h h h h h h j j k k k j j j k k k k j j j j j j j j j j j j j H H H U L L L L Y Y L Y Y Y Y Y Y Y Y Y Y Y Y Y Y L G L H L U H H H H H K H H H H H H H K K K H H H H H H H H H K H H K K ",
";.;.=.=.=.;.=.=.=.=.=.=.=.=.=.=.=.=.*.=.=.*.*.*.=.=.*.*.:.*.*.*.*.*.*.*.*.*.*.*.*.*.*.*.*.*.*.#.#.#.#.#.*.#.#.+.#.@.#.#.#.@.@.+.@.O.O.O.@.@.O.O.O.O.O. . . . . ......... . . . . . . . . . .O.O.O.O.O.O.O.O.O.@.O.+.@.O.O.O.O.O.O.O.@.O.O.O.O.@.O.O.O.O.O.O.O.O.O.@.O.O.O.O.O.O.@.@.#.@.#.#.#.@.+.O.O.O.O.O.O.O.@.@.@.@.@.O.@.@.O.O.$.$.O.$.O.$.O.O.O.O.O.O.O.O.O.O.O.O. . ..... . ..... . . . . ... . . .....E .... . . ...E | R R R R R | R | | | R R R R R R R R R I R I R I R R R R R I I I I I I I I I I I I I I I I I I I R | | R  . . . .O.O.O. . . . . . . . . .O.O.O.O.+.+.#.#.#.+.+.+.$.+.+.#.+.+.+.#.#.#.#.#.+.+.+.+.+.#.#.+.+.+.+.@.O.O.O.O.O.O.O.O.O.O.O. .E  . . . . .E E E E E E E E E R R R R I I I I I I I I I I I I I I I I P I I I I I I I I R R I I I I I I I I P U P I L P I I P P P P P U L P P P K K z z z z l l h h h h f f f f f f d d i i i i i u i i y y y y u y y y y y y y y y y y i i i y i i i i i i i i i i i d d d f f d a d d d d d d f f f f h h h h h h j z j z z K P K K K K K z j j j z z z j h h h h h f f f f f f f f f g f f f h f s s s s s s d d a a u u a u i i i i u u u u i i u u i u i a a a a a a a i i a a a a g d g a d a a a a a a d d g d f f f f f h h h h h h j k k h j j j k k k k k j j j j j j j j j H j H H H H L L Y Y Y Y Y Y Y Y Y Y Y Y T Y Y T T T Y Y Y Y Y Y Y Y Y L L U U L H H H H H H H H H L U L L L H L L H L L L L L L L ",
";.;.;.=.;.;.=.=.=.:.=.=.=.=.=.:.:.=.=.=.=.=.;.;.;.=.:.*.:.:.*.*.*.*.*.*.*.*.*.*.*.*.*.*.*.*.*.*.*.*.*.*.*.*.#.#.#.#.#.#.#.#.@.@.#.@.O.O.@.O.O.O.O.O.O. . . . . ......... . . . . . . ... . . . .O.O.O.O.O.O.O.O.@.@.@.@.O.O.@.@.@.@.@.@.O.@.@.@.O.O.O.O.O.O.O.O.@.@.O.O.O.O.O.O.O.@.O.O.O.#.#.O.O.O.O.O.O.O.O.@.@.@.@.@.@.@.@.@.O.O.O.O.O.$.$.O.O.O.O.O.O.O.O.O. . . . . . ..... . .| | | | |  .| | |  .........| ...... .| | | R R R R R R | R R | R R R R I R R I I I I I I I I I I I I I I I I I I I I I I I I I I I I I I I R | | | .. . . .O.O.O.O. . . . . . . . .O.O.O.O.O.+.+.#.+.+.+.+.O.O.O.O.O.O.+.#.+.#.#.+.+.+.+.+.#.#.+.+.+.+.+.+.O.O.O.O.O.O.O.O.O.^ O.E E  .E  . . .E E  .E  .E E R R R R I I I I I I I I I I I I I I I I I I I I I I I I I I I R R I I I I I I I I L U U P I I I I P P P P P P L P P P P x z z z z l h h h h h f f h f f f d d i i i i i u u i u y y y y y y y y y y y y y y y y y y y i i i i i i i i i i d d d d d d d a a d d d d f f f f h h l l z z j j j z K K K K P K K K K z j j j h h h h h h h h h h h h h h h f f f f f f f f f s s s g s g g a a a u u u u u u i i u u u u i i u u i u a a a a i a a a i u a a a a g g a a a a a a a a a d g g d f h f s f h h h k h h h h h h j j j j k k k k j j j j j j j H K K H K K L L R R Y E E Y E R Y Y Y E Y E E T Y T E T E E E E E E E E Y Y Y L L L L H K L L L U H L L U L L U U L U L U L L L L L L ",
"=.;.;.=.=.;.;.=.:.:.;.:.:.=.=.=.:.=.=.:.;.=.=.;.;.=.=.=.*.*.*.*.*.*.=.=.=.*.=.=.*.*.*.*.*.*.*.*.*.*.*.*.*.*.*.#.*.#.#.#.#.#.#.#.#.@.O.O.O.O.O.O...O.O.O. . . . ..... ..... . . ......... . . . .O.O.O.O.O.O.O.O.+.@.@.@.@.@.#.#.@.#.#.O.O.@.@.O.O.$.O.O.O.O.O.@.@.@.@. .O. .O.O.O.O.O.O.O.O.@.@.O.O.O.O.O.@.O.@.@.@.@.O.@.@.@.+.@.@.O.O.@.@.O.@.O.O.O.O.O.O. . . . . . . . . . . . .| R | | | | | | R | | | | | | | | | | | R R R R R R R R R R R R R R R I I I I I I I I I I I I I I I I I I I I I P P P P P P P P I I I I I I R R | | .. . . .O.O.O. . . . . . . . . .O.O.O.O.O.O.+.+.+.+.O.O.+.O.O.O.O.O.+.#.#.+.+.+.+.+.+.+.#.+.+.+.$.+.O.O.O.O.O.O.O.O.O.O.^ O.O.O. .E E E  . . .E  .E E  . .R R R R R I I I I I I I I I I I I I I I I I I I I I I I I I I R I I I I I I I I I I U U P I I I I P P P P L L I P P P P K x z z x l l l l l l l l l f f f f d i i i i i i u i i i y y y y y y y y y y y y y y y y i i i d u i i i i i i i i i f d d f d d d d d f f f f h h l l l z z z z j j K K K K K P K K K K z x j z l l l l h h h h h h h h h h h h h f f h h f f f f d f d g g a a a u u u i i i i i i i i i i i i i u a a a a a a a a a a a a a a a a a a a u a a a a a a g g g g g g h s f f h h k k h h h h k k j j j j k j j j j j j j K H H H K K K L L L L Y Y L R E Y E Y T Y Y E T T E E E ^ ^ ^ ^ ^ ^ ^ ^ ^ E E Y Y Y L L L L L L L L L U L L L L L L L L L L L L Y Y L L L L ",
";.;.;.;.=.;.;.;.;.;.;.;.:.=.=.=.=.=.=.:.=.=.=.;.=.=.=.*.:.:.*.=.*.*.=.=.=.*.=.=.=.=.*.*.*.*.*.*.*.*.*.*.*.*.*.*.*.*.*.*.#.#.#.#.#.@.@.@.O.O.$.O...O.O.O.O. . . ... . . . . . . . . . . . . . .O.O.O.O.O.@.O.O.O.O.@.@.@.#.#.#.#.#.#.#.@.O.@.@.$.$.O.O.O.O.O.O.@.O. . . . . .O.O.O.O.O.O.O.O.O.O.O.O.O.O.O.O.@.@.@.@.O.O.@.@.+.O.#.@.$.$.O.@.O.@.O.O.O. .O. . . .O. . . . ... ..... .| | | | | | | R R R | | | ....| | | | R R R R R R R R R R R R R R I R I I I I I I I I P U P I I I I I I I I I P U U P P P P P U P I I I I I I R | R R  . . . . . . . . . . . . . . .O.O.O.O.O.O.@.O.O.O.O.O.O.$.O.O.+.+.+.#.#.#.#.+.+.+.*.*.#.+.+.+.+.#.+.$.O.O.O.O.O.O.O.O.O.^ O.O.O.O. . . . . .E E E E R | R R R R R I I U U I I I I I I I I I I I I I I I I I I I I I I R R R R R R R I R R I L I I I I I I L L P P L L I P P P K x x x z x l l z l h c l l l f f f f f i i i i i i i i i i i i i i i y u y y y y i y i y i u d d d d d d i i i i i d d d d d f f d d d f h h l h h h h z x z x K z z K K K K K K K K K K K K z x j z z z z l h k l j j l k f f h h h h h h h h f f f f f d d d d d d a i i i i a i a a i i i i a a a u a a a d a a a a g g a a g g g g g g a u a a a g g d d d d f f f f f f h h h h h h h h j j j j j j j k j j j j j j K K H H H K K H K K K U L L L Y Y Y T Y Y Y Y E E E E E E ^ T ~ E ^ ^ ^ E E E E W J Y Y Y Y L L L L L L L L L L L L L L H L L L Y Y Y Y Y Y J ",
";.;.;.;.;.=.=.=.;.=.;.;.=.=.;.=.:.=.=.=.;.;.;.;.=.=.=.=.=.=.=.=.:.=.=.=.=.=.=.=.=.=.*.*.*.*.*.*.*.*.*.:.*.*.*.*.*.*.*.*.#.#.#.#.#.#.#.+.O.O.O.O.$.O.O.O.O.O.@.@.@.O. ... .O.O.O.O. . . . . . . . . . . . .O.O.@.O.O.O.O.@.#.#.@.@.@.#.@.@.@.@.@.O.O.O.$.O.O.O.O.O.O.O.O.O.O. . . .O.@.@.O.O.O.O.O.O.O. .O. .@.@.@.O.O.O.O.O.O.O.@.O.O.O.@.@.@.@.O.O.O. .O. . . . . . . . .....| | | | | | | | } I R | | | | | |  .| | | | R R R R } R I I I R I I I I I I I I I I I I I I P P P I P P P I I I P P P P P P P P P P K P P P U U I I I I R R R | E E E  . . . . . .O. .E E  .O.O.O.@.O.O.O.O.O.O.$.O.O.@.@.+.+.+.#.#.#.#.#.+.+.#.*.#.#.+.+.#.+.O.O.O.O.O.O.O.O.O.@.@.O.O.O.O.O. . . . . . .E E E R R R R R R I I I I I I I I I R R R I I I I I I I I I I I I I I I R R R R R R R R I I I I I U P P I I I I I P P L L I L P P K K x x x z x x j j z z l l l l f f f d i d i i i i i u i u u u i y y y y y y i y i i i d d d d d d d d d d d d d f d d d d f f f f h h h h h h z j j j z z K K z z z K K K K P P K K K K K x K K K z z z z z j z z z j j k k k h h l h h h h h h f g g g g d d a a a u i a a u u a a g g a d d g a a a a a d d g g g d g g d g g g s d d d d d d d g g d d f f h f s s s s h h f h h s k j j j k j j j j j j j k j j H H H K H H H K H K K K H U L Y Y Y Y Y W W W T T Y E E E E ^ ^ ^ E ^ E E E E T Y Y Y Y Y Y L L L L L L U L L L L G L Y Y L L L L L J J J Y J L ",
";.;.;.;.;.=.=.;.;.=.;.;.=.=.;.=.:.=.=.=.;.;.;.=.=.=.=.=.=.=.=.=.=.=.=.=.=.=.=.=.=.=.*.*.=.=.=.=.=.=.*.*.:.:.*.*.*.*.*.*.#.#.#.#.#.#.#.+.+.+.O.O.O.O.O.O.O.O.O.@.O.O.O. . . .O.O.O.O. . . . . . . . . . .O.O.O.O.O.O.O.O.@.@.@.+.@.@.@.@.@.O.@.@.O.O.O.$.O.O.O.O.O.O.O.O.O.O.O.O...O.O.O.O.O.O.O. . . . . . . . . . .O.O.O.O.O.O.#.@.@.@.#.@.O.O.O.O. . . . . . . . . . . ...| | | | | | | | } I | | | | | | | | | R R | | R R | } } R I R R R I I I I I I I I I I I P I P P P P P P P P P P P P P P P P P P x x x x K P U U U I I I I I R | R R E E E  . . . . .O.O.O.O.O.O.@.@.O.O.O.O.O.$.$.O.O.O.+.@.+.+.#.#.+.#.#.#.+.+.#.#.#.#.+.#.#.+.+.O.O.O.O.O.O.O.O.O.@.O.O.O.O.^  . . . . ...E E R R R R R R R I I R I I I I I I R R R I I R I I I I I I I I I I I I R R R R R R R R I I I I I U K K I P I I I L L I I P P P P P K K K K K x z x z z z z l l l l h f f f f d d d i i i i i i u y y y y y y y i i i i i d d d d d d d d d d d d d f f f f f f f f f h h z z z z K K z K K K P K K K K K K K K P P K K K K K K K K K K z z z x z z K z z j j k l j j j z z j h h f d g g g d d d d a a a i a a a a a g g g g d d d g g d a a d d g g d g g s f f s s d d d d g d f d g g g g g f f h f s s f h h h h h k h j j j j j j j j j j k k j H j j H H H H H H H H K K U U U L J J Y Y Y T T T Y E E E E E ^ ^ ^ ^ E E E E E T Y Y Y J Y Y Y L Y L L L L L Y Y Y Y Y Y Y J L L J J J J Y Y Y J ",
";.;.;.;.;.;.=.;.;.=.;.;.=.=.;.=.=.=.=.=.;.;.;.;.;.;.=.=.:.:.:.:.:.=.;.;.=.=.=.=.=.=.=.=.=.=.=.=.=.=.=.:.:.:.:.*.*.*.*.*.#.#.#.#.@.@.@.+.@.@.O.O.O.O.O.O.O.O.O.@.O.@.@.O.O.O.O.@.O.O.O.O.O.O.O.O.O. . . .O.O.O.O.O.O.O.O.+.@.@.+.@.@.@.@.@.O.O.O.@.O.O.O.O.O.O.O.O.O.O.O.O.O.O.O.O.O.O.O.O.O.O.O. . . . . . . . . . . .O.O.O.O.O.@.O.O.@.@.@.O.O.O.O. . . . . . . . . . . . . . .| | | | | R I I I } | | | | | | | | R R R R | | } } | R I R I I I I I I I I I I I I I P P P P P P P P P P P K K P P P K x P P P x x K K K K P I I I I I I R R R E  .E .. . . . . . .O. . . .O.O. .O.O.O.O.O.O.O.O.O.O.O.@.@.@.+.+.+.#.#.#.+.#.#.+.+.+.+.+.+.@.O.O.O.O.O.O.O.O.O.O.O.O.O. . .E E ....E ..E E R R R R R R I I I I I I I I I I R R R I R R I I I I I I I I R R R I R R R R I I R R I I I I I U I K I P P P L L I I I P P P P K K P P P P K x K K x z z l l l l h f d d d f f f d i i i i i i i i i i i i i i i i i d d d d d f f f f f f f f f h h f f f f h c h l z z z z K K K P K P P P P P P P K K K K P P P K P K P P P P K K K K K K K K K K P P z j j j j z z l h h f f g g g g d d d d g d a a a a g g g d g d d d d f f d d d g g g g d f g g f f h f f f f s s f f f f s g g g g f f h h h h h h h h j j k j j j j j j j K j k k k j H K j H H H H H H H H H U U U U L L Y Y Y Y T T T T T E E E E ^ ^ ^ ^ E E E E E E T Y Y J L J Y Y Y Y Y L L Y Y Y Y Y Y Y Y Y Y Y Y Y Y Y Y W W Y W ",
";.;.;.;.;.;.=.;.;.;.;.;.;.;.;.=.=.=.=.=.;.;.;.;.;.=.=.=.:.:.:.:.:.;.;.;.;.=.=.=.=.:.=.=.=.=.=.=.=.=.=.=.:.:.:.*.*.*.*.#.#.#.#.#.#.#.#.@.#.#.@.O.@.@.@.O.@.@.O.@.O.@.@.@.O.O.@.@.O.O.O.O.O.O.O.O.O.O. . .O.O.O.O.O.O.O.@.@.@.@.+.@.@.@.@.@.O.O.O.@.@.O.@.@.@.@.#.@.@.@.O.O.O.O.O.O.O.O.O.@.@.@.O. . . . ......... . . . .O.O.O.O.O.O.O.@.@.@.O.@... . . ... . . . . . . . . . . .| | | | | R I } I I R R } } | | | | R R R R R R } } | R I R I I I I I I P P I I I I I P P P P P P P P P P P K K K P K K K P P P P P P P P U P I U I I I I I R R | R R | ....E R .. . . . . . . . .O.O.O.O.O.O.O.@.@.@.@.@.@.@.+.+.+.#.#.@.@.@.+.+.+.+.+.+.O.@.@.O.O.O.O.O.O.O.O.O.O.E E  .E  ...E ..E E E E R R R R R R I I I I I I I I I I R R R I R R I I I I I I I I R R R I R R R R I I I I I I I I U U I I I P P P P P I I I P P L P K K P P P K K x x K K z z z z l h h f f f f f f f d f d i d d i i i i i i i i i i i i d d d d f f f f f f f l h h l l h h h h h h z z z K P P P P L L P P P P P P K K P K P P P P P P P P P P P P P K P K K K P P P K P P K z j j j h h h h f f f d d g g g d d d d d a a a g g d d d f f f f f f f d d d d d d f d f f f f h h h h h f f f f h h h f f f f f h h h h h h j j j j j j k j j H j j j j j j j k j j K K H H H K H U L U U L L L L L L Y Y Y Y Y Y E T T T T E E E E ^ ^ E E E T E E E T Y Y Y Y Y Y Y Y Y Y L Y Y Y Y Y Y Y Y Y T E E E Y T T Y W W T T ",
";.;.P.P.;.;.=.=.P.=.;.P.;.;.;.=.=.=.=.;.;.;.=.=.=.=.=.=.*.:.:.:.=.=.=.;.:.=.=.=.:.:.:.:.:.:.=.:.:.:.:.=.=.=.:.:.*.*.*.#.#.#.#.#.#.#.#.#.#.#.@.@.@.@.@.@.O.O.O.O.O.O.@.@.O.O.O.O.@.@.@.@.O.O.O.O.O.O.O.O.O.O.O.O.O.@.@.@.@.@.@.@.#.@.@.@.+.+.O.O.O.O.O.O.O.O.@.#.@.@.@.@.O.O.O.O.O.O.O.O.O.O.@.O.O. . . ..... . ... . . .O.O.O.O.@.@.@.@.@.O.O.O. . . ..... . . . . . . . . ...| | | | | | | R R } | | | R I | | | | | R R | | | | | | R I R I I I I I I I P P P P P P P P P P P x P P P P P P P P P P P K K P P K P P P P P P P P P I I I I R R R R R R R | | R  . . . . . . . . . .O.O.^ O.O.@.#.#.#.#.#.#.#.#.@.@.@.@.@.@.+.@.@.@.@.+.O.@.@.@.O.O.O.O.O.O.O.O.O.E  . . . . . .E E E | R R R R R R R R R I I I I I I I I I I R R I R R I I I I I I I R R R R R R R R R R R I I I I I I P P I I I I P P P P L I I P P I I P K P K K x x K K K K P P z z z l c c f l l f f f d d d d d d d d d d d d d d d d d d d d d f f f f f f f h l h h l l h z z z z x z K P P L L L P I I L I I I I U P U P P U P P P P P K P P L P P P P P P P L P P L L P P K z j j h h h h h f f f d f g g g g d d g g g g g d f f f f h f h f h h h f f f f f h h h f h h h h h h h h h h h h h h h h h h h h h h h h j j j j j j j j j j K H H H H H H H j j H H K K K K L U L L L L L L L L L Y Y Y Y Y Y Y T E E E E E E E E E ^ ^ E E E T T T E E Y Y Y Y Y Y Y Y Y Y Y Y Y Y T E T Y W T E E T T T T T T T T E E ",
";.;.P.P.;.;.=.=.P.;.P.P.;.;.;.=.;.;.;.;.=.=.=.=.=.=.=.=.*.*.:.=.=.=.:.=.:.=.=.=.=.=.:.:.:.:.:.:.*.:.:.=.*.*.:.:.*.*.*.*.*.#.*.*.*.#.#.#.#.#.@.@.@.@.@.@.@.O.O.O.O.O.O.@.@.@.O.O.@.@.@.@.@.O.O.O.@.O.O.O.O.O.O.O.O.@.@.@.@.@.@.@.#.@.@.@.@.+.O.O.O.O.O.O.O.O.O.@.#.@.@.@.@.O.O.O.O.O.O.O.O.O.O.O. . . . ....... . . . .O.O.O.O.O.@.@.@.@.O.O.O.O. . . ..... . . . . . . . . . ...| | | | | | R | } } | | R R R R | | | R R | | R R | R R I R I I I I I I I P P P P P P P P P P P x x P P P P P P P P K K K K z z x K K P P P P P P P I I I I R R R R R | | | | | | | .... . . . . . .O.O.O.O.O.#.#.#.#.#.#.+.@.#.@.@.@.O.@.O.@.@.O.O.+.O.O.O.O.O.O.O.O.O.O.O.O.O.O.O.O. . . .E ....E R R R R R R R R R R I I I I I I R I I I I R R I R I I I I I I I I R R R R R R R R R R R I I I I I I I I I I I I I I L L I I I U P I I P P K K x z z z K K K P P x x z z l l l l l l c f f f f d f f f d d f d d f f f d d d d f f f f f f f h h l z l l z z j z K P K K P P P P P L L L Y R Y R R R R L U L L L U L L L L P U P L L P P P I U P P L L L L L P K z j j h h h h h f f f d d d d g g d d d d d g g d f h h h h h h h h h h h h h h f f h h h h h h h h h h j h h h h h h h h h h f h h h h j h j j j j j j z j j j H H H H H K K K K K K K K K K K L U L L L L Y Y Y Y Y Y Y T Y E E T E E E E E E E E E E ^ ^ E E E T T T T Y Y Y Y Y Y Y Y Y Y Y Y Y Y Y E E T T T T E T T T E T T T E E E E ",
"P.P.P.P.P.P.P.P.P.P.P.P.;.;.;.=.;.;.;.;.=.=.=.=.;.=.=.=.=.=.*.=.=.=.=.=.:.=.:.:.*.*.=.=.=.=.=.=.*.*.*.*.*.*.:.:.:.*.*.*.*.*.*.*.*.#.#.*.*.#.#.#.@.@.@.@.@.@.@.+.O.+.O.@.@.@.O.O.@.@.@.@.@.O.+.O.@.O.O.O.O.O.+.+.+.@.#.#.#.#.#.#.#.#.@.@.@.@.+.O.O.O.O.O.@.@.@.@.@.@.@.@.@.O.O.O.O.@.O.O. .O.O.O. . . . ..... . . . .O.O.O.O.O.O.O.O.O.O.O.O.O.O. . . . . . . . . . . . . . . . .| | | | | | | | I } R | I I I R | | R R I I I I R R R I I R I I I I I I I I P P P P P P P P P P x x P P P P P P K K K K x P P P x x P P P P P P P I I I I I I I R R | | | | | | | R | |  . . . . . . .O.O.O.@.#.#.#.#.+.+.+.+.O.@.@.@.O.O.O.O.O.O.O.O.O.O.O.O.O.O.O.O.O.O.O.O.O.O.O.O. . .E E E ..| R R R R R R R R R I I I I I I I I I I I I I R I R I I I I I I I R I I I I I R R R R R I I I P I I I I I I I P I I I I I I L L L P P P P P K K K K K K K K K K x x z z z z z x x z x l l l h f h h l f f f l d f d d f f f f d f f f f f h c z z z z z z z x K K P P P P I I L L L R R R R R R R R R R R Y Y Y Y R R R R Y L Y I L L P P P P U U L L I L L L P K j j h h h h h f f f f d f d f d d d f f f f f f f h h h h h h h h l h h h h h h h h h h h h h h h h h j j h h k h h h h h h h f h h h j j j j j j j j j j H j H H H K K K K K K L L L U L K U U U L Y Y Y Y Y Y Y Y Y Y T E E E E E E E E W T E E E ^ ^ ^ ^ ^ ^ E E T T Y Y Y Y Y Y Y Y T E Y Y T T T T T T T T T E E T T E E E T T T T E E ",
"P.P.P.P.P.P.P.P.P.P.P.P.;.P.P.=.;.;.;.;.;.;.;.;.;.;.;.=.=.=.=.;.=.=.=.=.=.=.*.:.*.:.=.=.=.*.*.*.*.*.*.*.*.*.*.:.:.*.*.*.*.*.*.*.*.#.#.*.*.#.#.#.#.#.#.#.#.@.@.@.O.+.@.@.@.@.@.@.#.#.#.@.@.@.@.@.#.@.O.O.+.@.#.@.+.#.#.#.#.#.#.#.#.#.#.#.#.@.@.+.@.O.O.@.@.@.@.@.@.@.@.@.@.@.O.O.O.@.@. . . . .O. . . . . . . . . . .O.O.O.O.O.O.O.O.O.@.O.O. .O. . . . . ... . ......... . . . .| | | R I | | | | | | | I I I I I R I I I | I I I R R I I R I I I I I I I I P P P P P P P P P P P P P P P P P P P P P K P P P P x P P P P P P P P I I I I I I I R R | | | R R } | R |  . . . .R E ..^ O.O.@.#.#.#.#.+.+.+.+.+.O.O.@.@.O.O.O.O.O.O.O.@.@.O.O. . . .O.O.O. . .O.O. . . . .E E E E | R R R R R R R R R R I I I I I I I I I I I I I I I R I I I I I I I I I I I I I R R R I I I I I I I P P P P I I P P I L I I I P U L P K P P P K P K K K K K K K K K K z K K K K K K x x z z x l l l z z l l l z h f f f f f d d d f f f f l x z x x K K K K P K L L P P L I I I R R R R R E E E E E E E E E R R R R E R R R R Y R R Y L P P L L I L L L I I L P P z j h h h h h h f f h h f f f f f f f f f f f h h h h h h h h h h j z z h h h h h h h h h h h h h h k h j k k k k k k j j j j j l h l j j j j j j j j j H K K K K K K K K P L L L L L U U K U U U L L Y Y Y Y T Y Y E E E E E E ^ E E E ^ ^ E E E E E ^ ^ ^ ^ ^ ^ E T T T Y Y Y Y Y Y Y E E E T T Y Y Y T T T T T T T T W T E E E T T T T E E ",
"P.P.P.P.P.P.P.P.P.P.P.P.P.P.P.P.P.;.;.;.=.=.;.;.;.=.=.=.=.=.=.=.=.=.=.=.=.=.=.=.:.:.=.=.*.*.*.*.*.*.*.*.*.:.:.:.*.*.*.*.*.*.*.*.*.*.*.*.#.#.#.#.#.#.#.#.#.@.@.@.+.@.#.@.#.#.#.#.#.#.@.#.#.#.#.#.@.O.@.#.#.@.#.#.#.#.*.*.*.*.#.#.#.#.#.#.#.#.@.O.@.@.O.O.O.O.@.@.O.+.@.#.#.O.O.O.@.@.O.O.O.O. . . . . . . . . . . . .O.O.O.O.@.O.O.O.@.O.O.O. . . . . . . . . ..... . ..... . . .| | | | | | | | | | | | I I I I I | | R I I | R I R | R R I I I I I I I I I P P P P P P P P x P x x P P P P P P P P P P P P P P x P P P P P P P P P I I I I I I R | | R R R } | R R R | | | ....E  .O.@.@.#.@.+.#.#.+.+.+.+.+.+.+.+.O.O.O.O.O.O.O.O. . . . . . . . . . . . . . .E E E E .... . . . .| R R R R R R R R R I I I I I R I I I I I I I I I I I I I I I I I I I I I I I I I I I I I P I I I P P P I R P I I I I I I I U I I I I I I P P P K K K K K K P K K K K K P P P P P P P P x z z z z z z z z z z l l h f f f f f f h l h h l j x K K K P L I P I I L L R R R R R R R E  .E E O.E E E E E E E E E E E E E R R R R L U U P P L I I I L P P P K K z z h c h h h h h f f f f f f f f f f f f h f f h h h h h h j j j j j j j j k k h h h h h k h j h h h k k j j k j j j j K j j j j j j j j z z j j K H j j H K K K K U U L L L U U U U L U U U L L L L J Y Y Y Y E E T E E E E E E ^ ^ ^ ^ E E E ^ E E E E E ^ ^ E E E E T T T W W T T T E T T T T T T T T W T T E E E E E Y Y Y E E Y Y Y Y Y E ",
"P.P.P.P.I.I.P.P.P.P.P.P.P.P.P.P.P.P.;.;.=.=.;.;.;.;.=.;.;.=.=.=.=.=.=.=.=.=.=.=.*.*.=.=.*.*.*.*.*.*.*.*.*.*.*.*.*.*.*.*.*.*.*.*.*.*.*.*.*.*.#.#.*.*.#.#.#.#.@.@.#.#.#.#.#.#.#.#.#.#.#.#.#.#.#.#.#.@.@.@.#.#.#.#.#.#.*.*.*.*.#.#.#.#.#.#.#.#.#.@.@.@.O.@.O.@.@.@.O.+.@.#.#.O.O.O.@.O.O.O. . . . . . . . . . . . . .O.O.O.O.O.O.O.O.O.O.O.O.O. . . . . . . . . ..... . . . . ....... .| | | | | | | | | | R I I R R | | I I | R R I | R I I I I I I I I I I I P P P P P P P P x x x x K K P P P P P P P P P K x P x P P P P P P P P P U P I I I I I I I I I I R } R R | | R R R E E  .O.@.@.#.#.#.#.#.#.#.+.+.+.+.+.+.O.O.O.O.O.O. . . . . . . . . ... . . .E  . .E E  . . ... . . . .| R R R R R R R R R I I I I I R R I I I I I I I I I I I I I I I I I I I I I I I I I I I I I U P I I I I R R I I I I I I I I I I I I I I I I I P K K P P P P P P P K P P I I I I I I I I P P K K K K K K z z x x z z h l h h h h h l j z x K K U K U P P I I Y Y Y R R R R R E E E E E E E O.O.O.^ E E E E E E E E E E E R R R R L I I I I I I I I P P K x j j l h c h h h h f f f f f d f f h f f f f f f h h h h h h h j j j j j j j j l k k h h k k k j j j j j j j j j j j j H K K K j j j x j j j K K H H K K H H K L K K P U U L L L L L L U L L L L L U L J Y Y Y Y E E W E E E E E ^ ^ ^ ^ ^ E E E E ^ ^ E E E E E ^ E E E E T T T W W T T E E T T T T T T T T T T E E E E E Y Y T T E E Y T Y Y Y Y ",
"P.P.P.P.P.I.P.P.P.P.P.P.P.P.P.P.P.P.P.;.;.;.;.;.;.;.;.;.;.;.=.=.=.=.:.=.:.:.=.=.*.*.*.*.*.*.*.*.*.*.*.*.*.*.*.*.*.*.*.*.:.*.*.:.*.*.*.*.*.*.*.*.*.*.*.*.#.#.#.#.#.*.*.*.#.*.#.#.*.*.#.*.#.#.#.#.#.@.@.@.#.#.#.#.#.#.#.#.#.#.#.#.#.#.#.#.#.@.+.+.@.+.+.@.@.@.@.O.O.O.O.@.@.O.O.O.O.O.O.O.O. . . .O.O.O.O. . . . . .O.O.O.O.O.O.O.O.O. .O.O.O.O.O.O.O.O.O.O.O.O.O. . . . . . . ... . .....| | | | | | | | | | | | R | | R I R | | | | | R I R R R I I I I I I I I P P P P P P P x x x x x x x P P P P P P P x P P P x P P P P K P P P P P P P I I I I I I I I R R R R R R R R R R .. . .O.@.#.#.#.#.@.+.+.+.+.+.O.O.@.O.O.O.O.O.O. . . . . . . . ...E ....E ..E  .E E  . . . . .|  ...R R R R R R R R R R I I I I I I R I R R I I I I I I I I I I I I I I I I R R I R I I I I I I K P I I I I R R R R R R I I I I I I I I I I I I I P P P P P P P I P P K P I I R R R R R R R I I I I I I I P P K K K K K z z z l j z z x K P I L L U U U L L Y R R R R E E E R R E E E E O.E E O.O.O.E E E E E  .E E E  .E E R R R R I I I I P I P P P K z x z z l h h h h h h f h h f f f f h h h f f h h f f h h h h h h j j j j j K j j j j l k j j j j j j j j j j j j j j j K K K L L U K K K K j j j K H H H K K K U P L U U L L L L L L L L L U U L L L L L L Y R Y E E E W E E E ^ ^ ^ ^ ^ ^ ^ E E E E ^ ^ ^ ^ ^ E E E E E E E E E W T T W W T E E E T T T W T T T T Y E E E E E Y Y Y Y E R R Y Y Y Y Y ",
"P.P.P.I.I.I.P.P.P.P.P.P.P.P.P.P.P.P.P.P.;.;.;.;.;.;.;.;.;.;.;.=.;.=.:.=.:.:.=.*.*.*.*.*.*.*.*.*.*.*.*.*.*.*.*.*.:.:.*.*.*.*.*.*.*.*.*.*.*.*.*.*.*.*.*.*.#.#.#.#.*.*.*.*.#.#.#.#.*.*.*.*.#.#.#.#.#.@.@.@.#.#.#.#.#.#.#.#.#.#.#.#.#.#.#.#.@.@.+.+.@.@.@.@.@.@.@.O.@.O.O.O.@.O.O.O.O.O.O.O.O.O.O.O.O.O.O.O.O. . .O. .O.O.O.O.O.O.O.O. . .O.O.O.O.O.@.@.O.O.@.@.O.O.O. . . . . . . . . . . . . . . .| | | | | R | | I R R R | R | | | | | I I R R R I I I I I I I P P P P P P P P x x x x x x x P P P P P P P P P P P x K P P x K P P P K P P P P I I I I I I I I R R R R R R R R R R .... .O.O.@.@.O.$.O.O.O.O.O.O.O.O.O.O.O.O.O.O. . . . . . . . .........E E ....E E  . . . . . . .| R R | | R R R R R R R R R R I I I I I I I I I I I I I I I I I I I I I I I R I R R I I I I I I I I I I I I I I I I I I I R R R I I I I I I I I I P P I I P P I P U P P I R R R R R R R R R I R I I I I I I U P P P P P P K K K P P P L I R R R R R R R Y R R E E E E E E E E E E E E O.E E ^ O.E E E E  . . .E E E E R R R R R I I I I L P P K z z x j l l l h h h h h l h h h h h h h h h l h h h j h k f h h h h j j j j z j z K K x j j j j j j j j K K z K K K K K K K K K K L L L L L L P P K K K K K U H U L U L L L L L L L L L L L L L L U L L L Y Y Y Y R R R E E E E E ^ ^ ^ ^ ^ ^ ^ ^ ^ E E E E E ^ ^ ^ ^ E E E E E T E E E E T E E E E E E E E E E E T T E E Y Y Y Y E Y Y Y Y Y Y Y Y Y Y Y Y Y ",
"I.I.I.U.U.U.I.I.I.I.I.P.P.I.P.P.P.P.P.P.P.;.=.;.;.;.;.;.;.;.=.=.;.;.:.=.:.*.*.*.*.*.*.*.*.*.*.*.*.*.*.*.*.:.*.*.:.*.*.*.*.*.*.*.*.*.*.:.*.*.*.*.*.*.*.*.*.*.*.*.*.*.*.*.*.*.*.*.*.*.#.#.#.#.*.*.#.#.#.#.#.#.#.#.*.*.*.#.#.*.*.*.@.@.@.@.#.#.#.#.#.@.@.@.@.@.@.@.@.@.@.O.O.O.O.O. . . . .O.O. . . . .O.O.O.O.O.O. .O.O.O.O.O.O. .O. . .O.O.O.O.@.@.@.O.O.O.@.O.O.O.O. . . . . . ... . . . ...| | | | | | | | | | I I | | | | R I } } I R R | R I I I I I I I I P P P P P P P P x x x P x x x x P x x x x x x x x P x x P P P P P P P P P P P P P P I I I I I I I I I R R R R R R R R | .. . .O.O. . .O.O.O.O.O.O.@.O.@.@.@.@.O.O. . . . . . . . ... .....R R | | E E ....| | | | | R R R | | R R | | | R R R R R I I I I I I I I I I I I I I I I I I I I I I I I I I I I I I I P I I I I I I I I I I I I I I R R R R R R R I I I R I I I I I I I I I U U I R R R R R R R R R R R R I I I R R I I L L L R I I I I I I R R R R R R R E E E R R E E E E E  .O.E E E E E E  .O. .E ^  . .E  . . .E E R R R R R I I I I I P P P P K z j j j l l h h h h h f f h h h h h h h h h h h l h h j j h l l l h h j j j z z z j z K K j j k j j K K H H K P K P P P P K K K P P P P L L L L L P P U U U U L L L U L L L L L L Y Y Y Y Y L L L L U L L L L L Y Y Y R R E E E E E E ^ ^ ^ ^ E E E E E E E E E E E E E E E E E E E T E E E E E E E ^ ^ ^ ^ ^ ^ ^ ^ ^ E E E E E Y Y Y Y Y E Y Y Y Y Y Y Y Y G H H ",
"I.I.I.U.U.U.U.I.I.I.I.I.I.I.P.P.P.P.P.P.;.P.=.;.;.;.;.;.;.;.=.=.;.;.:.=.:.=.*.*.*.*.*.*.*.*.*.*.*.*.*.*.*.*.*.*.*.*.*.*.*.*.*.*.*.*.:.:.:.:.*.*.*.*.*.*.*.*.*.*.*.*.*.*.*.*.*.*.*.*.#.#.*.#.*.*.#.#.#.#.#.#.#.#.*.#.*.#.#.*.*.#.@.@.@.@.#.#.#.#.#.#.@.@.@.@.@.@.@.@.@.O.O.O.O.O. . . . .O.O. . . . .O.O.O.O.O.O. . .O.O.O.O. . .O. . . . .O.O.O.@.@.O.O.O.O.O.$.O.O. ... . . . ..... . . ...| |  .| | | | R I R I I | | | | R I I I R R R | R I I I I I I I P P I P P P P P P P x P P x x x x x x x x x x x P P P P P P x x P P x x x x x x x P P P P P P I I I I I I I R I R R I R R R |  . . . . . . . . . . .O.O. .O.O.O.O. . . . . . . .........| | R R R R R R R ..R R R R R R R R ..| R R R R R R R R I I I I I I I I I I I U I I P P I I I I I I I I I I I I I I I I I I U I I I I I I I I I R R I I R R R R R R R R I I R R R I I I I I I I P L L R R R Y R R R Y Y R R R R I R R R R R R R R E E R E  .E E E E E E E E E E E E E E E  . . .E E O.O.O.E E  .E E O. .E  . . .E E E R R R R R R I I P P P P K K z z z z j j h h h h h h h h h f f h l l l h h h h h h h h h j j j l l j j j h j z z z z z z K K K j j j H K K K K K K L P L P P P P U P P P L L L L L L L U P K K U L L Y Y Y Y Y Y Y Y L R R R Y Y Y L L U L Y L L L L L Y R E R T E E E W W E E E E E T E E E E E E E E E E E E E E E E E E E ^ E E E E E ^ ^ O.^ ^ ^ ^ ^ E E E E E Y T Y Y Y Y E T Y Y Y Y Y Y L G H H ",
"I.I.I.I.I.I.I.I.I.I.I.I.I.I.P.P.P.P.P.P.P.P.P.P.P.P.P.;.;.P.P.=.;.;.:.=.:.:.=.*.*.*.*.*.*.*.*.*.*.*.*.*.*.:.*.*.*.#.*.*.*.*.*.*.*.*.*.*.:.:.:.:.:.*.*.*.*.*.*.*.*.*.*.*.*.*.*.*.*.*.*.*.*.*.*.*.#.#.#.#.#.#.#.#.#.#.#.#.#.#.#.+.#.@.@.@.#.#.@.@.#.#.#.#.#.#.@.@.@.@.O.O.O.O.O.O.O.O.O.O.O.O. . . . .O.O.O.O.O.O. . . . . . . . . . . . ...O.O.O.O.O.$.@.@.@.O.O.@.@.O.O. . . ..... . . . . . . .....| | | R R R R R I | | | R R I I R I | | R R I I I I I I I I I I I P P P P P x x P P x x x x x x x x x x x P P P P K x x P x x x x x x x x x x P P P P P I I I I I I R I I R I R R R R R | |  ... ... . . . . . . . . . .O. . . . . . . . . .| | R R R R R R R R R ..| | | R ........ . .| | R R R R R R R R R I I I I I I I I U I I P U I I I I I I I I I I I I I I I I I P U I I I I I I I R I I I I I I I R I R R I I I I R I I I I I I I I I I I R R R R Y R R R R R Y Y R R R R R R R E  . . . . . .O.O.O.O.^ ^ E ^ ^  .E E E E E E O.O.O.O.O.O.O.^ ^ O.E E E E  .E E E E E E R R R Y I L P P P P K K x z z z j z z z j z h h h h h h h h f f h h l l l z z j j j j z z z z z z j j j j z z j z z z j z z z z z j z K K K K U P L L L P P P P P U U U P I I I L L L L P K U U P L L Y Y R Y R R R R Y Y Y Y R R Y L L L Y Y Y Y Y Y Y Y R R E E T E E W W W E E E E E E E E E E ^ E E E E E E ^ E E E E E ^ ^ ^ E E E ^ ^ ^ ^ ^ ^ ^ ^ ^ ^ ^ E E E T T T T T T T E T Y Y Y Y R Y J L L L ",
"U.I.I.I.I.I.U.U.U.I.I.I.I.I.I.I.P.P.P.P.P.P.P.P.P.P.P.;.;.P.P.=.;.;.;.=.:.:.:.=.:.:.*.*.*.*.*.*.*.*.*.*.:.:.:.*.*.#.*.*.*.*.*.*.*.*.*.*.*.:.:.:.:.*.*.*.:.:.:.*.*.*.*.*.*.*.*.*.*.*.*.*.*.*.*.*.#.#.#.#.#.#.#.#.#.#.#.@.@.@.#.#.@.@.@.@.#.#.#.#.#.#.#.#.#.#.#.@.@.@.O.$.O.O.O.O. . . . .O.O.O. . . .O.O.O.O.O.O. . . . . . . . . . . .....O.O.O.O.@.@.@.O.O.O.@.@.@.O.......O. . . . . . ... . ...| | | R R I | | R I R R | | R R } R I | | | R R R R I I I I I P I P P P P P P P x P x x x x x x x x x x x x x P P P K x x x x x z z x x x x x x x x P P P I I I I I I I I I I I I I I I R R R R R R R | |  . . . . . . . . . . . . ... .......R R R R R R R R R R .... ...| R ...... . . ..... . .R R R R R I | I I I I I U I I P I I P U I I I I I I I I I I I I I I I I I P I I I I I I I I I I I I I I I I I I I I I I I I R R I I I P I I I I I I R R R R R R R R R R R Y R R R R R R E  . . . .O.O.O.O.O.E O.O.O.O.O.O.^ ^  . . .E E O.O.E E O.O.E E E E E E E E  .E R R R R R R L U P P P P P K K x j z z h l c h z z h z z h h h h h h h f f h h h h h j j j j j z z j z z z P z z j z z z z z z z j z z z j j j j K K L K K L L L P P P P P P U U U L L I I L L L L U U P L L Y Y R E E R R R R R R Y Y Y R R L L L Y Y Y Y Y Y Y R R R E E E E E E E E E E E E E T E E E E ^ ^ ^ E E E E E E E E E E E ^ ^ ^ ^ ^ ^ ^ ^ ^ ^ ^ ^ ^ ^ ^ ^ E E E T W T T T T T T T T T Y Y Y Y Y Y Y Y Y ",
"I.I.I.I.I.I.U.U.U.I.P.P.P.I.U.U.P.P.P.P.;.;.;.;.;.;.P.P.;.;.;.;.;.:.;.;.:.:.=.=.*.:.:.:.:.*.*.*.*.*.*.*.*.*.*.#.*.*.#.#.:.#.*.*.*.*.*.*.:.:.:.:.:.*.*.*.=.=.=.*.*.*.*.:.*.*.*.*.*.*.*.*.*.*.*.*.*.#.#.#.@.@.#.#.#.#.@.@.@.@.@.@.@.@.#.#.#.#.#.#.#.#.#.#.#.#.#.#.@.O.O.O.O.O.O.O. . . . . . . . .O.O.O.O.O.O. . . ..... .O.O. . .O.O.O.O. . . .O.O.O.@.@.+.+.+.O.@.O.O.O.O.O.O...@.O.O. . . . . . . . . .| | | | } } } | | | } | I I R R R R | R I | } } I I I I P I P I I P P P P P x x x x x x x x x x x x x P P x x x x x x x x x l l x l l x x x x x P P P P I I I } I I I I I I I I I I I R R R I R R | | |  . . . . ...................R R R R R R R R R | R | | R | ........R | ....| R R R R R R R R R R R R I I I I I I I I I U K I I I I I I I I I I I I I I I I I P P I I I I I I I I I I I I I I I I I I I I I I I I I I R R I I R R R R R I R R R R R R R R R R R R R R E E R E  . . . . .O.O.O.O.O.O.O.O. .^ ^ O.O.^ E O.O.O.E E E E E E E E E E E E E E E R R R R I P P K P K K x P K z z j h h h c h h h h l l h l h h h l h f f h f f h h h h z j j j z z K j z K K K K z j j j j z K K K K K j j j j j z z K K K L L L L L P L L P P P L L L L Y Y Y Y L L U U L L L Y Y R R R E E R R R R Y Y L Y Y Y L Y Y Y Y Y Y Y Y R E R R T T Y T E E E E E E W E E E E E E E E E ^ ^ E E E E E E E E E E ^ ^ ^ ^ ^ ^ ^ ^ ^ ^ ^ ^ ^ ^ ^ ^ E E T T T T Y T Y T E Y E T E T Y T R Y Y Y Y ",
"I.I.I.I.I.I.U.I.U.I.P.P.I.I.U.U.P.P.P.P.;.P.;.;.;.;.P.P.;.;.;.=.;.;.:.:.:.*.=.*.*.:.:.:.:.*.*.*.*.*.*.*.*.*.*.*.*.#.#.#.#.#.#.*.*.*.*.*.:.:.:.:.*.*.*.*.=.=.=.*.*.*.*.:.*.*.*.*.:.*.*.*.*.*.*.*.*.#.#.#.@.@.#.#.@.@.@.@.@.@.@.#.#.#.#.#.#.#.#.#.#.#.#.#.#.#.#.@.O.O.O.O.O.O.O.O.O.O. . . . . . .O.O.O.O.O.O.O.O.O. . .O.O.O.O.O.O.O.O.O.O.O.O.O.O.O.O.@.+.+.+.@.@.O.O.O.O.O.O.O.@.@.O.O.O.O.O. . . . . ...| | | | } } | | } } } I R R R R R } } I I } } I I I I P I I I I I P P P P P x x x x x x x x x x x x P P x x x x x x x x x l l l x x x x x x x x P P P P P I I I P I I I I I I I I I I I I I I I | | R | | R | | | | E R E | ....| R R R R R R R R R R R | ..| | ....| ..R | .. ...R E  .E R R R R R R R R R I I I I I I I I I I I I I I I I I I I I I I I I I I I I I I I I I I I I I I I I I I I I I I I I I I I I I I R R I I I I R I R R I R R R R R R R R R R R R R E E ..E  . . . . .O.O.O.O.O.O.O.O.O.E E E E E E E E O.O.E ^ ^ E E E E E E E E  .R R R R R I P K K K K K x x x z z z z l h l l h l l h h h l l l l l l h h h h f f h l h h l z z z z z K K K K K K K K K H j z j K K K K K K j H H H H z z K K K K K L L P L L P P P P L R R Y Y Y R Y L L U L L R R R R E E E E E R Y R Y Y Y Y Y Y Y Y Y Y Y Y Y R R R Y R R T E T T E E E E W W E W E E E E E E ^ E E ^ E E E E E E E E E E E E ^ ^ ^ ^ ^ ^ ^ ^ ^ ^ ( ^ ^ ^ ^ E E E T T W Y T T Y E E E E E E T E E Y Y Y Y ",
"I.U.U.U.U.U.U.I.U.I.I.I.I.I.I.U.P.P.P.P.P.P.P.P.P.P.P.P.;.;.;.;.;.;.=.=.*.*.=.*.*.*.:.:.:.:.*.*.*.*.*.*.*.*.*.*.*.*.#.#.#.#.#.*.*.*.*.*.:.:.:.:.*.*.*.:.=.=.*.*.*.*.*.:.=.=.*.*.;.:.*.*.*.*.*.*.#.#.#.#.#.#.@.@.@.@.@.@.@.@.@.@.#.#.#.#.#.#.#.#.#.#.#.#.#.#.@.@.+.O.O.O.O.$.O.O.O.O. . . . . . . .O.O.O. . . .O.O.O. . .O.O.O.O.O.O.@.@.@.O.O.O.O.@.O.O.+.@.@.#.O.O.O.O.@.@.O.O.@.O.O.O.O.O.O.O.O. . .....| | | | | } | | } I I I I I R R R R I I I } I I I I I P P P I I I I P P P P P x x x x x x x x x x x P x x x x x x x x x x l l x x x x x x x x P P P P P P P P P P I I P I I I I P I I I I I I I I I I R R R R R R R R R R | | | | | R | | R R R R | | ..............| R R R  . ....... .E R R R R R R R R I I I I I I I I I I I I I I I I I I I I I U I U K I I I I I I I I I I I I I I I P P P I I I I I I I I I I I I I I I L L I I R R R R R R R R R R R R R R R R .. . . .E  .O.O.^ O.O.O.O.O.O.O.O.O.O.^ E E E E  . . . . . .E E E E E E E E R R  .R R R I L U K K K x z z z z x z z z z l l l l h l l l h h h l z h l l h h h h h h h l j h j z j j j j z K K K K K K K K K z j j K K K K K K j H H K K K K K K K U P P U U L L L L I I R R Y Y L L Y L U L L L R R R R E E R R E R R Y Y Y Y Y R Y Y L Y Y Y Y Y R E E R R T E T E E E E E E E W W E W E E E E E E ^ E E E E E E E E E E E E E E E E E E E ^ E E E ^ ^ ^ ^ ^ ^ ^ E E E E E W W T T T E E E E E E E E E T Y Y W ",
"I.U.U.U.U.U.U.I.I.I.I.I.I.I.I.I.P.P.P.P.P.P.P.P.P.P.P.P.;.;.;.;.;.;.;.=.:.:.=.=.:.:.:.:.:.:.*.*.*.*.*.*.*.*.*.#.*.*.*.#.#.#.#.*.*.*.*.*.*.*.*.*.:.:.:.*.=.=.*.*.*.*.*.:.=.=.;.=.;.:.*.*.*.*.*.*.#.#.#.#.@.#.#.#.#.#.@.@.@.@.@.@.#.#.#.#.#.#.#.#.#.#.#.#.#.#.@.@.O.O.O.O.O.O.O.O.O.O... . . . . . .O.O. . . . . . . . . .O.O.O.O.O.O.@.@.O.O.O.O.@.@.@.+.+.@.@.@.O.O.@.@.@.@.O.O.O.O.O.O.O.@.@.O.O.O.O. ...| | | | | | | | } I } I I I R | | R R I I I I I I I I I I P I I I I P P P P P P x x x x x x x x x x P x x x x x x x x l x x x x x l x x x x x P P P P P P P P P P P P P P P I I I I I I I I I I I I I I I I I R R R R R R | | | ..| | | | | R R | | | | ..........| | R R | .. . . . . .E R R R R R R R R I I I I I I I I I I I I I I I I I I I I I I I I I I I I I I I I I I I I I I I I I I P I I I I I I I I I I I L P L L L L I I I R R R R R R R R R R R R R R R  . . . . .O.O.O.O.O.O.O.^ ^ ^ O.O.O.O.^ E ^ ^ ^  . . . . .E E E E E E R R R R R R R L L P P K K K z z z z l l z z z h h h h h h h l l h h h l l z h h l h h h l l l l l h l j j j j j j z z K K K K K K K K z j K P P P P P K K H K H K K K P P P P P P L P P L L L R R R R Y Y L Y Y U U U L L R R R R E E E E E R R Y R Y R R R R Y Y Y R R R R R E E R R T E E E E E E E E E W E E W E E E E E E E E E E E E E E E E E E E E E E E E E E ^ ^ E E ^ ^ ^ ^ ^ ^ ^ ^ E E E W T T T T T E ^ E ^ ^ E E E E T T E Y ",
"U.U.U.U.I.I.U.I.I.I.I.I.P.P.P.P.P.P.P.P.P.P.P.P.P.P.P.P.;.;.;.;.=.=.=.=.=.=.=.=.=.=.:.:.:.:.*.*.*.*.#.#.*.*.#.*.*.*.#.#.*.*.*.*.*.*.*.*.*.*.*.*.=.=.=.=.*.*.*.*.*.=.:.=.=.=.:.:.:.:.:.:.:.*.*.*.*.*.#.#.#.#.#.@.@.@.@.@.@.@.#.#.@.#.#.#.#.#.#.#.#.#.#.#.#.#.@.@.@.@.@.@.O.O.@.@.@.O. . . . . . . . .O.O.O. . . . . . . . .O.O.O.O.O.O.O.O.@.O.@.O.@.@.#.#.@.+.@.@.@.@.@.@.@.O.O.O.O.O.O.@.@.@.@.@.@.O. . . ...| | | | | | R R R R R R R | | } } I I I } I I I I I I I I I P P P P P P P P P x x x x x x x x x x x x x x x x x x z z x x x x x x x x x x x x P P P P P P P P P P P P P P P I I I I I I I I I I I I I I I I R R R R R | | | | | | R R R R R | | | | | | | | | | | ..| .... ... . .| | R R R R R R I R R R I I I I I I I I I I I I I I I I I R I I I I I I I I I R I I I I I I I I I I I I I I I I I I I I U U I I L I I I I I I I R R R R R R R R R R R R E E E .. . .E  .O.O.O.O.^ O.O.O.^ ^ ^ O.O.O.O.^ O.O.O.O. . . . .E E E R R R R R R R R I I P P I L P K z z z x h l l l l h h c c c h l l h l h h h h z z z z j z z z z z z z z j j j j x z K K K K K K K z K K K K K x j K K K P P P P K K K K K K K K P K K U L L Y Y Y L Y Y R R R R Y R R L L L Y Y R R R R R R E E E R R R R Y Y Y R Y Y Y R Y R E E E E T T Y T E E E E E E E ^ ^ E E E E E E E E E E E E E E E E E E E E E E E T T E E E E E E ^ ^ E E E ^ ^ ^ ^ ^ ^ ^ ^ ^ E E E ^ E E ^ ^ ^ ^ ^ ^ ^ E E W W E E E ",
"U.U.I.I.I.I.U.I.I.I.I.I.P.P.P.P.P.P.P.P.P.P.P.P.P.P.P.P.P.;.;.;.;.;.=.=.=.=.=.=.*.*.*.*.:.:.*.*.*.*.#.*.*.*.*.*.#.*.#.#.*.*.*.*.*.*.*.*.*.*.*.*.*.*.*.*.*.*.*.*.*.=.:.:.=.:.:.:.*.:.:.:.:.*.*.*.*.*.#.#.#.#.#.@.@.@.@.@.@.@.#.@.#.#.#.#.#.#.#.#.#.#.#.#.#.#.@.@.#.@.@.@.@.@.@.@.@.O. . . . . . . . . .O.O.O. . . . . . . .O.O.O.O.O.O.O.O.O.O.O.O.O.O.#.#.#.@.@.@.@.@.@.@.@.O.O.@.@.@.@.@.@.@.@.O.@.@.@.O. . . . .| | | | | R | | R R | | | | } } } I } } I I I I I I I I I P P P P P P P P x x x x x x x x x x x x x x x x x x x z x x x x x l x x x x x x P K P P P P P P P P P P P P P I I P P P P I I I I I I I I I I I I R R R R | R R R R R R R R R | | | R R R R R R R | ...... . . .|  .| | R R R R I R I I R I I I I I I I I I I I I I I I I I I R R I I I I I I I I R I I R I I I I I U L I I I I I I I I I I U U I I I I I I I I I I R R R R R R R R R R R R E .. . . . .E ^ O.O.O.O.O.O.O.O.^ ^ ^ O.O.O.O.^ O.O.O. . . . . .E R R R R R I I L P P P P P P P P P x z z l h l l h l l l h h h h l l l l l l l z z z j z z z z z z z z z z z z z z z z P P P P P P P K K K P P P K K x K K K P P P P P P P P U K K K K K U L L L Y Y Y Y Y R R R R Y Y R R Y R R R R R R E E R T E E E Y Y R Y Y L Y Y Y Y Y R Y R E E E E T T E E E E E E E E ^ ^ ^ E E E E E E E E E E E E ^ ^ ^ ^ E E E E E E E E E E E E E E E ^ ^ E E E ( ^ ^ ^ ^ ^ ^ ^ ^ ^ ( ^ ( ^ ^ ( ^ ( ^ ^ ^ ^ E E T T E E E ",
"U.U.I.I.I.I.I.I.I.I.I.I.I.I.I.I.P.P.P.P.P.P.P.P.P.P.P.P.P.;.;.;.;.;.;.;.;.;.=.=.=.=.=.:.:.*.*.*.*.*.*.*.*.*.*.*.*.*.*.*.*.*.*.*.:.:.*.*.*.*.*.:.*.*.*.*.*.*.*.:.=.:.:.:.=.:.;.;.=.:.:.:.*.*.*.*.*.#.#.#.#.#.#.#.@.@.@.@.@.@.@.@.#.#.#.#.#.#.#.#.#.@.@.@.@.@.@.@.#.@.@.@.@.@.@.@.@.O.O.O.O.O. . ..... .O.O. . . . .O.O. . . . .O.O.O.O.O.O.@.O.O.O.O.O.@.#.#.@.@.@.@.@.@.@.@.@.@.@.@.@.O.@.@.@.@.O.@.@.@.@.@. . . . . .| | | R | | | R R } | | } } } I I I I I I I I I I I I I P P P P P P P x x x x x x x x x x x x x x x x x x x x x x x x x x x x x x x x P x x x x P x P P P P P P P P P P P P P P P P P P I I I I I I I I I I I R R R R | | R R R R R | | | R R R R R R R | R R |  . .| |  .| | R R R R I I R R R R R R R R I R I I I I I I I I I I I I I I R R I I R R R R R R R I R I R I U L R I I I I I I I I I I I I I I U I R R R R R R R R R E E E E R E E E E  . .O. . .E ^ O.O.O.O.O.O.O.O.O.O.O.O.O.O.O.O.O.O. .E E E E R R R I I I U U P P P P K P P P K P K z z z l h l l h h l l l l l l l l l l l z z z z z j K z z x z z z z z x x x x K K K P P P P P P P P K P P P P P K K K K P P K P P P P P P U U U U U L U L Y Y Y Y R R R R E R R R Y Y R Y R R R R R E E E R T T T Y R R Y Y Y Y L L Y Y Y Y Y Y E E T E E E E E E E E E ^ ^ ^ ^ E E ^ ^ ^ E E ^ ^ E E E E ^ ^ ^ E E E E E E T T E E E E E E E E E ^ E E E ^ ^ ^ / O.O.O.^ ^ ^ / ^ ^ / / / ^ ( / ( ^ ( E E E E E E E ",
"I.I.U.U.I.I.I.I.I.U.U.I.I.I.I.I.P.P.P.P.P.P.P.P.P.P.P.P.P.P.;.;.;.;.;.;.;.;.;.=.;.;.;.:.=.*.*.*.*.*.*.*.*.*.*.:.:.:.:.*.*.:.:.*.:.:.*.*.*.*.*.*.:.:.:.*.*.*.*.:.*.:.:.:.:.;.;.;.:.:.=.*.*.*.*.*.*.#.#.#.#.#.@.#.@.@.@.@.@.#.@.@.#.#.#.#.#.#.#.#.@.@.@.@.@.@.@.@.#.@.O.@.#.#.@.O.@.O.O.O.@.@.O. .O.O.@.O.O. .O.O.O. . . ..... . . .O.@.O.O.O.O.O.O.O.O.@.@.@.O.O.@.@.@.@.@.@.@.@.@.@.O.O.@.@.@.@.#.#.#.@.@.O.O. . . . .| | R R | | | I I } } | } } I I I I I I I I I I I I I P P P P P P P P x x x x x x P x x x x x x x x x x x x x x x x x x x x x x x x P P x x x x x x x P P P P P P P P P P P P P P P P P P I P I I I I I I I I I R R R R R R R R R | | | | R R I R R R R | R R R | | R R | | R R R R R I I R R R R I I I I I R R I I I I I I I I I I R R I R R I I R R R R R R R R R R R R R R R R R R R I I I I I I I I I I U I R R R R R R R R R E E E E E E E  . . . . .O.O.^ O.O.O.O.O.O.O.O.O.O.O.O.@.O.@.@.O.O. .E E E R R R R I I I I I P P I P P P P P P P K z z z z l h l l c h l h h h h l l l l l l z z z z z j K K K K z z z x z x K K K K K K I I I P P P I I P P P P P P K P K K K P K P P P P P P P P L L L U L Y Y Y R R R R R E E E E E E R E E E E R E E R R E E T E E T R R Y Y Y Y L U Y Y Y Y T Y E T T E E E E E E E W E ^ ^ E E E ^ ^ ^ ^ ^ E ^ ^ E E E E E E E E E E E T T T T W T E E E E E E E ^ ^ ^ ^ ^ ^ ^ / / / ^ / / $./ +.$.! $.! ! / / / / ( ( ^ ^ ^ E E E ",
"W.W.U.I.U.U.U.U.I.I.I.I.I.I.I.I.P.P.P.I.P.P.P.P.P.P.P.P.P.P.P.;.;.;.;.;.;.;.=.=.=.=.=.;.:.:.=.*.*.*.*.*.*.*.*.*.*.*.*.*.*.*.*.*.:.:.*.*.*.*.*.*.*.:.:.*.*.*.*.*.*.=.:.:.:.:.:.;.:.:.:.:.*.*.*.:.:.:.*.*.#.#.#.#.#.@.@.@.#.#.#.#.#.#.#.@.@.@.#.@.@.#.#.#.#.#.#.@.@.@.#.#.#.#.#.#.O.O.O.O.O.O.O.O.@.@.@.O.O.O.O.O.O. . .O.O.O. ... .O.O.O.O.@.@. .O.O.O.@.@.@.#.#.@.O.O.O.@.@.@.@. .O.O.@.@.@.@.@.O.@.@.@.O.@.O. . . . . . .| R | | | | R } } } } I } I I I I I I I I I I I I I I I P P P P P P P P x x x x x x x x x x x x x x x x x x x x x x x x x x x x x x x P P P x x x P P P P P P P P P P x P P P P P P P P P I I I I I I I I I } | | | | | | | | R R R R R I R R R R R R R R R | | .... .| | R R | R I I R R R R R R R R R I I I I R I I I I I I I R R R R R R R R R R R R R R R R R R R R R R R R R R R R I I I I I I I I R R R R R R R E E E E E E E E E E E .. . . .O.O.O.O.O.O.O.O.O.O.O.O.O.O.O.@.O.@.@.O.O. .E E R R R R I U U P P P P P P P P P P P K K K z z z z l l h l l l l l h h l l l l l l l l z z z z K K K K K P K K K K K K K P P P P P P L L P P P L I P U U U K K K K P P K K P P P U U L L Y I Y Y Y R R R R E E E E E E E E E E E E E E E E E E E E E E R R E E R R R Y Y Y R R Y Y Y R T T T T T E E E E E E E E E E E ^ ^ ^ ^ ^ ^ ^ ^ ^ ^ ^ ^ E E E E E E E E E E E T T T T T T T T E E E E E E E E E ^ ^ ^ / / / / / / / $.! +.+.%.+.! ! ! $./ ! ( ^ ^ ^ ^ E E E ",
"W.W.U.U.U.U.U.U.U.U.U.U.I.I.I.I.P.P.P.P.P.P.P.P.P.P.P.P.P.P.P.P.P.P.P.P.;.;.;.;.=.=.=.;.:.:.=.*.:.*.*.*.*.*.*.*.*.*.*.*.*.*.=.=.:.:.*.*.*.*.*.*.*.:.:.*.*.*.:.*.*.=.:.:.:.:.:.:.:.:.=.*.*.*.*.*.:.:.:.*.#.#.#.#.@.@.@.@.#.#.#.#.#.#.#.@.@.@.@.+.@.#.#.#.#.#.#.#.@.@.#.#.#.#.@.@.@.@.@.@.O.O.O.O.@.@.@.@.O.@.O.O.O.O. . .O.O.....O.O.O.O.O.@.O. .O.O.O.@.@.@.#.#.@.O.O.O.@.@.O.@.@.@.@.@.O.@.O.O.@.@.@.@.@.@.O.O. . . . . ...| | | | | | } } } } I } I I I I I I I I I I I I I I I P P P P P P P P x x x x x x x x x x x x x x x x x x x x x x x x x x x x x x x x x x x x P P P P P P P P P P P x x x x P P P P P P P P I I I I I I I I R | R | R R | | R R R R R R R R I R R R R R R | ..| ....| | | R R R R | R R R R R R R R I I I I I I I I I I I I I I R R R R R R R R R R R R R R R R R | R R R R R R R R R I I I I I I I R R R R R R R E E E E E E E E E E E E E  . . . .O.O.O.O.O.O.O.O.O.O.O.O.O.O.O.O.@.O. .E E R R R R I I P U P P P P P P P P P P P P K K K z z z z z x h l l c h l l l l l l z l l l z z z z z K K K K K P K K K K K K P P P P P P P L I I L P U U P L I L P U U P P P P P P P P P L I R R R R R R R R R E E E E E E E E E E E ^ ^ ^ E E E E E E E E E R E E E E W Y Y Y Y R R R Y Y R T E E E E E E E E E E E E E E E ^ ^ ^ ^ ^ ^ E ^ ^ E E E E E E E E E E E E E T T T T E E E E W T E T W E E E E E ^ ^ / / / +.$.$.+.+.+.%.%.%.%.%.%.%.+.+.$./ / ^ ^ ^ ^ ^ E E ",
"W.W.U.U.I.U.I.I.I.I.U.U.I.I.I.I.P.I.P.P.P.P.P.P.P.P.P.P.P.P.P.P.P.P.P.P.P.;.;.;.;.;.;.;.=.=.=.=.:.:.:.:.*.:.=.=.*.*.*.*.*.=.;.;.:.:.:.*.=.=.=.:.*.=.:.:.:.:.:.:.=.=.=.=.=.:.:.:.:.=.*.*.*.*.*.*.:.:.:.*.#.#.#.#.#.#.#.#.#.#.#.#.#.#.#.#.#.@.@.+.@.@.@.#.#.#.#.#.#.#.@.@.@.@.@.@.@.@.#.#.@.@.@.@.@.@.@.@.@.@.@.O.O. . .O.O.O.O.@.O.O.O.O.O.O.O. .O.O.O.O.@.@.@.@.O.O.O.O.O.O.O.O.@.O.O.O.O.O.O.O.#.#.@.@.@.@.@.@.@... ... .....| | | | | | | } } I } I I I I I I I I I I I I I I I I P P P P P P P x x x x x x x P P P P x x x x x x x x x x x x x x x x x x x x x x x x P x P P P P P P P P P P P P P x P P P P P P P I I I I I I I I I I } R R I I R | R R R R | R R R R R R | R R R | R R R | R | | | R R R | R R R R R R R R R R I I I I I I I I I I I I R R R R R R R R E E E E E R R R | | R R R R R R R R R I I I R R R R R R R R R R E  .E  . . . . . . .E E E E  . . . .O.O.O.O.O.O.O.O.O.O.O.O.@.O.O.O.O.E E R R R R R I I I P P P P P P K x x K P K z K K K K z z x z z z l l l l l z z l l l z z z l j z z z z x K K K K K K K K K K K K K P P P P P P P I P L U U U U L R I I I I I L I I L P L I I R R R R R R R R R R R E E E E E E E E E E  .O.O.O.^ ^ ^ ^ ^ E E E E E E E E R W R R R R E E E E W E E E E E E E E E E E E E E E E ^ E E E E E E ^ ^ ^ ^ E E E E E E E E E E E E E E E E E E E E E E E E E E E E E E ^ ^ ^ ^ / / / / +.%.%.%.%.%.%.%.%.%.%.+.! / / / +.^ ^ ^ E E ",
"W.U.U.U.U.I.I.I.I.I.U.I.I.I.I.I.I.I.P.P.P.P.P.P.P.P.P.P.P.P.P.P.P.P.P.P.P.;.;.;.;.;.;.;.;.;.=.*.;.:.:.:.:.;.;.;.;.;.;.*.=.:.:.:.:.:.:.=.=.=.:.:.=.:.:.:.:.:.:.:.=.=.=.*.=.:.:.=.=.=.=.*.*.*.*.*.:.*.*.*.#.#.#.#.#.#.#.#.#.#.#.#.#.#.#.#.@.@.@.@.@.O.@.#.#.#.#.#.#.#.@.@.@.@.#.#.@.@.#.#.#.#.@.@.@.@.@.@.@.@.@.@.O.O.O.O.O.O.O.@.@.O.O.O.O.O. . .O.O.O.O.@.@.@.@.O.O.O.O.O. . .O. . .O.O.O.@.@.@.@.@.@.@.@.@.@.@.@.@.@... .......| | | | | | } } I } } I I I I I I I I I I I I I I I P P P P P P P x P x x x x P P P P P x x x x x x x x x x x x x x x x P P P P x x x x P x x P P P P P P P P P P P P P P P P P P P I I I I I I I I I I I I I R I I R R R R R | | R R R R R | | R R R R R R R | R | | | R R |  .R R R R R R R R R R R R I I I I I I I I I I R R R R R R | .... . .E E R R R R R R R R E R R R R R I I R R R R R R R  . ...E E  . . .E E  . . . . .E E E  . . . .O.O.^ O.O.O.@.O.O.O.O.O.O.O.O. .E E R R R R R I I P P P K P P P P x x x K K z z z z x z z x x x z z z z l l l z l l l z z z z j j z z z x x K K K K K K K K K K I P P I P P P P P P P P U U U L U L R R R I R R R R I I I I I I R R R R R R R E R R R E R W W R R R R E E E E E ^ E ^ ^ ^ ^ E E E E E E E E E W E E E E E E E E E E E E E E E E E E E E E E E E E E E E E E E E ^ ^ ^ ^ E E E E E E E E E E E E E E E E E E E E E E E E E E E E E E E ^ ^ ( ( / / / +.+.+.! %.%.%.%.%.%.%.+.+.! / / / ^ ^ ^ ^ ^ ",
"U.U.U.U.U.I.I.I.I.I.I.I.I.I.I.I.I.I.P.P.P.P.P.P.P.P.Y.P.P.P.P.P.P.P.P.P.P.P.P.P.;.;.;.;.;.;.=.:.*.*.*.*.=.=.;.;.;.;.=.=.=.=.;.;.=.;.;.=.=.=.:.:.=.:.:.:.:.:.:.:.:.:.:.*.=.=.:.*.*.:.:.:.:.:.*.*.*.*.#.#.#.*.#.#.#.#.#.#.#.#.#.#.#.#.#.@.O.O.@.@.#.#.#.#.#.#.#.#.@.@.@.@.@.@.#.#.@.@.@.#.#.@.@.@.@.@.@.@.#.@.@.@.@.@.O.O.O.O. .O.@.@.O.@.@.O.O.O. . .O.O.O.O.@.@.@.O...@.O. . . .O.O.O.O.O.O.+.+.O.O.O.@.@.@.@.@.@.O.O. . . . . . .| | | | | } } I I I } } } } I I I I I I I I I I I P P P P P P P x x x P x P P P P P P P P P P P x x x P x x x x P x x P P P x x x x x P P P P P P P P P P P P x P P P P P P P P P I I I I I I I I I I I I I I I I I I R R | | R R I I I R R R | R R | | R R | R R | | | | R | R R R R R R R R R R R R I I I I I I I I I I R R R R R  ... . . . . .E E R R R R E E E ..| R R R R R I R R R R R R E .. .E E E E E E E E  . . . . . . .E E E  . . . .E ^ O.O.O.O.O.O.O.O.O. .E  .E E R R R R I I U K K K P P I P P K x x K K K z z z z z z x x x z j l l z l l l l x z z z z z j z z K K K K P P P P P P P P P P I I I I L P P P P P P P L L L L Y Y Y Y Y R R R R R R L L R R I R R R R R R E E R R W E E W W W R E R R E E E E E E E E  . .E E E E E E E E E E E E E E ^ ^ E E ^ ^ E E E E E E E E E E E E E E E E E E E E E ^ ^ ^ ^ ^ ^ ^ ^ E E E E E E E E E E E E E E E E E E E E E E E E E E E E ^ ^ ^ / / +.$.+./ ! ! ! %.+.! ! %.%.%.%.%./ / ^ ^ ^ ^ ^ ^ ",
"U.U.U.U.U.U.I.I.I.I.I.I.I.I.I.I.I.I.I.I.P.P.P.P.P.P.I.I.P.P.P.P.P.P.P.P.P.P.P.P.;.P.;.;.;.;.;.=.;.;.=.=.=.=.;.;.;.;.=.=.=.=.;.;.=.;.;.=.=.=.;.:.;.;.:.:.:.=.=.:.:.:.:.:.=.=.=.=.*.:.:.:.:.:.*.*.*.#.#.#.#.*.#.#.#.#.#.#.#.#.#.#.#.#.#.@.O.O.@.@.#.@.#.#.#.#.#.#.@.@.@.@.@.@.@.#.@.@.#.#.#.#.@.@.@.@.@.#.#.#.@.@.@.@.@.@.O.O. . .@.O.O.@.O.O.O.O. .O.O.O.O.O.@.O.@.O.O.@.O.O. ...O.O.O.O.O.O.O.O.O.O.O.@.@.@.#.#.@.@.O.O.O. . . . .| | | | | } } } I } } | | } I I I I I I I I I I I P P P P P P P P x P P x x x P P P P P P P P P P P P P P P P P P P x x x x x x x x x x x P P P P P P P P P P P P P P P P P P I I I I I I I I I I I I I I I I I I R R R R | | | | R R R R R | R R R R R R R | R R | | | | R R R R R R R | R R R R I R R R I R R I I I I I R R R R |  . . . . . .E E E E E E ..E E E E ..R R R R R R R R R R R E E E E E E E  . . . . . . . . . . . . .E  . . . .E E E E E E  .E E E E  .E E E R R R R R I I I P K K K P P P P P K x x P P K z z z z z z z x x j j l l l l z z x z z x z z z z z z K K K K P P K P P P P P I I I I P I L P P L P I I I R I R R R R R R Y R R R R R R R R R R I R Y R R R R E E E R E E E E E E R R R R E E E E E E E E E E E E E E E E E E O.O.E O.^ ^ O.O.^ ^ ^ ^ E E E E E E E E E E E E E E E E E ^ ^ ^ ^ ^ ^ ^ ^ ^ ^ ^ ^ E E E E E E E E E E E E E E E E E E E E E E E T E E E ^ ^ ^ ^ ^ ^ / / ^ / / ! ! ! +.+.! %.%.%.%.+.+./ +./ ^ ^ ^ ^ ",
"U.U.U.U.U.U.I.I.I.I.I.I.I.I.I.I.I.I.P.P.P.P.P.P.Y.Y.Y.Y.I.P.P.P.P.P.P.P.P.P.P.P.P.P.P.P.P.;.;.;.;.;.;.;.;.;.;.;.;.;.;.;.=.;.;.;.=.;.;.=.;.;.;.;.;.;.;.;.:.=.=.=.*.;.:.:.:.:.:.:.*.*.:.:.:.:.*.*.*.*.#.#.#.#.#.#.#.#.#.#.@.@.@.#.#.#.#.#.@.@.@.#.O.@.#.#.#.#.#.#.@.@.@.@.@.@.@.@.@.@.#.#.#.#.#.@.#.@.@.#.#.@.#.#.@.@.@.@.O.O. .O.O.O. .O.O. . . . .O.@.@.@.@.O.O.O.O.@.@.@.@.@.@.O.O.O.O.O.O.O.O.O.@.O.@.@.@.@.@.@.@.@.O.O. . . . . .| | | | | | | } } | | | | } I I I I I I I I I I I P P P P P P P P P P P x x P P P P P P P P P P P P P P P P P P P P P P P x P P P x x x P P P P P P P P P P P P P P P P P P I I I I I I I I I I I I I I R R } } R R R R | | | | | R R R R R | R R R R R R R R R R R R R R | R R R R R R R | R R I R R R R | R R I I I I R R R R R  ..... . .E E E E E E E E E E E E R R R R R R R R R R E E  .E E E  . . . .O.O.O.^  . . . . . .O. . . . . .E E E E E E E E E E E E E E E R R I I I I I I P P P P P K K K K P x K K K K z z z x z x z z z z z x z z z z z z z z x K z x K K K K K K K K P P K K P P P P I I I U L L L U P I I I R R R R R R R R R R R R R R Y R R R R R R R Y Y R R R E E E E E E E E E E E E R R R E E E E E ..E E E E E E E E E E ^ O.O.O.O.^ ^ O.O.O.O.^ ^ ^ ^ ^ E E E E E E E E E E E E E E ^ ^ ^ ^ O.O.^ ^ O.O.O.^ ^ E ^ E E E E E E E E E E E E E E E E E E E E E W W E E E ^ ^ ^ ^ ^ ^ ^ ^ ^ / / / ! +.+.+.%.%.%.+.$.+.+.+.+.^ ^ ^ ^ ",
"U.U.U.U.U.U.I.I.I.I.I.I.I.I.I.I.I.I.P.P.P.P.P.P.P.P.I.I.I.I.P.P.P.P.P.P.P.P.P.P.P.P.P.P.;.;.;.;.;.;.;.;.;.;.;.;.;.;.;.;.;.;.;.;.;.;.;.;.;.;.;.;.;.=.=.;.:.*.=.=.*.;.:.:.:.:.:.:.*.:.:.:.:.:.*.*.*.*.*.#.#.#.#.#.#.#.#.#.#.#.#.#.#.#.#.#.@.@.@.#.O.#.#.#.#.#.#.#.@.@.@.@.@.@.@.@.@.@.@.#.#.#.@.@.#.@.@.@.@.@.@.#.@.@.@.@.O.O.O.O.O. . . .O. . . ... .O.@.@.@.O.@.O.O.@.@.@.@.@.@.@.@.@.@.@.@.O.O.O.@.O.O.@.O.@.@.O.O.O.O.O. . . . . . . .| | | | | | | | | | | | } } } I I I I I I I I I P P P P P P P P P P P P P P P P P P P P P P P x P P P P P P P P P P P x x P P x x P P P P P P P P P P P P P P P P P P P I I I I U U U I I I I I I I R | | } | | | R | | | | R R R R R R | R R R R R R R I I I I R R | | R | R R R R R | | I I I I I I R R R I I I R I R R R R ........ . . . .E E E E E E E E E E R R  . . . . .E R E  . . . . .O.O.O.O.@.O.O.^ ^  . . . . . . . .E E E E E E E E E E  .E E E E E R R U I I I I I I P P P P P P P K x K P K K K K K z z x x z z x z x z z z z x z z z z z z x K K P K K P P P P P P P P L P P P I I I I I I L I I P L I I R R R R R R R R R R R R R R R Y R R R Y Y Y Y Y Y R R R R E E E E E E E E E E E E E E E E R W R W E E E E E E E E E ^ ^ O.^ ^ O.^ ^ ^ O.O.O.^ O.O.^ ^ E E E E E E E E E E E E E E E ^ ^ ^ O.O.^ O.@.O.O.O.^ E E E W E E E E E E E E E T T T T E E T E E T W W W W T E E ^ ^ ^ ^ ^ ^ ^ / / +.+.+.%.%.%.%.+.+.$./ / ^ ^ ^ ^ ^ ^ ",
"U.U.I.I.U.U.U.U.I.I.U.I.I.I.I.I.I.P.P.P.I.I.P.P.P.P.I.P.P.P.P.P.P.P.P.P.P.P.P.P.P.P.P.P.P.P.P.;.P.P.P.;.;.;.;.;.;.;.;.;.;.;.;.;.;.;.;.;.=.;.;.:.:.:.:.:.=.:.=.:.:.*.*.:.*.*.*.:.:.:.:.*.*.*.*.:.*.*.#.*.*.*.*.#.#.#.#.@.@.@.@.@.#.@.@.#.#.@.@.@.@.@.#.#.#.#.#.#.@.@.@.@.@.@.@.@.@.@.@.@.@.@.@.@.#.#.#.@.@.@.@.@.O.@.@.@.O.O.O.O.O. . . .O.O.O.O.O.O.O.O.O.$.$.$.@.@.@.@.@.@.@.@.O.@.@.O.O.@.@.@.@.@.@.O.@.@.@.@.$.O.O.O.O.O.O. . . . . . .| | | | | | | | | | | } } } I I I I I I I I I I } I P P P P P P P P P P P P P P P P P P P P P P P P P P P P P P P P P P x x x x P P P P P P P P P P P P P P P P P P P I I I I I I I R | | | R R R R | | | | | | | | | R | | R I I R R R R R | | R R R I I R R I R R R R | | R R R | | R R R R R R R | R R R I I R R R R R R .. . . .E E E E E E E E E E E E  .E  . . . . .....E E E E  ... . .O.O.O.O.O.^ ^ O.O.O.O.O. .E E E E E  .E E  . . . . .E E E R E R R R I I I P P I I P P K P K K K K K K K K K x x x x x x K K z z z z x z x x z z z z z z z z P z K K P P P P P P P K I I I P L L I I I I I I I I L P L L R R R R R R E E E R R R R R R R L R R R L R R R R R R R R R E R E E E E E E E E E E E E E R R R R R R R R E E E E E W E ^ ^ ^ ^ O.O.^ ^ ^ O.^ ^ ^ ^ ^ E E E E E E E E E E E E E E E E E E E E O.O.O.O.O.O.O.^ E E E E E E E E E E E E E T T T R Y R E E E E W W T T E E E E ^ ^ ^ ^ ^ ^ / / %.+.+.+.+.+.+.+./ ^ ^ ^ ^ ^ ^ ( ^ ^ ",
"U.I.I.I.U.U.U.U.I.I.I.I.I.I.I.I.P.P.P.P.I.I.P.P.P.P.P.P.P.P.P.P.P.P.P.P.P.P.P.P.P.P.P.P.P.P.P.P.P.P.P.P.;.;.;.;.;.;.;.;.;.;.;.;.;.;.;.;.:.:.:.;.:.:.:.=.:.*.:.:.:.*.*.*.*.*.*.:.:.:.*.:.*.*.*.*.*.*.#.*.*.*.*.#.#.*.*.*.#.@.@.@.#.@.@.@.@.@.@.@.@.#.#.#.#.#.#.#.@.@.@.@.@.@.@.@.@.@.@.@.@.@.@.@.#.#.#.@.@.@.@.@.@.@.@.@.O.O.O.O.O.O.O.O.O.O.O.O.O.O.@.O.@.@.O.O.@.@.@.@.#.#.#.#.@.@.@.@.O.@.@.@.@.@.@.@.@.@.@.@.$.O.O.O.O.O.O. . . . . . ...|  .|  .| | | | | | | } } } I I I I I I I I I } I I P P P P P P P P P P P P P P P P P P P P P P P P P P P P P P P P P P x x x x P P P P P P P P P P P P P P P P P P I I I I I I I I R R | | | | R R R R R | | | | | | | | | R I R R R R R R R I I I I I R R R R | | R | | R R R R R R R R R R R R R R R R R R R R R R | R ......| | E E E  .E E E  .E E  . .E E  .O. . . . ..... .E .. ... .O.O.O.O.O.$.O.O.O.O.O.O. .E  . .E E  . . . . . . .E E E R R R R R I I I I I I I I P P P P K K K K K K K K K K x K x x x P P K K K K K x x z z z z z z z z z P P P P P P P I I I P I I I L L I I I I I I R R I I I I R R R R R R R R R R E R R W R R R I U L L I L L R L R R R R R E E E E E E E E E E E E E E E R R R R R R R R R R E E E E E O.O.O.O.O.O.O.^ O.^ ^ ^ ^ ^ ^ E E E E E E E E E E E E E E E E E E E E E O.E E E E E E E E E E E E E E E E E E E T E E R E E E E E E E E E E E E E E ^ ^ ^ ^ ^ / +./ / +.%.+.+./ / / / / ^ ( ( ( ^ ^ ^ ^ ^ ",
"U.U.I.I.I.I.U.U.U.U.U.I.I.I.I.I.P.P.P.P.P.P.P.I.P.P.P.P.P.P.P.P.P.P.P.P.P.P.P.P.P.P.P.P.P.P.P.P.P.P.P.P.P.P.;.;.;.P.;.;.;.;.;.;.;.;.;.;.;.;.=.=.;.;.:.=.:.*.:.:.:.*.:.:.*.*.*.:.*.*.*.*.*.*.*.*.*.*.*.*.*.*.*.*.*.*.*.#.#.#.@.#.#.#.#.#.@.#.@.@.#.#.#.#.#.#.#.#.@.@.@.@.@.O.O.O.O.@.@.@.@.@.O.@.O.@.#.@.@.@.@.@.@.@.@.O.O.@.#.@.@.@.O.O.O.O.O.O.O.@.@.@.@.@.@.@.@.@.#.#.#.@.@.@.#.@.@.+.O.@.#.@.O.@.@.@.@.@.@.#.@.@.O.O.O.O.O. . . . . . . . ... ..... .| | | | | } } } } } } } } } } I I I I I I P P P P P P P P P P P P P P P P P P P P P P P P P P P P P P P P P x x x x P P P P P P P P P P P P P P P P P } I I I I R I I I I R R R R R R R R R R | | | | | | | | | R R R R R I I I I I I I I I R R I R R R R | | R R R R R | R R R R I I I I R R R R R | R ..E ..R R R R  ... . . . . . . .E  . . .E E O.O.O.O.O. . . . . . .O.O.O.O.O.O.O.O.O.O.O.O.O.O.O. . . . .E E  .E  . . .E E E R R R R R R R I I I L U P P P P P P P P P P P P P P K K K K P K K K P P P K K K K K P z z x z z z j z z P P P I I I L I I I I I I I I I R R I I I I R R R R R R R R R R R R E E R R R R R R R R Y Y L L R R R R R I R R R R E E E E  .E E E E E E E E E E E R R R R R R R R R R E E E E E O.O.O.O.O.O.O.O.O.^ ^ ^ ^ ^ ^ E E E E E E R E E E E E E E E E E E E E E E E E E E E E E E E E E E E E E E E E T T E E E Y E E E E E E E E E E E E E ^ ^ O.+.^ +.+.+.+.+.#.+.+./ ( ( ^ ^ ^ ^ ^ ^ ^ ^ ^ ^ ^ ",
"U.U.I.I.I.I.U.U.U.U.U.I.I.I.I.I.I.P.P.P.P.P.P.I.P.P.P.P.P.P.P.P.P.P.P.P.P.P.P.P.P.P.P.P.P.P.P.P.P.P.P.P.P.P.;.;.P.P.;.;.;.;.;.:.;.;.;.;.;.;.=.=.:.;.:.=.:.:.:.:.*.:.:.:.:.*.*.:.*.*.*.:.:.:.*.*.*.*.#.#.*.*.*.*.*.*.*.#.#.#.#.#.#.#.#.#.#.#.#.@.#.#.#.#.#.#.#.#.@.@.@.@.@.@.O.O.@.@.@.@.O.O.O.O.O.O.O.@.@.@.@.@.@.@.@.@.O.#.#.#.@.@.@.@.@.@.@.O.@.@.@.@.@.@.@.@.@.@.#.#.#.@.@.@.#.#.@.+.O.@.#.@.@.@.@.@.@.@.@.#.@.@.@.O.O.O.O.O.O. . . . . . . . . . . .| | | | | | | | | | | | | | | } I I I I I I I P P P I P } } } } P P P P P P P P P P P P P P P P P P P P P P x x P P P P P P P P P P P P P P P P P P I I I I I I | | R R I R R | R R R R | | | | | | | | R | | | | R R R R R I R I I I I I I I I I I R R R R | | R R R R R | R R | I I I I I R R R R | | ........R R |  ..... . . . . . . . .O.O.O.^ O.O.O.O.O.O.O. .O.O.^ ^ O.O.O.O.O.O.O.O.@.@.O.O.O. . . . .E E E E ..E E E R R R R R R R R R I I I I I U P P P K K P P P P P P P P P P K P P P P P P P P P K K K K K K z z z z z z x z K P P P I I I P I I I I I I I I I R R I I I I R R R R R R R R R R R R E R R R R R R R R R Y Y R R R R R R R R R R R R E E E E E E E E E E E E E E  .E E R R R R Y R R R R E E W E E O.O.^ O.O.E O.O.O.^ ^ ^ ^ ^ ^ ^ E E E E R E E R R R R R R R R E E E W E W W W W E E W W W T T E E E E E E E E T Y T T Y E R R T T T E E W E E E W E E ^ O.O.O.O.+.+.+.+.+.+.^ ^ ^ E ^ ^ ^ ^ ^ ^ ^ ^ ^ ^ ^ ",
"U.U.U.I.I.I.I.I.U.U.U.U.I.I.I.I.I.I.I.I.P.P.P.P.P.P.P.P.P.P.P.P.P.P.P.P.P.P.P.P.P.P.P.P.P.P.P.P.P.P.P.P.P.P.P.P.P.P.P.P.P.;.;.:.=.=.:.;.;.;.;.=.:.:.;.;.:.:.:.:.*.:.:.:.*.*.*.*.*.*.:.:.:.*.*.*.*.*.#.#.*.*.#.*.#.#.#.*.*.*.#.#.#.#.#.#.#.#.#.@.@.#.#.#.@.#.#.#.@.@.@.@.@.@.@.@.@.@.@.@.@.@.O.O.O.O.O.O.@.@.@.@.@.@.@.@.@.#.#.#.@.@.@.@.O.O.O.@.#.#.#.#.#.#.@.#.#.@.#.#.#.#.#.#.#.@.@.+.@.@.@.@.@.@.@.@.@.@.@.#.#.#.#.@.@.O.O.O.O.O.O. . . . . . . . . . . . .| | | | | | | | | | | | } I } R } } I I I I I I I } } } } P P P P P P P P P P I I P P P P P P P P P P P P P P P P P P P P P P P P P P I I I I I I } } } R R R R R R | | | | | | | | | | R R R R R R R | | | R | | | | R R } I I } I I I I I I I R R R R R R R R R R R R | R R I I I I I I R R R R E ..E E ..E .. . . . . . . . . .O.O.O.O.O.O.O.@.O.O.O.O.O.O.O.O.O.^ O.O.O.@.O.O.@.@.@.@.O.O.^ E E ..E R R R R E R R R R R R R R R R R I I L L I P P K P K K K K P P P P P P P P P P P P I I I I P P P P K K P P K K K z K K z K K K P P L L I I I I I I I I I I R R I I I I I I R R R R R R E  .E E R R R R R R R R R R R Y R R Y R Y R Y R R R R R R E E E E E E E E E E E E W E E E E E E E R Y Y Y R R R R R E E E  . . .O.O.^ O.O.^ ^ ^ ^ E ^ ^ ^ ^ E E E R E R Y Y Y Y R R R R R R R W Y Y Y W Y R Y Y Y Y Y W W E E E E E E T T Y Y Y Y Y R Y T T E E W W W E E E E E ^ ^ ^ O.O.^ ^ ^ ^ ^ ^ E E E E E E E ^ ^ ^ ^ ^ ^ E E ",
"U.U.U.U.I.U.I.I.I.I.I.I.I.I.I.I.U.I.I.I.P.P.P.P.P.P.P.P.P.P.P.P.P.P.P.P.P.P.P.P.P.P.P.P.P.P.P.P.P.P.P.P.P.P.P.P.P.;.;.;.;.;.;.;.;.=.:.;.;.;.;.=.:.=.;.=.=.:.:.:.*.:.:.:.=.:.:.:.:.*.:.:.*.*.*.*.*.#.#.#.#.#.#.#.#.#.#.*.:.*.#.#.#.#.#.#.#.#.#.#.@.#.#.#.@.#.#.#.@.@.@.$.@.@.@.@.O.O.O.@.@.@.@.@.#.@.O.O.O.@.@.@.@.@.@.@.@.#.#.#.#.#.@.@.@.@.@.@.#.#.#.#.#.#.#.#.#.#.#.#.#.#.#.#.#.@.@.@.@.@.#.@.@.@.@.@.@.#.#.#.#.#.#.#.#.#.@.@.O.@.@.O.O. . . . . . . . . . .| | | | | | | | | | | | | | | | | | } I I I I I I I } } I I P P P P P P P P P P I P P P P P P P P P P P P P P P P P P P P P P P P I I I I P I I I } } I I R R R | | | | | | | R | | | | | | | | | R | | | ..| | | | | | } } I I I I I I I I I I I I I R R R R R R R R R R I I I I I I R R R R R R R E .. . . . ... .E  . . . . .O.O.O.O.O.O.O.O.O.O.O.O.O.O.O.O.O.O.O.O.O.@.@.O.O.O.O.O.O.O. .E E E ..R R R R R R R R R R R R R R R R R I I I I I P P P K K K K K P P P P P P P L P P P P I I I I L L P P P P P P P P K K K K K K P P P P L I I I I I I I I I R R R R I I I I R R R R R R R E E  . .E E R R R R W R R R R R R R R R R R Y R R R R R R E E E E E E E E E E E E E W E E E E E E R Y Y Y Y R R R R R E E E E E E ^ O.^ O.^ ^ ^ ^ ^ E ^ ^ ^ E E E E E E Y Y Y Y R R R R R R R R R Y Y Y W Y Y Y Y Y Y Y Y Y W W W E E E E E T Y Y Y Y R R T E E E W W E E E E E E E E E ^ ^ E E E E W E T E T E E E E E E E ^ ^ ^ E E ",
"U.U.U.U.U.U.U.U.I.I.I.I.I.I.I.I.I.I.I.I.I.I.P.P.P.I.P.P.P.P.P.P.P.P.P.P.P.P.P.P.P.P.P.P.P.P.P.P.P.P.P.P.P.P.P.P.;.;.;.;.;.;.;.;.;.;.;.;.;.;.;.;.;.;.=.;.;.;.:.:.*.=.=.=.=.:.:.:.:.:.*.*.*.*.*.*.*.*.#.*.#.#.#.#.#.#.*.*.*.#.#.#.#.#.#.#.#.#.#.#.#.#.@.@.@.#.#.#.@.#.$.$.O.O.@.@.O.O.O.O.@.@.@.@.@.@.@.@.@.@.@.@.@.@.@.@.@.@.@.@.@.@.@.@.@.@.@.@.@.#.#.#.#.#.#.#.#.#.#.#.*.#.*.#.#.#.@.@.@.@.@.@.@.@.@.@.#.#.#.#.#.#.#.#.#.#.@.@.@.@.@.O.O... . . . . . . . . .| | | | | | | | | | | | | | |  .| | | } R I I R } I } } } I I I I I P I P I I I I I I I I I P P P P P P P P P P P P P U P P I P P I I I I I I I } } } R R R R | | R | | | | R | | | | | | | | | | | | | .. . .| | | | R } I I I I I I I I I I I I I I I I I I R R R | R R I I I I I I R R R R R R R E .. . . . . . .E  . . . .E  .O.O.O.O.O.O.O.O.@.@.O.O.O.O.O.O.O.O.O.O.O.O.O.O.E  .O. .E E E R E E R R R R R R R R R R R R R R R R I I I I I I P P P P P K K K P P P P P P L L P L P P P P I I I I P P P P P P P P P K K P P P L P P I I I I R I R R R I I R R R R R R R R R R R R R R R E E  .E E E E E R R R R R R R R R R R R R R R R R R R Y W E E E E  .E E E E E E E E E E E E E R E E R R R Y R R R R R E E E E E E E O.O.O.O.^ ^ ^ E E E E E E E E E E R Y Y R R Y Y R Y Y R R Y U Y Y Y Y Y R R R E E Y Y Y W W W W E E E E R R Y Y Y E R E E E E W W E E E E E W E W E E E E E E W Y Y Y Y Y Y Y T E E E T E E E E E ",
"U.U.U.U.U.U.U.U.I.I.I.I.U.I.I.I.I.I.I.I.I.Y.P.P.I.I.P.P.P.P.P.P.P.P.P.P.P.P.P.P.P.P.P.P.P.P.P.P.P.P.P.P.P.P.P.P.P.;.;.;.P.P.P.;.;.;.;.;.;.;.;.;.;.;.;.=.;.;.;.=.=.=.=.=.=.:.:.:.:.:.*.*.*.*.*.*.*.*.*.*.*.#.#.#.#.#.*.*.*.#.#.#.#.#.#.#.#.@.#.#.#.#.@.@.#.#.#.@.@.@.@.@.@.@.@.@.@.@.O.@.@.@.@.@.@.@.@.@.@.@.@.@.@.@.@.@.@.@.@.@.@.#.@.@.@.@.@.#.#.#.#.#.#.#.#.#.#.#.*.*.*.*.*.#.#.#.@.@.@.#.#.@.@.@.@.@.#.#.#.@.@.@.#.#.#.#.@.@.@.@.@.O.O.O. . . . . . . . . . .| | | | | | | | | |  . . . . .|  .| | | | | | | R } } } I I I I I I I } I } } I I I I I I I P P P P P P P P P P P P U P P I P I I I } } I I I I } } | R R R | | | | | | | | | | | | | | | | | | | | | .. . .| | | R I I I I I I P P P P P I I I I I I I I I R | | | R I I I I I I I R R R R R | .... . . . . . .E E E  . .E E  .O.O.O.@.@.@.O.O.O.O.O.O.O.O.O.^ ^  .O. .O.E E E E E E E E R R R R R R R | | R R R R R R R R I I I I I I P I P P P P P P P K K P P P P P P P L L L L I P P P P I I I I P I P P P K K K P P I I I I I I I I I I I I R R R R R R R R R R R R R R R R R R R R R E E E E E E E R R R R R R R R R R R Y R R R R R R R R R R R E E  . .E E E E E E E E E E E E E E E R R R R R R R R R E E E E E E E O.O.O.O.^ ^ ^ ^ E E E E E E E E R R R R R R L U U L L Y L L L L U Y Y R R E E E Y E Y Y R R W R E T E R E E R R Y E E E E E E E E ^ ^ E E E E E T T T T E T Y Y Y Y Y Y Y Y Y Y E E Y Y E E Y T T ",
"W.W.U.I.I.I.I.I.U.I.I.I.I.I.I.U.U.U.I.I.I.I.I.I.P.I.P.P.P.P.P.P.P.P.P.P.P.P.P.P.P.P.P.P.P.P.P.P.P.P.P.P.P.P.P.P.P.P.P.;.;.;.;.;.;.;.P.P.;.;.;.;.;.;.;.;.;.;.;.;.=.=.=.=.;.:.:.:.:.:.:.:.:.*.*.*.*.*.#.#.*.#.#.#.#.#.*.#.#.#.#.#.#.#.#.#.#.#.#.#.#.#.#.#.#.#.#.#.@.@.@.@.@.@.O.O.O.O.O.@.@.@.#.#.@.O.@.@.@.@.@.@.@.@.@.@.@.@.@.#.@.@.@.@.@.@.#.#.#.#.#.#.#.#.#.*.#.#.*.#.#.#.#.#.#.#.#.@.#.@.#.@.@.@.@.@.@.#.@.#.@.@.#.#.#.@.#.#.O.O.@.@.@.O. . . . . . . . . . .| |  . .|  . . . . . . . . . . ... ...| | | | | | } } } I I I I } I I } } } I I I I I I I I I P P P P P P P P P P P I P P P I I I I I I I } I I I } R | | | R R R | | | | | | | | | | | | | | | | R | | | | R R R R I I I I I I P P P P P P P P I I I I I I R | I I I I I I I I I I R | | R .. . . . . .O.O.O. . . .E E E  . .E O.O.O.O.O.O.O.O.O.O.O.@.O.O.O.O. . . . . .E E E E R R R R R R R R R R R R R R R I I R R R I I I I I P P P P I I P P P P K P P P K P P P P P P P P P I I P P P I I I P P P P P P K K K P P P I I P P P L I I I I I I R R R R R R R R R R R R R R R R R R R E E E E E E E R R R R R R R R R R R R R R R R R R R R R R R R E  . .E E R E R E E E E E E E E R E E E R R R R R R R R R R E  .E E ^ ^ O.E O.O.E E E E E E E E E E R R R R R Y Y Y Y R U U L L L L L Y L Y R R R R E E E R Y R E E E E E R Y R E E E E E R T E E E E T E E T E E E T Y Y Y Y Y Y Y J G L U L L Y Y Y Y Y Y Y Y Y Y Y Y ",
"W.W.U.I.I.I.I.I.U.I.U.U.U.I.I.U.U.U.I.I.I.I.I.I.P.I.P.P.P.P.P.P.P.P.P.P.P.P.P.P.P.P.P.P.P.P.P.P.P.P.P.P.P.P.P.P.P.P.P.;.;.;.;.;.;.;.P.P.;.;.;.;.;.;.;.;.;.;.;.;.;.=.=.=.;.;.:.:.:.:.*.*.:.*.*.*.*.*.#.#.*.#.#.#.#.#.#.#.#.#.#.#.#.#.#.#.#.#.#.#.#.#.#.#.#.#.#.#.@.#.#.@.@.@.O.@.@.@.@.@.@.@.#.@.@.@.@.@.@.@.@.@.@.#.#.#.@.@.#.@.@.@.@.@.@.#.#.#.#.#.#.#.#.#.#.#.*.*.*.#.#.#.*.#.#.#.#.#.#.#.#.#.@.@.@.@.@.#.@.#.@.@.#.#.@.@.#.#.O.O.@.@.@.O. . . . ... . . . . . . . . . . . . . . . . . . . . . . . . . . . . . .| | | | | | | R I I } | } | } } } I I } I I I P P P P P P P P P P I P P I I I I I I I I I } } I I I R R I R | | | | | | | | | | | | | | | | | | R | | | | R R R I I I I I I I P P P P P P P P I I I I I I I I I I I I I I I I R R | | | |  . . . . . .O.O.O.O.O. . . . . . . .O.O.O.O.O.O.O.O.O.O.O.O.O.O.O.O. . . .......E R R R R R R R R R R R R R R R R R R R R R I I I I I I I I I I I I P I P P P P P P P P P P P P P P I I I I I P P P P P P P P P K P K P P P I I I I I I I I I I I R R R R R R R R R R R R R R R R R R R E E R E E E E E E R R R R R R R R R R R R R R R R R R R R R W R R R E E E E E E R R E E E E R R E E Y R E R R R R R R R R R R R E  .E E E ^ O.E E E W W E E E E R R R R Y R Y Y Y Y Y U L L L L L L L L L Y L Y Y Y R R E E E E E R E E E E E R Y R E E E E E E T E E E E E T T T T Y Y Y Y Y Y Y Y Y Y Y H U U U L Y L Y L Y Y Y Y Y Y Y Y ",
"W.W.W.W.W.U.U.U.I.I.I.I.I.I.I.U.U.I.I.I.I.I.I.I.I.I.I.P.P.P.P.P.P.P.P.P.P.P.P.P.P.P.P.P.P.P.P.P.P.P.P.P.P.P.P.P.P.P.;.;.;.;.;.;.;.;.;.;.;.;.P.P.;.;.;.;.;.;.;.;.;.=.=.;.;.;.:.;.:.:.:.:.*.:.*.*.*.*.#.#.*.*.*.*.#.#.#.#.#.#.#.#.#.#.#.#.#.#.#.#.#.#.#.#.#.#.#.#.#.#.#.@.@.@.@.@.@.@.@.@.@.@.@.@.@.@.@.@.@.@.@.@.@.@.@.@.@.@.@.@.@.#.@.#.#.#.*.*.*.*.*.*.*.*.#.#.#.#.*.*.#.#.#.#.#.#.#.#.#.#.#.#.#.@.@.@.@.@.#.#.#.#.#.#.#.#.#.#.@.@.@.@.@.O.@. . . . . . . . . . . ..... ... . . . . . . . .O....... . . . . . . . . .| | | | | | | | | | | | | | | R } } I } } } I P P P P P P I I I I I } } } I I I I I I } } I I I } I I I | | | | | | R R R | | | | | | | | | | | ..| | | R | I I I I I I I U P P P P P P P } I I I I I I I I R R R R R I I R R |  . . . . .O.O.O.O.O.O.O.@.O.O.O.O. . . . .O.O.O.@.@.@.@.@.O.O.O.O.O.O.O. . . .......| R R R R R R R R R I R R R R R R I I I I I I I I I I I I I I I I I I P P P P P P P P P P K K P P P P I P P P P P P K P P P I P P P P U P P I I I I I I I I I I I R R R R R R R R R R R R R R R R R W R R R R E R E E R R R R R R R R R R I R R R R R R R R R R R R R R R W R R E R E E R R R R R R R R R R R R R R R R R R R R R R R R R R E E E E E E E E E W W E R R R Y Y Y Y R R Y L Y Y L L L U L L L I R I Y L L Y Y Y R E E E E E R R R R E E E R Y E E E E E E R Y E E E R R E E E T Y Y Y Y Y Y Y Y Y Y L L L L L L L L L U L Y Y Y Y Y Y Y ",
"W.W.W.W.W.W.U.U.I.I.I.I.U.I.I.I.U.U.I.I.I.I.I.I.I.I.I.P.P.P.I.I.P.P.I.P.P.P.P.P.P.P.P.P.P.P.P.P.P.P.P.P.P.P.P.P.P.;.;.;.;.;.;.;.;.;.;.;.;.P.P.P.;.;.P.P.;.;.;.;.;.;.;.;.;.;.;.;.:.:.:.:.:.:.*.*.*.*.#.#.*.*.*.*.#.#.#.#.#.#.#.#.#.#.#.#.#.#.#.#.#.#.#.#.#.#.#.#.#.#.#.#.@.@.#.#.@.@.@.@.@.@.@.@.@.@.@.@.@.@.@.#.#.#.@.@.@.@.@.@.#.#.#.#.:.:.:.*.*.*.*.*.*.*.#.#.*.*.*.*.*.#.#.#.#.#.@.@.@.@.#.#.#.#.@.@.@.@.#.#.#.#.#.#.@.@.#.#.@.@.@.@.@.O.@.@. . . . . . .O. . . ..... . . . . . . . .O.O.O.O..... . ..... . . . . . . . ...|  .| | |  .|  .| | | R | | } } } } I I P P P I I I I I I I } } I I I I I I } } I I I I I I I R | R | | | | | | | | | | | | | ..| | | | ..| | | | | R I I I I I I P P P P P P P P } I I I I I I I R R R R R R I I I R R | .. . . .O.O.O.O.O.O.@.@.O.O.@.O.O. .O.O.O.O.@.@.@.@.O.O.O.O.O. .O. . .E E  ...| | R R R R R R R R R R I R R R R I I I I I I I I I I I I I I I I P P P P P P P P P P P P P P K K P P P P P P P P P P P K P P P I P P P P P L I I I I I L I I I I I I I R R I R R R R R R R R R R R R R R R R R R R R R R R R R R R R R R L L I I R R R R R R R R R R R R R R W R R R R R R R R R R R R R R R R R R R R R R R R R R R R R R R W R E E E E E W E E W W R R R Y Y Y Y Y R R U L Y Y R L L L L L L I I L L L Y Y Y R R E E E E E R R W W E E R R Y E E E E R E Y Y E R E R Y R E E E Y Y Y R Y Y Y Y Y Y L L L L L L L L L U Y Y Y Y Y Y Y T ",
"W.W.W.W.W.W.W.U.U.U.I.U.U.U.U.U.U.I.U.U.U.I.I.I.I.I.I.I.P.P.P.P.P.P.P.P.P.P.P.P.P.P.P.P.P.P.P.P.P.P.P.P.P.P.P.P.P.P.;.;.;.;.;.;.;.;.;.;.;.;.P.P.;.;.;.;.P.;.;.;.;.;.;.;.;.;.:.=.=.=.*.*.*.*.:.*.*.*.*.*.*.*.*.*.*.*.*.*.*.*.#.#.#.#.#.#.#.#.#.#.#.#.#.#.#.#.#.#.*.#.#.#.#.#.#.#.@.@.@.@.@.@.@.@.@.@.@.@.@.@.@.#.#.#.@.@.@.@.@.#.#.#.*.*.*.:.*.*.*.*.*.*.*.#.#.#.*.*.*.*.*.*.*.#.@.@.@.#.#.#.#.#.@.@.@.@.@.#.#.#.#.#.#.#.#.#.@.@.@.@.O.O.@.@.@. . . . .@.@.@.@.@. . ..... .O.O...O.O.O.O.O.O.O.O.@.O.O. .O.O.O. .O. . . . . . . . . . . . . . . . .| | | | } } } I I I I I I I I I I I I I I I I I I I } } } I I I I I I } I I R R | | | | | | | | | | | ..| |  .....| | | | | | | | I I I I I I I I I I I I I I I I I I R R R | R R R R R R R I R R R | .... . . ...O.O.O.O.O.O.O.O.@.@.O.O. .O. .O.O. .O.O.O.O.O.O.O. . . . . .R R R R R R R R I R R R R R R I R R I I I I I I I I I I I I I I P P I I P P P P K P P P P P P P K P P P P P K K P P P P P P P P K P P P P P P P L L I I I I I I I I I I I I I R R R R R R R R R R W W R R R R R R R R R R R R R R R R R R R R I I I I I R R R R R R R R R R R R R I R R R R R R R R I I R R R R R R R R R R R R R R R R R R R R R R Y R R R R R E R R R R R R R R Y Y Y L Y R Y U L L L I I I R L I R Y Y L L Y Y Y Y R R R R R E E E E R R E E W W W E R E R R R E E E E E E R R R Y Y Y Y Y Y Y Y Y L L L L L L L L U Y Y Y Y Y Y Y Y Y Y Y T ",
"W.W.W.W.W.W.W.W.U.U.I.U.U.U.U.U.U.U.U.U.U.U.I.I.I.I.I.I.P.P.P.P.I.P.P.P.P.P.P.P.P.P.P.P.P.P.P.P.P.P.P.P.P.P.P.P.P.P.;.;.;.;.;.;.;.;.P.P.P.P.P.P.P.P.P.P.P.;.P.P.;.;.;.;.;.=.:.=.=.=.:.:.:.:.:.*.*.*.*.*.*.*.*.*.*.*.*.*.*.#.#.#.#.#.#.#.#.#.#.#.#.#.#.#.#.#.#.#.*.*.#.#.#.#.#.#.@.@.@.#.#.#.#.#.#.#.#.@.@.@.#.#.#.#.@.@.@.@.@.#.#.#.#.#.*.*.#.*.*.*.*.*.*.#.#.#.#.#.#.*.*.*.*.#.#.@.@.#.#.#.#.#.@.@.@.@.#.#.#.#.#.#.#.#.#.#.@.@.@.O.O. . ... . . . . .@.@.@.@.@.@.......@.@.O...O.O.O.O.O.O.O.O.@.@.O.@.@.O.O. .O.O. . . . . . . . . . . . . . . . .| | | | } } I I I I I I I I I I I I I I I I I I I I I I I I } I I I } } I } | | | | | | | | R R | | | | | | ....| | | | | | | | R I I I I I } I I I I I } } I } } | | R | | R R R R R R R I R R .. . . . . . .O.O.O.O.O.O.O.O.O.@.O.O.O. . . . . . . .O.O.O.O. . . . . . . .R R R R R R R R I R R R R R I I R R I I I I I I I I I I I I I I P P I I P P P P K P P P P P P P P P P P P P K K P P P P P P K P K P P P P P P P U L I I I I I I I I I I I I R R R R R R R R R R E R R R R R R R R R R R R R R R R R R R R R I I I I I I R R R R R R R R R R R R I I I I I I R I I I L U L L R Y R R R R R R Y R R R R R R Y R R R Y Y R R R R R W W Y Y R R R R R R Y Y Y Y Y Y U U U U U U I R L R R Y Y Y Y Y L L Y R Y Y R R E E E E R R R E R R R E R R R R R R E E R R R R R Y Y Y Y Y Y L Y Y L L U L L L L L L U Y Y Y Y J Y Y Y Y Y T T ",
"W.W.W.W.W.W.W.W.U.U.U.U.U.U.I.I.I.I.I.I.I.U.I.I.I.I.Y.I.I.I.P.P.P.I.I.I.P.P.P.P.P.P.P.P.P.P.P.P.P.P.P.P.P.P.P.P.P.P.P.P.;.P.;.;.;.;.P.P.P.;.P.P.P.P.P.P.P.P.P.P.P.;.;.;.=.=.;.=.=.=.:.:.:.:.:.*.*.*.*.:.:.*.*.:.*.*.*.*.*.#.*.*.#.#.#.#.#.#.#.#.#.#.#.#.#.*.:.:.*.*.*.#.#.#.#.#.#.#.#.#.*.*.*.*.#.#.#.#.@.@.#.#.#.#.@.@.@.@.@.@.#.#.#.#.*.*.*.#.#.*.*.*.#.#.#.#.#.#.*.*.*.*.#.#.#.#.#.#.#.#.#.#.#.@.@.@.#.#.#.#.#.#.#.#.#.#.#.@.@.O.O. . . ..... . . . .@.@.@.@.@.@.@.@.@.@.@.O.O.O.O.O.O.@.@.@.@.@.@.@.@.O.O.O.O.O.O...O.O.O.O.O.O.O.O. . . . . . .| | | | } I I I I I I I I I I I I I I I I I I I I I I } } I } } I } } } } } | | | | | | | | R R R | | | | | | | | | | ..| | | | | R } } } I } } I I I } | | } | | | | | R R | | R R R | | R R  . . . . .O.O. .O.O.O.O.O.O.O.O.O.O.O.O.O. . . . . . . . . . . . . . . . .E  .R R R R R R R R R R R R R R R I I I I I I I I I I I I I I I I I P I I I I P P P P P P P P P P P P P I I P P P K P P P P P K K K P P L L P P P I I I I R I I I I I I I I I I R R R R R R R R E E E R R R R R R R R | R R R R R R R R R R R I L L I I I I R R R R R R R R R R I I I I U U U U U U U I I P U U P I I I L I R I Y R R R R R R Y Y R R R R R R R R R R R Y R R R R R R R R I I I R R Y Y L U U U L L L Y R Y Y L L L L L Y R Y Y Y R E E E E E E R R E E E E R E E R Y Y Y R Y Y Y R R R Y Y R R Y U U U U U U U U L L U U Y Y Y Y Y Y Y Y R E E E E ",
"W.W.W.W.W.W.W.W.W.U.U.U.U.U.U.U.I.I.I.I.I.I.I.I.I.I.I.I.I.I.I.I.P.I.P.I.P.P.P.P.P.P.P.P.P.P.P.P.P.P.P.P.P.P.P.P.P.P.P.P.P.;.P.;.;.P.P.P.P.;.P.P.P.P.P.P.P.P.P.P.P.;.;.;.=.=.;.:.:.:.:.:.:.:.*.:.:.*.:.:.:.:.:.:.:.:.*.:.:.*.*.*.*.*.*.*.#.#.*.#.*.#.*.#.#.:.:.:.*.*.*.*.*.*.#.#.#.#.#.#.*.*.*.*.#.#.#.#.@.@.#.#.#.#.#.@.#.#.#.#.#.#.#.*.*.*.*.*.#.*.*.*.#.#.#.#.*.*.*.*.*.#.#.#.#.#.#.#.#.#.#.#.#.#.@.#.#.#.#.#.#.#.@.+.@.#.#.#.@.@.O. . . ....... . . .O.@.@.@.@.@.@.@.@.@.@.@.@.@.O.@.@.@.@.@.@.@.@.@.O.O.O.@.@.@.@.@.@.@.@.@.O.@.@.O.@.@. . . . .| | | } I I } } } } I I } } } I I } I I I I } } I I I } } I } I I I } } } } | | | | | | | | R R R | | | R | | | | | R | | R | | | | | | | R | | R R I | | | | | | | | | R R | | | R | | | | R  . . . . .O.O. .O.O.O.O.O.O.O.O.O.O.O.O. . . . ...E ..E E E E  . . . .R R R R R R R R R R R R R R R R R R R R R I I R R R I I I I I I I I I I I I I I P P P P P P P P P K K P P P P I I P P P P P P P P P P P P P L L P P P I I R R R I I I I I U I I I R R R R R R R R R E E R R R R R R R R R | R R R R R R R R R R R I L U I I I I L I R R R R R R R I I I U U P U U U L U U I I I P U P I I I L L R U U R Y Y Y R R R R R R R R R E R R R E E R R R R R R R R R I I I R R R R R Y Y L L L L L R R Y L L L L Y Y R Y Y Y E E E E E E E E E E E E E E R R R R R R R Y Y Y Y R R Y Y R Y Y J U U U U Y Y Y U Y Y Y Y R R R R E E E E E E E E ",
"W.W.W.W.W.W.W.U.W.I.U.U.U.U.U.U.I.I.U.U.U.U.U.I.U.U.U.I.I.I.I.I.P.P.P.P.P.P.P.P.P.P.P.P.P.P.P.P.P.P.P.P.P.P.P.P.P.P.P.P.P.P.P.;.;.P.;.;.P.P.P.P.P.P.P.P.P.P.P.P.P.;.;.;.=.=.=.=.:.:.=.=.:.:.:.;.*.*.=.*.=.:.=.:.:.:.:.*.*.*.*.*.*.*.*.*.*.*.*.*.*.#.*.*.:.:.:.*.*.*.*.*.*.*.*.*.*.*.*.*.*.*.*.*.*.*.*.*.*.#.*.*.#.#.#.@.#.#.#.#.*.*.*.*.*.*.*.*.*.*.*.*.*.#.#.#.:.#.#.#.#.#.#.#.#.#.#.#.#.#.#.#.#.#.#.#.#.#.#.#.#.#.#.@.#.@.@.@.#.@.O.O.............@.@.@.O.@.@.@.@.@.@.@.@.#.@.@.@.@.@.@.#.#.@.O.@.@.@.@.@.@.@.@.@.@.@.@.@.....O.@.O.O. . . .....| | R | } } } I P P } } } } } } I I I I I I P I } I } I } } I I } } } } | | | | | | R R | | | | | | | | | | | | | | | | | | | | R R | | | R R R R R | | | | | |  . .| | |  . .R R |  . . . . . . . . . . . . . .O.O.O.O.O.@.@.@.O.O.O.O. . . .....E  . .....| R R R R R R R R I I R R I R R R R R R R R R R R R I R R R I I I I I I I I I I I I I I I I P P P P P I P P P P P I I I I I I P P I P P P P P P K P P P L L L P P I I I R I I R I I I I R R R R R R R R R R R R R R R R R R R R R R R R R R R R R R R R R I I I I I I I I I R I I I I R I R I I I U K P K P K I I P P P P P P P P I U U I R I I R L R R R R R R R R W R E E E E E E E E E E R R R Y R R R R R R R Y R R Y R R R R R R Y Y Y L U L L Y R R R R E E E E T E E E E E E E R R Y R Y Y Y Y Y Y Y R Y Y Y Y Y Y R Y W Y Y R Y Y Y R Y R Y R E E E R R E E E ^ E E E E E ",
"W.W.W.W.W.W.W.W.I.I.U.U.U.U.U.U.U.U.U.U.U.U.U.I.U.U.U.U.U.U.I.I.P.I.P.P.P.I.P.P.P.P.P.P.P.P.P.P.P.P.P.P.P.P.P.P.P.P.P.P.P.P.P.P.P.P.P.;.P.P.P.P.P.P.P.P.P.P.P.P.;.;.;.;.;.;.;.=.:.:.:.:.:.:.:.;.=.=.=.=.=.=.=.=.:.:.:.:.*.*.*.*.*.*.*.*.*.*.*.*.*.*.*.*.*.:.:.:.*.*.*.*.*.*.*.*.*.:.*.*.*.*.*.*.*.*.*.*.*.*.:.:.*.*.*.*.*.#.:.*.*.*.*.*.*.*.*.*.*.*.*.*.*.*.#.*.:.#.#.#.#.#.#.#.#.#.#.#.#.#.#.#.#.#.#.#.#.#.#.#.#.#.#.#.#.#.#.#.#.@.O....... .......@.@.@.O.O.O.@.@.@.@.@.@.@.@.@.@.@.@.#.#.#.#.@.@.@.@.@.@.@.@.@.@.@.@.@.@.....O.O.O.O.O. . . . .| | | | } } } P P P I } } } } } I I I I I I I I } } I I } } } } } } I I } | | | | | | | | | | | | | | | | | | | | | | .. . .|  .| | | | R R | R R R R R | | | |  . . . . . .|  . . . . .....R E E E  . . . . .O.O.O.O.O.O.O.O.O.O.O.O. . . . .....R R | R R R R R I I I I I I I I I I I I R R R R R R R R R R I I I I R R R R R I R I I I I P I I I I I P P P P I I I P P P I I I I I I I P P P P P P P P P P I P L L L P P P P I I I I I R R I I I I I I I I R R R R R R R R R R R R R R R R R R R R R R R R R R I I I I I I I I I I L I I I I I I I I I I I I I P K K K P P P P P L L I I U L L L I R R R R I R R R R R E E E E E E E E E  .E E E E E R Y R Y R Y R R R Y R Y Y Y Y Y Y R R R R Y Y Y Y Y L Y Y R R R R E E E E E E E E E E R R R Y Y Y L L L L Y U Y R Y Y Y Y Y Y R R E E E E E E E E E E E E E E E E E E E E E E E E E E ",
"W.W.W.W.W.W.W.W.I.I.I.U.U.U.W.U.U.U.U.U.W.U.U.U.U.U.U.U.U.U.U.U.I.I.P.I.I.I.I.P.I.I.P.P.P.P.P.P.P.P.P.P.P.P.P.P.P.P.P.P.P.P.P.P.P.P.P.P.P.P.P.P.P.P.P.P.P.P.P.P.;.;.;.;.;.;.;.;.;.;.:.:.:.:.:.:.;.=.;.;.;.;.;.;.;.;.:.;.:.:.*.*.*.*.*.:.:.:.:.:.*.*.*.*.*.*.:.:.:.:.*.*.*.*.*.*.:.:.:.:.:.:.:.:.:.:.:.:.:.:.:.:.*.*.*.*.*.*.*.*.*.:.*.*.*.:.*.*.*.*.*.*.*.*.*.:.*.*.#.#.#.#.#.#.#.#.#.#.#.#.#.#.#.#.#.#.#.#.*.*.*.*.#.#.#.#.#.#.@.@.O.O.O.........@.@.@.@.@.@.@.@.@.@.@.@.#.@.@.@.@.@.@.@.#.#.#.#.@.@.@.@.@.@.@.@.@.@.@.@.@.O.O. . .O.O.O.O. . . .| | | | | } } I I I } } } } } } I } } I } I I } } } I I } } } | } } I I I | | | | | | | | | | | | | | | | |  .| | .. . . . . . . .....| | E ..R R | | | | ....| |  . . . . ... . . . . . ........... . .O.O.O.O. . .O.O.O.O. . . . .O.O. .....R R R R R R R R I R I I I I I I I I I I I I R R R R | R R R R R I I R R R R R R R R R I I I I I I I I I I I I P I I I I I I I I I I I I I P P P P P P P P P P P I P P P P P L L L L I I R R R R I I I I I I I I I R R R R R R R R R R R R R R R I I I I I R R R R R I I I I I I K I I I L I R R R R I I I I I I I I U K P P P P K P L P P I L U L R R R R R R R R R R E E E E E E E E O.O.O.O.O.^ E E E E R E E Y Y R R R R R R R R R R R E E E E E E R R R Y R R R R R R E E R R R R R E E E R Y R R Y L L L L L Y L U Y Y W W Y Y W Y T E E E E E E E E E E E ^ E E E E E E E E E ^ E ^ ^ ^ ^ ",
"W.W.W.W.W.W.W.W.I.I.U.U.U.U.U.U.U.U.I.U.U.U.U.W.U.U.U.U.U.U.U.U.U.I.I.I.I.I.I.P.P.P.P.P.P.P.P.P.P.P.P.P.P.P.P.P.P.P.P.P.P.P.P.P.P.P.P.P.P.P.P.P.P.P.P.P.P.;.P.;.;.;.;.;.;.;.;.;.;.;.;.:.:.:.:.:.;.;.;.;.:.:.:.:.:.:.;.;.;.:.:.:.*.:.:.:.:.:.:.:.:.:.:.:.*.*.:.:.:.:.*.*.:.:.:.:.;.;.:.:.:.:.:.:.=.:.:.:.:.:.:.:.:.*.*.*.*.:.*.*.:.:.:.:.:.:.*.*.*.*.*.*.*.#.#.*.*.*.*.#.#.#.#.#.#.#.#.#.#.#.#.#.#.#.#.#.#.#.*.*.*.*.#.#.#.#.#.#.#.@.@.@.@.@.@.@.@.@.@.@.@.@.#.@.@.@.@.@.@.@.@.@.@.#.#.#.@.#.#.#.#.@.O.O.O.O.@.@.@.@.@.@.O.O.O.O. . .O.O.O.O. . . . . .| | | | I } } } } } } } | | } } } } } } } | | } } } } } } | } } I I } R } | | | | | | | | | | | | | |  . .| | .. . . . ... . . ......... . ... ......... ...| | |  . . . . . . . . . . . . . . . .O.O.O.O.O.O. . . . . . . . . . . . ...| R R R R R R R R I R R I I I I I I I I I I I R R R R R R R E E | R | | R R R R R I I I I I I I I I I I I I I I I I I I I I I I I P I I I I P P I I I I I P P P P P P P P P P L I I I I I I I R I I I I I I I I I I I I R R I R R R I R I I I I I L U U U I I I I I I I I P I I I K K I I I I R R R R I L I L P I I I I I I I I P K L L P P P L U L R R R R R R R R R E E E E E O.E O.O.O.O.O.O.O.E E E E E E E E Y W R R E E E E E E E E E E E E E E E E R R Y R R R R R R R E E R R E E E R Y Y Y Y Y Y Y Y Y Y Y Y Y Y W W W W T W Y W E E E E E ^ E E ^ ^ ^ E O.^ ^ ^ ^ E E E ^ ^ ^ E ^ ^ ^ ^ ",
"W.W.W.W.W.W.W.W.U.U.U.W.U.U.U.U.U.U.I.I.U.I.I.U.U.U.U.U.U.U.U.U.I.I.I.I.U.I.I.P.P.P.P.P.P.P.P.P.P.P.P.P.P.P.P.P.P.P.P.P.P.P.P.P.P.P.P.P.P.P.P.P.P.P.P.P.P.P.P.;.;.;.;.;.P.;.;.;.;.;.;.;.;.;.;.;.;.;.;.;.;.;.;.;.;.:.:.;.;.=.=.:.:.:.:.:.:.;.;.=.=.;.;.*.*.*.;.:.;.;.*.*.;.:.:.:.:.:.;.;.;.;.;.;.=.;.;.;.=.=.=.:.;.:.:.:.:.:.:.:.:.:.:.:.:.:.*.:.*.*.*.*.*.*.*.*.*.*.*.#.#.#.*.#.#.#.#.#.#.*.*.*.*.#.*.*.*.*.*.:.:.*.*.*.*.*.*.#.#.#.@.#.#.#.#.@.@.@.@.@.@.@.@.@.#.#.@.@.@.@.#.@.@.@.@.#.@.@.@.@.@.@.+.O.O.O.O.@.@.@.@.O.O.O.O.O.O.@.O.@.O.O.O. . . . .| | | } I } } } } I } | | | } | } } | | | | | | } } | | | | | | | | | | } | .... . .| | | |  . . . . . . ... ..... . . . ... . . . . . . . . .................| ..| .. . . . . . .O.O. . .O.O.O.O.O.O.O.O.O. . . . . . . . . . . . ...| R R R R R R R R R I I I I I I I I I I I I I I R R R R R R R R | | R R R R R R R R R R R R I I I I I I I I I I I I I I I I P P I I P I I I P P I I I I P P I I I I I P P P P P P P I P I I I I I I I I I I I I I I P P P I I I I I I I I I L P P I P U P U I I I P I L L I P P I I U I I I I I R R I I I I I I U I I I I R R I I P P L I U U I R L L R R E E  . .E E E E E E  .O.^ ^ O.O.O.O.O.^ ^ ^ ^ ^ E E E E E E W E E E E E E E E E E E E E E E E E E E W W W R R Y Y Y Y R E R R E E E R Y Y Y Y Y Y Y Y Y Y Y Y Y Y E W E W E W E E E ^ ^ ^ ^ ^ ^ ^ ^ ^ ^ ^ ^ ^ ^ E ^ ^ ^ E ^ ^ ^ ^ ^ ^ ^ ^ ",
"W.W.W.W.W.W.W.W.W.W.U.W.U.U.U.U.I.I.I.I.I.I.I.U.U.U.U.U.U.U.U.U.I.I.I.I.U.I.I.I.P.P.P.P.P.P.P.P.P.I.P.P.P.P.P.P.P.P.P.P.P.P.P.P.I.P.I.I.P.P.P.P.P.;.P.P.P.P.P.P.P.;.P.P.P.P.;.;.;.;.;.;.;.;.;.;.;.;.;.;.;.;.;.;.;.;.:.;.;.=.=.=.;.;.:.:.:.:.;.;.;.;.;.;.=.;.;.:.;.;.;.:.;.;.;.;.;.;.;.;.;.;.;.;.;.;.;.:.;.;.;.;.;.;.*.:.:.:.=.:.:.:.:.;.:.:.=.;.=.=.=.:.*.*.*.*.*.*.*.#.*.*.*.*.*.#.*.#.*.*.*.*.*.#.#.*.*.*.*.:.:.:.*.*.*.*.*.*.#.#.#.#.#.#.#.#.@.#.#.@.#.@.@.@.#.#.@.@.@.@.#.#.#.@.#.#.@.@.#.@.@.@.@.+.O.O.O.#.@.@.@.O.O.O.O.O.O.@.O.@.O.O.O.O. . . ...| | R I } } } } I I | | R I R } R | | | | | | | | | | } | | | | | | | } | | | .. . .| |  . . . . . . . . . . . . . . . ... .O.O.O.O.O. . . . ....................... . . . . . .O.O.O.O.O.O.O.O.O.O.@.@.O.O.O. . . . . . ...........R R R R R R R R | R I I I I I I I I I I I I I I I R R R R R R R R | I I I R R R R R R R R R R I I I I I I I I I I I I I I I P P I I I I I I P P I I P P P P P I I P I P P P P P P P P P P P P I I I I I I P P P P P P P P P P P P P L P P P P K P P P P P P P P P P P U U U U U P P U I I I I I R R I I I I R I I R R R R R R I R L L L L P I I R R R E  . . . .E E E E E E E ^ O.O.O.O.O.O.O.^ ^ E O.^ ^ ^ E E E E E E E E E E E E E E E E E E E E E E E E E W W R R R R Y Y Y R E R R E E E E R R Y Y Y Y Y Y Y Y Y W Y E E ^ ^ ^ ^ ^ ^ ^ ^ ^ ^ ^ ^ O.^ ^ ^ ^ ^ ^ ^ ^ ^ ^ ^ ^ ^ ^ ^ ^ ^ ^ ^ ^ ^ ^ ",
"W.W.W.W.W.W.W.W.W.W.W.W.W.I.I.I.U.I.I.I.U.I.I.U.U.U.I.I.I.I.I.I.I.I.U.U.I.I.I.I.I.I.P.P.P.P.P.I.I.I.I.I.I.I.I.P.I.P.I.P.P.P.P.I.I.I.I.I.I.P.P.P.P.P.P.P.P.P.P.P.P.P.P.P.P.P.P.P.;.;.;.;.;.;.;.;.;.=.=.;.;.;.;.;.;.;.;.;.=.=.=.=.;.;.;.;.;.;.;.;.;.;.;.;.;.;.;.;.;.;.;.;.;.;.;.;.;.;.;.;.;.;.P.P.;.;.;.;.;.;.;.;.;.;.;.;.=.;.=.;.;.;.;.;.;.=.;.;.;.=.;.:.:.=.*.:.:.:.*.*.*.*.:.:.:.*.*.*.*.*.*.*.*.*.*.*.*.*.*.:.:.:.:.:.*.*.*.*.#.#.#.#.#.#.#.#.@.@.@.@.#.#.#.#.#.@.@.$.@.@.@.@.@.@.#.#.#.#.#.@.#.@.@.@.+.O.+.@.@.@.@.@.@.@.@.@.@.@.@.@.O.O.O.@. . ... .| | | } | | | | } | | | | } R } | | | | | | | | | | | | | | | | | | | |  ..... . ... . . . . . . . . . . . . . . . . . . .O.O.O.O.O.O.O. . . . . . . . . ... . . ..... . . . . .O.O.O.O.O.O.O.O.O.O.O.O.O.O. . . . . . . ....... ...R R R R R R | R | R I I I I I I I I I I I I I I I I R R R R | R R | I I I R R R R R R R R R R R R I I I I R R I I I R R I I I I I I I I I I P P P P P P P P P P P P P P P P P K K P K P P K K P P P P I I P P P P P P P P P P P P P P P P P P K K P P P P L L L L P K K K K P P P P K K U I I I I I I I R R R R R R R R R R R R Y L I I I R R R R R E  . . . . .E E E E E E E E ^ ^ O.O.^ O. .O.E E E E E E E E E E ^ O.^ ^ ^ E ^ E E E E E E E E E E E E E E R W R E R E Y R R E E E T T E E E E R E Y Y Y R R E E E E E ^ ^ O.O.+.+.+.+.O.^ ^ ^ ^ ^ O.^ ( ^ ^ ^ ^ ^ ^ ( ^ ( ^ ^ ^ ^ ^ ^ / / / / / ",
"W.W.W.W.W.W.W.W.W.W.W.W.W.I.I.I.U.I.I.I.U.I.I.U.U.I.I.I.I.I.I.I.I.I.U.U.I.I.I.I.I.I.I.I.I.I.I.I.P.I.I.P.P.I.I.I.U.U.I.I.I.P.P.I.I.I.I.I.I.P.P.P.P.P.P.P.P.P.P.P.P.P.P.P.P.P.P.P.P.P.;.P.P.;.;.;.;.;.=.;.;.;.;.;.;.;.;.;.;.=.;.;.;.;.;.;.;.;.;.;.;.;.;.;.;.;.;.;.;.;.;.;.P.P.;.;.;.;.;.;.P.;.P.;.;.;.;.;.;.;.;.;.;.;.;.;.;.;.;.;.;.;.;.;.;.;.;.;.;.;.;.;.;.:.=.=.:.:.:.:.*.*.:.:.:.:.:.:.:.:.:.:.:.*.*.:.:.*.*.:.:.:.:.:.*.*.*.*.*.*.*.*.*.*.*.#.#.#.#.#.#.#.#.@.@.@.@.@.#.@.@.@.@.@.#.#.#.#.#.@.#.@.@.@.@.@.+.@.@.@.@.@.@.@.@.@.@.@.@.@.@.O.O.@.O. . ...| | | | | | | | | | ....|  ...| | | .. . .| | | | | | | | | | | | } | |  . . . . ... . . . . . . . . . . . . . . . . . .O.@.O.O.O.O.O.O.O.O.O.O.O.O.O.O.O. . . . . . . . . . . .O.O.O.O.@.O.O.O.O.O.O.O.O.O. . . . . ......... . .| R R | R R R | | R R I I I I I I I I I I I I I I I R R I R R R R R R R R I R R R R R R R R R R R I I I I R R R I R R R R I I I I I I I I I P P P I P P P P P P P P P P K K K K K K K K P K K K K K K K P P P P P P P K P P P P P P P P P P P K K K P K P P P L L L L P K K K K P P P P K U I I R I R R R R R R R R R R R R R R R R R R R R R R R R R R E  . .O.O.O.^ ^ ^ ^ E E E ^ ^ ^ ^ E E E E E E E E E E E E E O.O.O.^ ^ ^ ^ ^ ^ E E E E E E E E E E E R R R E E E E E E E E E E E W T E E E E E E E E E E E E E ^ ^ ^ O.+.$./ $.$.$.$.$./ O.+.+.^ O.^ ^ ^ ^ ^ / ( ^ / ^ ^ / / ^ / ^ ^ / / / / / ",
"W.W.W.W.W.W.W.W.W.W.W.W.W.W.W.I.U.U.U.U.U.U.U.U.U.U.U.U.U.U.U.U.I.U.U.U.I.I.I.I.U.U.I.I.I.I.I.I.P.I.I.P.P.P.P.I.I.I.I.I.I.I.I.I.U.I.I.I.I.I.P.P.I.I.P.P.P.P.P.P.P.P.P.P.P.P.P.P.P.P.P.P.P.;.;.;.;.P.;.;.;.;.;.;.;.;.;.;.;.;.;.;.;.;.;.;.;.;.;.;.;.;.;.;.P.;.;.;.;.;.;.;.P.P.;.;.P.;.;.;.;.P.;.;.;.;.;.P.P.P.;.;.;.;.;.;.;.;.;.;.;.;.;.;.;.P.;.:.;.;.;.;.;.;.=.:.;.;.;.;.;.;.;.;.;.;.:.:.;.;.;.:.:.=.=.;.*.;.;.:.:.:.=.=.=.=.*.*.*.*.:.:.*.*.*.*.*.*.*.#.#.#.#.@.@.@.@.@.#.#.#.#.#.#.#.#.#.#.#.#.#.#.#.@.@.@.@.@.@.@.@.@.@.@.@.@.@.@.@.@.@.@.@.@.O.@. . ... ... . . . . .| | .. . . ....... . . . . . .| | | ..| | | .. . . . . . . . . . . . ... . . . ..... . . . . . . .O.O.O.O.O.O.O.O.O.O.$.O.O.O.@.O.@.O.@.O.O.O.O.O.O.O.O. . . ...O.O.O.$.O.O.@.@.@.@.@.@.O.O. . ............. . . .| | R R | | | | | I I I I I I I I I I I I I I I I I I I R R R R R R R R R R R R R R R R R R R R R R I R I R R R R R | R R R I I I I I U I P U P P P P P P P P P P P P K K K P K K K K K P P P K K K P P K K P P K P P x P P K K P P P K K K K K K K P K P P P I P P I P P P P P P P I P P P P I I R R R R R R R R R W R E E E R W R R R R R R R R R E E  . .O.^ O.O.O.^ ^ ^ E E E ^ ^ E E E O.O.E E E E E E E E E E E E E E E E E E E E E E E E E E E E R E E E E E E E E E E E W E E E E E E E E ^ ^ ^ E E W E E E ^ ^ O.^ O./ / +.+.+.$./ / ! ! / $./ ! ( / ^ / / / ( / ! / / / / ( / / ( ! $.+.! $.",
"W.W.W.W.W.W.W.W.W.W.W.W.W.W.W.W.I.U.U.U.U.U.U.U.U.U.U.U.U.U.U.U.I.U.U.U.I.I.I.I.U.U.U.I.I.I.I.I.I.I.U.I.I.P.I.I.I.I.I.I.I.I.I.I.U.U.I.I.I.I.I.I.I.P.P.P.P.P.P.P.P.P.P.P.P.P.P.P.P.P.P.P.P.P.P.;.;.P.;.;.;.;.;.;.;.;.;.;.;.;.;.;.;.;.;.;.;.;.;.;.;.;.;.;.P.;.;.;.;.;.;.;.P.P.;.;.;.;.;.;.P.P.;.;.;.;.;.;.P.P.;.P.;.;.;.;.;.;.;.;.;.;.;.;.;.;.;.;.;.;.;.;.;.;.;.;.;.:.:.:.:.:.;.:.:.:.:.:.:.:.:.;.:.:.=.=.=.;.;.;.:.:.;.;.;.;.=.=.*.:.:.:.*.*.*.*.*.*.*.*.:.*.*.#.#.#.#.#.#.#.@.@.#.#.#.#.#.#.#.#.#.#.#.#.@.@.@.@.@.@.@.@.#.@.@.@.@.@.@.@.@.@.@.@.O.O.O... . . . . . ... . . . . . .O. . . . . . . . . . . . . . . ..... . . . . . . . . .O. . . . . . . . ....... . . . .O.@.@.O.O.O.O.O.O.O.O.O.O.O.O.O.O.@.@.@.@.O.O.O.O.O.@.O.O.O.O.O.O.O.$.O.O.O.O.O.O.O.O.O.O.O. ...............|  . .| R R R R | | | | R I I I I I I I I I I I I I I I I I I I R I R R R R R R R R R R R R R R R R R R R R R I R R | R R | R R R I I I I I U I P P P P P P K K K K K K P P P P K K K K K K K K P P K K P P K K P P P P P P P P x z K P P K K K x K K K K P P P P I I I I I P P P P P P P I I P P I I I R R R R R R R E E E E  .O.E E E E E  ...E R R R R R E E E O.O.O.O.O.^ ^ E E E E ^ ^ E E E O. .E E E E E E E E E E E E E E W E E E E W W W E E E E E R E E E E E E E ^ E E E E E E E E ( ^ ^ ^ ^ ^ ^ ^ O.^ ^ ^ ^ ^ +./ +.+.+.+.+.%.%.+.+.! +.+.+.+.#.+./ / / ! ! ! $.+.+.%.+./ / / / / +.+.+.%.%.%.*.",
"W.W.W.W.W.W.W.W.W.W.W.W.W.W.W.W.W.W.W.U.U.U.U.U.U.U.U.U.I.I.I.I.I.I.U.U.U.U.I.I.I.I.U.U.U.U.I.I.U.U.U.I.I.I.I.I.I.I.I.I.U.I.I.I.U.U.U.U.I.I.U.U.I.P.P.P.P.P.P.P.P.P.P.P.P.P.P.P.P.P.P.P.P.P.P.P.;.;.P.;.P.P.;.;.;.;.;.;.;.;.;.;.;.;.;.;.;.;.;.;.;.;.;.;.P.P.;.;.P.P.P.P.P.P.;.;.;.;.;.;.P.;.;.;.;.;.;.;.P.;.P.P.;.;.P.P.P.P.P.P.P.P.P.P.P.P.P.P.;.;.P.P.;.;.;.;.;.;.;.;.;.;.;.;.;.;.;.;.;.;.;.;.=.=.=.=.=.=.=.;.;.;.;.;.;.;.;.;.;.;.;.;.=.*.*.:.:.:.:.:.:.:.:.#.#.#.#.#.@.@.@.@.#.#.#.#.#.#.#.#.#.#.#.#.@.@.@.@.@.@.@.@.@.@.@.@.@.@.#.#.@.@.@.@.O.O.O.O.O.O. . .@.@.@.@.@.@.@.@.O.O.O.O.O.O.O.O.@.O.O. . . . . . . . . . . .O.@.O.@.O.O.@.@.@.O. . . . .O. . . . . .O. .O.@.@.@.O.@.O.O.O.O.O.O.O.O.@.O.@.@.+.@.@.+.+.O.O.O.O.O.O.O.O.O.$.$.O.O.O.O.O.O.$.$.O.O.O. . ... .......| | | | | | R R R R R R | | | R R I I I I I I I I I I I I I I I I I I I I R R R R R R R R R R R R R R R R R R R R R R | R R R R R R R I I I I I I I I P P P P K K K K K K K P P P P K K x K K K x K K K K K P P K K P P P P P P P x x x x x K x x K K K K K K P P P P I I I I P I I P I P P I I I I I I I I R R R R R R E E  .O.O.O.O.O.O.O.O.^ O. .E E E W R E E E E E ^ ^ O.O.^ ^ ^ O.^ O.E E E E E E  .E E R E E R R E E E E E E E W E E E E E W E E E E E E R E E E E E E E ^ ^ ^ E ( ( ( ^ ^ ( ^ O.+.+.+./ +.+.$.$./ / +.+.+.+.+.%.%.%.%.*.%.%.%.%.*.%.%.%.+.+.! ! ! ! ! +.%.%.%.%.%.%.%.+.+.%.%.%.%.*.*.%.",
"W.W.W.W.W.W.W.W.W.W.W.W.W.W.W.W.W.W.W.U.U.U.U.U.U.U.U.U.U.U.I.I.I.U.U.U.U.U.U.U.I.U.U.U.U.U.U.U.I.I.I.I.I.I.U.U.I.I.I.U.U.I.I.U.U.U.U.U.U.U.U.U.I.I.P.P.P.P.P.P.P.P.P.P.P.P.P.P.P.P.P.P.P.P.P.P.P.P.P.P.P.P.;.;.P.P.;.;.;.;.;.;.;.;.P.P.P.P.P.P.P.;.;.;.;.P.;.;.P.P.P.P.P.P.;.;.;.;.;.P.P.P.;.P.;.;.;.;.;.;.;.P.;.;.P.P.P.P.P.P.P.P.P.P.P.P.P.P.P.P.P.P.P.;.;.;.;.;.;.;.;.;.;.;.;.;.;.;.;.;.;.;.;.;.=.=.=.=.=.;.;.;.;.;.;.;.P.P.;.:.;.;.=.=.:.:.:.:.:.:.:.:.*.#.#.#.#.#.#.#.#.#.#.#.#.*.*.#.#.*.#.#.#.#.#.@.#.#.#.#.#.#.#.#.#.#.@.@.@.@.@.@.#.#.@.O.O.O.@.@.@.@.@.@.@.#.@.@.@.#.@.@.#.#.#.#.@.@.@.@.@.O.O. . . .O. .O.O.O.O.O.@.@.@.@.@.@.@.@.@... .O.O.O.O. . . . .O.O.O.O.O.O.O.@.O.O.O.O.O.O.O.O.@.@.@.#.#.#.#.#.#.@.#.+.+.O.O.@.+.+.O.O.O.O.O.O.O.$.$.$.O.O.O. . ... .....| | | | |  .| R R R R R R R | R R R R I I I I I I I I I I I I I I I I I I I R R R | | R R R R R R R R R R R R R R R R R | | R R R R R R I I I I I I I P P K P P P K K K K K K P P P P K x K K K K K K K K K K K K z K P P x P P K P x x x x x x x x K K K P K K P P P I I I I I I I I I I P P I I I I I R R R R R R R E E E E O.O.O.O.O.O.O.O.+.O.O. .O. .E E E E E E E E E ^ ^ O.^ O.O.O.O.O.O.O.O.E E E E E E E E E R R E E E E E E E E E E E E E E E E E E E E E E E E E E E ^ ^ ( ^ / ^ O.$.$.+.$.$.+.+.#.+.+.+.+.+.+.+.+.+.%.+.*.*.%.%.%.*.%.%.%.%.%.%.%.*.*.+.+.+.+.! ! ! +.%.*.*.%.%.%.%.%.%.%.%.%.%.%.%.%.",
"W.W.W.W.W.W.W.W.W.W.W.W.W.W.W.W.W.W.U.U.W.U.U.U.U.U.U.U.U.U.U.U.I.U.U.W.W.W.U.U.I.I.U.U.U.U.U.U.I.I.I.I.I.I.I.I.I.I.I.I.U.U.U.U.U.U.U.U.I.I.I.I.I.I.I.I.Y.Y.P.P.P.I.P.P.P.P.P.P.P.P.P.P.P.P.P.P.P.P.P.P.P.P.P.P.P.P.;.;.;.;.;.;.;.;.;.;.;.P.;.;.;.;.P.P.;.;.;.;.P.P.P.P.P.P.;.;.;.;.;.;.;.;.;.;.P.P.;.;.;.;.;.;.;.;.P.P.;.;.;.;.P.P.;.;.P.P.P.P.P.P.P.P.P.P.;.;.;.;.;.;.;.;.;.P.;.;.;.;.;.;.;.;.;.;.;.;.=.=.=.=.;.;.;.;.;.P.;.P.;.;.;.=.=.=.:.:.:.:.*.*.*.*.*.*.*.#.*.#.#.#.#.#.*.*.*.*.*.*.*.*.#.#.#.#.#.#.#.#.*.#.*.*.*.*.*.*.*.#.#.#.#.@.#.#.#.@.@.@.@.@.@.@.#.@.@.#.#.@.@.@.#.@.#.#.#.#.#.#.#.@.@.O.O.O.O.O.O.O.O.@.@.O.O.@.@.@.#.@.@.#.@.O.O.O.O.O.O.O.O.O.O.O.O.O.O.O.O.O.O.O.@.@.O.O.O.O.O.@.@.@.#.#.#.#.*.#.#.#.#.#.#.#.#.+.+.+.@.@.@.@.@.O.O.O.O.O.O.O. . . ... ...| | | |  . . . .| | | | R R R | R R R R } I I I I I I I I I I I I I I I I I I R R | | | | R R R R R R R R R R R R R R R R | | R R R R R R R R I I I I P P P P K K K P K x x x x x P P P P K K K K K K K K K K K K K z K P P K K P K K x K x K x x x x K x K P P K P P P I I I P I I U I I I I I I I R R R R R R R R  .R E E E ^ O.O.O.+.@.@.$.+.+.+.O.O.O.O.O. .E E E E E E E E ^ O.O.O.O.O.O.O.^ ^ O.O.E E E E E E E E W E E E E E E E E E ^ E ^ E ^ ^ ^ E E E E E E E E E E ^ ^ / ! ! ! $.$.+.%.%.*.+.+.%.%.%.%.%.*.*.%.%.%.%.%.*.%.%.%.%.%.%.%.%.*.%.%.%.%.%.*.%.%.+.+.+.+.+.+.+.%.*.%.%.%.%.%.%.*.%.%.%.%.%.%.&.",
"W.W.W.W.W.W.W.W.W.W.W.W.W.W.W.W.W.W.U.U.W.W.U.U.U.U.U.U.U.U.U.U.U.U.W.W.W.W.U.U.I.I.U.U.I.I.U.U.I.I.I.I.I.I.I.I.U.I.I.I.U.U.I.U.U.U.U.U.U.I.I.I.I.I.I.I.I.I.I.P.P.I.P.P.P.P.P.P.P.P.P.P.P.P.P.P.P.P.P.P.P.P.P.P.P.P.P.;.;.;.;.;.;.;.;.;.;.P.;.;.;.;.P.P.P.P.;.;.;.;.P.P.P.P.;.;.;.;.;.;.;.;.;.;.P.P.P.P.;.;.;.;.;.;.P.P.;.P.;.;.P.;.;.P.P.P.P.P.P.P.P.P.P.P.;.P.;.;.P.;.P.P.;.P.P.P.;.;.;.;.;.;.;.;.;.;.=.=.=.=.;.;.;.;.;.;.P.;.;.;.;.=.=.=.:.:.:.*.*.*.*.:.:.:.*.*.*.*.*.#.*.*.*.*.*.*.*.*.*.*.*.*.*.*.*.#.#.#.*.*.*.*.*.*.*.*.*.*.#.#.#.#.#.#.#.#.@.@.@.#.#.#.#.@.@.@.@.@.@.@.@.@.#.#.#.#.#.#.+.@.@.@.@.@.@.@.@.@.@.@.#.@.@.@.@.#.#.#.@.@.@.O.O.O.@.@.@.@.O.O.O.O.O.O.O.O. .O.O.O.O.@.O.O.O.@.@.@.@.#.*.#.*.*.*.*.*.*.*.#.#.#.#.#.@.@.@.#.#.@.@.O.O.O.O.O.O. . . .........| | | |  . . . . .| | | R R R | R R R R } } I I I I I I I I I I I I I I I I R R R R R R R R R R R E R R R R R R R R R R | | | | R R R | R I I I I I P P P P P K x x P P x x x x x x P P P P K K K K K K K K K K K K x K P P K K P K K K K K x x x K x K K K P P P P P P I I I P I I U I R I R R R R R R R R R R E R R R E E E ^ O.O.+.+.#.+.@.@.+.+.@.@.O.O.O.O. . .E E E E E E O.O.O.O.O.O.O.O.^ O.O.O.E O.O.E  . .E E E E E E E E  . .E E E E ^ O.^ ^ ^ E E W E E E E E E ^ ^ O.$.+.+.+.+.+.*.*.*.*.*.*.%.*.%.%.%.%.%.%.%.%.-.%.%.&.&.=.&.%.%.=.=.=.*.%.%.%.%.%.%.%.*.%.+.+.+.%.%.%.%.%.%.%.%.%.%.*.%.%.%.%.-.-.&.",
"W.W.W.W.W.W.W.W.W.W.W.W.W.W.W.W.W.W.W.W.W.W.U.U.U.U.U.U.U.U.U.U.U.U.W.W.W.U.U.U.U.I.I.I.I.I.I.I.I.I.I.I.I.U.U.U.U.I.I.I.I.I.I.U.U.U.U.U.I.I.U.I.U.I.I.I.I.I.I.I.P.I.I.I.I.I.I.P.P.P.P.P.P.P.;.;.P.P.P.P.P.P.P.P.P.P.P.;.;.;.;.;.;.;.;.;.;.;.;.;.;.;.;.;.P.P.;.;.;.;.;.;.;.;.;.;.;.;.;.;.;.;.;.;.;.P.;.;.;.;.P.P.;.;.P.P.P.P.P.P.P.;.P.P.P.P.P.P.P.P.P.P.P.;.;.P.P.P.P.P.P.P.P.P.P.P.P.P.P.;.;.;.;.;.;.;.;.=.=.=.;.;.;.P.;.;.;.;.;.;.=.=.=.;.:.:.:.:.*.*.:.:.:.:.:.:.:.*.*.*.:.*.:.:.*.*.*.*.*.*.*.*.*.*.*.*.*.*.*.*.*.=.*.:.=.:.*.*.*.*.*.*.#.#.#.#.@.@.@.@.@.#.#.#.#.#.#.@.#.#.#.#.#.*.*.#.#.@.+.@.@.@.#.#.@.@.@.O.+.@.#.#.@.@.@.#.@.@.@.@.@.@.O.O.@.@.@.@.@.@.O.O.O.@.O.O. .O.O.O.O.@.#.@.#.#.@.@.#.#.*.*.*.*.*.*.*.*.*.#.#.#.#.#.#.#.#.#.#.@.#.O.O.O.O.O.O. . . . ...| R R R | |  . . . ...| ..| | | R | | R R | | R I I I I I I I I I I I I I I I I R R R R R R | | R R R E  . . .R | | R R R R R R R R R R R R R I I I I I P K K P K K x K P x x x x x x x x P P P K K K K x K P P K K K P P K P P K K P K K K K K K K K K K K K P P P P P P P P I I I I I R R R R R  . . .E E E E E E E E E E E  .O.O.O.@.@.+.+.+.+.+.+.$.@.O.O.@.O.O. . .E E E  . . .O.O.O.^ O.O.O.O.O.^ ^ O.O.O.O.O.O.^ O.E E E E E E E  .E ^ ^ ^ ^ ^ O.^ O.^ ^ E E E E E E ^ ^ ^ $.#.+.%.%.%.*.*.*.*.*.%.%.%.%.%.%.*.*.&.%.&.&.&.=.=.=.=.=.=.=.=.=.=.=.&.&.%.=.%.%.%.%.%.*.%.%.%.%.%.%.%.*.*.*.%.%.*.%.%.%.%.%.%.-.-.&.",
"W.W.W.W.W.W.W.W.W.W.W.W.W.W.W.W.W.W.W.W.W.W.U.U.U.U.U.U.U.U.U.U.U.W.W.W.U.U.U.U.U.U.U.I.I.I.I.I.I.I.I.I.U.U.U.U.U.I.I.I.I.I.I.U.W.U.U.U.U.U.U.U.U.I.U.U.I.I.U.I.I.I.I.I.I.I.I.I.P.P.P.P.P.P.;.;.P.P.P.P.P.P.P.P.P.P.P.P.;.P.P.P.;.;.;.;.P.;.P.;.;.;.;.;.P.P.P.;.;.;.;.;.;.;.;.;.;.;.;.;.;.;.;.;.;.;.;.;.;.;.P.P.;.;.P.P.P.P.P.P.P.P.P.P.P.P.P.P.P.P.P.P.P.;.;.P.;.;.P.P.P.P.P.P.P.P.P.P.P.;.;.;.;.;.;.;.;.;.=.=.;.;.;.P.;.;.;.;.;.;.;.=.;.:.;.;.:.:.:.:.:.;.;.;.;.;.;.;.;.;.;.:.:.:.:.:.*.*.*.:.*.*.*.*.*.*.*.*.:.:.:.:.:.:.;.:.:.:.*.*.*.*.*.*.*.*.#.#.#.#.#.#.#.#.#.#.#.#.#.#.*.*.*.*.*.*.#.#.#.#.@.#.#.@.@.@.+.+.$.+.@.#.#.#.#.#.@.@.$.O.@.@.@.@.#.#.#.@.@.@.@.@.@.@.@.O.O.O.O.O.O.@.@.#.#.#.#.@.#.#.*.*.*.*.*.*.*.*.*.*.#.#.#.@.@.#.#.@.@.@.#.@.O.O.O.O.O. . . . ...R R R R | |  . . . .......| | | | ..| R R R | R I I I | R I I I I I I I I I I R R R R R R R | | R R R R R R R R R R R R I R R I R R R I I R I I I I P P P K K K x x P P x x x x x x x x z x P K x K x K K P P P P P P P P K x P K K K K K K K K P K K K P P K P I P P P P P P P I I I R R ...... .O.O.O. . . .E ..E E E  . . . .O.O.O.@.+.+.+.+.+.*.+.$.$.O.O.O.@.O.O.E E E E  . .O.O.O.O.O.O.O.O.O.O.O.O.O.O.@.@.O.O.^ O.^ O.O.^ E E O. .O.O.O.O.^ ^ ^ ^ ^ O.^ ^ ^ ^ O.^ / ^ / $.+.*.%.*.=.&.%.%.*.*.*.&.&.=.&.=.=.=.=.=.=.=.=.=.=.=.=.=.=.=.=.=.=.&.&.&.&.&.=.%.%.%.%.%.*.*.%.%.%.%.%.%.%.*.%.%.%.*.%.%.%.%.%.&.&.&.=.",
"W.W.W.W.W.W.W.W.W.W.W.W.W.W.W.W.W.U.W.W.U.U.U.U.I.I.U.W.W.W.W.W.W.W.W.U.U.W.U.I.U.U.U.U.I.I.I.I.U.U.U.U.I.U.U.U.I.U.I.I.I.I.I.U.U.U.U.U.U.U.U.U.U.U.U.U.U.U.I.I.I.I.I.I.I.I.I.I.P.P.P.P.P.P.P.P.P.P.P.P.P.P.P.P.P.P.P.P.P.P.;.;.;.P.P.;.;.;.P.;.;.;.;.;.;.;.;.;.;.;.;.;.;.;.;.;.;.;.;.;.P.;.P.;.;.P.;.;.;.;.;.;.P.P.;.;.P.P.P.P.;.;.P.P.P.P.P.P.P.P.P.P.P.P.P.P.P.P.P.P.P.P.P.P.P.P.P.P.P.P.;.;.;.;.;.;.;.;.;.;.;.;.;.;.;.;.;.;.;.;.;.;.;.;.=.;.;.=.=.;.=.;.;.;.;.P.P.;.;.;.;.;.;.:.;.*.*.*.*.*.*.*.:.:.:.*.*.=.=.=.;.;.;.;.;.;.;.;.=.=.;.;.=.*.:.*.*.*.*.*.*.:.#.#.#.#.#.#.*.*.*.*.:.:.:.*.*.*.*.*.*.*.#.#.@.@.#.#.#.#.#.*.*.*.*.*.*.#.#.@.@.@.@.#.#.#.@.@.#.@.@.@.O.O.O.O.O.O.O.O.O.O.O.@.@.@.@.#.#.#.#.#.*.*.*.*.*.*.*.*.*.*.#.#.#.#.#.@.@.@.@.@.O.O.O.O.O.O. . . ... ...| R | |  . . . . ... .| | | | | | | | R R R R I R | I R R R I I I R R R | | | R R R R R R R R R | | | R | | R R R R R R R R R R I I I I U P P P P P P P P K x x x x x x x x x x x z z x P P P P K P P K P P P P P P P P P P P K P P P P K P P P P K P P I P I I I I I I P U I R E E E E O.O.@.@.+.O.O. . . . . .E E E E  .O.O.O.@.@.+.#.#.+.+.*.%.+.$.$.+.@.@.O.^ ^ O.E E E E O.O.O.O.^ O.^ O.+.O.+.O.@.@.@.O.O.O.O.O.O.O.O.^ ^ ^ ^ O.O.O.O.^ ^ ^ $.+.+.+.$.$.+.+.+.+.+.+.*.*.%.*.*.=.=.=.J.J.J.=.=.=.=.=.J.=.=.=.=.J.J.J.=.=.=.J.=.=.=.=.=.=.=.=.=.=.=.=.=.&.%.%.%.*.%.*.%.%.%.%.%.%.-.%.%.%.%.*.*.%.%.%.%.%.=.=.=.",
"W.W.W.W.W.W.W.W.W.W.W.W.W.W.W.W.U.U.U.U.W.W.W.W.U.U.W.W.W.W.W.W.W.W.W.U.U.U.U.I.U.U.U.U.I.I.I.U.U.U.U.U.I.U.U.U.I.I.I.I.I.I.I.U.U.U.I.U.U.U.U.U.U.U.U.U.U.U.U.I.I.I.I.I.I.I.I.I.I.P.P.P.P.P.P.P.P.P.P.P.P.P.P.P.P.P.P.P.P.P.;.;.P.P.P.;.;.;.;.;.;.;.;.;.;.;.;.;.;.;.;.;.;.;.;.;.;.;.;.;.P.P.;.;.;.;.;.;.P.;.;.;.P.P.P.;.P.P.P.P.;.;.;.;.P.P.P.P.P.P.P.P.P.P.P.P.P.P.P.P.P.P.P.P.P.P.P.P.P.P.P.P.P.;.;.;.;.;.;.;.;.;.;.;.;.;.;.;.;.;.;.;.;.;.;.;.;.;.;.;.P.P.P.P.P.P.P.P.P.P.P.P.;.;.=.*.*.*.:.:.:.:.;.:.;.;.;.;.;.;.;.;.P.P.P.P.P.;.;.;.=.;.=.;.;.;.:.:.=.:.*.:.*.*.*.*.*.*.*.*.*.*.*.:.:.:.:.*.*.*.*.*.*.*.#.#.*.*.*.*.*.*.*.*.*.:.*.*.*.*.*.#.#.#.#.#.#.#.@.@.#.@.@.@.@.@.O.O.O.O.O.O.O.@.@.#.@.#.#.#.#.*.#.*.*.*.*.*.*.*.*.*.*.#.#.#.#.#.#.@.+.O.O.O.O.O.O. . . . . . . .| | |  ... . . ..... .| | | | | | | | R R I R I R | R R R R I I R R R R | | | R R R R R R I R R R R R R R R R R R R R R R I I I I I I U P K K K K x P P P P z z x x x x x x x x x x x x P P P P P P K U P U P P P P P P P P P K P P P K K P P P P P P I I I I I I K I I I I R W E O.^ O.+.#.%.#.+.+.O.O. ...E E E E E E ^ O.O.O.@.+.#.#.*.*.*.*.+.+.#.@.#.#.+.O.^ O.O.E E ^ O.O.O.O.+.O.O.O.O.@.O.+.@.@.O.O.O.O.O.O.$.O.$.^ / ^ ^ O.O.O.$.+.+.+.%.%.*.=.%.%.%.%.%.%.-.-.*.*.%.*.=.=.J.J.K.K.P.P.K.K.I.J.J.J.J.=.J.J.J.J.J.J.J.=.J.=.&.=.=.=.=.=.=.=.=.=.=.=.&.%.=.=.*.%.%.%.%.%.%.%.&.*.*.%.%.%.*.*.%.*.&.&.=.=.=.=.",
"W.W.W.W.W.W.W.W.U.U.U.U.W.W.W.W.U.U.W.W.W.W.W.W.U.U.W.W.W.W.W.W.W.W.U.I.I.U.U.I.U.U.I.I.I.I.U.U.U.U.U.U.U.U.I.I.I.I.I.I.I.I.I.I.U.I.I.U.U.U.U.U.U.U.U.U.U.U.I.I.U.I.I.I.I.I.I.I.I.I.P.P.I.I.P.P.P.P.P.P.P.P.P.P.P.P.P.P.P.P.P.;.P.P.P.P.;.P.P.;.P.;.;.;.;.;.;.;.;.;.;.;.;.;.;.;.;.;.;.;.P.;.;.;.;.P.;.;.P.P.P.P.P.P.;.;.;.;.;.P.;.;.;.;.P.P.;.P.;.;.P.P.P.P.P.P.;.;.P.P.;.;.P.P.P.;.P.P.P.P.P.P.P.P.;.;.;.;.;.;.;.;.P.;.;.;.P.P.P.;.;.P.P.;.;.P.P.P.P.P.P.P.P.P.P.P.P.P.P.P.P.P.;.;.;.;.=.;.:.;.:.;.:.;.;.;.;.P.;.;.;.P.P.P.P.P.P.P.P.P.;.;.P.;.P.;.;.:.;.:.:.=.:.*.*.:.:.*.*.:.*.*.*.*.*.*.*.:.*.*.*.*.*.*.*.*.*.*.*.=.*.=.:.;.;.:.:.:.*.*.*.*.#.#.#.#.#.#.#.@.#.#.#.@.#.@.@.@.$.$.O.O.+.@.@.#.@.#.#.#.#.*.*.*.*.*.*.*.*.*.*.*.*.*.*.*.*.#.#.@.+.@.+.O.@.@.@.O. . . . . . . .| | .... . . .| | | | R R | | | R R R I I R I R R | | R I I I I I I I | | R R R R R R R R R R R R R R R R R R | | R I I I I I I I I I P P K K K x P P x x z z x x x x x x x x x x P P P P P P P I P P P P P I I I P P P P P P K K P P P P P P I I I I I I I I I U I I I R R E O.@.O.+.#.*.%.+.+.$.O.@. . .E E E E E ^ O.O.O.$.+.+.#.*.*.*.*.*.*.+.#.+.#.+.$.O.O.^ O.O.O.O.O.$.O.+.@.$.+.$.$.@.$.+.@.O.$.$.$.$.$.$.$.$.$.$.$.$.O.$.+.+.#.+.*.%.*.=.=.J.=.=.=.=.=.=.J.G.J.J.J.J.K.K.Y.Y.Y.Y.I.Y.Y.I.I.K.K.K.J.J.J.J.J.J.J.K.J.J.J.=.=.=.=.&.&.=.&.=.&.%.%.%.%.%.%.*.*.*.%.%.%.%.%.%.=.=.%.%.%.%.%.*.*.*.&.=.=.=.=.=.",
"W.W.W.W.W.W.W.W.U.U.U.U.W.W.W.W.U.U.W.U.W.U.U.U.U.U.U.U.W.U.U.U.U.U.I.I.I.U.U.I.U.U.I.I.I.I.U.U.U.U.U.U.I.I.I.I.I.I.I.I.I.U.I.I.I.P.I.I.I.I.I.U.U.U.U.U.U.U.I.I.U.U.I.I.I.I.I.I.I.I.I.P.I.I.I.P.P.P.P.P.P.P.P.P.P.P.P.P.P.P.P.P.P.P.P.P.P.P.P.P.P.P.P.P.;.;.;.;.P.P.;.;.P.P.P.P.;.;.;.;.P.P.P.P.P.P.;.;.P.P.P.P.P.;.;.;.;.;.;.P.P.P.P.P.P.P.;.;.;.;.;.P.P.P.P.P.;.P.P.P.P.P.P.P.P.P.P.P.P.P.P.P.P.P.P.P.P.P.;.;.;.;.P.P.;.;.P.P.P.;.P.P.P.P.P.P.P.P.P.P.I.P.P.P.P.P.P.P.P.P.P.P.P.P.P.P.P.P.;.;.*.;.:.;.;.;.P.P.P.P.P.P.P.P.P.P.P.P.P.P.P.P.P.P.P.P.P.P.P.;.;.;.=.=.=.=.:.*.*.=.*.*.*.:.*.*.=.:.*.*.*.*.*.*.=.*.=.=.=.=.=.=.;.;.;.;.;.:.*.*.*.*.*.*.*.*.*.*.*.#.#.#.#.@.#.#.#.@.+.@.@.@.+.@.@.@.#.#.#.#.#.*.*.*.*.*.*.*.*.*.*.*.*.*.*.*.*.*.#.#.#.#.+.@.@.@.@.O.O. . . . . . ......... . . .| | | | R R | | | R | R I R R R R R R | R I I I I I I I R | R R R I R R R R R R R R R R R | R | | | R R R R I I I I I I I P P P K K P K x x x z x x x x x x x x z x P P P P P P P P P I I P I I I I I I P P P P K P P P P P P I I I I I R R R R R I R R R R E  .O.@.+.#.*.*.%.*.+.+.+.@.O. .E E ^ ^ ^ O.+.+.$.$.+.+.%.%.*.*.*.*.*.*.*.+.+.+.+.$.$.$.O.O.O.O.O.O.+.@.#.$.@.$.+.@.$.$.$.O.O.$.$.$.$./ $.$.+.+.+.+.+.$.+.%.%.*.%.%.%.=.J.K.K.P.I.I.K.Y.U.Y.Y.Y.K.K.Y.Y.I.I.R.I.I.I.I.I.K.K.K.K.J.G.J.J.K.K.K.K.K.J.J.&.J.J.=.=.&.-.-.-.&.%.%.%.%.%.%.%.%.%.%.%.%.%.&.=.=.=.%.-.%.%.*.*.*.*.%.=.=.=.=.=.",
"W.W.W.W.W.W.W.W.W.W.U.U.W.W.W.W.W.W.W.W.U.U.U.U.W.U.W.W.W.W.U.W.U.U.I.I.U.I.I.U.I.I.I.I.U.U.U.U.U.U.U.I.I.I.I.U.I.I.U.U.U.U.I.I.P.P.P.I.I.I.I.U.U.U.I.U.U.U.I.I.U.U.U.U.I.I.I.I.I.I.I.I.I.I.I.I.I.I.I.P.I.P.P.P.P.P.P.P.P.P.P.P.P.P.P.P.P.P.P.P.P.P.P.P.P.P.;.;.P.P.;.P.P.P.P.;.;.;.P.P.P.P.P.P.P.P.P.P.P.P.;.P.;.;.;.;.;.P.P.P.P.P.P.P.;.;.;.;.P.P.P.P.P.P.P.P.P.P.P.P.P.P.P.P.P.P.P.P.P.P.P.P.P.P.P.P.P.P.P.P.P.P.P.P.P.P.P.P.P.P.P.P.P.P.P.I.I.I.U.U.U.I.I.U.I.I.U.U.I.I.I.P.P.P.P.P.P.P.P.;.;.;.P.P.P.P.P.P.P.I.P.P.I.P.Y.P.P.P.P.P.P.P.P.P.P.P.P.P.P.P.;.=.=.;.=.;.=.=.=.=.*.=.=.=.=.=.=.;.=.=.=.*.=.=.=.=.=.=.;.;.;.P.P.P.P.P.P.;.=.=.=.*.*.*.*.*.*.*.*.*.*.#.*.#.*.#.#.#.#.@.#.@.#.@.#.#.@.#.#.#.*.#.#.*.*.*.*.*.*.*.*.*.*.*.*.*.*.#.#.#.*.#.@.@.@.O.O.O.O.O.O. . . ......... . . . .| | | | | | | | | | | R R I R R I | R I R I I I I I I I I R I I I I I I I R R | | | | R |  .R R R R R R R I I I I I I I P P P P P P P P x x x x x x x x z x x x x x x K K P K K P P P P I P P I I I I I P K P P P I I I P I U U I I R R R R R R R I R R  . . .O.@.@.#.*.*.*.%.*.%.%.+.O.O.O.O.O./ / +.@.#.#.#.+.%.*.*.%.%.*.*.%.*.%.*.*.*.+.+.+.@.+.+.+.+.+.+.#.+.+.+.+.+.+.$.+.$.$./ / / $.$.$.$.$.+.+.*.*.%.*.%.*.*.%.%.%.&.=.=.=.K.Y.I.I.W.W.W.W.R.I.I.I.H.I.I.I.I.R.R.I.I.Y.Y.Y.K.H.G.Y.K.G.P.J.K.J.J.J.J.J.J.&.J.J.=.&.&.&.&.-.%.%.%.%.%.%.%.%.-.%.%.%.&.&.=.=.=.=.%.%.%.%.%.%.*.*.%.*.%.*.*.*.",
"W.W.U.U.W.W.W.W.W.W.U.U.W.W.W.W.U.U.U.W.W.W.U.U.W.U.W.W.W.W.U.W.W.U.I.I.U.U.I.U.I.I.I.I.U.I.U.U.U.U.U.U.U.I.I.I.I.I.U.U.U.U.U.I.P.P.P.I.I.I.I.U.U.U.I.I.U.U.I.I.U.U.U.U.I.I.U.U.U.U.U.U.I.I.I.U.I.I.I.I.I.I.P.P.P.P.P.P.P.P.P.P.P.P.P.P.P.P.P.P.P.P.P.P.P.P.P.;.P.;.;.P.P.P.P.;.;.;.P.P.P.P.P.P.P.P.P.P.P.P.;.P.;.;.;.;.P.P.P.P.P.P.P.P.;.;.;.;.P.P.P.P.P.P.P.P.P.P.P.P.P.P.P.P.P.P.P.P.P.P.P.P.P.P.P.P.P.P.P.P.P.P.P.P.P.P.P.P.P.P.P.P.P.P.I.I.U.U.U.U.U.U.U.U.U.U.U.U.U.U.I.I.Y.Y.I.Y.P.P.P.P.P.P.P.P.P.P.P.I.I.I.I.I.I.I.I.I.I.I.I.P.P.P.P.I.I.P.P.P.P.P.P.P.;.;.;.;.;.;.;.;.:.=.=.;.=.;.;.;.;.;.;.;.=.;.;.;.;.=.=.P.P.P.P.P.P.P.P.P.=.=.=.=.=.=.=.*.*.*.*.*.*.*.*.*.*.*.*.*.#.#.#.#.#.#.#.#.#.#.*.*.*.#.*.*.*.*.*.*.*.*.*.*.*.*.*.*.*.*.*.*.*.#.#.+.+.O.O.O.@.@.O.O.O. . ....... . . ... .| | ......| | | | | R I R R R I R I I R R I I I I I I I I I I I I I I R R | | R R | R R | R R | R R R R R I I I I I U P P P P P P K K x x x x x x x x x x x x x x K K K P P P P P P P P K P P P P I I P K P P P I I I I I U I I I R R R R R R R R | .. .O.O.@.@.+.*.*.*.*.%.%.%.*.+.+.$.$.+.+.$.+.%.%.*.*.%.*.*.*.*.*.*.*.*.%.*.*.*.*.*.*.*.*.+.+.#.+.+.#.#.#.+.+.+.$.+.$.$.+.$.$./ $.$.$.+.+.+.+.*.*.*.*.*.*.*.=.*.=.=.=.=.J.J.K.Y.I.I.I.W.R.I.W.R.I.I.I.K.I.W.W.R.I.R.I.I.I.I.Y.Y.K.K.P.G.G.J.G.J.J.J.J.J.J.J.J.J.=.&.&.&.&.&.&.&.%.&.=.=.=.=.=.%.=.=.%.*.=.&.=.=.%.%.*.%.%.%.%.+.+.+.! $.! ! ! ",
"W.W.W.W.W.W.W.W.W.W.W.W.W.W.W.W.W.W.W.W.U.U.W.W.W.U.W.W.W.U.U.U.W.U.I.I.U.U.U.U.I.I.I.I.I.I.I.I.U.U.U.U.U.U.I.I.I.I.U.U.U.I.I.U.I.P.I.I.I.I.I.U.U.I.I.U.U.U.U.I.U.I.U.U.U.U.U.W.U.U.U.U.I.I.I.U.I.I.I.I.I.I.I.I.I.I.I.I.I.I.I.P.U.P.P.P.P.P.P.P.P.P.P.P.P.P.P.P.P.P.P.P.P.P.P.P.P.P.P.P.P.P.P.P.P.P.P.P.P.P.;.P.P.P.P.P.P.P.P.P.P.P.P.P.P.P.P.P.P.P.P.P.P.P.P.P.P.P.P.P.P.P.P.P.P.P.P.P.P.P.P.P.P.P.P.P.P.P.P.P.P.P.P.P.P.P.P.P.P.P.P.P.I.I.I.I.U.U.U.W.W.U.U.W.W.W.W.W.W.U.I.I.U.U.I.I.Y.I.I.I.I.I.I.I.I.Y.I.I.I.I.Y.Y.I.I.I.I.U.I.I.I.I.I.I.I.I.I.I.I.I.P.P.P.P.P.P.P.P.P.P.P.;.;.;.;.;.;.;.;.;.;.;.;.;.;.;.;.P.P.P.P.P.P.Y.P.P.I.P.P.P.;.;.;.;.;.=.=.=.=.=.*.*.*.*.:.*.:.*.*.*.*.*.#.#.*.*.*.#.*.*.*.*.*.*.*.*.*.*.*.*.*.*.*.*.*.*.*.*.*.*.*.*.*.#.#.#.@.@.@.#.#.@.@.O.O. . . . . . . . ... ...........| | | R R R R R R I I } I I I I I I I I I I R R R I I R I I R | R R I R R R R R | | R I I R I I I I I I P P P P P P P x x x K x x x x x x x x x x x P P P P P P P P P P P P P P P P P P I I K I I I I I I I I I I I I R R R R R R R R .. .O.@.@.+.#.*.*.=.=.=.=.%.*.*.*.+.+.+.#.*.*.*.*.*.=.=.=.=.=.=.*.*.*.*.*.*.*.*.*.*.*.*.*.*.+.$.#.+.#.#.*.+.+.+.$.$.+.+.+.+.$.$.$.+.+.*.*.*.*.*.*.*.*.*.*.=.=.=.=.=.=.G.G.J.K.K.K.I.I.Y.I.I.I.I.I.I.I.I.I.I.W.W.I.I.K.K.Y.Y.K.K.K.G.K.K.G.G.J.J.J.J.J.J.J.J.J.J.J.J.=.=.=.=.=.=.=.=.=.=.=.=.=.=.*.=.%.%.%.%.%.*.*.%.%.+.+.$.! / / / / / ^ ^ ^ ^ ",
"W.W.W.W.W.W.W.W.W.W.W.W.W.W.W.W.W.W.W.W.W.W.W.W.U.U.U.W.W.U.U.U.W.U.I.I.U.I.U.U.U.I.I.I.I.I.I.I.U.U.U.U.U.U.I.I.I.I.U.U.I.I.I.U.U.I.I.I.I.I.U.U.I.I.I.I.U.U.U.I.U.I.U.U.U.U.W.W.W.W.U.U.U.W.U.U.U.U.I.I.Y.Y.I.U.I.I.I.I.I.I.I.I.I.P.P.P.P.P.P.P.P.P.P.P.I.I.P.P.P.P.P.P.P.P.P.P.P.P.P.P.P.P.P.P.P.P.P.P.P.P.;.P.P.P.P.P.P.P.P.P.P.P.P.P.P.P.P.P.P.P.P.P.P.P.P.I.P.P.P.P.P.P.P.P.P.P.P.P.P.P.P.P.P.P.P.P.P.I.I.I.P.P.P.P.I.I.I.P.I.P.P.P.I.I.I.I.U.U.U.W.W.W.W.W.W.W.W.W.W.W.W.W.W.W.W.W.W.W.W.W.U.U.U.I.U.I.U.W.W.W.U.U.U.U.I.I.I.I.I.I.I.I.I.I.I.I.I.I.I.I.Y.P.P.P.P.P.P.P.P.P.P.P.P.;.;.;.;.;.;.P.P.;.;.;.;.;.P.P.P.P.Y.I.I.I.I.U.I.P.P.P.P.P.P.P.;.;.;.;.=.=.=.=.=.:.=.:.*.*.*.*.*.*.*.*.*.*.#.*.*.*.*.*.*.*.*.*.*.*.*.*.*.*.=.*.*.*.*.=.*.*.*.*.#.#.*.#.@.@.#.#.#.#.@.@.O.O. . . . . . . .................| R | | | | R I I } I I I I I I I I I I R R | R I I I I | | | | R  .| R | R R R R I R R I I I I P I P P P P K x x x x P P P P P P P x x x x x x P P P P P P P P P P P P P P P P P K I I I I I I I I I I I I I I R R R R E R E ..E E  .O.+.@.+.*.*.=.=.=.=.=.=.=.=.*.*.*.*.*.*.*.*.*.=.=.=.=.=.*.*.*.*.*.*.*.*.*.%.*.*.*.*.*.*.*.#.+.+.#.#.#.+.+.+.$.$.+.+.+.+.$.$.$.+.*.*.*.=.*.*.=.=.=.=.=.=.=.=.=.G.G.G.L.G.J.K.K.Y.I.I.W.I.I.I.I.I.I.R.I.I.I.I.I.K.G.G.G.G.G.G.J.G.J.K.J.J.J.J.K.K.J.J.J.J.J.J.J.J.J.=.J.=.L.=.J.=.=.=.=.=.=.*.%.%.*.%.%.%.+.+.$.! ! / ^ ^ ^ ^ ^ ^ ^ ^ ^ ^ ^ ^ ",
"W.W.W.W.W.W.W.W.W.W.W.W.W.W.W.W.W.U.W.W.W.W.U.I.U.U.U.U.U.U.U.U.I.I.U.U.I.I.I.I.I.I.I.I.I.U.U.U.U.U.U.I.I.I.U.U.I.I.U.I.I.I.I.U.I.I.I.I.I.U.U.U.I.I.I.U.I.I.I.U.U.I.U.U.W.W.W.W.W.W.W.W.W.W.W.W.U.U.U.U.Y.Y.I.U.I.I.I.I.I.I.I.I.P.P.I.I.I.I.I.P.P.U.U.U.I.U.U.U.I.I.P.P.P.P.P.P.P.P.P.P.P.P.P.P.P.P.P.P.P.P.P.P.P.P.P.P.P.P.P.P.P.P.P.P.;.;.;.P.P.P.P.P.P.P.I.P.P.P.P.P.P.P.P.P.P.P.P.P.P.P.P.I.P.P.P.P.I.I.I.P.P.I.I.I.U.U.U.U.I.I.Y.Y.Y.Y.I.U.U.U.U.U.W.W.W.W.W.W.W.W.W.Q.Q.Q.Q.Q.Q.Q.Q.Q.Q.Q.Q.Q.Q.Q.Q.Q.W.W.W.W.W.U.I.I.U.U.I.I.U.I.I.I.I.U.U.U.U.I.I.I.I.I.I.P.I.I.I.I.I.I.I.U.P.P.;.P.P.;.;.P.P.P.P.P.P.;.P.P.P.P.P.Y.I.I.I.I.P.P.P.P.P.P.P.P.;.;.;.;.;.=.=.;.;.:.=.=.*.*.*.*.*.*.*.*.*.*.*.*.*.*.*.*.=.*.*.*.=.*.=.*.*.*.*.*.=.=.=.=.=.=.*.*.*.#.*.#.#.@.@.#.@.@.O.O.O.O.O.O. . . . ................... . .| R R R R | R R I I I I I I I I I I I I I I I I I I R | | | I | R R R R R R R I R I I I I U I P P P U P P P P P P P P P K K K K K K K P P P P K P P P P P P P P P P P P P I I I I I I I I I R R R R R R R R R R R R E E E E ..O.O.+.+.*.*.*.=.=.=.J.=.=.J.=.=.=.*.*.*.*.=.=.=.=.*.*.*.*.*.*.*.*.*.*.*.*.*.*.*.*.*.*.*.+.+.#.*.+.#.#.#.+.+.+.+.+.+.+.+.+.+.+.+.*.*.*.=.=.=.=.=.=.=.=.=.=.=.=.=.&.G.G.G.G.G.Y.I.I.I.W.W.U.I.I.I.I.K.K.I.I.I.K.K.K.G.K.G.G.G.G.K.P.K.J.J.J.K.K.J.J.I.I.I.K.K.J.J.K.J.J.J.J.J.J.=.J.J.J.=.=.&.-.%.*.+.+.! ! / ( ^ / ^ ^ ^ ^ ^ ^ ^ ^ ^ ^ E E E E E ",
"W.W.W.W.W.W.W.W.W.W.W.W.W.W.W.W.W.W.W.U.W.W.U.U.U.W.U.U.U.U.U.U.U.I.I.I.I.I.I.I.U.U.I.I.I.U.U.U.U.U.U.I.I.U.U.U.I.I.U.U.I.I.U.U.U.I.I.I.U.U.U.U.Y.I.Y.I.I.Y.I.U.U.U.U.W.W.W.W.W.W.W.W.W.W.W.W.W.W.W.U.I.U.U.I.I.I.I.I.I.I.I.I.I.I.I.I.I.I.P.P.P.P.U.U.U.I.I.I.I.I.P.P.P.P.P.P.I.P.P.P.P.P.P.P.P.P.P.P.P.P.P.P.P.P.P.P.P.P.P.P.P.P.P.P.P.P.P.P.P.P.P.P.P.P.P.I.I.P.P.P.P.P.P.P.P.P.P.P.P.P.P.P.I.P.P.P.I.I.P.P.I.I.I.I.I.U.U.U.I.I.I.I.I.I.U.U.U.U.U.U.W.W.W.W.W.W.W.Q.Q.Q.Q.Q.Q.Q.Q.Q.Q.{.Q.{.Q.{.{.{.{.{.{.Q.Q.Q.W.W.W.U.I.I.I.I.U.U.U.U.U.U.U.U.U.U.U.I.U.I.I.I.I.I.U.U.I.I.U.U.I.I.P.P.P.P.P.;.;.P.P.P.P.P.;.P.P.P.P.I.I.Y.I.U.I.I.I.P.P.P.P.P.P.P.P.P.;.;.=.;.;.;.;.=.=.=.=.=.*.*.*.*.*.*.*.*.*.*.*.*.=.=.=.*.*.:.=.=.=.=.=.=.=.=.=.=.=.*.*.*.*.*.*.*.#.#.#.+.@.+.+.+.+.@.O.O.O.O.O. . . ... ..... . ... . . .| | R R R | | | R R I I I I I I I I I I I I I I I R | | | | R R R R R I I I I I I I I I I I I I P P U K P P P P P P P P P P P P P P P P P P P K U P P P P P P P U P U P U I I I I I I R R R | R R R R R R R | R R R E E E $.O.+.+.+.*.=.=.=.=.=.P.J.=.=.;.;.=.=.=.*.*.*.*.*.*.*.*.*.*.*.*.*.*.*.*.*.*.*.*.*.*.*.*.*.*.#.+.#.#.*.*.*.#.+.$.+.+.+.+.+.+.%.+.*.*.*.%.=.=.=.=.=.=.=.=.=.=.J.G.G.G.G.G.G.G.K.Y.I.U.W.W.R.R.I.I.I.I.K.H.K.I.I.Y.Y.K.Y.P.P.G.G.G.K.K.P.K.K.J.J.K.K.K.K.K.I.I.K.K.K.K.I.I.I.I.I.J.J.J.J.J.=.=.=.=.%.*.+.$.O.O.^ ^ ^ ^ ^ ^ ^ E E E E E E E R R R Y Y Y ",
"W.W.W.W.W.W.W.W.W.W.W.W.W.W.W.W.W.W.U.U.U.U.U.U.U.W.U.U.U.U.U.U.U.U.U.U.I.I.I.I.U.U.I.I.U.U.U.U.U.U.I.I.I.I.U.U.U.U.U.U.U.U.U.I.I.I.I.I.I.U.U.U.I.I.I.I.I.Y.I.U.U.U.U.W.W.W.W.W.W.W.W.W.W.W.W.W.W.W.W.U.U.U.U.I.U.U.U.U.U.U.I.I.I.I.I.I.I.Y.I.I.I.I.I.I.I.I.I.I.I.I.I.I.I.I.I.I.U.I.I.I.P.P.P.P.P.P.P.P.P.P.P.P.P.P.P.P.P.P.P.P.P.P.P.P.P.P.P.P.P.P.P.P.P.P.P.I.P.P.I.I.P.I.P.P.P.P.P.P.P.P.P.I.I.I.I.I.I.I.Y.I.I.I.U.U.W.W.W.U.U.U.U.U.U.U.U.U.U.U.U.W.W.W.W.W.W.Q.Q.Q.Q.Q.{.{.{.{.{.{.{.{.{.{.{.{.{.}.{.{.{.{.Q.Q.Q.W.W.W.U.U.U.W.W.W.W.W.W.W.W.W.W.W.W.W.W.U.U.U.U.U.U.U.U.U.U.U.U.Y.P.P.P.P.P.P.P.P.P.P.P.P.P.P.P.P.I.I.U.I.U.I.I.I.Y.P.P.P.P.P.P.P.P.P.;.;.;.;.;.;.=.;.=.=.=.=.:.=.:.*.*.*.*.*.*.*.=.=.=.=.*.=.=.=.=.=.=.=.*.*.:.:.:.=.*.*.*.*.*.*.*.*.*.#.#.+.#.#.+.@.@.O.O.O.O.O.O.O.O. . . . . .O. . . . .....| | | | | | | R I I I I I I I I I R R R I I R R R | | | | I I I I I I I I I I I I I I I I I I I U U U I I P U U U I I I I I I I I I P I I U U U I I P I I I I I U U U I I R R R R | | R | R R E R E E E E E E E ..O.$.+.+.*.*.*.=.=.=.=.=.J.J.=.=.=.;.=.=.=.=.=.*.*.-.-.*.*.*.*.*.*.*.*.*.*.*.*.*.*.*.*.*.*.%.%.*.*.#.#.#.#.#.*.*.+.+.+.+.+.+.*.*.*.*.*.*.=.=.=.=.J.J.J.J.J.=.=.=.G.G.G.K.Y.Y.K.I.W.W.W.W.W.W.R.R.R.Y.K.I.K.H.H.I.K.K.I.K.I.Y.G.G.G.G.G.K.I.K.K.K.H.K.K.K.K.K.I.I.Y.Y.I.I.K.K.P.P.P.P.J.J.J.=.&.-.*.*.*.+.$.O.O.^ E E E E E E E R R R Y Y L L L L L L U H ",
"W.W.W.W.W.W.W.W.W.W.W.W.W.W.W.W.W.W.U.U.U.U.U.U.W.W.U.U.U.U.U.U.U.U.U.U.U.U.U.I.U.U.U.I.U.U.U.U.U.U.I.I.I.I.U.U.U.U.I.U.U.I.I.I.U.U.U.U.U.U.U.I.U.I.I.I.I.I.I.I.I.I.U.U.W.W.W.W.W.W.W.W.W.W.W.W.W.W.W.W.W.W.U.I.W.W.U.U.U.U.U.I.U.U.U.I.I.I.I.I.I.I.I.I.I.I.I.I.I.I.I.I.I.I.I.U.I.U.I.I.P.P.P.P.P.P.P.P.P.P.P.P.P.P.P.P.P.P.P.P.;.P.P.P.P.P.P.P.P.P.P.P.P.P.P.P.P.P.I.I.I.I.I.P.P.P.P.P.I.P.P.I.I.I.I.U.U.I.I.U.I.U.W.W.W.W.W.W.W.W.W.U.U.U.U.U.U.U.U.W.W.W.W.W.W.W.Q.Q.Q.Q.{.{.{.{.{.{.{.{.{.{.|.|.}.{.{.{.{.{.{.Q.Q.Q.W.W.W.W.W.W.W.W.W.W.W.W.W.W.W.W.W.W.W.W.W.W.W.W.W.U.W.W.U.U.U.Y.Y.P.P.P.P.P.P.P.P.P.P.P.P.P.P.P.I.U.U.U.U.U.U.I.I.Y.I.P.P.P.P.P.P.P.P.;.P.;.;.;.=.;.;.;.=.=.=.=.:.:.*.*.*.*.*.*.=.=.=.=.=.=.=.=.:.*.*.*.*.*.*.*.*.*.=.=.=.*.*.*.*.*.*.#.#.#.#.#.@.@.#.#.@.@.@.@.@.O.O.O.O. . .O.O.O.O. . . . . ...| | | | | R R R I I I } | | | | | | | I R R R R | | R I I I I I I I I I I I I I I I I I I I P I I I I I P U U I I I I I I I I I U I I I I I I I I I I I I I I I I I R R R R .. . .E R E E E E E E E O.E O.O.+.*.*.=.*.*.=.=.=.=.=.J.J.J.=.=.=.=.=.=.=.*.=.*.*.*.*.-.-.*.*.*.*.*.*.+.+.+.*.*.*.*.*.*.*.*.*.%.%.*.#.#.#.+.+.+.*.*.*.*.*.%.-.*.=.*.=.=.=.=.=.J.J.K.K.K.K.K.K.G.G.H.K.I.W.E.E.E.E.W.W.W.W.E.R.T.T.K.K.K.H.H.H.H.Y.K.I.I.I.I.Y.K.G.G.G.K.K.P.J.J.J.K.K.J.J.K.J.J.J.J.J.J.J.J.J.J.=.=.=.=.=.=.%.%.+.+.%.#.O.O.O.E E R Y Y Y Y Y U L U P U U U K U K U U H H ",
"W.W.W.W.W.W.W.W.W.W.W.W.W.W.W.W.W.W.W.W.W.W.W.W.W.W.U.U.U.U.U.U.U.U.U.U.U.U.U.I.I.I.U.U.U.U.U.U.U.U.I.I.I.I.I.I.I.I.U.I.U.I.I.U.U.U.U.U.U.U.I.I.I.Y.I.I.I.Y.I.I.I.U.U.U.U.U.W.W.W.W.W.W.W.W.W.W.W.W.W.W.W.W.W.U.W.W.U.U.U.U.U.I.U.U.I.I.I.I.I.I.I.I.I.I.Y.I.I.Y.I.I.I.I.I.I.I.I.I.I.U.I.I.P.P.P.P.P.P.P.P.P.P.P.P.P.P.P.P.P.P.P.P.P.P.P.P.P.P.P.P.P.P.P.P.P.I.I.I.I.I.Y.Y.I.I.Y.Y.I.Y.Y.I.I.I.I.I.U.U.U.U.I.U.U.U.W.W.W.W.W.W.W.W.W.W.W.U.U.U.U.I.W.W.W.W.W.W.W.W.W.Q.Q.Q.Q.Q.Q.{.{.{.}.{.}.{.{.}.|.|.}.}.{.|.{.{.{.{.Q.Q.Q.Q.Q.Q.Q.W.!.W.W.Q.Q.Q.Q.Q.W.W.W.W.W.W.W.W.W.W.W.W.W.W.W.W.W.W.U.U.Y.Y.P.Y.P.P.P.P.I.P.P.P.I.I.I.U.U.U.U.U.I.I.I.Y.Y.I.P.P.P.P.P.P.P.P.P.P.P.;.;.;.;.;.=.=.:.:.:.*.*.*.=.*.*.*.*.*.=.*.*.*.*.*.*.*.*.*.*.*.*.*.*.=.:.=.=.*.*.*.*.*.*.*.#.#.#.#.@.@.@.@.@.O.@.@.@.O.O.O.O.O.O.O.O.@.O.O.O.O. . ..... . .| | | | | | | | | | | | | R R I } R I I I I I I I I I I I I I I I I I I I I I I I I I I I R I I I U U I I I I I I I I I U I I I I I I I I I I I I R R R R R R E ..E  . . .E E E ^ O.O.^ O.O.O.#.*.*.*.=.;.;.=.=.=.=.=.=.=.J.P.=.=.=.=.=.*.*.*.*.*.*.*.%.%.*.%.*.*.*.+.+.+.+.+.+.+.*.*.*.%.%.%.%.*.*.*.*.*.*.*.*.%.*.%.*.*.*.=.=.=.=.=.=.=.=.J.K.K.K.K.Y.I.I.I.Y.W.E.E.W.W.E.Q.Q.Q.Q.Q.W.W.E.W.I.Y.H.K.H.H.H.H.I.Y.I.I.I.W.W.W.U.U.I.P.K.K.J.J.=.=.=.=.=.=.=.=.=.=.=.&.=.&.=.=.=.=.*.%.%.%.%.%.$.$.O.^ ^ O.^ E E R Y Y L L P L U U U U U U K K K K L K K H H H ",
"W.W.W.W.W.W.W.W.W.W.W.W.W.W.W.W.W.W.W.W.W.W.W.U.W.W.U.U.U.U.U.U.U.U.U.I.I.U.I.I.I.I.U.U.U.U.U.U.U.U.I.I.I.I.I.I.I.U.U.U.U.I.I.U.U.U.U.U.U.U.I.I.U.I.I.U.I.I.I.I.U.U.U.U.U.U.W.W.W.W.W.W.W.W.W.W.W.W.W.W.W.W.W.W.W.W.W.W.U.U.U.I.U.U.U.I.I.I.I.I.I.I.I.I.I.I.I.Y.I.I.I.I.I.I.I.I.I.I.I.I.I.I.P.P.P.P.P.P.P.P.P.P.P.P.P.P.P.P.P.P.P.P.P.P.P.P.P.P.P.P.P.P.P.P.I.Y.I.U.U.I.Y.I.I.I.Y.I.I.Y.I.I.I.I.I.U.U.U.U.U.U.W.W.W.W.W.Q.Q.Q.Q.Q.W.W.W.W.W.W.W.W.W.W.W.W.W.W.W.T.W.Q.Q.Q.Q.Q.Q.{.{.{.}.|.|.}.{.|.|.|.}.}.|.|.|.{.{.{.{.{.{.Q.Q.Q.Q.Q.Q.Q.Q.Q.Q.Q.Q.Q.Q.Q.W.Q.W.W.W.W.W.W.W.Q.W.Q.Q.W.W.W.W.W.U.U.Y.Y.Y.Y.P.P.I.P.P.I.I.I.I.I.U.U.U.U.U.I.I.I.I.I.I.I.P.P.P.P.P.P.P.P.P.;.;.;.;.;.;.:.:.:.:.*.*.=.=.*.*.*.*.*.=.*.*.*.*.*.*.*.*.*.*.*.*.*.*.*.*.*.*.*.*.*.*.*.*.*.*.#.#.#.@.@.@.@.@.O.O.@.@.O.O.O.O.O.O.O.@.@.@.O.O.O.O. . . . ...| | R R | | | | | | | | | R I I } R I I I I I I I I I I I I I I I I I I I I I I I I I I R R R I I I I I I R R R R R R R I I R I I I I I I I I I I R R R R R .. .O.O.O.O.O.O.O.O.$.@.+.+.+.#.#.*.*.=.=.=.=.=.=.=.=.;.;.=.=.=.;.=.=.=.=.*.*.*.%.%.%.%.%.%.%.%.*.*.*.*.*.+.+.+.+.+.*.*.*.*.*.%.*.%.*.%.*.*.+.*.*.*.*.%.*.=.=.=.=.=.=.J.J.J.J.J.J.K.Y.Y.I.I.E.E.W.W.Q.Q.Q.Q.Q._._._.Q.Q.Q.W.W.W.W.I.Y.I.I.I.K.Y.I.W.U.W.W.W.W.W.W.U.I.P.J.=.=.=.=.*.*.*.*.*.%.*.+.+.+.+.+.$.$.$.+.+.$.$.O.^ ^ / ^ E E E W W W W Y L L L U U K K P K K K K K K K K K K K K K K K K ",
"W.W.W.W.W.W.W.W.W.W.W.W.W.W.W.W.W.W.W.W.W.W.U.U.W.W.U.U.U.U.U.U.U.I.U.U.U.U.I.U.U.U.U.U.U.U.U.U.U.U.U.I.I.I.I.I.I.I.I.I.I.I.I.U.U.U.I.I.U.U.U.I.U.U.U.U.U.U.U.U.U.U.U.U.W.W.W.W.W.W.W.W.W.W.Q.W.W.W.W.W.W.W.W.W.W.W.W.W.W.W.U.U.U.W.U.U.U.U.U.U.U.U.U.I.I.U.U.U.U.U.I.I.I.U.U.U.I.U.U.I.I.P.P.P.P.P.P.P.P.P.P.P.P.P.I.I.P.P.P.P.P.P.P.P.P.P.P.P.P.P.P.P.I.I.I.I.U.U.U.U.Y.U.U.U.I.U.U.I.U.U.U.U.U.U.U.W.W.W.W.W.W.W.Q.Q.Q.Q.Q.Q.Q.Q.Q.W.W.W.W.W.W.W.W.W.W.W.W.W.W.W.W.W.Q.!.Q.Q._.{.{.{.}.}.}.}.{.{.{.{.|.|.}.}.|.|.|.{.|.{.{.{.{.Q.Q.Q.Q.Q.Q.Q.Q.Q.Q.Q.Q.Q.Q.Q.Q.Q.Q.Q.Q.W.Q.Q.Q.Q.Q.Q.Q.W.W.W.W.U.U.I.I.I.I.I.I.I.I.U.U.I.I.I.U.W.W.U.U.U.I.I.I.I.I.P.P.P.P.P.P.P.P.P.;.;.;.;.=.=.:.:.*.*.*.:.=.=.=.=.*.*.=.*.*.*.*.*.*.*.*.*.*.*.*.*.*.*.*.*.*.*.*.*.*.*.*.*.*.*.+.#.#.@.@.@.@.+.O.O.+.+.+.O.O.@.@.O.O.@.O.O.O.@.O.O.O. . . .....| | | | | | | | | | I I I I } } R I I I R I R R I I I I I I I I I I I I I I R R R R R R R I I I I I I R R R R R R R R R R R R R I I R R R R R R R | E R E  .O.O.O.O.@.@.$.+.#.#.*.*.*.*.*.*.=.=.=.=.J.=.=.=.=.=.=.;.=.=.=.=.&.=.=.*.*.*.*.*.%.%.%.%.*.*.%.*.*.*.*.*.*.*.%.*.*.*.*.*.=.=.=.*.*.*.*.*.*.+.%.*.*.%.-.*.=.=.J.J.J.J.P.P.P.P.Y.Y.U.W.W.W.W.Q.Q.Q.Q.Q.E.!.!.Q._._._.Q.Q.Q.W.W.T.Y.I.Y.I.I.I.I.I.U.W.U.U.U.I.I.I.P.J.=.%.%.*.%.%.+.+.$.O.O.^ ^ ^ ^ ^ E E E E E E E E E E W R R Y Y W Y Y Y U L L U U K K K K K K K K K K K K K K K K K P P K K K U ",
"W.W.W.W.W.W.W.W.W.W.W.W.W.W.W.W.W.W.W.W.W.W.U.U.U.U.U.U.U.U.U.U.U.U.U.U.U.U.U.U.U.U.U.U.U.U.U.U.U.U.U.I.I.I.I.I.I.I.I.I.I.I.I.I.U.I.U.I.I.U.U.U.U.U.U.U.U.U.U.U.I.U.U.U.W.U.W.W.W.W.W.W.W.W.Q.Q.W.W.W.W.W.W.W.W.W.W.W.W.W.W.W.W.W.U.U.U.W.W.U.U.U.U.U.U.U.U.U.U.U.U.I.U.I.U.U.U.I.U.U.I.I.P.P.P.P.P.P.P.P.P.P.I.P.P.I.I.P.P.P.P.I.I.P.P.P.P.P.P.P.P.P.P.I.I.I.I.U.U.U.U.U.U.U.U.U.W.U.U.U.U.W.U.W.W.W.W.W.W.W.W.W.W.Q.Q.Q.Q.Q.Q.Q.Q.!.Q.Q.Q.Q.Q.W.W.W.W.W.W.W.W.W.Q.Q.Q.Q.Q.Q.Q.Q._.{.{.}.{.}.|.}.{.{.}.|.}.}.}.}.}.}.}.|.|.}.{.{.{._.Q.Q.Q.Q.{.Q.Q.Q.Q.Q.Q.Q.Q.Q.Q.Q.Q.Q.Q.Q.Q.Q.Q.Q.Q.Q.Q.W.W.W.W.W.U.U.U.I.I.Y.I.I.I.I.I.Y.Y.I.U.U.U.I.U.U.I.U.I.I.P.P.P.P.P.P.P.P.;.;.;.;.=.=.;.:.:.*.*.*.:.=.=.=.=.=.=.=.*.*.*.*.*.*.*.*.*.*.*.*.*.*.*.*.*.*.*.*.*.*.*.*.*.*.*.+.*.#.#.@.@.+.@.O.@.@.@.+.@.O.@.@.@.O.O.O.O.O.O.O.O.O. . . . . ...| | | | | | | R R R I I I R R R I I R R R R I I I R R } I I I R R R R R R R R R R R R R R I I R R R R R R | R R R  .| R R R R R R R | | R | R E E ..E E O.O.+.#.#.*.#.+.+.%.*.=.=.=.*.=.=.=.=.=.P.P.=.=.=.=.=.=.*.*.*.*.*.-.-.*.*.*.*.*.*.*.*.*.%.%.%.%.%.*.*.*.*.*.*.*.*.*.*.*.*.=.=.=.=.*.*.*.*.*.+.+.%.-.-.-.=.=.J.P.J.P.Y.U.I.U.U.W.W.W.Q.Q.W.E.Q.Q.Q.E.!.E.!.Q.Q.Q.Q.Q.E.W.W.W.W.I.Y.I.P.P.P.P.P.P.I.P.;.=.=.=.&.%.%.%.+./ ( ^ ^ ^ ^ ^ E E E W E R W Y Y J U U U L Y L L L U L L L L L L P L U K U P K K H H K K K K K K K K U K L K K K K U U U U K ",
"Q.Q.W.Q.W.W.W.W.W.W.W.W.W.W.W.W.W.W.W.W.W.W.W.W.U.U.U.U.W.W.W.U.U.U.U.U.U.U.U.W.W.U.U.U.U.U.U.U.U.I.I.I.I.I.I.Y.I.Y.I.U.U.I.U.U.U.U.I.I.U.U.U.I.U.U.U.U.U.U.I.I.I.I.U.U.W.W.W.W.W.W.W.W.W.W.Q.Q.Q.W.W.W.W.W.W.W.W.W.W.W.W.W.W.W.W.W.W.W.W.W.W.W.U.W.W.W.U.U.U.U.U.U.U.U.U.U.U.I.I.I.I.U.U.U.I.I.P.P.P.P.P.P.P.P.P.P.P.P.P.I.I.P.P.P.P.I.I.P.I.I.P.I.I.I.I.I.I.U.U.W.W.W.W.W.W.W.W.W.W.W.W.W.W.W.W.W.W.W.W.W.W.W.W.Q.Q.Q.Q.Q.Q.Q.Q.Q.Q.Q.Q.Q.Q.Q.Q.Q.Q.Q.Q.Q.Q.Q.Q.Q.Q.Q.Q.Q.Q.Q.Q.{.{.{.{.{.|.{.}.|.}.|.}.}. X X X X}.}.}.}.|.}.{.{.{._.{._._.Q.Q.Q.Q.Q.Q.Q.Q.Q.Q.Q.Q.Q.Q.Q.Q.Q.Q.Q.Q.Q.Q.Q.Q.W.W.W.U.U.U.U.I.I.I.U.U.I.Y.Y.I.I.I.U.W.W.U.U.U.U.U.I.I.I.P.P.P.P.;.;.;.;.=.;.;.:.:.:.:.:.*.*.*.:.=.=.=.=.=.=.=.=.*.*.*.*.*.*.#.#.#.#.*.*.#.#.#.*.*.*.*.*.*.*.*.*.*.*.#.#.#.#.#.@.#.@.@.+.+.+.@.@.#.@.#.O.O.O.O.O.O.O.O.O.O. . . . . . . .| | | | | | | | | | R R R R R R R | | | R R R R R R R R R | R | R R | | R R R R R R R R | R R R R  .E R  .E E ..E E E E R R R E E .. . .O. .O.^ O.O.O.@.+.*.*.*.%.*.%.%.*.=.=.=.=.=.=.=.=.=.J.J.=.=.=.=.-.*.*.*.%.%.%.%.-.*.*.*.*.%.*.*.%.*.*.%.*.%.*.*.%.*.%.%.%.*.*.*.*.*.=.=.*.*.=.*.*.*.*.*.*.%.%.*.=.=.=.=.J.P.P.P.I.U.W.W.W.W.W.T.Q.Q.Q._._._._._._.Q.Q.Q.Q.Q.Q.Q.Q.W.U.U.U.U.P.P.=.=.=.=.*.*.*.*.%.+.$./ / ^ ( E W W W R R R Y U U U U U L L L U L L L U U U U L P U P K K P K K K K K K K K K K K K K K K K K K K P U K K K P L L U U P L L L L ",
"Q.Q.W.Q.W.W.W.W.W.W.W.W.W.W.W.W.W.W.W.W.W.W.W.W.U.U.U.U.W.W.W.W.U.U.U.U.U.U.U.W.W.W.U.U.U.U.U.U.U.I.I.I.U.I.I.I.I.I.I.U.U.U.U.U.U.U.U.U.U.U.U.U.U.U.U.U.U.U.I.I.I.I.U.U.W.W.W.W.W.W.W.W.W.W.Q.Q.Q.W.W.W.W.W.W.W.W.W.W.W.W.W.W.W.W.W.W.W.W.W.W.W.U.W.U.U.U.U.U.U.U.U.U.U.U.U.U.W.W.W.U.U.U.U.U.I.I.I.I.I.P.P.P.P.P.P.I.I.I.U.U.U.I.I.I.I.I.I.I.I.I.I.U.I.U.I.U.W.W.W.W.W.W.W.W.W.W.W.W.W.W.W.W.W.Q.W.W.W.W.W.Q.Q.Q.Q.Q.Q.Q.Q.Q.Q.{.Q.Q.Q.Q.Q.Q.Q.Q.Q.Q.Q.Q.Q.Q.Q.Q.Q.Q.Q.Q.Q.Q.Q.Q.{.{.{.}.}.}.}.|.|.}.}. XXXXX X X X X XXX}.}.}.}.{.{.{.{.{._._.Q.Q.Q.Q.Q.Q.Q.Q.Q.Q.Q.Q.Q.Q.Q.Q.!.Q.Q.Q.Q.W.W.W.W.W.U.U.U.U.I.I.I.I.I.I.I.I.I.I.I.W.W.W.W.W.W.U.U.U.U.I.P.P.P.P.P.;.;.;.;.=.*.*.*.:.*.*.#.*.*.:.*.=.;.=.=.=.=.*.*.*.*.*.#.#.@.#.@.@.#.#.#.#.#.#.#.#.*.*.*.*.*.*.*.*.#.#.#.#.#.#.#.#.@.@.+.+.@.@.@.@.@.O.@.O.O.O.O.O.O.O. . . . . . . .| | | | | | | | R | R R R R R R | | | | | | | | | | | | | | |  ... . . ... . .....E ..E ....E ..R E  .....E ..E  . .E  . . . .E  . .O.O.@.@.O.O.$.+.#.#.*.%.*.*.*.*.*.%.=.=.=.=.=.=.=.=.=.=.=.=.=.=.=.*.-.*.*.*.*.%.%.%.%.*.%.*.*.*.*.*.*.*.*.*.%.%.*.%.-.*.%.*.*.*.=.=.%.*.%.=.=.*.*.=.*.*.*.*.*.*.*.*.*.=.=.=.=.J.P.P.P.P.Y.I.W.W.W.W.W.W.Q.Q.Q.Q.Q.Q.Q.Q.W.E.W.W.U.I.I.I.P.J.=.=.*.*.#.$.O.O.^ E E E W W W W W W W R R R Y L L L U U K U U U U P P P K U L P P P P P P P K K K K K x K K K K K K P P K K K K K K K K K L U U U K P L L L L L L L L L L ",
"Q.Q.Q.Q.W.W.W.W.W.W.Q.Q.W.W.W.W.W.W.W.W.W.W.W.W.W.W.W.W.W.W.W.W.W.W.U.U.U.W.W.W.W.W.W.W.U.U.U.U.U.I.I.I.I.I.I.I.U.I.I.U.I.U.U.U.U.U.U.U.U.U.U.U.U.U.U.U.U.U.U.I.I.U.U.U.W.W.W.W.W.W.W.W.Q.Q.Q.Q.Q.W.W.W.W.W.W.W.W.W.W.W.W.W.W.W.W.W.W.W.W.W.W.W.W.U.W.W.W.W.W.U.W.W.W.W.W.W.W.W.W.W.W.U.U.U.U.U.I.U.U.I.I.I.I.I.P.I.I.I.U.U.U.U.I.I.U.U.U.I.U.U.U.U.U.W.W.W.W.W.W.W.W.W.W.W.W.W.Q.Q.Q.Q.Q.Q.Q.W.Q.Q.Q.Q.Q.Q.Q.Q.Q.Q.Q.Q.Q.Q.{.{.{.{.Q.Q.Q.Q.Q.Q.Q.Q.Q.Q.Q.Q.Q.Q.Q.Q.Q.Q.{.Q.Q.Q.Q.{.{.{.}.}.}.}.|.}.}. XXXXXXXXX X XXXXXXX}.}.|.|.}.{.{.{.{._.Q.{.Q.Q.Q.Q.Q.Q.Q.Q.Q.Q.Q.Q.Q.Q.Q.Q.Q.Q.Q.Q.Q.W.W.W.W.U.U.U.U.I.I.I.I.I.I.U.U.U.U.I.U.W.U.U.U.U.U.U.I.I.P.P.P.P.;.;.;.=.=.:.=.*.*.*.*.*.*.*.*.*.*.:.:.:.:.:.=.*.*.*.*.*.*.#.#.@.@.@.@.@.@.@.@.@.@.@.@.#.#.#.#.*.*.*.#.#.#.#.#.#.#.#.#.#.@.@.@.@.@.@.@.O.O.O.@.O.O. . . . . . . . . . . .| | | | } } } I I R R R R | | | | | | | | | | | ........ ..... ....... . . . . . . . . . . ... ...E  .E  . . . . .O.O.O.O.O. .^ O.O.@.@.@.@.@.@.#.#.*.*.*.*.*.*.*.%.*.=.=.=.=.=.=.=.=.=.=.=.=.=.=.=.=.*.*.*.*.*.%.*.*.*.*.*.*.*.*.*.*.*.*.*.*.*.*.%.*.*.%.*.*.*.*.*.*.%.%.&.%.&.=.%.=.=.=.=.=.=.*.=.=.=.=.=.=.=.=.=.;.P.P.K.I.I.I.U.U.U.U.U.I.I.I.I.P.P.P.P.;.=.=.=.-.%.+.*.+.$.O.E W W W Y L L L L U U U U U U K U P L L L U L U U K H H K K K K K K K K K K K K P P U K K K K K K K x K K K L U U U K K K K K U K K K K L P P U L L L L L P L L L U U L ",
"Q.Q.Q.Q.W.W.W.W.W.W.W.W.W.W.W.W.W.W.W.W.W.W.W.W.W.W.W.W.W.W.U.U.W.U.U.U.W.W.W.W.W.W.W.W.U.U.W.W.U.U.I.I.I.I.I.I.U.U.U.U.I.U.U.U.I.U.U.U.U.U.U.U.U.U.U.U.W.W.U.U.U.U.U.U.W.W.W.W.W.W.W.W.Q.Q.Q.Q.W.Q.W.Q.W.W.W.W.W.W.W.Q.Q.W.W.W.W.W.W.W.W.W.W.W.W.W.W.U.W.W.W.W.W.W.U.U.U.U.W.W.U.W.U.U.U.U.U.U.U.U.U.U.I.I.U.U.I.U.U.U.U.U.U.U.U.U.U.U.U.U.U.U.W.W.W.W.W.W.W.W.W.W.W.W.W.Q.Q.Q.Q.Q.Q.Q.Q.Q.Q.Q.Q.Q.Q.Q.Q.Q.Q.Q.Q.Q.Q.Q.Q.{.{.{.{.{.Q.Q.Q.Q.Q.Q.Q.Q.{.{.Q.Q.Q.Q.{.{.Q.Q.Q.Q.{.Q.{.{.{.{.}.}.}.}.}.}.}.XXXXXXXXXXXX XXXXXXX}.}.}.}.}.}.{.{.{._._.{.Q.Q.Q.Q.Q.Q.Q.!.Q.Q.Q.Q.Q.Q.Q.Q.Q.Q.Q.Q.W.W.W.W.W.U.U.U.U.U.U.U.U.I.I.U.U.U.I.I.U.U.U.U.I.I.P.P.P.P.P.P.;.;.;.=.=.=.*.=.:.*.*.*.*.*.*.*.*.*.*.:.:.:.:.:.:.*.*.*.*.*.#.#.#.@.@.O.O.O.@.@.@.@.@.@.@.@.#.#.#.#.#.#.@.#.@.#.@.@.@.@.@.@.@.@.@.@.@.@.@.O. . .O. . ....... . . . . . .| } } | | | } I I I I R R | |  . .| |  .| | | ............ . ... . . . . . . .O. . .O.O.O.@.O.O.O.O. . .O. . .O.O.O.O.@.O.O.O.O.O.O.O.@.+.#.#.#.#.#.*.*.*.*.*.*.*.*.*.*.=.=.=.=.=.=.=.=.=.=.=.=.=.=.=.=.=.*.*.*.*.*.*.*.%.*.*.*.*.*.*.*.*.*.*.*.*.*.*.*.*.*.*.*.*.*.*.*.*.%.%.&.%.=.=.=.=.=.=.=.;.=.=.=.=.=.=.=.=.=.=.=.=.=.=.J.J.P.P.P.;.=.=.;.=.*.*.*.*.*.*.#.+.$.$.$.O.^ W W W Y Y U U U K K K K K P P P P P P K K K P L L L L U U U K K K K K K K K K K K K K K K P U K K K K K K K K x K P L L L U U K K K K K U U U K L L L P U L L L L P U P P U U U U ",
"Q.Q.Q.Q.Q.Q.Q.Q.W.W.W.W.W.W.W.W.W.W.W.W.W.W.W.W.W.W.W.W.W.U.U.U.U.U.W.W.W.U.W.W.W.W.W.W.W.W.W.W.U.U.U.I.I.I.I.U.I.U.U.U.I.U.I.I.I.I.I.U.U.U.U.U.U.U.U.W.U.U.W.U.W.W.W.W.W.W.W.W.W.W.Q.Q.Q.Q.Q.Q.Q.Q.Q.Q.Q.Q.Q.Q.Q.Q.Q.Q.Q.Q.Q.W.W.W.W.W.W.W.W.W.W.W.W.W.W.W.W.W.W.W.W.W.W.W.W.W.W.W.U.W.U.U.U.U.U.U.U.U.I.U.U.U.U.W.W.W.W.W.W.W.W.W.W.W.W.W.W.W.W.W.W.W.W.!.W.W.W.!.!.!.Q.Q.Q.Q.Q.!.Q.!.Q.Q.Q.Q.Q.Q.{.Q.Q.Q.{.{.Q.Q.{.{.{.{.{.{.{.{.{.{.{.{.{.{.{.{.{.{.Q.Q.{.{.{.{._.Q._.Q._.{.{.{.{.}.{.}.}.}.}. X XXXoXoXoXoX.XXXXXXXXX}.}.}.|.|.}.}.{.{.{.{.Q.Q.Q.Q.Q.Q.Q.Q.W.W.W.W.Q.Q.Q.Q.Q.Q.Q.Q.Q.W.W.W.W.W.W.W.U.U.U.U.U.U.I.I.U.U.I.I.I.U.U.I.I.P.P.P.P.P.P.;.;.;.;.;.;.:.*.*.*.*.*.#.#.#.#.#.#.#.#.*.*.:.*.:.:.:.*.:.*.*.*.#.@.@.@.@.@.@.@.@.@.@.#.#.#.@.#.#.#.#.#.@.#.@.@.@.#.@.@.@.@.@.@.@.@.@.@.@.O.O. . . . . ........... . . ...| } } } } | } | I I R R R | |  . . . . . . . . ....... . . . . . . .O.O.O.@.@.O.O.O.O.O.O.O.@.#.#.@.#.O.@.@.O.O.@.O.O.O.@.O.@.+.O.O.+.#.#.#.#.#.*.*.*.*.*.*.*.*.*.*.*.=.=.=.=.=.=.=.=.=.=.;.;.;.=.=.=.=.=.*.*.*.*.*.*.*.*.*.*.*.*.*.*.*.*.*.*.*.*.*.*.*.*.*.*.*.*.*.*.*.*.*.*.*.=.&.=.=.=.=.J.=.=.=.=.=.=.=.=.=.=.=.=.=.*.*.*.*.%.%.*.*.*.*.+.+.$.O.O.E W W W W R R W W U U U U U U U P K K K K z z K K K K K P K K K K P P P L L P P P L L U K K K K K K K K K K P K K P K K K K K K K H j K K K K L L L L U K K K K U L L L L L L L L L L L L K K U L L K K K ",
"Q.Q.Q.Q.Q.Q.Q.Q.W.W.W.W.W.W.W.W.W.W.W.W.W.W.W.W.W.W.W.W.U.U.U.U.U.U.W.W.W.W.W.W.W.W.W.W.W.W.W.W.U.U.U.U.U.U.I.I.U.U.U.U.I.I.I.I.I.I.U.U.U.U.U.U.W.W.W.W.W.W.W.U.W.W.W.W.W.W.W.W.W.W.Q.Q.Q.Q.Q.Q.Q.Q.Q.Q.Q.Q.Q.Q.Q.Q.Q.Q.Q.Q.Q.Q.Q.W.W.W.W.W.W.W.W.W.W.W.W.W.W.W.W.W.W.W.W.W.W.W.W.W.W.W.W.W.U.U.U.U.W.U.W.U.W.U.U.W.W.W.W.W.W.W.W.W.W.W.W.W.W.W.W.W.W.W.W.W.W.Q.Q.W.Q.Q.Q.!.Q.Q.Q.Q.Q.Q.Q.Q.Q.Q.{.{.{.Q._.Q.{.{.{.{.{.{.{.{.{.{.{.{.{.{.{.{.{.{.{.{.{.{.{.{.{.{.{.{.{.|.{.{.'.'.{.{.{.}.}.}.}.}. XXXXXXXoXoXoXoXoXoXoXXXXX X}.}.}.}.|.}.}.{.{.{.{.{.Q.Q.Q.Q.Q.Q.W.W.!.!.!.W.Q.Q.Q.Q.Q.Q.W.W.Q.W.W.W.W.W.U.U.U.U.I.I.P.P.P.P.P.P.P.I.P.P.P.P.P.P.;.;.;.;.=.:.=.:.*.*.*.*.*.*.*.#.#.#.#.#.#.#.#.#.#.*.*.:.:.:.:.:.*.*.#.#.#.@.@.@.#.@.@.@.@.@.#.@.#.#.#.#.#.@.+.O.@.@.O.@.O.O.O.@.@.O.@.@.@.@.O.O. . . . . . .| | | | | | ......| ..| | } | } | | | | | | | |  . . . . . . . . . . . . .O.O.O.O.O.O.O.O.O.+.+.+.+.+.+.+.+.+.+.#.@.#.#.#.O.O.@.O.O.O.$.O.O.@.+.#.#.+.+.*.*.*.*.*.*.*.*.*.*.=.=.=.=.=.*.=.=.=.=.=.=.=.=.=.=.=.;.=.=.=.=.=.=.=.*.*.*.*.*.*.*.*.*.*.*.*.*.*.*.*.*.*.*.*.*.*.*.%.%.*.+.#.#.*.*.*.*.*.*.=.*.=.=.=.=.=.=.=.=.=.=.=.=.*.*.*.*.*.#.+.+.$.$.$.O.O.O.O.O.E E E R R R U U U U U U U U U U U I P P K K z z x x z P P P K z K K K K P P K K P P P P L L K K K K K K K K H K K K K P K K K K K K K K K K H j K K K K L L L L U K K K K K U U U L L L L L U L L K K K K U L K K K ",
"Q.Q.Q.Q.Q.Q.Q.Q.Q.Q.Q.Q.W.W.W.W.W.W.W.W.W.W.W.W.W.W.W.W.W.W.W.W.W.W.W.W.W.W.W.W.W.W.W.W.W.W.W.W.U.U.U.U.U.U.U.U.U.U.U.U.U.U.U.U.I.U.U.U.U.U.W.W.W.W.W.W.W.W.W.W.W.W.W.W.W.W.W.W.Q.Q.Q.Q.Q.Q.Q.Q.Q.Q.Q.Q.Q.Q.Q.Q.Q.Q.Q.Q.Q.Q.Q.Q.Q.Q.Q.Q.Q.Q.Q.Q.Q.W.Q.W.Q.W.W.W.W.W.W.W.W.W.W.W.W.W.W.W.W.W.W.W.W.W.W.W.W.W.W.U.W.W.W.W.W.W.W.W.W.!.Q.W.Q.W.W.Q.W.W.Q.Q.Q.Q.Q.Q.Q.Q.Q.Q.Q.Q.Q.Q._.{.{.{._.Q._.{.{.{.{.{.{.{.{.{.{.{.{.{.{.{._.{.{.{.{.{.|.|.|.|.{.|.{.{.{.{.{.|.{.|.}.}.|.|.|.|.}.}.}.}.}.}.}. XXX X XXXXXoXoXoXoXoXoXoXXXXXXX}.}.}.}.|.|.{.{.{.{.{.Q.Q.Q.Q.Q.Q.W.W.W.W.W.W.W.Q.Q.Q.Q.W.W.W.W.W.W.W.W.U.U.U.I.I.I.P.P.P.P.P.P.P.P.P.P.;.;.;.;.;.=.;.=.=.=.*.:.*.*.*.*.*.*.*.*.#.#.#.#.#.#.@.@.#.#.#.*.*.*.:.*.:.*.*.#.#.#.@.@.@.@.@.O.O.@.@.@.@.@.@.@.@.@.O.O.O.O.O.O.O.O.O.O.O.O.O.O.O.O. . . ..... . .| | | | | | | | ........ . . . ....... . . . . . . . . . . . . . . . . .O.O.O.O.O.O.@.+.+.+.#.#.#.#.#.#.#.#.#.#.#.#.#.#.#.@.#.+.O.+.O.+.O.O.+.+.+.+.#.*.*.*.*.*.*.*.*.*.*.=.=.=.=.=.=.=.=.=.=.=.=.=.=.=.=.=.=.=.=.=.=.=.=.=.=.=.=.*.*.*.%.%.*.*.*.*.*.*.*.*.*.*.*.*.*.*.*.*.*.*.%.%.+.+.+.+.+.*.*.*.*.*.*.*.=.=.=.=.=.*.*.=.=.*.*.*.#.#.@.@.@.O.O.O.O.O.E R R R R R R I I I I P K K K K P K K K K K K P I K K z x x x x P P P P K K K K K P P P U U P P P L L P K K K K K K K K z K K K K K K K K K K K K K H K H j z K K K L L L L U K K H K K K K K K K L K K K K K L L L K K K K K K ",
"Q.Q.Q.Q.Q.Q.Q.Q.Q.Q.Q.Q.W.W.W.W.W.W.W.W.W.W.W.W.W.W.W.W.W.W.W.W.W.W.W.W.W.W.W.W.W.W.W.W.W.W.W.W.U.U.U.U.U.U.U.U.U.W.W.U.U.U.U.U.U.U.U.U.U.U.W.W.W.W.W.W.W.W.W.W.W.W.W.W.W.W.W.W.Q.Q.Q.Q.Q.Q.Q.Q.Q.Q.Q.Q.Q.Q.Q.Q.Q.Q.Q.Q.Q.Q.Q.Q.Q.Q.Q.Q.Q.Q.Q.Q.Q.Q.Q.Q.Q.Q.Q.W.W.W.W.W.W.W.W.W.W.W.W.W.W.W.W.W.W.W.W.W.W.W.W.W.W.W.W.W.W.W.Q.Q.Q.Q.Q.Q.Q.Q.Q.Q.W.W.Q.Q.Q.Q.Q.Q.!.!.!.Q.Q.Q.Q._.{.{.{.{.{.{.{.'.'.|.}.|.}.}.}.}.}.}.{.|.}.|.{.|.|.|.|.}.|.|.|.}.|.}.}.|.|.|.|.|.}.}.}.}.}.}.}.}.|.|.}.}. X X}. XXXXXXXXX.X.XoXoXoXoXoXoXoXXXXX}.}.}.}.|.|.{.{.{.{.{.Q.Q.Q.Q.Q.Q.W.W.W.W.W.!.W.W.W.W.W.W.W.W.W.W.W.W.U.U.U.U.I.I.U.P.P.P.P.;.;.;.;.;.;.;.=.;.;.=.=.*.*.*.*.:.:.:.*.*.*.#.#.#.#.#.@.@.@.#.#.@.@.#.@.#.#.#.#.@.@.#.#.@.@.@.@.@.O.O.O...O. .O...@.@.O.O.O.O.O.O.O.O.O. .O.O.O. .O. . . . . . . . . ... . .| | | | | | | | | .. . . . . . . . . . . .O.@.@.@.O.O.O.O.O.O.O.O.O.O.O.O.O.O.O.+.#.#.#.#.*.#.*.*.*.*.*.*.*.*.*.*.*.*.*.*.#.#.#.+.+.#.+.#.+.#.#.#.#.+.#.*.*.*.*.*.*.*.*.=.=.=.=.=.=.=.=.=.=.=.=.=.=.=.=.=.=.=.=.=.=.=.=.=.=.=.=.=.*.*.%.%.*.*.*.*.*.*.*.*.*.*.*.*.*.*.*.*.*.*.*.*.%.#.+.#.#.+.#.*.*.*.*.*.%.*.*.*.*.*.*.*.*.*.#.#.#.+.O.O.E  .E E E R R R R I U U U U U I I I I P P P L I P P P P P P P K I P x z j x x x K K K P P K K K K K K K K K P P L P L L P P K K z K P K K K K K K K K K P P K P K K H K K j K K H K K K L L L K K K K K U U K K K K K K H K L L L K K K K K K K ",
"Q.Q.Q.Q.Q.Q.Q.Q.Q.Q.Q.Q.W.W.Q.Q.Q.Q.W.W.W.W.W.W.W.W.W.W.W.W.W.W.W.W.W.W.W.W.W.W.W.W.W.W.W.W.W.W.W.W.U.U.U.U.W.W.W.W.W.W.U.U.W.W.W.W.U.W.U.U.U.W.W.W.W.W.W.W.W.W.W.W.Q.Q.Q.Q.Q.Q.Q.Q.Q.Q.Q.Q.Q.Q.Q.Q.Q.Q.Q.Q.Q.Q.Q.Q.Q.Q.Q.Q.Q.!.Q.Q.Q.Q.Q.Q.Q.Q.Q.Q.Q.Q.Q.Q.Q.Q.W.W.Q.W.W.W.W.W.W.W.W.W.W.W.W.W.W.W.W.W.W.W.W.W.W.W.W.Q.Q.Q.Q.Q.Q.Q.Q.Q.Q.Q.Q.Q.!.!.!.!.Q.Q.Q.Q.Q.Q.Q.!.Q._._.{.{.{.{.{.{.{.{.'.|.|.}.}.}.}.}.}.}.|.}.}.}.|.}.|.}.}.}.}. XXX}.}.}.}.}.}.}.}.}.|.}.}.}.}.}.}.XXXX}.}.}.}. X XXXXXXXXX.X.XoXoXoXoXoXoXXXXXXXXX X X}.}.}.}.}.{.{.{.Q.Q.Q.Q.Q.Q.W.W.W.W.W.W.W.W.W.W.W.W.W.W.W.W.W.U.W.U.I.U.U.I.P.P.P.P.P.;.;.;.;.;.;.:.:.:.;.:.:.:.:.:.*.*.:.:.*.*.*.#.*.#.#.@.@.@.@.#.#.#.@.@.@.@.@.#.#.#.#.#.@.#.@.@.@.@.@.@.O.O. ... ... ... . .......O.O.O.O.O. . . . . . . . . . . . . . . . . . .| | | | | | | | | .. . .O.@.O.O.O.O.O.O.O.O.@.@.@.@.@.@.O.O.O.O.O.O.O.O.O.#.+.@.#.#.*.*.*.*.*.*.*.*.*.*.*.*.*.*.*.*.*.*.*.*.*.#.*.+.+.+.*.+.*.+.*.*.*.*.*.*.*.*.-.=.=.=.=.=.=.=.=.=.=.=.=.=.=.=.=.=.=.=.=.=.=.=.=.=.=.*.*.*.=.=.%.%.%.%.*.*.*.*.*.*.*.*.*.*.+.+.*.*.*.*.*.*.*.*.*.+.+.#.+.+.#.+.#.#.#.#.*.*.#.#.#.#.#.+.+.+.#.@.O.O.O.W E E R R R R R R R I I P U U K K K K P P P K P P P P P K K K P P P P K K K x z x x z K P K P K x K K K K K P K K K P K K L I P K K K K K z z K K K K H K K K K K K K K j K K K K K K K K K K P P K K K K K K K K K K K H K K K K K K K K K K K K K j ",
"Q.Q.Q.Q.Q.Q.Q.Q.Q.Q.Q.Q.Q.Q.Q.W.Q.Q.W.W.W.W.W.W.W.W.W.W.W.W.W.W.U.W.W.W.W.W.W.W.W.W.W.W.W.W.W.W.W.U.U.U.W.W.W.W.W.W.W.W.U.U.W.W.W.W.U.W.U.U.W.W.W.W.W.W.W.W.W.Q.W.Q.Q.Q.Q.Q.Q.Q.Q.Q.Q.Q.Q.Q.Q.Q.Q.Q.Q.Q.Q.Q.Q.Q._._.Q.Q.{.{.{.Q.Q.Q.Q.Q.Q.Q.Q.Q.Q.Q.Q.Q.Q.Q.Q.Q.Q.Q.Q.Q.Q.W.W.W.W.W.W.W.W.W.W.W.Q.Q.Q.Q.Q.W.Q.Q.Q.Q.Q.Q.Q.Q.Q.Q.Q.Q.Q.Q.Q.Q.Q.Q.Q.Q.Q.Q.Q.Q.Q.Q._.{._._._.{.{.{.}.}.}.}.}.{.}.}.}.}. XXXXXXXXXXX X}.}.}.}.}.}.}. X X}. X XXX X|.XXXX}.XX}.}.XXXXXXXXXXXXXXXXXXXXXXXXXXXX XXXXXXX X X.X.X.X.X.XoXoXXXXXXX X}.}.}.}.}.|.}.{.{.{.Q.Q.Q.Q.!.Q.W.W.W.W.W.W.W.W.W.W.W.W.W.W.W.W.W.U.U.U.I.I.I.I.P.P.P.P.;.;.;.;.;.;.;.:.=.:.:.*.*.*.:.:.*.*.*.*.*.*.#.#.#.#.#.@.@.@.@.@.#.#.@.@.@.#.#.@.@.@.#.@.@.@.@.@.@.@.@.@.@.@.O. ....... ... . .........O.O.O.O. . . ..... . . . . . . ... . . . .......| | | |  ..... .O.O.@.#.#.@.@.#.#.#.#.#.#.#.#.#.#.#.+.+.+.+.+.+.+.#.#.#.*.*.*.*.*.*.*.*.=.*.=.*.=.*.=.*.*.*.-.-.*.*.*.*.*.*.*.*.%.%.+.+.*.*.*.*.*.*.*.*.*.*.-.=.=.=.=.=.=.=.=.=.=.=.=.=.=.=.=.=.=.=.=.=.=.%.*.*.*.*.*.*.=.*.%.%.*.*.*.*.*.+.*.*.*.*.%.*.*.#.*.#.+.#.*.*.*.#.#.+.+.O.O.O.O.O.@.@.@.@.#.#.#.#.@.@.O.O.O.O.O...E R W W U U I U I U I I I I P P K K K K K K K K K K P P P P K P P P P P P P K K K z x x z x K P K K K x K K P K K P P z K P P K P P K K K K K K z z K K K K K K K K K K K K K H K K K j j K K K K K P P K K K K H K K K K K K K K K K K K K K K K K K K K j ",
"Q.Q.Q.Q.Q.Q.Q.Q.Q.Q.Q.Q.Q.Q.Q.Q.Q.Q.Q.Q.Q.Q.W.W.W.W.W.W.W.W.W.W.U.U.W.W.W.W.W.W.W.W.W.W.W.W.W.W.W.W.W.W.W.W.W.W.W.W.W.W.W.W.W.W.W.W.W.W.W.W.W.W.W.W.W.Q.Q.Q.Q.Q.Q.Q.Q.Q.Q.Q.Q.Q.Q.Q.Q.Q.Q.Q.Q.Q.Q.Q.Q.Q.Q.{.{._._._._._.{.{.{.{.{.Q.Q.Q.Q.Q.Q.Q.Q.Q.Q.Q.Q.Q.Q.Q.Q.Q.Q.Q.Q.Q.Q.Q.Q.Q.Q.Q.Q.Q.Q.Q.Q.Q.Q.Q.Q.Q.Q.Q.Q.Q.Q.Q.Q.Q.Q.Q.Q.Q.Q.Q.Q.Q.Q.Q.Q.Q.Q.Q.Q._.{.{.{.{.{.{.{.}.}.}.}.}.}.}.}.|.}.}. XXXXXXXXXXXXXXXXXXX XXX XXX XXX XOX XXXXXXX X XXXXXXXXXXXXXXXXXXXXXXXXXXXXXXXXXXXXXXXXXXXXXXXXX.XXX.X.X.X X.XXXXXXXXX}.}.|.|.|.|.}.|.{.{.{.{.Q.Q.!.Q.Q.Q.W.W.W.W.W.W.U.W.W.W.W.W.W.W.W.W.U.U.U.U.P.P.P.P.P.P.P.;.;.;.:.:.*.*.*.:.:.*.*.*.*.#.#.*.#.#.#.#.#.#.#.#.#.@.@.@.@.@.@.@.@.@.@.@.@.@.@.@.@.@.@.@.@.@.@.@.@.@.@.@.@.O.O. ... . . . . ...........O.O.O.O. . . . . . . . . . . . . . . . ............. . .O.O.O.O.@.@.#.#.#.#.#.*.*.*.*.*.*.*.*.*.*.*.*.#.#.*.*.*.*.*.*.*.*.*.*.*.=.=.=.=.=.=.=.=.=.=.=.=.=.*.=.=.=.=.=.*.*.*.*.*.*.*.*.+.+.*.*.*.*.*.*.*.*.*.*.*.*.*.=.=.=.=.=.=.=.=.=.=.=.=.=.=.=.=.=.*.*.%.*.*.%.*.%.*.*.%.*.*.*.*.%.%.*.+.+.#.#.+.#.+.#.#.#.#.+.#.#.#.#.#.+.O.O.O.O.O.@.@.@.@.@.@.@.@.@.O.O. ...| R R R R U U I U U K U U K U P P P P K P P K K K K K K P K x x K P K x x P z x K z z K z z z z z z z K K K K K x P P P K K z z z z P P K K K K x K K x x x x j x j K K K K K K K K K K K K K K j z K K K K K P K K K H H H K K K K K H H H H K K K H K K K H H H j j ",
"Q.Q.Q.Q.Q.Q.Q.Q.Q.Q.Q.Q.Q.Q.Q.Q.Q.Q.Q.Q.Q.Q.W.W.Q.W.W.W.W.W.W.W.U.W.W.W.W.W.W.W.W.W.W.W.W.W.W.W.W.W.W.W.W.W.W.W.W.W.W.W.W.W.W.W.W.W.W.W.W.W.W.W.W.W.Q.Q.Q.Q.Q.Q.Q.Q.Q.Q.Q.Q.Q.Q.Q.Q.Q.Q.Q.Q.Q.Q.Q.Q.Q.Q.{.{.{.{.{.{.{._.{.{.{.{.{.{.{.{.{.Q.Q.Q.Q.Q.Q.Q.Q.Q.Q.Q.Q.Q.Q.Q.Q.Q.Q.Q.Q.Q.Q.Q.Q.Q.Q.Q.Q.Q.Q.Q.Q.Q.Q.Q.Q.Q.Q.Q.Q.{.Q.Q.Q.Q.{.Q.{.Q.{.{.Q.{.{.{.{.{.{.|.|.|.}.|.}.}.}.XXXXXX X X X X XXXXXXXoXXXXXXXXXXXXXXXXXXXXXXXXXXX.X.XXXXXXXXXXXXXXX X X}.XXXXXXXX}.}.}.XXXXXXXXXXXXXXXXXXXXXXXXXXXXXX.X.X.XXXXXXXXXXXXX}.}.|.}.|.{.{.{.{.{.{.Q.Q.Q.!.!.W.W.W.W.W.W.W.W.W.W.W.W.W.W.W.W.U.U.U.U.U.I.P.P.P.P.;.;.;.;.;.:.:.:.:.*.*.:.:.*.*.*.#.#.#.#.#.#.#.#.#.#.#.#.@.#.@.@.@.@.@.$.@.@.@.O.@.@.@.@.@.@.@.O.O.@.@.@.@.@.@.@.@.O.O..... . . . . ... . ...O.O.O.O.O. .O.O.O.O. . . .O.O.O.O.O.O.O.O. . .O.O.O.O.O.@.O.O.@.#.#.#.*.*.*.*.*.*.=.=.=.=.=.=.=.=.=.*.*.*.*.*.*.*.*.*.*.*.*.=.=.=.=.=.=.=.=.=.=.=.=.=.=.=.=.=.=.=.=.=.=.=.=.*.*.*.*.*.*.*.*.*.*.*.*.*.*.*.*.*.*.*.*.*.*.*.=.=.=.=.=.=.*.*.*.*.*.*.*.*.*.*.*.*.*.+.%.*.%.%.+.%.*.*.#.+.+.+.+.+.+.+.#.+.@.+.#.#.#.+.+.+.+.+.#.+.@.O.@.O.O.O.O.O.O.O.O. . . .E R R R R R I I I U K U U U I P K P K K P P P P P P P P K K P K P P P x x x x x z z z z z z z z z z z z x x z z K K K K K K K K K z z z z z z P K K K P K x K j x x x x j j x K z z K K K K K K K K K K K j z K K K K K K K K K H H K K K K K K j j j j K K j j K K K H j j j K ",
"Q.Q.{.{.Q.Q.Q.Q.Q.Q.Q.Q.Q.Q.Q.Q.Q.Q.Q.Q.Q.Q.W.W.W.W.W.W.W.W.W.W.W.W.W.W.W.W.W.W.W.W.W.W.W.W.W.W.W.W.W.W.W.W.W.W.W.W.W.W.W.W.W.W.W.W.W.W.W.W.W.W.Q.Q.Q.Q.Q.Q.Q.Q.Q.Q.Q.Q.Q.Q.Q.Q.Q.Q.Q.Q.Q.Q.Q.Q.Q.Q.Q.Q.{.{.{.{.{.{.{._._.{.{.Q.{.{.Q.{.{.Q.Q.Q.{.{.Q.Q.Q.Q.Q.Q._._._.Q.Q.Q.Q.Q.Q.Q.Q.Q.Q.Q.Q.Q.Q.Q.Q.Q.Q.Q.Q.Q.Q.Q.Q.Q.Q.{.{.{.{.{.{.{.{.{.{.{.{.{.{.{.}.}.}.}.}.|.|.}.XXXXXXXXXXXXXXXXXXXXXXoXoXoXoXoXoXoXoXoXoXoXoXXXXXXXXXXX.X.XXXXXXXXXXXXX X}.|.}.}.}.}.}.}.}.}.}.}.}.XXXX X XXXXXXXXXXXXXXXXXXXXXXXXXXXXXXXXX X}.}.|.}.{.{.{.{.{.{.Q.Q.Q.Q.Q.W.W.W.W.W.W.W.W.W.W.W.W.W.W.W.W.W.U.U.U.U.P.P.P.P.;.P.;.;.:.;.:.*.*.*.:.*.:.:.:.:.:.*.*.#.#.#.#.#.#.#.#.#.#.#.#.#.@.@.@.@.@.@.@.O.O.O.O.@.@.O.@.@.@.O.O.@.@.@.@.@.@.@.@.@.@.@.@.@...O...O...O.O.O.O.O.O.$.O.O.O.O.O.O.O.O.O.@.O.O.O.O.O.@.@.O.O.O.O.+.+.@.#.#.#.#.*.*.*.*.*.=.=.=.=.=.=.=.=.=.=.=.=.=.=.=.=.=.=.=.=.=.=.=.=.=.=.=.=.=.=.=.=.=.=.=.=.=.=.=.=.=.=.=.=.=.=.=.=.=.*.*.*.*.*.*.*.*.*.*.*.*.*.*.*.*.*.*.*.*.*.*.*.=.*.=.*.*.*.*.*.*.*.*.*.*.*.+.+.+.+.+.+.#.#.*.#.@.#.#.#.+.+.+.+.@.O.@.@.@.@.@.@.O.O.O.@.O.O.$.$.O.O.O.O.O. . . . . .R R R R R R R I I I I I I I I I I P U U P P P K K K K K P P P P P P P P P P P P z x x x x x x x z z z z z l z z z x z z x j K K K P K K P K K K x x x x K K K K P P K K z x j x z x j j x K z K K K K K K H j j z z z j j z K K K K K K H z z z K z K z z z z j j z z z j j K K H j j j j K ",
"Q.Q.{.{.{.{.Q.Q.Q.Q.Q.Q.Q.Q.Q.Q.Q.Q.Q.Q.Q.Q.Q.W.W.W.W.W.W.W.W.W.W.W.W.W.W.W.W.W.W.W.W.W.W.W.W.W.W.W.W.W.W.W.W.W.W.W.W.W.W.W.W.W.W.W.W.W.W.W.W.W.Q.Q.Q.Q.Q.Q.Q.Q.Q.Q.Q.Q.Q.Q.Q.Q.Q.Q.Q.Q.Q.Q.Q.Q.Q.Q.Q.Q.{.{._.{.{.{.{._.{.{.{.{.{.{.{.{.{.{.{.{.{.{.{.{.{.{.{.{._._._._._.Q.Q.Q.Q.Q.Q.Q.Q.Q.Q.Q.Q.Q.Q.Q.Q.Q.Q.Q.Q.Q.Q.Q.Q.{.{.{.{.{.{.{.{.{.{.{.{.|.|.|.}.}.}.}. XXX XXXXXXXXXoXoXXXoXoXoXoXoXoXoXoXoXoXoXoXoXoXoXoXoXoXXXXXXXXXXXXXXXXXXXXXXXXXXX}.|.|.}.}.}.|.}.}.}.}.}.}.}.}. XXXXXXXXXXXXXXXXXXXXXXXXXXXXXXXXX}.}.|.}.{.{.{.{.{.{.{.Q.Q.Q.Q.Q.W.W.W.W.W.W.W.W.W.W.W.W.W.W.W.W.U.U.U.U.P.P.P.;.;.;.;.;.;.:.:.;.:.*.*.*.:.:.:.:.:.:.:.*.*.#.#.#.#.#.#.#.#.#.#.#.#.#.@.@.@.@.@.@.@.O.@.O.O.@.@.O.@.@.O.O.O.O.@.O.@.@.@.@.@.#.#.@.@.@.@.@.@.@.@.O.O.@.O.O.$.O.O.$.$.O.O.O.O.@.@.@.@.O.O.+.+.@.@.@.@.@.#.#.#.*.*.*.*.*.*.*.*.=.=.=.=.;.=.=.J.J.J.P.J.J.=.=.=.=.;.=.=.=.=.=.;.;.=.=.=.=.;.=.=.=.=.=.=.=.=.=.=.=.=.=.=.=.=.=.=.=.=.=.*.*.*.*.*.*.*.*.*.*.*.*.*.*.*.*.*.*.*.*.*.*.*.*.*.*.*.*.*.*.#.*.*.*.#.#.#.#.#.#.#.#.@.@.@.#.+.@.#.#.#.+.+.@.@.O.O.@.@.@.@.@.@.O.O.O.@.@.O.O.O. . . . . .| | | I I I I I I I I U I I I I I I I I P P P U U P P K K K K P P P P P P K K K K P x x x z x z x z x x z z z z z l l z z x x z x l x x K K K K K K K K K K j j K K K K K P P x x z z j x z x j j x K z z K K z z K K j j K z z z x K K K K K K H j j j z z z z z z x z z z j j j j j K H j j j j K K ",
"Q.Q.{.{.{.{.Q.Q.Q.Q.Q.Q.Q.Q.Q.Q.Q.Q.Q.Q.Q.Q.Q.Q.W.W.W.W.W.W.W.W.W.W.W.W.W.W.W.W.W.W.W.W.W.W.W.W.W.W.W.W.W.W.W.W.W.W.W.W.W.W.W.W.Q.W.W.W.W.W.Q.Q.Q.Q.Q.Q.Q.Q.Q.Q.Q.Q.Q.Q.Q.Q.Q.Q.Q.Q.Q.Q.Q.Q.Q.Q.Q.Q.Q.Q.Q.Q.{.{.{.{.{._.{.{.{.{.{.{.{.{.{.{.{.{.{.{.{.{.{.{.{.{.{.{.{.{.{.Q.{.{.{.{.{.{.Q.Q.{.{.{.{.{.{.Q.Q.Q.Q.{.{.Q.Q.{.{.|.|.{.{.{.{.{.{.{.}.|.|.|.}.}. X XXXXXXXoXXXoXoXoXoXoXoXoXjXjXjXjXjXjXjXjXjXjXoXoXoX.XoXoXoX.X.X.X.X XXXXXXXXXXX XXX}.}.}.|.|.|.|.|.}.}.}.}.}.}.}.}.XXXXXXXXXXXXXXXXXXXXXXXXXX X X|.}.}.}.|.{.{._._.Q.Q.Q.Q.Q.Q.Q.Q.Q.Q.W.W.W.W.W.W.U.W.W.W.W.W.W.W.U.I.U.P.P.P.P.;.;.;.;.;.:.:.;.;.:.:.:.*.:.:.:.:.:.:.:.:.:.:.*.#.#.#.#.#.#.#.@.@.#.#.#.#.@.@.@.@.@.@.O.@.@.@.@.@.@.@.@.@.O.O.@.@.O.O.@.@.@.#.#.#.#.@.#.@.@.@.@.@.@.#.#.#.@.@.+.@.@.@.@.@.#.#.#.#.#.@.@.@.+.@.#.#.#.*.:.*.*.*.*.*.=.=.;.;.;.;.=.=.;.;.;.P.P.J.J.J.P.P.P.P.J.;.;.P.P.P.P.P.P.P.P.P.=.;.=.=.=.=.=.=.=.=.=.=.=.=.=.=.=.=.=.=.=.=.=.=.=.*.*.*.*.*.*.*.*.*.*.*.*.*.*.*.*.#.+.+.*.*.*.*.*.%.*.%.%.#.#.+.#.#.#.#.#.@.@.@.#.@.@.@.@.O.O.@.O.O.@.@.O.O.@.@.O.O.O.O.O. . . . . . . . . . .....R R R | R I I I I P K U U U I I I I I I I I I P P P K P P P P P P P P P P P P K K x x K x x z z x z z z z z z z z z z x x x l x x x x x x x x z x z x z x K K x x j j K K K K K K K K j z z z j j z j z z z K z z z z z K K K j H K K K K K K K K K H j j j j j z z z z z z z z z z z z z z j z z j j j K K K ",
"Q.Q.Q.{.Q.Q.Q.Q.Q.Q.Q.Q.Q.Q.Q.Q.Q.Q.Q.Q.Q.Q.Q.Q.W.W.W.W.W.W.W.W.W.W.W.W.W.W.W.W.W.W.W.W.W.W.W.W.W.W.W.W.W.W.W.W.W.Q.W.W.W.Q.Q.Q.Q.W.Q.W.Q.W.Q.Q.Q.Q.Q.Q.Q.Q.Q.Q.Q.Q.Q.Q.Q.{.{.Q.{.{.{.{._.Q.Q.Q.Q.Q.Q.Q.{.{.{.{.{.{.{.{.{.{.{.Q.{.{.{.Q.Q.{.{.{.{.{.{.{.{.{.{.{.{.{.{.{.{.{.{.{.{.{.{.{.{.{.{.{.{.{.{.{.{.{.{.{.{.{.{.{.{.{.|.|.|.}.|.|.|.|.}.}.XXXXXXXXXXXXXX.X.XoXoXoX.XoXoXoXoXoXjXjXjXjXjXMXjXoXoXoXjXoXoXoXOX.X.X.X.XoXXXXXXX XXXXX X X X X}.}.|.|.|.{.|.|.}.}.|.}.}.}.}.XXXXXXXXXXXXXXXXXX X XXXXX X}.}.}.}.|.|.}.{.{._.Q.Q.Q.Q.Q.Q.W.W.W.W.W.W.W.W.W.W.W.U.U.I.I.W.U.I.U.I.I.P.P.P.;.;.;.;.;.;.=.:.;.:.:.:.:.*.:.:.:.:.:.:.:.:.*.*.*.*.#.#.#.#.#.@.#.#.#.@.@.@.@.@.@.@.@.@.@.O.@.@.@.@.@.@.#.#.@.O.@.@.@.@.@.@.@.@.@.#.#.#.#.@.@.@.#.#.#.#.#.#.#.#.#.*.#.*.*.*.*.*.*.*.*.*.#.#.#.#.*.*.*.*.:.;.;.;.;.;.=.;.;.P.P.P.P.;.P.P.P.P.P.P.P.P.P.P.P.P.P.P.P.P.P.P.P.P.P.P.;.P.;.=.=.=.=.;.;.=.=.=.=.=.=.=.;.=.=.=.=.*.=.=.=.*.*.*.*.*.*.#.+.+.+.#.#.#.+.+.+.+.+.+.+.+.+.+.+.+.+.+.#.#.#.+.+.+.+.O.O.@.O.O.O.O.O.@.O.O.O.O.O.O.O.O.O.O.O.O.O.O. . . .E E E E E E R R R R R R R R R R I I I I I I I P K K U U U U I I I I I I I I P P K K P P P P P P P P P P P P K K x x x x z z z x z z z z z l l z x x x x x z z x x x x x z z x z z z z z K K x x x j x K K K K K K K z K z z z j z z z K K K z z z z j z K K j H K K K K K K K K K H z j j j j z z z z z z z K K K K K K K K K H j j K K K K ",
"Q._.Q.Q.Q.Q.Q.Q.Q.Q.Q.Q.Q.Q.Q.Q.Q.Q.Q.Q.Q.Q.Q.W.W.W.W.W.W.Q.W.W.W.W.W.W.W.W.W.W.W.W.W.W.W.W.W.W.W.W.W.W.W.W.W.Q.Q.Q.Q.Q.Q.Q.Q.Q.Q.Q.Q.Q.Q.!.Q.Q.Q.Q.Q.Q.Q.Q.Q.Q.{.Q._.{.{.{.{.{.{.{.{.{.Q.Q.Q.Q.Q.Q.Q.Q.Q.{.{.{.{.{.{._.{.{.{.{._.{.{.{.{.{.{.{.{.{.{.{.{.{.{.{.{.{.{.{.{.{.{.{.{.{.{.{.{.{.{.{.{.{.{.|.|.{.{.|.|.|.|.|.|.|.|.}.}.}.}.}.}.XXXXXXXXXXXXXXoXoXoXoXoXoXoXoXjXoXoXoXoXoXoXjXoXjXjXjXjXoXoXoXjXoXoX.X.X.X.X.XXXoXXXXXXX X X X X XXX}.}.|.}.{.{.{.{.|.}.|.|.|.}.}.}.}.XXXXXXXXXXXXXXXXXXXX X}.}.}.}.}.}.{.{.{.{.Q.Q.Q.Q.W.W.W.W.W.W.W.W.W.W.W.W.W.U.U.U.U.I.I.P.P.P.P.P.P.P.;.;.=.=.:.:.*.*.=.=.:.:.:.:.=.:.:.:.*.*.*.:.:.:.:.*.*.*.*.*.#.#.#.#.#.#.@.#.@.#.@.#.#.@.@.@.@.@.@.@.@.#.@.@.@.#.@.@.@.#.#.@.@.@.@.@.#.@.@.@.@.#.@.@.#.*.*.*.*.*.*.*.*.*.*.=.=.=.=.=.=.*.*.*.*.*.=.*.*.*.;.;.P.P.P.P.P.P.P.P.P.P.P.P.P.J.J.P.P.P.P.P.P.P.P.P.P.P.P.P.P.P.P.P.P.P.P.;.;.;.;.J.J.J.J.=.=.=.=.=.=.=.=.=.;.=.=.*.*.*.*.*.*.*.*.*.#.#.+.@.+.@.@.#.#.#.@.@.O.O.O.O.O.O.O.O.O.O.@.O.O.O.O.O.O.O. .E E E R R ....| ........E E .. . .E E  . .......| | R R R R R R I I I I I I I U I I I I I I I I I I I I I I I I I I I I I I P P P P P K P P P P P P P P P P P P P x x x x x x z x x z z z z z z l l z x x x z z z z z z z z z z z z z z z z z z x x z z K K P K K K K K z K z z z z z z z z K K K K z x j j j j j K K z z j j K P K K K K j j j j j z K K K K K H K P K K K K K K K H H j K K K ",
"Q.Q.Q.Q.Q.Q.Q.Q.Q.Q.Q.Q.Q.Q.Q.Q.Q.Q.Q.Q.Q.Q.Q.W.W.W.W.W.W.W.W.W.W.W.Q.Q.Q.W.W.W.W.W.W.W.W.W.W.W.W.W.W.W.W.W.W.Q.Q.Q.Q.Q.Q.Q.Q.Q.Q.Q.Q.Q.!.!.!.Q.Q.Q.Q.Q.Q.Q.Q.Q.{.{.{.{.{.{.{.{.{.{.{.{.{.Q.Q.Q.Q.Q.Q.Q.Q.{._.{.{.{.{.{.{.{.{.Q._._.{.{.{.{.{.{.{.{.{.{.{.{.{.{.{.{.{.{.{.{.{.|.{.|.{.{.{.{.|.|.{.{.|.|.|.}.}.|.|.}.}.}.}.XXXXXXXXXXXXXXXXXX.XoXoXoXoXoXoXjXjXjXjXjXjXjXjXoXoXoXoXjXjXjXoXoXoXoXjXoXoXoXjXoXoX.X.X.X.XXXXXXXXX X X X X X X}.}.}.|.{.{.{.{.{.{.{.{.}.}.}.}.}.}.}.}.XXXXXXXXXXXXXXXXXX}.XXXXXX}.}.{.Q.Q.Q.Q.Q.Q.Q.W.W.W.W.W.W.W.U.U.U.U.U.U.I.I.I.P.P.P.P.P.;.;.;.;.;.;.;.=.=.=.*.=.*.*.=.:.:.:.:.:.=.:.:.:.*.*.*.*.:.:.*.*.*.*.*.*.*.#.#.#.#.@.@.#.@.@.@.@.@.@.@.#.#.@.@.@.@.@.@.@.#.#.@.#.#.#.@.@.@.#.@.#.*.*.*.#.#.*.*.#.#.*.*.*.*.=.:.;.;.;.;.;.;.;.;.=.;.;.=.=.;.;.;.;.;.;.;.P.P.P.P.P.P.P.P.P.P.P.P.P.P.G.P.P.P.P.P.P.P.P.P.P.P.Y.P.P.P.P.P.P.P.G.;.;.;.;.;.;.P.P.P.=.=.=.=.:.=.*.=.*.*.:.:.*.*.*.*.#.#.#.@.@.@.O.O.O.O.O.O.O.O.O.O.O. . ... . . . .O. . . . . . .E E E E R R R R R R R R | R R R R R R R R R R R R R R R R R R R R R R R R I I I I I I I U I I I I I I I I I I I P I I I I I I I I I P P P P P P P P P P P K K K P P P P P P z x x x x x x x x x x z z z z z x z z z x x z z z z z z z z z K K z x z x K K z z z z z z x x K K K z K K K z z z z z z K K K K K z z z z z K j K z z K z K K K K K K K H H H j j j K K K K K K K K K K H H H K K K K K K K K ",
"Q._.Q.Q.Q.Q.Q.Q.Q.Q.Q.Q.Q.Q.Q.Q.Q.Q.Q.W.Q.Q.Q.W.W.W.W.W.W.W.W.W.W.W.Q.Q.W.W.W.W.Q.W.W.W.W.W.W.W.W.W.W.W.W.W.W.W.W.W.Q.Q.Q.Q.Q.Q.Q.Q.Q.Q.!.!.Q.Q.Q.Q.Q.Q.Q.Q._._.{.{.{.{.{.{.{.{.{.{._.{.Q.Q.Q.Q.Q.Q.Q.Q.Q.Q._._.{.{.{.{.{.{.{.Q._._._._.{.{.{.{.{.{.{.{.{.{.{.{.{.{.{.{.{.{.{.|.}.{.}.|.}.|.|.|.|.|.|.}.}.}.}.}.}.}.XXXXXXXXXXXXXXXXXXXX.XXXoXoXoXoXoXjXjXjXjXjXjXjXoXoXoXoXoXoXoXoXoXoXoXoXoXoXoXoXoXoXoXoX.X.XXXXX X X XXXXX X X}.}.}.}.}.}.|.}.{.{.{.{.{.Q.{.{.{.}.}.}.}.}.}.}.}.}.}.XXXXXX}.}.}.}.}.}.}.{.{.{.Q.Q.Q.Q.W.W.W.W.W.W.U.U.U.U.U.U.I.I.P.P.P.I.I.P.P.;.;.;.;.;.:.:.;.;.:.:.*.*.*.*.*.*.:.:.:.:.:.:.:.:.:.:.*.*.*.:.:.:.*.*.*.*.*.*.*.*.*.#.#.#.@.#.#.#.#.#.#.#.#.@.#.#.#.#.#.#.#.#.*.*.#.#.#.#.#.#.#.#.*.*.*.*.*.*.*.*.*.*.:.=.;.=.;.;.;.;.P.P.P.P.P.P.P.P.P.P.P.P.P.P.P.P.P.P.P.P.P.P.P.P.P.P.P.P.P.P.P.J.J.P.P.P.P.P.P.P.P.P.P.P.P.Y.Y.P.P.P.P.P.G.J.=.;.;.;.;.;.;.;.;.=.*.*.*.*.#.#.#.@.#.#.#.@.@.O.O.O.O.O.O...O.O.O. . .....R ...... ...E E E ..E E E R E E E E E R R W R R R R R I I R | | R R I I R R R R R R R R R R R R R R R R R R R R I I I I I I I U I I I I I I I I I I P I I I I I I I I I I I P P P P P P P P P P P K P P P P P P P x x x x x x z x x x x x x z z z x z z z z z z z x P z z z x K K K K K K K K K P K K K K K K K K K K K K K K K K K K K K K K K K K K z K K K K K K K K K K K K K K z K K K K K H H K K K K K K K K K K K K K H K K K K K K K K ",
"Q._.Q.Q.Q.Q.Q.Q.Q.Q.Q.Q.Q.Q.Q.W.Q.Q.Q.W.Q.Q.Q.Q.W.W.W.W.W.W.W.W.W.W.Q.Q.W.W.W.W.Q.W.W.W.W.W.W.W.W.W.Q.W.W.W.W.W.W.Q.Q.Q.Q.Q.Q.Q.Q.Q.Q.Q.!.!.Q.Q.Q.Q.{.{.{.Q._.{.{._._.{.{.{.{.{.{.{._._.Q.Q.Q.{.Q.Q.Q.Q.Q.Q._.{.{.{.{.{.{.{.{._.{.{.{._._.{.{.{.{.{.{.{.{.{.{.{.{.{.{.{.|.}.}.|.}.}.}.|.|.|.}.}.}.}.}.XX X X XXXXXXXXXoXXXoXXX.XXXXX.XXXXXoXoXoXoXoXjXjXjXjXoXoXoXoXoXoXoXoX.X.X.X.X.X.X.XoXoXoXXXXXXXXXXXXXXXXX X X X X X X X}.}.}.}.}.|.|.|.|.{.{.{.{.{.{.Q.Q.{.{.{.}.}.{.}.}.}.}.}.}.}.}.}.}.|.{.{.{.{.Q.Q.!.Q.Q.W.W.W.W.W.W.U.U.U.U.I.I.I.I.I.I.P.P.P.P.P.P.;.;.;.;.;.;.;.:.:.:.:.:.*.:.:.:.*.*.:.:.:.:.:.:.:.:.:.:.:.*.*.*.:.:.*.*.:.:.*.*.*.*.*.*.*.#.#.#.*.#.#.#.#.#.#.*.*.*.*.*.:.:.*.*.*.*.*.*.*.*.*.*.*.*.*.*.:.=.:.:.=.=.;.;.;.;.;.;.;.;.P.P.P.P.P.P.P.P.I.I.I.I.I.I.P.P.P.P.P.P.P.P.P.P.P.P.P.P.P.P.P.P.P.P.P.P.P.P.P.P.P.P.P.;.P.P.P.P.K.K.P.P.P.P.P.P.J.=.;.;.;.;.;.:.=.*.*.*.#.#.#.@.O.O.O..... ...........................R | | R R R R | ..| R R R R R R R R R R R R R R R R R R R I I I I R } R I I I R R R I R R R R R R R R R R R R R I R I I I I I U I I I I I I I I I I I I I I I I I I I I I I I I I I I P P P P P P P P P P P P P P P x x x x x x x x x x x x x x z z z z x x x x x z z z K P z z K K K K K K K K K K K P K K K K K K K K P P K K K K K K K K K K K K K K K K z H H K K K K K K K K K K K K K K K K K K K K K K K K K K P P L K K K K K K H H K K K K P ",
"_._.Q.Q.Q.Q.Q.Q.Q.Q.Q.Q.W.W.W.W.Q.Q.Q.Q.Q.Q.Q.Q.W.Q.W.W.W.W.W.W.Q.Q.Q.Q.Q.Q.Q.Q.Q.Q.Q.Q.Q.Q.Q.Q.Q.Q.Q.W.W.W.W.W.Q.Q.Q.Q.Q.Q.Q.Q.Q.Q.Q.Q.Q.Q.Q.Q.Q.{.{.{._._.{.{.{.{.{.{.{.{.{.{.{.{._._._._._.{.{.{.Q.{._._.{.{.{.{.{.{.{.{.{.{.{.{.{.{.{.{.{.{.{.{.{.{.{.{.}.}.}.{.{.}.}.}.}.}.}.}.}.}.|.}.}.}. X XXXXXXXXXXXXXXXoXoXoXoXoX.X.XXXXXXXoX.X.XoXoXoXoXoXoXoXoXoXoXoXoXoXoX.XoXoXoXXXXXXXXXXXXXXXXXXXXX XXXXXXXXXXX X X X}.}.XXXX}.|.|.}.}.}.{.|.{.{.{.{.Q.Q.Q.Q.Q.Q.Q.Q.{.{.Q.{.{.{.Q.{.Q.Q.Q.Q.Q.!.!.!.!.Q.!.!.W.W.W.W.U.U.U.U.I.U.U.U.I.P.P.P.P.P.P.P.P.;.;.;.;.;.;.;.;.;.;.:.:.:.:.:.:.:.:.:.:.:.:.:.:.:.:.:.:.:.:.:.;.;.*.*.*.*.*.*.*.*.*.*.*.:.*.*.:.*.*.*.*.*.#.*.*.*.*.*.:.:.:.;.;.=.=.=.=.=.=.*.*.:.:.;.;.=.=.;.=.;.P.P.P.P.P.P.P.P.P.P.P.P.P.P.P.I.I.I.Y.I.I.I.I.I.I.I.I.I.I.P.P.P.P.P.P.P.P.P.P.P.P.P.P.P.P.P.P.P.P.P.P.P.P.P.P.;.;.P.P.P.P.P.P.P.Y.P.P.P.P.J.=.=.=.*.:.*.*.*.#.#.@.@.O. . . . . . ...| | | | } | } R R | | | | R R R R R R R R R R R R R R R R R R R R R R R R R R R R I I I I I I I } I I I I | | I I I I I R R R R R R R R R R R R R I I I I I I I I I I I I I I I I I I I I I I I I I I I I I I I P P P P P K P P P P K P P P P P P P P P P P x x x x x z z x z z x x K K K x x z z x K K x x K K K K P K K P K P P P P K K P P P K K P P K K K P P P K K K K K K K K K K K K K K K K L P P K K K P P K K K K K K P K K K K K K P P K P P P P P U K U K K U K K U P ",
"_._._.Q.Q.Q.Q.Q.Q.Q.Q.Q.W.W.W.W.Q.Q.Q.Q.Q.Q.Q.Q.Q.Q.W.W.W.W.W.W.Q.Q.Q.Q.Q.Q.Q.Q.Q.Q.Q.Q.Q.Q.Q.Q.Q.Q.W.W.W.W.W.W.Q.Q.Q.Q.Q.Q.Q.Q.Q.Q.Q.Q.Q.Q.Q.Q.{.{.{.{.{.{.{.{.{.{.{.{.{.{.{.{.{.{.{._._._._._.{.{.{.{._._._.{.{.{.{.{.{.{.{.{.{.{.{.{.{.{.{.{.{.{.{.{.{.{.}.}.}.}.}.}.}.}.}.}.}.}.}.}.}.}. XXXXXXXXXXXXX.X.XoXXXoXoXoXjXjXoXoXoXoXoXoX.XXXoXoXoXoXoXoX.X.X.X.X.X.X.X.X.X.X.XXXXXXX XXXXXXXXXXX}.}.}.}. XXX XXX XXX X}.}.}.}.|.{.{.{.{.{.{.{.{.Q.Q.Q.Q.Q.Q.Q.!.Q.Q.Q.Q.Q.Q.Q.Q.!.!.!.!.W.W.W.W.W.W.!.T.T.T.T.U.U.U.I.U.I.I.I.I.I.P.P.P.P.P.P.P.;.;.;.;.;.;.;.;.;.;.;.;.;.;.;.:.;.:.*.*.:.:.*.:.:.:.:.:.:.=.;.*.=.=.=.:.;.:.*.*.*.*.*.*.*.*.*.=.:.;.:.;.;.:.:.:.;.;.;.;.=.:.:.;.;.;.;.;.;.;.;.;.;.;.;.;.;.;.;.;.;.P.P.P.P.P.I.U.U.U.I.I.U.U.I.I.I.Y.Y.I.I.U.U.I.W.W.W.I.I.U.I.I.Y.I.U.I.U.I.I.Y.Y.P.P.I.I.I.P.P.P.P.P.P.P.P.P.P.P.P.P.;.;.;.G.G.J.P.P.P.P.P.P.P.P.P.;.=.=.*.*.*.#.@.+.@.O. .......| | ..| | | | } | | | | R R R R R R R R R R I I I I I R R R | | R R R R R R R R R R R R R I I I I I I I I I I I I I I I I I I I I I R R R R R R R R R R R R R I I I I I I I I I I I I I I I I I I I P I I I I I I I I I I I U P P P P K K P P P K P P P P P P P P z z x x x x x x z x x x P x P K K K x x x x K K K K K K K K K K K K P P P P P P P K K K K K K K P K K K P P P P P K K K K K P K U K K K K K L L L P U K K K K K K K K P P P K K P U K U P L U L L L L L L L L L L L L L L L ",
"_._._.Q.Q.Q.Q.Q.Q.Q.Q.Q.W.W.W.W.Q.Q.Q.Q.Q.Q.Q.Q.Q.Q.Q.Q.Q.Q.W.Q.Q.Q.Q.Q.Q.Q.Q.Q.Q.Q.Q.Q.Q.Q.Q.Q.Q.Q.Q.Q.Q.Q.Q.W.Q.Q.Q.Q.Q.Q.Q.Q.Q._._._._._.{._.{.{.{.{.{.{.{.{.{.{.{.{.{.{.{.{.{.{.{._._._.{._.{.{.{.{.{._._.{.{.{.{.{.{.{.{.{.{.{.}.}.}.}.{.{.{.{.{.|.}.}.}.}.}.}.}.}.}.}.XX X X XXXXXXXXXXXXXXX.XoXoXXXXXoXoXoXoXoXoXjXjXjXoXoXoXoXoXXXXXoXoXoXoXoX.X.X.XXXXXXXXX X X X XXXXXXXXXXXXXXX}.}.}.|.|.}.|.}.}.}.}.}.}.}.}.}.}.}.}.{.{.{.Q.Q.Q.Q.Q.Q.Q.Q.Q.Q.Q.Q.W.Q.Q.Q.Q.W.W.W.W.T.T.T.W.W.W.W.W.W.W.W.W.T.U.U.U.U.I.U.I.U.U.I.P.P.P.P.P.P.P.;.;.;.;.;.;.;.;.;.;.;.;.;.;.;.;.;.;.;.;.*.:.:.;.:.:.;.;.;.;.;.=.=.;.;.=.=.;.;.;.=.*.=.*.*.;.;.;.=.;.;.;.;.;.;.;.;.;.;.;.P.;.;.;.;.;.P.P.P.P.I.I.I.P.P.P.P.P.P.P.P.P.P.P.I.I.I.I.W.W.W.W.W.W.W.W.U.I.U.I.I.U.W.W.W.W.W.W.W.W.W.W.W.I.I.U.U.U.U.U.U.I.I.I.I.I.I.I.Y.P.P.P.P.P.P.P.P.;.;.;.;.;.;.;.;.;.P.P.P.P.P.P.P.P.P.;.;.=.*.#.#.@.$.O.O.......| | | R R | | R R R R | | | | R R R | R I I } } I I I I I I R R R | | | | R R R R R R R R R R I I I I I I I I I I I I I I I I I I I I I I I I I R | R R R R I I I I I I I I I I I I I I I I I I I I I I I I P P I I P I I I I I I P P P P P P P K K P K P P P P P x P P P K x x x x x K P K x x P P P P P K K K K K P P P P P P K K K K K P P P P P P P P K K K P P P P P K P P P P P P P K K K P P L P L P P P P P L L L U U U K K K K K K P L L P U P L U U L Y R Y Y Y Y R R R R R R R R R R R Y ",
"_._._._.Q.Q.Q.Q.Q.Q.Q.Q.W.W.W.W.Q.Q.Q.Q.Q.Q.Q.Q.Q.Q.Q.Q.Q.Q.W.Q.Q.Q.Q.Q.Q.Q.Q.Q.Q.Q.Q.Q.Q.Q.Q.Q.Q.Q.Q.Q.Q.Q.Q.!.Q.Q.Q.Q.Q.Q.Q.Q.Q._.{._._._._._.{.{.{.{.{.{.{.{.{.{.{.{.{.}.}.{.{.{.{.{.{.{.{.{.{.{.{.|.}.{.}.}.}.}.{.{.{.{.{.{.{.{.}.}.}.}.{.{.{.{.|.|.}.}.|.|.}.}.}.}.}.}.}. XXXXXXXXXXXXXXXoX.XoXoXoXoXoXoXoXoXoXoXoXjXjXjXoXoXoX.X.XoXoXXXXX.XXX.XXX.XXXXXXXXX X X X X XXXXX XXXXXXX}.}.|.|.|.|.{.|.}.{.}.|.|.|.|.}.}.{.{.{.{.Q.Q.Q.Q.Q.Q.Q.!.!.Q.Q.Q.Q.Q.W.Q.Q.Q.Q.W.W.W.W.W.W.W.W.W.W.U.U.U.U.U.U.U.U.U.Y.I.I.U.I.U.U.I.P.P.P.P.P.;.;.;.;.;.;.;.;.;.;.;.;.;.P.P.P.;.;.;.;.;.;.;.;.;.;.;.;.;.;.;.;.;.;.;.;.;.;.=.;.;.;.;.;.;.:.;.;.;.;.;.P.P.;.;.P.P.;.P.P.P.P.P.P.P.P.P.P.I.I.I.U.W.W.W.U.U.I.I.I.U.I.I.I.I.I.I.U.W.T.W.W.W.W.W.W.W.W.W.W.W.W.W.W.W.W.W.Q.W.W.Q.Q.W.W.W.I.W.W.U.U.U.U.U.U.U.I.I.I.I.I.Y.P.P.P.P.P.P.P.;.;.;.;.:.:.=.;.;.=.P.P.P.P.P.P.P.;.;.=.*.*.*.#.$.O..... . ...| | | | | | R R R R R | R | R | | R R R R R } | | I I } | R R R R R | | | | R R R R R I I R R R I I I I I I I I I I I I I I I I I I I I I I I I I I | R R I I I R I I I I I I I I I I I I I I I I I I I I I I I I I I I I I I I I I P P P P P P P K K x x z z x P P x P P P P P P K P x K K x x x P P K K P P P P K K P P P I P K K P P P P P P P P P P P P P K P P L L P P P L L P K P P P P K K P P L I L L L U L L L L L U L U U U U U U L L L Y Y U L Y Y L Y R R Y Y Y Y R R E E E  .E E E E ^ E ",
"_._._._.Q.Q.Q.Q.Q.Q.Q.Q.Q.Q.Q.!.Q.Q.Q.Q.Q.Q.Q.Q.Q.Q.Q.Q.Q.Q.Q.Q.Q.Q.Q.Q.Q.Q.Q.Q.Q.Q.Q.Q.Q.Q.Q.Q.Q.Q.Q.Q.Q.Q.Q.!.!.Q.Q.{.{.{._.{._.{.{.{._.{.{._.{.{.{.}.}.}.{.{.{.}.{.{.}.}.}.}.}.}.}.}.}.}.}.}.|.|.|.}.}.}.}.}.|.}.}.{.{.|.|.|.|.}.}.}.}.}.|.}.|.}.}.}.}.|.|.|.}.}.}. X X X X X XXXXXXXXXXXXXXXXXXXXXXXoXoXoX.XoXoXXXXXoXoXoXoXoXoXXXXXXXXXXXXXXXXXXXXXXXXXXXXXXXXX X X X X X X}.}.}.}.}.}.}.{.{.{.{.{.{.{.}.}.}.}.}.}.}.{.{.Q.Q.Q.Q.Q.Q.Q.Q.Q.Q.Q.Q.Q.Q.Q.W.W.Q.Q.Q.Q.W.W.W.W.W.W.W.W.U.U.U.U.U.U.U.U.U.U.I.U.I.I.U.U.U.I.P.P.P.P.;.;.P.;.;.;.;.;.;.;.;.;.;.;.P.P.P.P.P.P.P.;.P.;.;.;.;.;.;.;.;.;.;.;.;.;.;.;.;.P.P.P.P.P.P.P.P.P.P.P.P.P.P.P.I.I.P.P.I.I.I.I.U.I.I.P.I.I.I.I.U.W.W.W.Q.W.W.W.W.W.W.U.U.U.W.W.W.W.W.W.W.W.Q.Q.Q.Q.Q.Q.Q.W.W.W.W.W.W.W.W.W.Q.Q.W.Q.Q.W.W.W.W.W.W.W.I.U.U.U.U.U.I.U.U.I.I.I.Y.Y.P.P.P.P.P.;.;.;.;.=.;.;.;.;.;.;.=.=.=.;.;.:.=.*.*.*.*.#.@.O.............| | | | | | | | R R R R | | R R R R R R R I I I | | | R | | | | R R | | | ..R R R | | R I | | R I I I I I I I I I I I I I I I I I I I I I P I I I I I | | R R R R R R I I I I I I I I I I I I I I I I I I I I I I I I I I I I I I U P I P P P P P P K x x x x x K P P K P P P P P P P K K K K K K K K K P P P K K K K K K P I P P P K K P P P P P P P P P P P P P P P I P P P P P I P K P P P U K P P L L U U U L I Y L R R R U L L L L U L Y Y R R R R Y E E W E E E E E E E E E E E E E  .O.O.O.O.O.O.",
"_._._._.Q.Q.Q.Q.Q.Q.Q.Q.Q.Q.Q.Q.Q.Q.Q.Q.Q.Q.Q.Q.Q.Q.Q.Q.Q.Q.Q.Q.Q.Q.Q.Q.Q.Q.Q.Q.Q.Q._.Q._.Q._.Q.Q.Q.Q.Q.Q.Q.Q.Q.{.{.{.{.{._._.{.{.{.{.{.{.{.{._.{.{.{.}.{.|.{.|.}.}.}.}.}.}.}.}.}.}.}.}.}.}.}.|.|.|.|.}.}.}.}.}.}.|.}.}.}.|.|.|.}.}.}.{.}.}.|.|.|.}.}.}.}.}.}.}.}.}.}.}.}. X XXXXXXXXXXXXXXXXXXXXXXXXXXXXXXXXXXXXXXXXXXXXXXXXXXXXXXX}.}. XXXXXXXXXXXXXXXXXXXXXXX X X X X X X}.}.}.}.|.|.}.|.{.{.{.{.{.{.{.{.{.{.{.{.{.|.{.{.'.Q.!.Q.Q.Q.Q.Q.Q.Q.Q.Q.Q.Q.Q.Q.Q.W.Q.Q.Q.Q.W.W.W.W.W.W.W.W.U.U.W.W.U.U.U.U.U.U.U.U.U.U.U.U.U.I.I.P.P.P.;.;.;.;.;.;.;.;.;.;.;.P.P.P.P.P.P.P.P.P.P.P.G.;.G.;.;.;.P.P.P.P.P.P.P.P.P.P.P.P.P.I.P.P.P.I.I.Y.I.Y.I.U.U.U.W.U.U.I.U.U.U.U.U.U.U.U.W.W.W.W.W.W.Q.Q.Q.Q.Q.Q.W.W.W.W.W.W.W.W.W.W.W.W.Q.Q.Q.Q.Q.Q.Q.Q.W.W.W.W.W.W.W.W.W.W.W.Q.W.W.W.W.W.W.W.W.W.U.U.U.U.U.U.I.U.I.I.I.I.I.I.P.P.P.P.P.P.P.P.;.=.=.;.=.:.:.*.*.*.*.=.=.:.:.*.*.#.#.@.O....... .| ......| | | | | | | | R | R | R | R R R | | | R R R | | | | R | | | | | | | | | | | R R R R R R | | R R | } } I I I I I I I I I I I I I I I I I P U I I I I I I I R I R R R I I I I I I I I I I I I I I I I I I I I I I I I P P P I I I I I I P P P P P P P K K K K x K P P K P P P P P P P K K K K K K K K K K K P P K K K x K P P P P P K K P P I P P P I P P P P P P P P I P I L P I I I K I U P U P U P I Y Y Y U L U Y Y R R R R Y Y Y R R R E W E E E E E E E E ^ O.^ O.^ O.^ O.O.O.O.O.O.O.O.O.O.O.O.^ ",
"{.{._._.Q.Q.Q.Q.Q.Q.Q.Q.Q.Q.Q.Q.Q.Q.Q.Q.Q.Q.Q.Q.Q.Q.Q.!.Q.!.Q.!.Q.Q.Q.Q._._._._._._.{.{.{.{.{.{._.{.{.{._.{._._.{.{.{.{.{.{.{._.{.}.}.}.{.}.}.}.}.}.{.}.}.}.}.}.}.}.}.}.}.}.}.}.}.}.|.|.}.|.|.|.}.}.}.}.}.}.XXXX}.}.|.|.|.|.|.|.}.}.}.|.|.|.|.}.}.}.|.|.|.}.|.}.}.}.}.}.}.}. XXXXXXX X X X X X X}.}. XXX}.|.}.}.}.}.}. X X XXXXX}.}.}.}.}.}.}.}.}.XXXXXXXX}.}.}.}.}.}.}. X X X}.|.|.|.|.}.}.{.{.{.{.{.{.{.{.{.{.{.{.{.{.{.{.Q.!.Q.!.Q.Q.Q.Q.Q.Q.Q.Q.Q.Q.Q.Q.Q.Q.Q.Q.Q.Q.W.W.W.W.W.W.U.U.U.U.W.W.U.U.U.U.U.U.U.U.U.U.U.U.U.I.I.P.P.P.;.P.;.;.;.;.;.;.;.P.P.P.U.U.U.U.U.P.P.P.P.P.P.P.P.P.P.P.P.I.I.I.I.I.I.I.Y.U.U.U.U.U.U.U.U.W.W.T.T.W.W.Q.Q.Q.Q.Q.W.W.!.W.!.!.!.!.W.Q.Q.Q.Q.Q.Q.Q.Q.Q.Q.Q.Q.Q.Q.Q.Q.W.W.W.W.W.Q.Q.Q.Q.Q.Q.Q.Q.Q.Q.Q.Q.Q.W.W.W.W.W.W.W.W.W.W.W.W.W.W.W.W.W.W.W.U.U.U.I.I.I.I.P.U.I.I.I.P.P.P.P.P.P.P.;.;.;.;.;.:.:.:.:.*.*.*.*.*.*.*.*.*.*.#.O.O.O. .....| |  .| | |  .| | | | | | | | | | | | | | R R R | | | R R | | | R R R R } | | R R R R | | | | R R R R R | | R I I I I I I I I I I I I I I I I I I I I I P U I I I I I I I I I I I I I I I I I I I I I I I I I I I I I I I I I I I I U I P P I I I I I I I I P P P P P P P K K P P P P P P P P P P P P K K K K K K K K K P P P P P K K K P P P P P P P P L L L L L P P P P P P I I P P P U L P P U P I I U P U P U L U U Y Y Y Y Y Y W W E E E E R E E E E E E E O.O.O.E ^ O.^ O.O.O.O.O.O.O.O.O.O.O.O.O.O.O.O.^ ^ ^ ^ ",
"{.{.{._.Q.Q.Q.Q.Q.Q.Q.Q.Q.Q.Q.Q.Q.Q.Q.Q.Q.Q.Q.Q.Q.Q.Q.Q.!.!.Q.Q._._._._._._._.{._.{.{.{.{.{.{.{._.{.{.|.{.{.{.{.{.{.{.{.{.{.{.}.}.}.}.}.}.}.{.}.}.}.}.}.}.}.}.}.}.}.}.}.}.}.}.}.}.|.|.}.|.|.|.|.}.}.}.}.}.}.}.}.}.}.|.|.|.|.|.}. X}.}.}.|.|.}.}.{.{.}.}.}.|.|.|.}.}.}.|.|.|.}.}.}.}.}.}.}.}. X}.}.}.}.}.}.|.}.}.|.}.|.}.|.|.|.|.|.|.|.|.}.|.}.}.}.}.XXXX}.}.}.}.}.}.}.}. X X X X|.|.}.}.}.|.}.{.{.{.{.{.{.{.{.{.{.{.{.{.{.{.Q.Q.Q.Q.Q.Q.Q.Q.Q.Q.Q.Q.Q.Q.Q.Q.Q.Q.Q.Q.Q.Q.W.W.W.W.W.W.U.U.U.U.U.U.U.U.U.U.I.I.I.I.I.I.I.I.I.I.P.P.P.P.P.;.P.;.P.P.P.P.P.P.P.P.I.U.U.U.U.U.I.Y.I.U.I.Y.I.U.U.U.U.U.W.W.W.W.W.W.W.W.W.W.W.W.W.W.Q.Q.Q.!.!.Q.{.{.{.{.Q.Q.Q.Q.Q.!.Q.Q.!.Q.Q.Q.Q.Q.Q.{.{.{.{.{.{._.Q.Q.Q.Q.Q.Q.Q.Q.Q.Q.Q.Q.Q.Q.Q.Q.Q.Q.Q.Q.Q.Q.Q.W.W.W.W.W.W.W.W.W.W.W.W.W.U.U.U.U.U.I.I.I.I.P.P.P.P.P.P.P.P.P.P.P.P.;.;.;.;.;.;.=.:.:.*.*.*.*.*.#.#.#.@.@.@.#.#.@.O... . . . .| | | | R | | | | | | | | | | | | | | | | | | } R } R R I R | | R R R R I R R | R R R R | R R | R R R R | | R I I I I I I I I I I I I I I I I I I I I I P P I I I I I I I I I I I I I R I I I I I I I I I I I I I I I I I I I I I I I P I I I P I I P P I I I I P P P P K K P P P P P P P P P I P P P P P P K K K K K K P P P P P P P P P P P P L I L P L P L P L L P P L P L I I I L P U U U L I U L I L U U U Y Y Y U Y W E W W W W W E E E E E  .^ O.^ ^ ^ ^ ^ ^ O.O.E O.O.^ O.O.O.O.^ ^ ^ ^ ^ E E E ^ ^ ^ ^ ^ ^ ^ ^ ",
"{.{.{._.Q.Q.Q.Q.Q.Q.Q.Q.Q.Q.Q.!.Q.Q.Q.Q.Q.Q.Q.Q.Q.Q.Q.Q.Q.Q._._.{.{.{._.{.{.{.{.{.{.}.}.}.}.}.}.}.|.}.|.}.|.}.|.}.}.}.{.}.}.{.}.}.|.}.}.}.}.}.}.}.}.}.}.}.}.}.}.}.}.}.}.}.}.}.}.}.|.|.}.}.}.}.|.}.}.}.}.}.}.}.}.}.|.|.|.|.|.}.|.}.}.}.|.}.}.}.}.|.|.|.{.}.|.}.}.|.|.|.|.|.|.|.|.}.|.}.|.}.}.}.}.|.|.|.|.}.|.}.|.{.{.}.{.{.{.{.{.{.{.{.{.{.|.}.|.}.}. X}.}.}.}.}.}.}.}.}. X X X X X|.|.|.|.|.}.{.{.{.{.{.{.{.{.{.{.{.Q.Q.Q.Q.Q.Q.Q.Q.Q.Q.Q.Q.Q.Q.Q.Q.Q.Q.Q.Q.Q.Q.Q.Q.Q.W.W.W.W.W.U.U.U.U.U.I.U.U.U.U.U.I.P.P.U.U.I.I.I.I.I.P.P.P.P.P.P.P.P.P.P.P.P.P.P.P.Y.Y.U.U.U.W.W.W.W.W.W.W.W.W.W.W.Q.Q.Q.Q.Q.Q.Q.Q.Q.Q.Q.Q.!.!.Q.Q.{.{.{.{.{.|.{.|.|.}.|.|.}.|.}.}.}.}.|.|.{.{.{.{.{.{.{.{.{.|.{.{.{.{.{._.Q.Q.Q.Q.Q.Q.Q.Q.Q.Q.Q.Q.Q.Q.Q.Q.Q.Q.Q.Q.Q.W.W.W.W.W.W.W.W.U.U.U.U.U.I.I.U.I.P.P.P.P.P.P.P.P.;.;.;.;.;.;.;.;.;.=.=.=.:.:.:.*.*.*.*.*.#.@.@.@.@.@.O.O.O.O.O.O. ... . . . .| | | | R | | | | | | } } } } } | | } } | } } } } } I } R R | R I I R | I R R | | | | | | R R R R R R R | R I I I I I I I I I I I I I I I I I I I P P I P P I I I I I I I I I I I I R | I I I I I I I I I I I I I I I I I I I I I P P I I P P P I I I P I I I I P I P P K P P P P P I I I U I I P K K P U U P P P P P P I I I I P P P U P P I I P U I I P L I I I I I I I I I I R R I L L U Y R R U R R U Y R R R R R W W E E E E E E O.^ ^  .O.O.O.O.O.O.O.O.O.^ ^ O.O.O.O.O.^ O.O.^ ^ ^ E E E E E W W E E O.O.^ E ^ ^ ",
"{.{.{.{.{.Q.Q.Q.Q.Q.Q.Q.Q.Q._._._.{.{.{.Q.Q.Q.Q.Q.Q._.Q.Q.Q._._.{.{.{.{.{.{.}.}.}.}.|.|.}.}.}.}.}.}.}.}.|.|.|.|.}.}.{.}.{.{.{.}.}.|.}.}.}.}.}.}.}.}.}.}.}.}.}.}.}.|.|.|.}.}.}.}.}.|.|.}.}.}.}.|.}.}.}.}.}.}.}.}.}.|.|.|.|.}.}.}.}.}.}.}.}.}.}.}.|.|.|.{.}.|.|.}.{.}.|.|.|.|.|.|.|.}.}.|.|.}.}.|.}.{.{.{.{.{.{.{.{.{.{.{.{.{.{.{.{.{._.{.{.{.}.}.}.}.}.}.}.}.}.}.}.}.}.}. X XXXXXXXXX X|.|.|.}.|.}.{.{.{.{.{.{.{.{.{.Q.Q.Q.Q.Q.Q.Q.Q.Q.Q.Q.Q.Q.Q.Q.Q.Q.Q.Q.W.W.W.W.W.W.W.W.U.U.U.U.U.U.U.U.U.U.Y.I.I.I.I.P.P.I.U.I.I.P.P.P.P.P.P.P.P.P.P.P.P.P.P.P.Y.Y.H.Y.U.T.T.!.!.!.Q.Q.Q.Q.Q.{.{.{.{.{.}.}.}.}.}.}.}.}.}.|.|.{.{.{.|.|.|.}.}.}.}. X}. X X}.}. X}.XXXXXXXX X}.}.}.}.|.|.|.|.}.}.}.}.{.|.{.{.{.{.{.Q.Q.Q.{.Q.Q.Q.Q.Q.Q.Q.Q.Q.Q.Q.W.W.W.W.W.W.U.W.W.U.U.U.U.U.I.U.I.I.U.I.P.P.P.P.P.P.;.;.;.;.=.=.*.*.*.:.:.*.*.*.*.*.*.*.*.#.#.#.#.@.@.@.O.O.O.O.O.O.O. . . . . . . .| | | | | | | | | | | } I } } I } } | } } | } I } } } } | | | | R I I R R } | R R | | | | | R I I R I R R I I I I I I I I I I I I I I I I I I I P P P P P P P I I I I I I I I I I I R | | I I I I I I I I I I I I I I I I I I I I I U U P P P I P I I I I I I I I I I P P P P P P P P I I I I I I P U U P I P P P P P P P I I I I I I I I I I I I I L I R L Y R R R R Y R Y R R R R R R R R R Y R R R R R Y Y W R R E E W E E  . . . .O.O.O.^ O.O.@.O.O.O.O.O.O.O.^ ^ ^ ^ ^ O.O.^ ^ ^ ^ ^ O.^ E E E E W E E E ^ O.^ ^ ^ O.",
"{.{.{.{.{.{.{.{._._._._.{.{.{.{.{.{.{.{.{.{.{.{.{.{.{.{.{.{.{.{.{.{.}.}.}.}.}.}.}.}.}.}.}.}.}.}.}.}.|.|.}.|.|.|.}.}.}.}.}.}.}.}.}.}.|.}.}.}.}. X}. X X X}.}.}.}.}.}.|.|.|.}.}.}.|.}.}.}. X X X X}.}.}.}.}.}.}.}.}.}.}.}.}.}.}.}.}.}.}.}.|.|.|.|.|.|.{.{.{.{.{.{.{.{.{.{.{.{.{.{.{.{.{.|.|.{.|.|.{.{.{._.{.{.{._.{.{.{.Q.Q.Q.{.{.{.{.{.{.{.{.{.|.}.}.}.}.}.}. X X}. X}.XXXXXXXXXXoXXXXXXX}.}.}.}.}.}.}.{.{.{.{.{.{.{.Q.Q.Q.Q.Q.Q.Q.Q.Q.Q.Q.Q.Q.Q.Q.W.W.W.W.W.W.W.W.W.W.U.U.U.I.U.U.U.U.U.U.U.I.I.I.I.P.P.P.P.P.I.I.I.P.P.P.P.P.P.P.I.P.P.I.I.I.I.P.Y.U.W.W.!.W.!.Q.Q.'.|.}.}.}.}.XXXX X X X XXXXXXXXXXXXXXXXXXXXX}.}.}.}.XXXXXXXXXXXXXXXXXXXXXXXXXXXXXXXXXXXXXXXXXXXXXXXXXXXX}.}.}.}.}.|.{.{.{.{.{.{._._.Q.Q.Q.Q.Q.Q.Q.Q.Q.Q.W.W.W.W.W.W.W.W.U.I.U.U.I.I.I.I.I.I.P.P.P.P.P.P.P.;.;.;.;.;.=.*.*.*.*.*.*.*.*.*.*.*.#.#.#.#.#.#.@.+.+.@.O.O.O.O.O. . . . . . . . . . .....| | | | | | | | | } } } I R R R R | | R R | I I I R } } | | | | } I I } } } } I I R R R R R R I I I I | R I I I I I I I I I I I I I I I I I I I I I P P P P P I I I I I I I I I R R R | | | R I R R R R R R R I I I I I I I I I I U U K K P P P P I I I I I I I I I I I I I I P I I I I I I I I I I U I I I I I I I I I I I I I I I I I I I I I I R R R R R R R R R R R R R R R R R R R R R R R R R R R E R E E E E E E E O. .O.O.O.O.O.O.^ O.O.O.O.O.^ ^ ^ ^ ^ ^ ^ E E E ^ O.^ E ^ E E ^ O.^ E ^ E E E E E E E E ^ ^ O.O.",
"{.{.{.{.{.{.{.{.{.{.{.{.{.{.{.}.{.{.{.{.{.{.{.{.{.{.}.}.}.}.}.}.}.}.}.}.}.}.}.}.}.}.}.}.}.}.}.}.}.|.|.|.}.}.|.|.}.}.}.}.}.}.}.}.}.|.|.}.}.|.}.}. X}.}.}.}.}.}.}.}.}.}.}.}.}.}.}.}.}.}.}.}.}. X X}.}.}.}.}.}.}.}.}.}.}.}.}.}.}. X}.}.}.|.|.|.|.}.{.{.{.{.{.{.{.{.{.|.{.{.{.{.{.{.{.{.{.{.{.{.{.{.{._.Q.Q._.Q._.Q.Q.Q.Q.!.!.Q.Q.Q.Q.Q._._._._.{.}.}.}.}.}.}.}. X XXXXXXXXXXXXXXXoXoXoXoXXXXX X}.}.}.}.|.{.{.{.{.{.{.{.Q.!.!.!.Q.Q.!.!.Q.W.Q.Q.W.W.W.W.W.W.U.U.U.U.U.U.U.U.U.U.I.U.I.I.I.I.I.I.I.I.I.I.I.I.I.P.P.U.U.U.U.U.P.P.P.I.I.I.I.I.I.U.I.I.U.W.Q.Q.Q.{.{.{.|.}.XXXXoXoXoXoXoXoXoXoXoXoXoXoXXXXXXXXXXXXXXXXXXXXXXXXXXXoXoXoXoXoXoXoXoXoXoXoXXXoXoXXXoXoXoXXXXXXXXXXXXXXXXXXX}.}.}.|.|.|.{.{.{.{.Q.Q.Q.Q.Q.W.Q.W.W.W.W.W.W.W.W.W.U.U.I.I.I.I.I.I.P.P.P.P.P.P.P.;.=.=.=.:.:.=.*.*.*.*.*.*.*.*.#.#.#.#.#.#.#.#.#.@.@.#.#.#.@.O.O.O.O.O.O.O. . . . ..... . . . . .....| | | | | } | | } } } } } R R R R | | | R | I I I I R I } I I I } } } | | R } R } } I R R I R R I I R | | } I I I I I I I I I I I I I I I I I I I I I I I I I I I I I I I I I R R R R | | | R I R R R R R R R R R | I I I I } I P K P U K U P I I I I I I I I I I I I I I I I I I I I I I I R I I I I I I I I I I I I I I I I I I I I R R I I I R R R R R R R R E R R R R R R R R R R R R E E E E E E E E E E O.O.O.O.O.O.O.O.O.O.O.O.O.^ E ^ O.O.O.^ ^ ^ ^ E E ^ E E E O.^ O.O.^ ^ ^ E ^ O.^ ^ O.O.E E E  .E E E ^ ^ ^ O.",
"{.{.{.{.{.{.{.'.{.{.{.{.{.{.{.{.{.{._.}.}.}.}.|.|.}.}.}.}.}.}.}.}.}. X}. XXX}.}.}.}.}.}.}.}.}.}. X X X X X}.}.}.}. X}.}.}.}.}.}.}. X X}.|.|.|.}.}.}.|.|.}.}.}.}.}.}.}.}.}.}.}.}.}.}.}.}.}.}.XXXX}. X}.}.|.}.}.}.}.}.}.}.}.}.}.|.}.}.}.}.}.}.{.{.{.{.{.{.{.{.{.{.{.{.{.{.{.{.{.{.{.{._.{.{.Q.Q.Q.Q.Q.Q.Q.Q.!.!.!.!.!.!.!.!.!.Q.Q.Q.Q.Q.{.{.{.{.{.}.}.}.}. X X X XXXXXXXXXXXXXXXXXXXXXXXXXXX X}.}.}.}.{.{.{.{.{.{.{.Q.Q.Q.Q.Q.Q.W.W.W.W.W.W.W.W.W.W.U.U.I.I.U.I.I.I.Y.I.I.I.I.I.I.I.I.I.I.I.I.I.I.I.I.I.I.I.I.I.I.U.U.I.I.I.I.U.U.U.U.U.U.W.W.W.W.Q.Q.{.}.}.}.}.XXjXMXMXMXMXMXMXMXMXMXjXjXjXjXjXjXoXoXoXXXXXXXXXXX XXXXXoXOXOXoXoXjXjXjXjXjXjXoXoXoXoXoXoXoXoXXXXXXXXXXXXX X}.|.}.|.}.|.{.{.{.Q.Q.Q.Q.W.W.W.W.W.W.W.U.U.U.U.U.I.I.I.I.P.P.P.P.P.P.P.P.;.=.;.;.;.;.=.*.:.*.*.*.:.:.*.*.*.*.*.*.*.#.#.@.#.#.#.@.@.@.@.@.@.#.#.O.O.@.@.@.@.@.@.@. . . . . . . . . . . ..... . .| | } } } | | } } } | } } R } } } } } } } } I I I I I I I I I I R | | R | R R I I I I I R R | R I R | | I I I I I I I I I I I I I } } I I I I I I I I I I I I I I R R R R I I I R R | | R I I R | | | | R R R R R } } I I I I U U U U I I I I I I I I I I I I I I I I I I I I I R R R R R R R R R R I I I R R I I I I R R R R R R R R R R R R R  .E R R W E E R R R R R R R R E E E E E E E E E  .O.O.O.O.O.O.O.O.O.O.O.O.O.O.O.O.O.O.O.O.^ ^ ^ O.O.^ ^ E E E E E E E O.O.E ^ ^ ^ ^ ^ ^ ^ O.O.O.O.E E E E E E E E ^ ^ ",
"{.{.{.{.{.{.{.{.}.}.{.}.}.}.}.}.}.}.}.{.}.}.}.}.}.}.}.}.}.}.}.}.}. XXX X X X}.}.}.}.}. XXXXXXX XXXXXXXXX X XXXXXXXXX}.}.}.}.}.}.}.}.}.}.|.}.|.|.}.}.}.}.}.}.}.}.|.}.}.}.}.}.}.}.}.}.}.}.}.}.}.}.}.}.}.}.}.}.|.}.|.|.}.|.}.}.}.|.}.}.}.}.}.{.{.{.{.{.{.Q.Q.Q.Q.{.Q.Q.Q.{.{.{.'.{._.Q.Q.Q.Q.!.Q.Q.Q.Q.Q.Q.Q.Q.!.!.Q.Q.!.!.!.Q.Q.Q.Q.Q.{.{.{.|.{.|.|.|.}.}. X X X XXXXXXXXXXXXXXXXXXXXXXXXX}.}.{.{.'._.{.{.{.{.{.{.Q.Q.Q.Q.Q.W.W.W.W.W.W.W.W.W.W.W.U.U.U.U.U.U.U.I.I.I.I.I.I.I.I.I.U.U.U.U.U.U.U.U.I.I.I.I.I.I.I.I.I.I.U.I.I.W.W.W.W.W.W.W.W.W.Q.Q._.{.}.XXXXXXoXjXNXNXNXNXNXNXNXNXMXMXMXjXjXjXjXoXoXoXoXoXoXXXXXXXXXXXoXoXOXoXoXjXMXkXkXkXjXjXoXoX.X.X.X.XXX XXXXX X}.|.}.}.}.|.|.}.|.{.{.{.Q.Q.Q.W.W.W.W.W.U.U.U.U.U.I.I.U.U.I.P.P.P.P.;.=.;.J.=.=.=.=.=.=.;.=.*.*.*.*.*.*.*.:.*.*.*.*.*.*.*.*.#.#.#.#.#.#.@.@.@.@.O.O.@.@.O.O.O.@.@. . . . . . . . . . . . . . . ..... . .| | | | | | | } } } } } } } I I I } } } } } I I I I I I I R R R | | | | R R R R I } I I I R R I I I R I I I I I I I } I I I I I } } } I I I I I I I I I I I I I I R R | | | | | | | | | | R | | |  .| R R I R R R } } I } I I I I I I I I I I I I I I I I I I I I I I I I R R R R R | R R E R R | | | R | | R R R R R R R R R R R R R R R R R E  . .E E E E E R R R E R R R E E  . . . . .O.^ O. .O.O.O.O.O.O.O.O. .O.O.O.O.O.E E E E ^ ^ ^ E ^ ^ O.^ E E E E E E E E E E E E E ^ ^ ^ ^ ^ O.O.O. .E E E E E E E E E E ",
"{.}.}.}.|.}.|.|.}.}.}.}.}.}.}.}.}.}.}.}.}.}. X}. X}. X XXX}.}.}.}. XXX X X X X X X X XXXXXXXXXXXXXXXXXXXXX XXXXXXX}.}.}.}.}.}.}.}.}.}.}.}.}.|.|.}.}.}.}.}.}.}.}.|.}.}.}.}.}.}.}.}.}.}.}.}.}.}.}.}.}.}.}.}.|.|.|.|.|.}.{.}.}.}.}.}.}.}.}.}.}.{.{.{.{.Q.Q.!.Q.Q.Q.Q.Q.Q.Q.{.Q.Q.Q.Q.Q.Q.Q.Q.Q.Q.!.Q.Q.W.Q.Q.Q.Q.Q.Q.Q.Q.Q.Q.Q.Q.{.{.{.{.{.{.|.|.|.|.}.}.}.}.}. X X}.XX}.XX}.}.}.}.}.}.}.}.}.{.{.{._._._._._.Q.Q.Q.Q.Q.Q.Q.W.W.W.W.W.W.W.W.W.U.U.U.I.I.I.I.U.U.U.I.I.I.U.I.W.W.W.W.W.W.W.W.U.U.U.U.U.U.U.I.U.U.U.U.I.U.U.W.W.W.W.W.W.W.W.W.Q.!.Q.{.}.}.XXoXoXoXMXMXNXNXNXNXmXmXMXMXmXmXkXMXMXMXMXjXoXoXoXoXoXoXXXXXXXXXoXoXoXoXoXjXMXjXMXjXoXoX.XoXXXXX XXX}.}.}.}.}.}.}.}.}.}.{.{.{.{.{.{.Q.Q.W.W.W.U.U.U.I.I.I.I.P.P.P.P.P.P.P.P.;.;.;.=.:.:.:.=.=.=.=.*.*.*.*.*.*.*.*.*.*.*.*.*.*.*.*.*.*.*.#.*.#.#.#.#.#.#.#.#.@.O.@.@.O.O.O.O.O... . . . . . . . . . . . . . . . ... . . .| | | | } | } } | | | } } } I I I I } I } } } } } } | R R R R | | | | R R R } } } } R R I I I R R R I I I I I I I I I I I R R R | | R R I R R | R I | | | R R R R | | | | | | | R R | | | | | | | | | R R R R R R R I | | } I I I I I I I I I I I I I I I I R I R R R R R R R R | | E .. .| | | | | R R R R R R |  .R E ........| | R R R  . . . .E  . ...E R R R R R R R E .. . . . .E E E E E O.O.O.O.E E E E E E E E E E E E W E E E E E E E E E  . .E E E E E E E E E E E E ^ ^ ^ ^ E E E E E E E E E E E E E ^ ",
"|.|.}.|.}.|.}.}.|.|.|.}.}.}.}.}.}.}.}. X X X X X X X X X XXXXXXX X XXXXXXXXXXXXXXX X XXXXXXXXXXXXXXXXXXXXX XXXXX}.}.}.}.}.}.}.}.}.}.}.}.}.}.}.|.}.}.}.}.}.}.}.}.}.}.}.}.}.}.}.}.}.}.}.}.}.}.}.}.}.}.}.}.}.}.|.|.}.|.}.}.}.}.}.}.}.}.}.}.}.{.{.{.{.{.Q.Q.Q.Q.Q.Q.Q.Q.Q.{.{.{.Q.Q.Q.Q.Q.Q.Q.Q.Q.Q.Q.Q.Q.Q.Q.Q.Q.Q.Q.Q.Q.Q.Q.Q.Q.Q.Q.Q.{.{.{.{.{.|.|.|.}.}.}.}.}.}.}.}.}.}.}.|.}.{.|.{.{.{._._.Q.{.Q.Q.Q.Q.Q.Q.Q.Q.Q.Q.W.W.W.W.W.W.W.W.W.W.W.U.I.U.Y.Y.I.I.U.I.I.I.U.W.W.W.W.W.W.W.W.W.W.W.W.W.W.U.U.U.U.U.U.U.U.U.U.U.W.W.W.Q.Q.Q.Q.Q.Q.Q.Q.Q.{.|.XXXXoXoXoXjXMXMXmXNXNXNXmXmXmXmXmXkXkXjXMXMXjXoXoXoXXXXXoXXXXXXXXXXXXXXXoXoXoXoXoXoX+X+XXXXXXX}.}.}.}.}.}.{.{.}.}.{.{.{.{.{.{.{.{.Q.Q.Q.W.W.U.U.I.P.P.P.P.P.;.;.;.;.;.;.;.;.;.:.;.;.;.;.;.;.;.;.*.=.;.*.*.*.*.*.*.*.*.*.*.*.*.*.*.*.*.*.*.*.#.#.#.#.#.#.#.#.#.#.@.@.@.@.@.O.O.O.O. . . . . . . . . . . . . . . . . . . . . .| | | | } } | | | | | | | } } } } } } } } I } } } } | | R | | | | | | | | R } } } | R R R R | | | | R R | R I I I I I I I R R R | | | | | | | | | | | | | | R | R | | | | | | | R R R | | | R | | |  .| R R R R R R I I R | I I I } I R I I I R R R R R R R R R R R R R | | R | | R E E R R R | ..| R R R R R R  . .E E ........| R R R R  . ...E E E E E E R R R R R R R R R E E E E E E E E E E E E E E E E E E E W R E E E W W E E E E E E E E E E E E E E E E W W E E E E E O.O.^ ^ E E E E E E E E E E E E ^ ^ ",
"}.}.}.}.}.}.}.}.}.}.}.}.}.}.}.}. X X X X X X X XXXXXXXXX XXXXXXXXXXXXXXXXXXXXXXXXX X X XXXXXOX XXXXXXXXXXX X X}. X}.}.}.}.}.}.}.}.}.}.}.}.}.}.}.}.}.}.}.}.}.}.|.}.}.}.}.}.}.}. X}.}.}.}.}.}.}.}.}.}.|.}.}.}.}.}.{.{.{.{.{.{.{.{.{.{.{.{.{.{._.{.'.{.Q.Q.Q.Q.Q.Q.Q.Q.Q.{.{.{.Q.Q.Q.Q.Q.Q.Q.Q.Q.Q.Q.Q.Q.Q.Q.Q.Q.Q.Q.Q.Q.Q.Q.Q.Q.Q.Q.Q.Q.Q.{.{.{.|.|.|.}.}.}.}.}.}.}.}.}.}.}.}.{.{.'.{.{.Q.Q.Q.Q.Q.Q.Q.Q.Q.Q.Q.Q.Q.W.W.W.W.W.W.W.W.W.W.W.W.W.W.W.U.U.U.U.U.I.I.U.U.I.W.W.W.W.Q.Q.Q.Q.Q.Q.Q.Q.W.W.W.W.W.W.U.W.W.U.W.W.!.!.Q.Q.Q.Q.{.{.|.|.|.|.|.}.XXXXoXoXoXjXjXkXmXmXmXmXmXmXmXmXmXkXkXjXoXoXoX.X.XXXXX}.|.|.XXXXXXXXXXXXXXXXXXXXXX}.}.}.}.}.{.{.{.{.Q.Q.Q.Q.Q.Q.Q.Q.W.W.W.W.W.W.W.W.W.W.I.Y.P.P.P.P.;.;.;.:.:.:.=.:.;.;.;.=.:.=.;.;.:.:.:.=.=.:.:.:.:.:.:.*.:.*.*.*.*.*.*.*.*.*.*.*.#.#.#.#.#.@.@.#.#.#.#.#.#.@.@.@.@.@.@.@.O.O.O.O.O. . . . . . . . . . . . . . . . . . . . . .| | | | | | | | | | | | | | | | | | | R R R R R R | | | | | |  . .| | R R R } | | R R R | |  .| | | | R R R I I I I I R R R R | | | | | | | | | | | | R | R R R | ..| R | | | R R R | | | R R .. . .| | | R R R R | | R | | | | | | R R R R R R R R R R R R R R R R R R R  . . .R R E E R E ....|  . .| R R R ....R R R R R R R R R R | | R R R R R R R R R R R R R R R R R R R E W W W W E E E E E E E E E E E E R R R R R E E E E E E E E E E E E E W E E E E R E E E E E O.O.^ E E E E E E E E E E E E E E ^ ^ ",
"}.}.}.}.}.}.}.}. X X X XXXXXXX X X XXXXXXXXXXXXXXXXXXXXXXXXXXXXX XXX X XXXXXXXXXXX X X XOXOXXXXXXXXXXXXXXX X}.}.}. X X}.}.}.}.}.}.}.}.}.}.}.}.}.}.}.}.}.}.}.}.}.}.}.}.}.}.}.}.}.}.}.}.}.}.}.}.}.}.}.}.}.}.}.}.{.{.{._.{.{.{.{._.{.{.{.'._.{.{.{.{.{.{.{.{.{.{.{.{.{.{.{.{.{.{.Q.{.Q.Q.Q.Q.W.W.W.W.W.W.W.W.W.Q.Q.Q.Q.Q.Q.Q.Q.Q.Q.Q.Q.{.{.{.{.{.|.|.|.}.}.}.}.}.}.}.{.{.{.{.{._._.Q.Q.Q.Q.Q.Q.Q.Q.W.W.W.W.W.W.W.W.W.W.W.W.W.W.W.W.W.Q.Q.W.W.W.W.W.W.W.W.W.W.W.W.W.W.W.W.Q.Q.Q.Q.Q.Q.Q.Q.Q.Q.Q.Q.W.W.W.W.W.W.W.W.!.!.!.!.!.Q.'.{.{.|.|.|.|.|.XXXXoXoXoXoXoXjXjXkXMXkXMXMXkXjXjXjXjXjXoXoX.XXXXXXX}.}.|.|.|.|.|.|.|.}.}.|.}.|.|.{.{.Q.Q.Q.Q.!.!.!.W.W.W.T.T.W.I.Y.Y.Y.Y.Y.Y.Y.Y.P.P.P.P.P.P.P.;.;.;.=.;.=.;.=.*.=.;.*.=.:.:.;.=.=.:.:.:.*.*.:.:.*.:.:.:.:.*.*.*.*.*.*.*.*.*.*.*.*.*.#.#.#.#.#.#.@.@.#.#.#.@.@.@.@.@.@.@.@.@.@.@.@. .O.O. . . . . . . . . . . . . . . . . . . . . .| | | | | | | | | | | | | | | | | | | | | | | R R | | | | | |  . .| | R | | | | | | | | |  .| | | | | R | | R R R R R | | | | | | | | | | | | | | ..| | | R R R ......| | | | | | R R R R R | .. . . . .| | | | | | | | | | | | | | | R R R R R R R R R R R R E E R R R R  . . . .R E  . . . . ... ...R R R R R ..R R R R R R R R R R R R R R R R R R R R R R R R R R R R R R R R R R W W E E E E E E E E E E E E R R R R R R R E E E E E E E E E E E W W W E E E E E E E E O.^ E E E ^ E E E E E E E E E ^ ^ ^ ^ ",
" X X X X X X XXX X X XXXXXXXXX X XXXXXXXXXXXXXXXXXXXXXXXXX X X X X X X XXXXXXXXXXX X X X X X XXXXXXXXXXXXX X}.}.}.}.}.}.}.}.}.}.}.}.}.}.}.}.}.}.}.}.}.}.}.}.}.}.}.}.}.}.}.}.}.}.}.}.|.}.}.}.}.}.|.}.}.}.}.}.{.{.{.{.{.{.{.{.{.{.{.{.{.{._.Q.{.{.{.{.{.{.{.{.{.{.{.{.{.{.{.{.Q.Q.Q.Q.Q.Q.Q.W.W.W.W.W.W.W.W.W.W.W.Q.Q.Q.Q.Q.Q.Q.Q.Q.Q.Q.Q.{.{.{.{.{.|.{.}.}.}.}.}.{.{._._._.Q.Q.Q.Q.Q.Q.Q.Q.W.W.W.W.W.W.W.W.W.W.W.W.W.W.W.Q.W.Q.Q.Q.Q.Q.Q.W.Q.Q.!.W.W.W.Q.Q.Q.Q.Q.Q.Q.Q.Q.{.{.{.{.{.{.Q.Q.Q.Q.Q.!.W.W.W.!.!.W.!.!.!.Q.'.{.|.}.}.}.XXXX XXXoX+XoXjXoXjXoXoXoXjXjXjXjXoXoXoXoXoXXXXXXX}.}.|.|.|.|.|.{.Q.Q.Q.{.{.{.{.{.{.{._.Q.Q.!.!.!.T.T.T.U.U.U.Y.Y.I.I.P.P.P.P.P.P.P.P.P.P.P.P.P.;.P.;.;.;.;.;.:.=.;.:.:.*.*.:.:.*.:.:.:.:.:.=.:.:.*.*.*.*.*.*.*.*.*.*.*.*.#.#.#.#.#.#.#.*.*.*.*.#.#.@.@.#.#.@.@.#.@.@.@.O.O.O.O.@.@.@.@.@.@.@.@.O.@.@.@.@.O...@.@. . . . . . ... . . . . . . .| | | | | | | | | | | | | | | | | | | | | | | R R | | | | | | .... . .............| .. . . .....| | | R | | | | | | | | | | | | | | | | | R | R | ........ .R .. .....| | | | | | R R R | | | E E .. . . .| | | | | | | R R R | R | R R R R R R | E .. . . . . ...E E | |  . . . .E  . . . . . ...R R R R R R R R R R R R R R R R R R R R R R R R R R R R R R R R R R R R R R R R R R R R R E E E E E E E E E E R R R R R R R R R W E E E E E E E E W W W W R R R W E E E E O.^ E E E ^ E E E E E E E ^ ^ ^ O.O.$.",
" X X X X X XXXXX X XXXXXXXXX X XXXXX XXXXXXXXXXXXXXXXXXXXX X}.}.}. X X X X XXXXXXX X X X X X X XXXXXXXXXXX X}.}.|.|.}.}.XXXX X}.}.}.}.}.}.}.}.}.}.}.}.}.}.}.}.}.}.}.}.}.}.}.}.}.}.|.|.|.}.}.}.}.|.|.}.|.}.{.{.{.{.{.{.{.{.{.{.{.{.{.{.{.Q.Q.{.{.{.{.{.Q.Q.Q.{.{.{.{.Q.Q.Q.Q.Q.Q.Q.!.W.W.W.W.W.W.W.W.W.W.W.W.W.Q.Q.Q.Q.Q.Q.Q.Q.Q.Q.Q.Q.Q.Q.Q.{.{.{.{.{.{.{.{.{.{.{.{._.Q.Q.!.Q.Q.Q.Q.W.W.W.W.W.W.W.W.W.W.W.!.Q.Q.!.Q.Q.!.Q.Q.Q.Q.Q.{.{.Q.Q.Q.Q.Q.Q.Q.Q.{.{.{.{.{.Q.{.{.{.{.{.{.{.{.{.'.'.'.Q.Q.Q.Q.Q.Q.{.{.{.{.|.|.|.}.}.}.XXXX+XoXoXoXoXMXMXMXMXjXjXoXoXoXoX.XXX}.}.XX}.|.|.}.|.{.{.{.Q.Q.Q.!.W.W.W.!.!.Q.Q.Q.Q.Q.Q.Q.!.!.!.W.T.W.U.U.I.I.I.I.I.I.I.I.P.P.P.P.P.P.P.;.;.;.P.P.;.;.;.;.;.;.;.:.:.:.:.:.:.*.*.:.:.:.:.:.:.:.:.=.*.*.*.*.*.*.*.*.*.*.*.*.*.*.*.#.#.*.#.#.*.*.*.#.#.#.#.@.@.#.#.#.@.@.@.O.O.@.@.@.@.O.@.@.@.@.@.@.@.@.@.@.@.@.@..... . . . . . ..... . . . . . . .| | | | | | | | | | | | | | | | | | | | | | | | R | | | | | |  . . . . ........... . . . . . .......| | | | | | | | | | | | | | | |  . .| R R | | ........ .R .. .| ..| | | | | | | | | |  . .E E .. . . .| | | R R | | R R R | R | R R R ..| R | .. . . . . . .......| | | |  . . . . ...E ..| R R R R R R R R R R R R R R R R R R R R I R I R R R R R R R R R R R R R R R R R R R R R R R R R R E E E E E E E R R R R R R R R R W E E E E E E W E E W W W R R R W E E E E O.^ E E ^ ^ E E E E O.O.O.O.O.O.O.O.O.",
"XXXX X XXXXXXXXXXXXXXXXXXXXX X XXXXXXX XXXXXXXXXXX X X X XXX X}.}.}. XXXXX}.}.}.XX}. X}. XXX X X X XXXXX}.}.}.}.}.}.}.}.}.}.}.}.}.}.}.}.}.}.}.}.|.|.}.}.}.}.}.}.}.}.}.}.}.}.}.}.}.|.}.|.}.}.}.{.}.}.}.}.}.{.{.{.{.{.{.{.{.{.{.{.{.{.{.Q.Q.Q.Q.Q.Q.Q.Q.Q.Q.Q.Q.Q.Q.Q.Q.Q.Q.Q.Q.!.W.W.W.W.W.W.W.W.W.W.W.W.W.Q.Q.Q.Q.Q.Q.Q.Q.Q.Q.Q.Q.Q.Q.Q.Q.Q.{.{.{.{.Q.Q._.{._._.Q.Q.Q.Q.Q.Q.Q.Q.Q.Q.W.W.Q.W.W.W.!.!.!.!.W.Q.Q.Q.Q.Q.Q.{.{.{.{.{.{.{.{.{.{.{.{.{.{.|.{.{.{.{.{.{.{.{.{.{.{.{.{.{.{.{.}.}.|.|.|.|.|.|.|.|.}.XXXXXXXXXXXXXXXX+X+XMXoXoXjXjXoXoXoXoXoXoXXXXX X}.|.|.{.{._.{.'.Q.!.!.!.Q.W.W.W.W.W.W.W.W.W.W.W.W.W.W.Q.W.W.W.W.W.U.U.U.U.U.I.I.I.P.P.P.P.P.P.P.;.;.;.;.;.;.;.;.;.;.;.;.;.;.;.;.;.=.*.:.*.:.:.:.:.:.:.:.:.:.:.:.:.=.*.*.*.*.*.*.*.*.*.*.*.*.#.*.*.*.#.#.#.#.#.#.#.#.#.#.#.#.@.@.#.#.@.@.@.@.@.@.@.@.@.@.@.#.#.#.@.@.@.@.@.@.@.@.@.O.O.O.O. . . ... . . . . . . . . . . . . . . . . . . ...| |  . . . . . .| .. . .| | ..| | .. . . . . . ..... . . . . . .............E ......R | | | R | | | R | | | | | | .. ... . .| | | | ......| | | | | | | | | | | | | ...... . .....| R R | | R ......| | | | | | | | R |  . . . ................. .| | | | R | R R | R R R R R R R R R R R R R R R R R R R | R I I I R I R R R R R R R R R R R R R R R R R R R R R R R R R R R R R E E E E R R R R R R R R R W R E E E E E E E E E E E E E E E E E O.^ ^ ^ O.^ ^ ^ ^ ^ ^ ^ O.O.^ O.O.O.$.$.$.",
" X X X X XXXXXXX X XXXXX X X X XXX X X}.XXXXXXXX X X X}.}.}.}.}.}.}.}.}.}.}.}.}.}.}.}.}.}.}.}.}. X X X X}.}.}.}.}.}. X}.}.}.}.}.}.}.}.}.}.}.}.}.|.|.}.}.}.}.}.}.}.}.}.}.}.}.}.}.}.}.}.}.}.}.}.}.{.|.{.{.}.|.{.{.{.{.{.Q.Q.{.{.Q.Q.Q.Q.Q.Q.Q.Q.Q.Q.Q.Q.Q.Q.Q.Q.!.!.Q.Q.Q.!.Q.Q.Q.W.W.W.W.W.W.W.W.W.W.W.W.W.Q.Q.Q.Q.Q.Q.Q.Q.Q.Q.Q.Q.Q.Q.Q.Q.Q.{.{.{.{.{.{.{._._.Q.Q.Q.Q.Q.Q.Q.Q.Q.Q.Q.Q.!.Q.Q.Q.Q.!.!.!.!.Q.Q.Q.{.Q.{.{.{.{.{.{.{.{.{.{.{.{.{.{.{.{.{.{.{.{.{.{.'.{.{.{.{._.|.}.}.}.}.XX}.XX}.}.}.}.}.}.XXXXXXXXXXXXXXoXoXoXXXoXoXXXXXXXXX X}.|.|. X}.|.|.{.{.'.Q.Q.Q.Q.Q.!.Q.!.W.W.W.W.W.W.W.U.U.U.U.U.U.W.W.W.W.W.W.W.W.W.U.U.U.I.I.I.I.I.U.P.P.P.P.P.P.;.;.;.;.;.;.;.;.;.;.;.;.;.;.;.;.:.;.;.=.:.:.:.:.*.*.*.*.:.:.:.:.:.:.:.*.*.*.*.*.#.#.#.#.*.*.*.#.#.*.*.#.#.#.#.#.#.#.#.#.#.#.#.@.#.#.#.@.@.@.@.@.@.@.@.@.@.@.@.@.@.@.@.@.@.@.@.@.O.O.O. .@.O.O. . ....... . . . . . . . . . . . . . . . . . . ... . . . . .| .... . . .| ....| .. . . . . . ..... . . ... ............... .......| | | | | | | |  . . . . .| ..| .... . ......... . .| | | | | | | | | | R R R | .... . . . . . .....| | R | | | | | | R | | | ..| |  . . . ...........| ....| R R R R R R R R | | R R | R R R R R R R R R R R R R I R R I I I I I I I R R R R R R R R R R R R R R R R R R E E R R R R R R R R E E E R R R R R R R R R R E E E E E E E E E E E E E E E E E E O.O.O.O.O.O.^ ^ ^ ^ ^ O.O.O.^ O.+.+.$.$.$.$.",
" X X X X X X X X}. X X X X X X X}.}.}.}.}. XXXXX}.}.}.}.}.}.}.|.}.}.|.}.}.}.}.}.}.|.|.}.}.}.}.}.}.}.}.}.}.|.|.|.}.}.}.}.}.}.}.}.}.}.}.}.}.}.|.|.}.}.|.|.}.}.}.}.}.}.}.}.}.}.}.}. X}.}.}.}.}.}.}.}.{.}.}.{.{.{.{.Q.{.{.Q.Q.Q.{.Q.Q.Q.Q.Q.Q.Q.Q.Q.Q.Q.Q.Q.Q.Q.Q.!.!.!.Q.!.Q.W.W.W.!.W.W.W.W.W.W.W.Q.Q.W.W.Q.Q.Q.Q.Q.Q.Q.Q.Q.Q.Q.!.Q.Q.Q.Q.Q.Q.Q.Q.'.{.{.{.{._.'.Q.Q.Q.Q.Q.Q.Q.!.!.!.!.Q.!.Q.Q.Q.Q.Q.Q.Q.Q.{.{.{.{.{.{.{.{.{.}.}.}.}.|.}.|.}.}.{.|.|.|.|.|.|.|.|.|.|.}.}.}.}.}. XXXXXXXXXXXXXXXXXXXXXXXXXXXoXoXoXXXXXXXXXXX}.}.}.}.}.}.}.}.}.}.{.}.{.{.{.Q.Q.Q.!.!.Q.!.!.W.!.W.W.W.W.W.W.W.U.U.U.U.U.U.U.U.U.U.U.U.U.U.U.U.U.U.U.I.I.I.I.P.P.P.P.P.P.P.P.P.P.;.;.;.;.;.;.;.;.;.;.;.;.;.;.;.:.:.:.:.:.:.:.:.:.:.:.:.*.;.;.:.:.;.:.:.*.*.*.*.#.*.*.*.*.*.*.#.#.*.#.#.#.#.*.*.#.#.#.#.@.#.@.@.#.#.#.@.#.#.@.@.#.#.#.#.@.@.@.@.@.@.@.@.#.@.@.@.@.O.O.O.@.O.O.O.O.O.@.@... . . . . . . . . . . . . . . . . . . . . . . . . ..... ............. . . . . . . . . . . . . . . . . . . . . . ............... . . . . . ............. . . . .R ..........| | | |  .| | | | | R R | | .. . .O.O. .O. . ...| | ........| ..| | R | ....|  . . . .......| | | | R | | R | | R R I I R R | R R R R R R R R R R I R R R R I I I I I I I I I I R R R R R R R R R R R R R R R R E E E E E E R R R R R R R E E E R R R R R R W R R E E E E E E E E E E E E E E E ^ ^  .^ ^ O.O.O.^ ^ O.O.^ O.O.O.O.O.O.O.+.$.$.$.+.+.",
" X X X X X X X}.}. X X X X X X}.|.}.}.}.}.}. X X}.}.}.}.|.|.}.}.}.}.}.}.}.}.}.}.}.}.}.}.}.}.}.}.}.}.}.}.|.|.|.|.}.|.}.}.}.}.}.}.}.}.}.}.}.}.|.|.}.|.|.|.}.|.|.}.}.}.}.}.}.XX}.}.}.}.}.}.}.}.{.{.}.}.}.{.{.{.{.{.Q.Q.Q.Q.Q.{.Q.Q.Q.Q.Q.Q.Q.Q.Q.Q.Q.Q.Q.Q.W.Q.Q.Q.!.Q.Q.Q.Q.Q.W.W.W.W.W.W.W.W.W.W.Q.Q.W.Q.Q.Q.Q.Q.Q.Q.Q.Q.Q.Q.Q.!.Q.!.Q.Q.Q.{.{.{.'.{.{.{.'.'.|.{.{.Q.Q.Q.{.Q.Q.!.Q.Q._.{.{.{.{.{.{.|.}.{.}.}.}.}.}.}.}.}.}.}.}.|.|.}.|.|.|.|.|.|.|.|.|.|.}.|.|.|.}.}.XXXXXXXXXXXXXXXXXXXXXXXXXXXXXXXXXXXXXX XXX}.}.}.|.|.|.|.{.{.{.{._.{._._._.{.{.Q.Q.Q.Q.W.W.!.W.!.W.W.W.W.W.!.W.W.W.W.U.U.U.U.I.I.I.I.U.U.I.I.U.U.U.I.I.U.U.I.I.I.P.P.P.P.P.P.P.P.P.;.P.P.;.;.;.;.;.;.;.;.;.;.;.;.;.;.:.:.:.:.:.:.:.:.:.:.:.:.*.:.:.*.:.:.=.:.*.:.*.*.*.*.*.*.*.*.*.#.#.*.#.#.#.#.*.*.#.#.#.#.#.#.@.@.#.#.#.#.#.#.@.@.#.#.#.#.#.#.@.@.@.@.@.@.#.@.@.@.@.@.@.O.O.O.O.O.O.O.@.@.@... . . . . . . . . . . . . . . . . . . . . . . . . . . ....... . . . . . . . . . . . . . . . . . . . . . . . . . . ... . . ... . . . . . ......... ... . . . .R ......| | | | .... . ......... .| .... . . .O.O.O. . . ...| |  ...........| | R | .... . . .E  .......| R R | R | | | | | | R I I R R R R R R R R R R R R R R R R I I I I I I I I I I I I R R R R R R R R R R | | R R R E E E E E E E E E R R E R R R R R R E R R R R R R E E E E E E E E ^ ^ E E E E O.O.O.O.O.O.O.O.O.O.^ ^ $.O.O.O.O.O.O.O.O.O.$.$./ $.+.#.",
" X X X X X X}.}.}.}.}.}. X}.}.|.}.}.}.}.}.}.}.}.}.}. X}.|.}.}.}.}.}.}.}.}.}.}.}.}.}.}.}.}.}.}.|.}.}.}.}.}.}.|.|.|.|.|.|.}.}.}.}.}.}.}.}.}.}.}.}.}.}.|.|.}.}.}.}.}.}.}.}.}.|.}.}.|.|.{.{.{.{.{.{.{.{.{.{.{.{.Q.Q.Q.Q.Q.Q.Q.Q.Q.Q.Q.Q.Q.Q.Q.Q.Q.Q.Q.Q.W.W.W.W.Q.Q.Q.Q.Q.Q.Q.!.W.W.W.W.W.W.W.W.W.W.Q.Q.Q.Q.Q.Q.Q.Q.Q.Q.Q.Q.Q.Q.Q.Q.Q.Q.'.{.{.{.{.{.{.|.|.|.|.|.|.}.}.{.{.{.{.{._.{.{.}.}.}.}.}.}.}.}.}.}.}.}.|.}.}.}.}.}.{.{.{.}.|.}.|.}.}.}.|.|.|.|.|.}.}.}.}.}.}.}.XXXXXXXXXXXX}.}.}.}.}.}.}.}.}.{.{.{.{.{.{.{.{._.{.{.{.{.Q.!.!.Q.Q.Q.Q.Q.Q.Q.Q.Q.Q.W.W.W.W.W.W.W.W.W.W.W.W.W.W.W.W.W.W.W.U.U.U.I.I.U.U.I.I.I.I.I.I.I.I.U.U.P.P.P.P.P.P.P.P.P.P.P.P.P.P.P.P.P.;.;.;.;.;.;.;.;.;.;.;.;.;.;.;.*.*.:.:.:.*.*.*.:.:.:.:.*.*.*.*.:.*.*.*.*.*.*.*.*.*.*.*.*.#.#.#.#.#.#.#.*.*.#.#.#.#.#.#.@.@.#.#.#.#.@.@.@.@.@.@.@.@.#.#.#.#.#.@.@.@.@.@.@.O.O.@.@.@.O.@.@.O.O.O.@.@.@.O. . ..... . . . . . . ....... . . . . ..... . .O.O. . . . . . . . .O.O. . . . . . . . . . . . . . .O.O. . . .E .. . . ..... ......................... ... . . . . ...E ...... . . . . . . ........... . .O.O.O.O. .......| |  . .| | | | R R R R | .. . . .| | | | R | R R R R | | | R R R R R R R R R R R R R | | | R R R R R I I R I I I I I I R I R R R R R R R R R R R R E E E E E E E E E E E E E E E W E E E E E E E E E R W W W E E  .E E ^ ^ ^ E ^ ^ E E ^ ^ ^ ^ O.O.O.^ ^ ^ O.O.O.O.O.$.$.O.$.$.$./ ^ ^ $.+.+.+.%.%.",
" X X X}. X X}. X}.}.}.}.}.}.|.|.}.}.}.|.}.}.}.}.}. X X X}.}.}.}.}.}.}.}.}.}.}.}.}.}.}.}.}.}.|.|.|.|.|.|.}.}.|.|.|.|.|.|.{.{.}.}.}.}.}.}.}.}.|.|.|.|.|.|.}.}.}.}.}.}.{.{.{.{.{.{.{.{.{._.{.{.{.{._._.{._.{.Q.Q.Q.Q.Q.Q.Q.Q.Q.Q.Q.Q.Q.Q.Q.Q.Q.Q.Q.Q.Q.Q.Q.Q.Q.Q.Q.Q.Q.Q.Q.Q.W.W.W.Q.Q.W.W.W.W.Q.Q.Q.Q.Q.Q.Q.Q.Q.Q.Q.Q.Q.Q.Q.Q.Q.'._.'.{.|.{.|.|.|.|.|.|.}.}.}.}.}.}.}.}.}.}.|.}.|.}.}.XXXXXX}.}.}.|.|.|.|.|.|.}.}.}.}.}.}.{.{.}.}.}.}.}.}.}.}.}.}.}.}.}.}.}.}.}.}.}.}.}.}.|.{.|.{.{.Q.Q.Q.Q.Q.Q.!.Q.Q.Q.!.!.!.Q.Q.!.Q.Q.Q.Q.Q.!.W.Q.W.W.!.W.W.W.W.W.W.W.W.W.W.W.W.W.W.W.W.W.W.W.W.W.U.U.W.U.U.U.U.U.I.U.U.I.I.I.I.P.I.I.U.I.I.P.P.P.P.P.P.P.P.P.P.P.P.P.;.;.;.;.;.;.;.;.;.;.;.;.;.=.=.=.;.:.:.=.*.:.:.:.*.*.*.:.:.:.:.*.*.*.*.*.*.*.*.*.*.*.*.*.*.*.*.*.#.#.#.#.#.*.*.*.*.:.:.#.#.#.#.@.@.#.#.#.#.@.@.#.#.@.@.@.@.@.#.#.#.#.@.+.+.+.@.@.@.@.@.O.@.O.@.@.@.@.@.@.@.@.O. . ..... . . . . . .O.O.O.O.O.O.O.O. . . .O.O.O.O.O.O.O.O.O.O. . .O.O.O. .O. . . . . . .O. .O.O. .O.O. . . . . . . . . . . ..................... . . . . . . . . ...E E  . . ... . . . . ........... .O.O.O.O. . ....... . . . .| | | R R R | | | .... ... .| | | R | R R R R | | R R R R R R R R R R R R R R R R R R R R R R R R R R I I I I I R R R R R R R R R R R R R R R E E E E E E E E E E E E E E W E E E E E E E E E E W W W E  . .O.O.O.O.^ E ^ ^ ^ O.^ ^ ^ ^ O.O.^ O.^ ^ O.O.O.O.$.$.$.$.O.O.O.O.^ $.+.#.#.%.%.%.",
"}.}.}.}.}.}.}.}.}.}.}.}.}.}.}.}.}.}.}.}.}.}.}.}.}.}.}.}.}.}.}.}.}.}.}.}.}.}.}. X}.}.}.}.}.}.|.}.|.|.|.|.|.}.}.}.{.}.}.}.}.}.}.}.}.}.}.}.}.}.}.}.|.|.|.}.}.}.|.'.{.{.{.'.'.{.{.{._._._._._._._._._.{.{.{.{.{.Q.Q.Q.Q.Q.Q.Q.Q.Q.Q.Q.Q.Q.Q.Q.Q.Q.Q.Q.W.W.Q.Q.Q.Q.Q.Q.Q.Q.Q.Q.Q.Q.Q.Q.Q.W.W.W.W.Q.Q.Q.Q.!.!.!.Q.Q.Q._.Q.'.'.{.{.{.{.{.|.}.|.|.|.|.}.XXXXXXXXXXXXXXXXXXXXXXXXXX}.}.}.}.XXXXXX}.}.|.|.|.|.}.|.|.|.|.}.}.}.}.}.{.{.{.{.}.}.}.}.}.}.}.{.}.{.}.}.}.|.{.{.Q.Q.Q.Q.Q.!.!.W.W.!.W.W.W.W.W.U.W.W.W.W.W.W.W.W.W.W.W.W.W.W.W.W.U.U.U.U.W.W.W.W.W.W.W.W.W.W.W.W.U.U.U.W.U.U.W.W.W.U.I.U.U.U.U.U.U.U.U.I.I.I.I.I.P.P.I.I.I.I.P.P.P.P.P.;.P.P.P.P.;.;.;.;.;.;.;.;.;.;.;.;.;.;.;.;.;.;.;.;.:.:.:.=.:.:.:.:.:.:.:.:.:.:.*.*.:.*.*.*.*.:.:.*.*.*.*.*.#.*.#.#.#.#.#.#.*.*.*.*.*.*.#.#.#.#.@.#.#.#.@.#.@.#.#.#.@.@.@.@.@.@.#.#.@.@.+.+.@.@.@.@.@.@.@.@.O.@.@.@.O.O.@.@.@.@.....@.@.@.@.....O.O.O.O.O.@.O.@.@.O.@.O.O.O.O.O.O.O.O.O.O.O.O.O.O.O.O.O.O.O.O.O.O. .O.O.O.O.O.O.O.O.O.O.O.O. .O.O.O. . . . . . . . ......... . . . . . . . . . . .E E E E E  . . . .O. . . ....... .O.O.O.O.O. . ....... .|  .| | | | R R ..| R R | .............. .| | |  .R  . .R R R R R R R | R R R R R R R R R R R R R R R R | R R R R R R R R R R R R R R R R R R R R R E E E E E E E E  .E E E E E E E E E E E  .O. . .E E E E  .O.O.O.O.O.^ ^ ^ ^ ^ O.O.O.O.O.O.O.O.O.O.O.O.$.O.+.+.+.$.$.$.$.$.$.+.+.+.%.%.%.%.%.%.",
" X}. X}. X}.}.}.}.}.}.}.}.|.}.}.}.}.}.}.}.}.}.}.}.}.}.}.}.}.}.}.}.|.|.|.}.}.}.}.}.}.}.}.}.}.}.}.}.}.|.|.|.}.}.}.}.}.}.}.}.}.}.{.}.}.}.}.}.{.{.{.{.{.{.}.}.}.}.{.{.{._.'._.'.{.{.{.{._.{.{.{._._.Q.Q.Q.Q.Q.Q.Q.Q.Q.Q.Q.Q.Q.Q.Q.Q.Q.!.Q.Q.Q.Q.Q.Q.Q.Q.Q.Q.Q.Q.Q.Q.Q.Q.Q.Q.Q.Q.Q.Q.Q.Q.Q.Q.Q.Q.Q.Q.Q.!.!.!.!.Q.'.'.{.{.|.}.}.|.|.}.}.}.}.}. XXXXXXXoXoXoXoXoXoXoXoXoXXXXXXX}.}.|.}.}.}.}.}.|.|.}.}.}.}.}.}.|.|.|.}.}.}.}.|.}.}.{.}.{.{.{.{.{.{.{.{.{.{.{.Q.Q.Q.!.!.!.!.!.W.W.W.W.W.W.W.W.W.U.U.U.U.U.U.U.W.W.W.W.W.W.U.W.W.W.W.U.I.U.U.U.U.U.U.W.W.W.W.W.W.W.W.W.U.U.U.U.U.U.U.U.W.W.U.I.U.W.U.I.I.I.I.I.I.P.P.P.P.P.P.I.I.P.P.P.P.P.P.P.;.;.P.;.;.;.;.;.P.;.;.;.;.;.;.;.;.;.;.;.;.:.:.;.=.=.:.=.=.*.*.*.*.:.:.:.:.:.:.:.*.:.*.*.*.*.*.:.:.*.:.*.#.#.#.#.#.#.#.#.#.#.*.*.*.*.*.#.#.#.#.#.#.#.#.@.#.@.@.#.#.@.@.@.@.@.@.@.@.@.@.@.@.@.@.@.@.@.@.@.@.@.@.@.@.O.$.O.@.@.@.@.@.@.@.@.@.O.@.O.O.O.@.@.@.@.@.@.@.@.@.@.@.@.@.@.@.O.O.O.O.@.O.O.O.O.O.O.O.O.O.O.O. .O.O.O.O.O.O.O.O.O.O.O. . . . . . . . . . . . . . .....E  . . .E  . . . . . . . . . . . . . . .O. . . . . . .O.O.O.O.O.O. . . .......|  . . . . .R |  . ...| | | ........ . . . . . . . . . . . . . . .|  . .| | | R R R R R R R R R R | | R | | R R R R R R R R R R R R R R R R R R R E E  . . .E E ^ E  .E E  . . . . . .O.E E O.O.O.O.O.O.O.O.O.O.O.O.O.^ ^ O.O.O.O.O.O.@.O.O.O.O.O.O.+.$.$.$.$.+.+.+.+.+.+.+.+.+.+.%.%.+.%.%.*.*.%.",
" X X X X X}. X X X}.}.|.}.}.}.}.}.}.}.}.}.}.}.}.}.}.}.}. X X X}.}.}.}.}.}.}.}.}.}.}.}.}.}.}.}.}.}.}.}.}.}.}.}.}.|.|.}.}.}.}.}.{.}.}.}.}.{.{.{.{.{.{.{.{.{.{.{.{._.{._._._.{.{.{._.{.{.Q.Q.Q.Q.{.{.{._._._._._.Q._.Q._.{._._._.Q._.Q._.{.{.Q.Q.Q.Q.Q.Q.Q.Q.Q.Q.Q.!.Q.Q.Q.Q.Q.Q.Q.!.!.!.!.!.!.!.Q.Q.Q.'.{.|.{.|.}.}.XXXXXXXXXXXXoXXXoXXXXXXXXXoXoXoXoXoXXXoXXXXXXXXXXX X}.}.|.|.|.|.|.|.|.}.}.}.}.|.|.}.}.}.}.|.|.|.|.}.{.{.{.{.{.{.Q.Q.Q.Q.Q.Q.Q.Q.Q.Q.W.W.W.W.W.!.W.W.W.W.W.W.W.W.W.W.W.U.U.U.U.U.U.U.U.U.U.U.U.U.U.W.W.W.W.W.U.U.U.W.W.W.U.W.W.W.W.W.W.W.W.W.U.U.U.U.U.U.U.U.U.U.U.U.U.U.U.I.I.I.I.I.I.P.P.I.U.P.P.P.P.P.P.P.P.P.P.;.;.;.;.;.;.;.;.;.;.;.;.;.;.;.;.;.;.;.;.;.:.:.:.:.:.:.:.*.*.*.*.:.*.*.*.*.*.*.*.*.*.*.*.*.*.*.*.*.*.:.*.*.*.*.#.@.@.#.#.#.#.#.#.*.*.*.#.*.#.#.#.#.#.#.#.#.@.#.#.@.@.@.@.@.@.@.@.@.@.@.@.@.@.@.@.@.#.@.@.@.@.+.@.@.@.@.@.@.@.@.@.@.@.@.@.@.@.@.@.@.O.O.@.@.@.@.@.@.@.O.O.$.O.@.@.O.O.O.O.O.O.@.O.O.O.@.O.O.@.O.O.O.O.O.O.O.O.O.O.O.O.O.O.O.O.O. .O.O.O. . . . . . . . . . . . ... . . . .O. . . . . . . ..... . . . . ... . . . .O.O.O.O. . . . . . . ....... .....E E ...... . . . . . . .......E ........ . . . . . . .E E  . ...| R R E E E R R R R R R R R R | | R R R E R R R R E R E R R R R R R R E E E E E  . . . .^  .E E O.O.E E O.O.O.O.O.O.O.O.O.O.O.O.^ O.O.O.^ +.O.O.O.$.O.$.O.O.O.O.$.O.O.O.$.$.$.+.+.+.+.+.+.+.*.+.+.+.+.+.+.%.%.%.%.%.%.*.%.",
" X X X X X X}. X X X}.}.}.}.}.}.}.}.}.}.}.}.}.}.}.}.}.}. X X X}.}.}.}.}.}.}.}.}.}.}.}.}.}.}.}.}.|.|.|.|.}.}.}.}.{.{.{.}.}.}.}.{.{.{.{.}.{.{.{.{.{.{.{.{.{.{.{.{._._.{._._.{.{.{.{.{.Q.Q.Q.Q.Q.{.Q.Q.{._._._._.{.{.{.{.{.{.{._._._._._.{.Q.Q.Q.Q.Q.Q.Q.Q.!.Q.Q.Q.Q.Q.Q.Q.Q.Q._.'.Q.'.'.'.'.'.'.'.}.|.}.}.XXXXXXXXXXoXoXoXoXoXoXoXoXoXoXoXXXXXXXXXXXXXXXXXXXXXXXXX X}.}.|.|.}.|.|.|.|.|.|.}.}.}.}.|.|.}.}.}.}.}.}.}.{.{.{.{.{.{.{.Q.Q.Q.Q.Q.Q.Q.Q.W.W.W.W.W.W.W.W.W.W.W.W.W.W.W.W.W.W.W.W.W.W.U.U.U.U.U.U.U.U.W.W.W.U.W.W.W.U.U.U.W.U.U.W.W.W.W.W.W.W.W.W.W.W.U.U.U.U.U.U.U.U.I.I.U.U.U.I.I.U.I.P.P.I.I.P.P.P.I.I.P.P.P.P.P.P.P.P.P.;.;.;.;.;.;.;.;.;.;.;.;.;.;.;.:.:.;.;.=.=.:.:.:.:.:.:.:.:.:.:.*.*.:.*.*.*.*.*.*.*.*.*.*.*.*.*.:.*.*.*.*.*.#.*.#.#.#.#.#.#.#.#.#.#.#.#.*.#.*.#.#.#.#.#.#.#.#.#.#.#.#.@.@.@.@.@.@.@.@.#.@.@.@.@.@.#.#.#.@.@.@.@.#.#.@.@.@.@.@.@.@.@.@.@.@.#.#.#.#.#.@.@.O.@.@.@.+.@.@.@.O.O.$.O.$.$.O.O.O.O.O.O.@.O.O.O.@.O.O.@.O.O.O.O.O.O.O.O.O.O.O.O.O.O.O.O.O.O.O.O.@.O. . .O.O.O.O.O.O.O.O. . . . . . .O.O. . . . ... . ... . . . . . . . .O.O.O.O.O.O.O. .O. . . . . . . . . . . . . . . . . . . . . . . ...E R R E .. . . . . . . . . . . . . ...E E E ..E E R R R R E E R | ..E R R E  .E E E E E E E E E R R R E E E E  . .O. .O. .O.O.O. .^ O.O.^ O.O.O.O.O.O.O.O.O.O.O.O.O.^ O.O.+.$.+.$.$.$.$.$.+.@.$.O.$.$.$.$.@.@.+.+.+.+.+.+.*.+.%.%.*.*.*.*.%.+.%.%.%.%.%.%.%.%.",
" X X X X X X X XXXXXXXXX}.}.}.}. X X X X X X X X X X X X X X X}.}.}.}.}.}.}.}.}.|.}.}.}.}.}.}.}.|.|.|.|.}.}.}.}.|.}.}.{.}.}.}.}.{.{._.}.{.{.{.{.{.{.{.{.{.{.{.{.{._.{.{.{.{.{.{.{.{.{.Q.Q.Q.Q.{.{.Q.Q.Q.Q.Q.Q.Q.{.Q.{.{.{.{._._.Q.Q.{.{._._._._._.Q.Q.Q.Q.Q._._._.{._.{.{.{.}.{.}.|.}.}.}. X X XXXoXoXoXoXoXoXoXoXoXoXoXoXoXoXoXoXoXXXXXXXXXXXXX X X X X|.|. X X}.}.}.|.|.|.|.|.|.|.|.|.|.|.|.|.}.}.}.}.}.}.|.}.{.{.{.{.{.{.{.{.Q.Q.Q.Q.Q.Q.Q.Q.W.W.W.W.W.W.W.W.W.W.W.W.W.W.W.W.W.W.W.W.W.U.W.W.U.U.U.W.W.W.W.W.W.W.W.W.W.W.W.W.W.U.U.U.U.U.U.U.U.U.U.U.U.U.U.I.U.I.I.I.I.I.I.I.I.U.I.I.P.P.I.P.P.P.P.P.P.P.P.P.P.P.P.P.P.P.;.;.;.;.;.;.;.;.;.;.;.;.;.;.;.;.;.;.:.:.:.*.*.*.=.*.:.=.:.=.=.:.=.:.*.*.:.*.*.:.*.*.:.:.*.*.*.*.*.*.*.:.*.*.*.*.*.*.#.#.*.*.:.*.*.#.#.#.*.*.*.*.*.#.*.#.*.#.#.#.#.#.#.#.#.#.@.@.@.@.@.@.@.#.#.#.@.@.#.#.#.#.@.#.@.@.#.#.#.#.#.@.@.@.@.@.@.@.@.@.@.#.#.#.#.#.@.@.@.@.O.O.O.O.O.O.O.O.O.O.O.@.+.@.@.@.O.O.@.@.@.O.O.O.O.O.O.O.O.O.O.O.$.O.O.O.O.O.O.O.@.O.O.O.@.O.O.O.O.O.O.O.O.O.O.O.O. .O.O. . .O.O. . . . . . . . . . . . .O.O. . .O.O.O.O.@.@.@.O.O.O. . . . .O.O. . .O.O.O.O.O.O. . .O. . . . . . .E E E E  . . .O. . .O.O. . . . . . . . . . . ...E E E E ...... ...E E E  . . . . . . . . .E E E E E E  .E  .O.O.O.O.O.O.O.O.O.O.O.O.O.O.O.O.O.$.$.$.O.$.+.$.$.O.O.O.O.^ ^ $.+.+.+.+.+.$.+.+.+.+.+.$.$.$.$.+.#.+.+.+.+.*.+.%.%.+.*.%.*.%.%.*.%.%.*.*.*.%.%.%.%.",
" X X X X X X X X X XXXXX}.}.}.}. X X X X X X X XXX X X X X X X}.}.}.}.}.}.}.|.|.}.}.}.}.}.}.}.}.}.}.}.}.}.}.}.}.|.|.}.}.}.}.}.}.}.}.{.{.{.{.{._._._._._.{.{.{.{.{.{.{.{.{.{.{.{.{.{.{.{.{.{.{.{.{.Q.Q.Q.Q.{.Q.{.{.{.{.{.{.{._._.Q.Q.{.{.{.{._._._._._._.{.{.{.{.|.|.}.}.}.}.XXXX XXXXXoXoXoXoXoXoXjXjXjXjXjXjXjXoXoXoXoXXXXXXXXXXXXXXXXX X X X X|.|.|.|.|.|.|.}.}.}.}.}.}.}.|.|.|.|.|.|.}.|.|.|.}.}.}.}.}.}.|.{.{.{.{.{.{.Q.Q.Q.Q.Q.Q.Q.Q.Q.Q.W.W.W.W.W.W.W.W.W.W.W.W.W.W.W.W.W.W.W.W.W.U.U.W.W.U.U.U.U.W.W.W.W.W.W.W.W.W.W.W.W.U.U.U.U.U.U.U.U.U.U.U.U.U.I.I.I.I.P.P.P.I.I.I.I.I.I.U.I.P.P.P.P.P.P.P.P.P.P.P.P.P.P.P.P.P.;.;.;.;.;.;.;.;.;.;.;.;.;.;.;.;.;.;.:.:.:.:.*.*.*.=.*.=.=.=.=.*.*.*.*.*.*.:.:.:.:.*.*.:.:.*.*.*.*.*.*.*.*.*.*.*.*.*.*.*.*.*.*.*.*.*.*.#.#.*.*.*.*.*.#.*.*.*.*.#.#.#.#.#.#.#.#.#.@.@.@.@.#.#.#.#.#.#.#.#.#.#.#.#.#.#.#.#.#.#.#.#.#.@.@.#.@.@.@.#.#.#.#.#.#.#.#.#.@.+.@.O.O.O.O.O.O.+.+.@.@.@.@.#.@.+.@.#.O.@.@.@.@.@.@.@.O.O.O.O.O.O.#.+.+.+.+.+.@.+.@.+.O.O.@.@.O.O.O.@.@.O.O.@.O.O.O.O. .O. . . .O.O. . . . . . . .O.O.O.O.O.O.O.O.O.O.O.O.@.@.@.@.@.@.@.O.O.O.O.O.O.O.O.O.O.O.O.@.@.O.O.O.O.O. . . . . .E E  . .O.O.O.O. . . .O. . . . . . . . . . . . . . . . . . . . . . . .O.O.O.O. .O. .O. .E  .E E E E  .O.O.O.O.O.O.O.O.O.O.$.O.$.O.$.+.$.@.+.#.+.#.+.+.+.#.+.$.$.$.$.$.$.+.+.+.+.#.+.+.+.+.+.#.+.+.+.+.+.#.+.+.+.*.+.*.*.%.%.+.*.*.*.%.%.%.*.%.*.%.%.*.*.*.*.",
" X X X X X X XXX XXXXX X X X X X X X X X X XXXXX X X X X X X X X}.}.}.|.}.}.|.|.}.}.}.}.}.}.}.}.}.}.}.}.}.}.}.}.|.}.|.}.}.}.{.{.}.}.}.}.{.{.{._._._.Q.{.{.{.{.{.{.{.{.{.{.{.{.{.{.{.{.{.{.{.{.{.{.{.{.{.{.{.{.{.{.{.{.{.{.{.{._.{.{.{.{.{.{.{.{.{.{.{.}.}.}.}.}.}.}.XXXXXXXXXXXX.XXXoXjXMXMXjXjXMXMXMXjXjXjXjXoXoXoXoX.XXX XXXXX X}.}.}.}.}.}.}.}.}.}.}.}.}.}.}.}.}.}.}.|.|.|.}.{.{.{.{.{.{.{.{.{.{.{.{.{.{.{.{.{.{._.Q.Q.Q.Q.Q.Q.Q.Q.Q.Q.Q.W.W.W.W.W.W.W.W.W.W.U.U.U.W.W.W.W.W.W.W.W.W.W.W.W.W.U.U.U.U.W.W.W.W.W.W.W.W.W.W.W.U.U.U.U.U.U.U.U.U.U.U.U.U.I.P.I.P.P.P.P.P.I.I.I.I.P.P.P.P.P.P.P.P.P.P.P.;.;.;.P.;.;.;.;.;.;.;.;.;.;.;.;.;.;.;.;.;.;.;.;.;.:.:.:.:.;.:.*.*.*.:.;.:.:.:.:.=.=.=.:.:.*.:.:.:.*.:.:.*.:.:.:.:.:.:.:.*.*.*.*.*.*.*.*.*.*.*.*.*.*.*.*.*.*.*.*.*.*.*.*.*.*.*.*.*.*.#.*.*.*.#.#.#.#.#.#.#.#.#.#.#.#.#.*.*.#.#.#.#.#.#.#.*.*.*.*.*.*.#.#.#.#.*.#.#.#.#.#.#.#.#.#.@.#.@.#.+.@.@.@.@.O.@.+.#.+.+.+.@.@.+.+.+.+.+.@.#.#.@.@.+.@.O.O.+.@.@.@.@.@.#.#.+.+.+.+.+.+.+.+.#.+.O.O.O.#.@.O.O.O.O.O.O.O.O.O.O... .O.O.O. . . . . .O.O.@.@.@.O.@.@.O.O.O.O.O.O.O.O.O.O.@.O.O.O.O.O.O.O.O.O.O.$.O.O.O.O.O.O.@.O.O.O.O.O. . . . . .O.O.O.O.O.O.O.O.O.O.O.O.O.O.O.O.O.O...O.O.O.O.O. .O. . . . .O.O.@.O.O.O.O.@.@.@.O.O.O.O.O.O.O.O.O.O.O.O.$.$.+.+.+.+.+.+.$.+.+.+.+.+.+.%.#.*.#.%.#.%.#.+.+.+.+.+.%.%.+.+.*.%.*.+.+.+.+.+.+.+.+.+.+.%.%.%.+.%.%.*.*.*.*.*.*.%.#.%.%.%.*.*.%.+.+.*.%.%.%.",
" X X X X X X X X X XXXXXXX X X X X X X X X XXXXX X X X X X X}.}.}.}.}.|.|.|.}.}.}.}.}.}.|.|.|.|.|.|.|.|.|.|.|.|.}.}.}.}.}.}.{.}.}.}.}.}.{.{.{._._._.Q.{.{.{.{.{.{.{.{.{.{.{.{.{.{.{.{.{.{.{.{.{._._.{._._.{.{.{.{.{.{.{.{.{.{.{.{.{.{.{.}.}.}.}.}.}.}. XXX}.}. XXXXXXXoXXXXXoXoXjXjXMXMXMXMXMXjXjXkXkXjXjXoXoXoX.XoX.XXXXX X X X X X}.}.}.}.}.}.}.}.}.}.}.}.}.}.}.}.}.}.|.|.}.{.{.{.{.{.{.{.{.{.{.{.{.{.{._.{.{._.Q.Q.Q.Q.Q.Q.Q.Q.Q.Q.Q.Q.Q.W.W.W.W.W.W.W.W.W.W.U.U.U.W.W.W.W.W.W.W.W.W.W.W.U.U.U.U.U.U.W.W.W.W.W.W.W.U.W.U.U.U.I.I.I.I.I.I.U.I.I.I.I.I.P.P.P.P.P.P.P.P.P.P.P.P.P.P.P.P.P.P.P.P.;.;.;.;.;.;.;.;.;.;.;.;.;.;.;.;.;.;.;.;.;.;.;.;.;.;.;.;.:.:.:.=.:.:.*.*.:.:.:.:.:.:.=.=.*.*.:.:.*.:.:.:.:.:.:.*.:.:.:.:.:.:.:.:.*.*.*.*.*.*.:.*.*.*.*.*.*.*.*.*.*.*.*.*.:.:.:.*.*.*.*.*.*.*.*.*.*.*.*.#.*.#.*.*.*.*.*.#.*.*.*.*.#.#.*.*.*.*.*.*.*.*.*.*.*.*.*.*.*.*.*.*.#.#.#.#.#.#.#.#.#.#.#.@.#.#.#.@.@.@.#.#.@.+.@.#.#.#.#.#.#.#.#.#.#.#.#.#.#.@.+.#.#.#.#.#.#.#.#.#.#.#.#.#.+.#.#.#.+.O.O.+.#.@.O.O.O.O.O.O.O.O.O.O.O.O.O.O.O.O. . .O.O.O.O.@.@.@.@.@.O.O.O.O.O.@.@.@.@.@.@.+.O.O.O.@.@.@.O.O.O.O.+.+.O.O.O.@.@.O.@.O.O.O.O.O.O.O.O.O.O.O.O.O.O.@.O.O.O.O.$.O.O.O.O.@.O.O.O.O.O.O.O.@.O.O.O.O.O.O.O.@.O.O.O.O.O.O.O.O.O.O.O.O.O.O.O.$.+.+.$.+.+.+.+.+.+.+.*.+.*.*.*.%.*.%.*.*.*.%.*.%.*.%.+.%.+.%.%.%.%.*.+.*.*.*.*.+.+.+.+.+.+.+.+.%.%.*.*.*.*.%.*.*.%.%.+.%.#.+.+.+.#.+.+.+.+.+.+.+.+.+.%.",
"}. X X X X X X XXXXXXXXXXXXXXX XXX X X XXXXX X X X X X X X X X X}.}.}.|.}.}.}.}.}.}.}.}.|.|.|.|.|.}.}.}.}.}.|.|.}.}.}.}.}.}.}.}.}.}.}.}.{.{.{.{.{.Q.Q.{.{.{.{.{.{.{.{.{.|.{.{.{.{.{.{.{.{.{.{.{.{.{.{.{.{.{.{.|.{.{.{.{.}.}.}.|.|.|.|.|.}.}.}.}. X X XXXXXXXXXoXoXoXoXoXoXoXjXjXMXMXMXMXMXMXjXjXoXoXoXoXOXoXoX.X.X.XXXXX X X X}.}.}.}.}.}.}.}.|.}.|.|.|.|.|.}.|.}.}.}.}.}.}.{._.{.{.{.{.{.{.{.{._._._._._._._._._.Q.Q.Q.Q.Q.Q.Q.Q.Q.Q.W.W.Q.Q.W.W.W.W.W.W.W.W.W.W.U.W.W.W.W.W.W.W.W.U.U.U.U.U.U.U.U.U.U.U.U.U.W.U.U.I.I.I.I.I.I.I.I.I.I.I.I.I.I.I.U.P.P.P.P.P.P.P.P.P.P.P.P.P.P.P.P.P.P.P.P.P.;.;.;.;.;.;.;.;.;.;.;.;.;.;.;.;.;.;.;.;.;.;.;.;.;.;.;.=.;.;.:.:.:.:.:.:.:.;.;.;.:.:.;.;.;.*.*.=.:.:.;.;.:.:.:.:.*.:.:.:.*.:.:.*.*.*.*.*.*.:.:.:.:.:.:.:.:.*.*.*.*.*.*.*.*.:.;.:.:.=.:.*.*.:.:.:.:.*.*.*.*.*.*.*.*.*.*.*.*.*.*.*.*.*.*.*.:.:.:.*.*.*.*.*.*.*.*.*.*.*.*.*.*.#.#.#.#.#.#.#.#.#.#.#.#.#.#.#.@.+.@.#.#.#.#.#.*.*.#.#.*.*.#.#.#.#.#.#.#.#.@.@.#.#.#.#.#.*.*.#.#.#.+.#.#.#.#.#.#.#.+.+.+.+.+.+.+.O.O.$.O.+.O.O.O.O.O.O.O.O.O.O.O.O.O.O.O.O.@.@.@.O.$.+.+.+.+.+.+.+.+.+.+.+.O.O.O.O.O.@.@.+.+.+.+.+.+.+.O.+.+.+.+.O.$.O.O.@.@.@.@.@.O.O.O.O.O.O.O.O.$.O.+.+.+.+.@.#.@.+.+.+.+.+.@.@.O.O.O.@.O.O.O.+.+.+.O.$.O.+.O.+.O.+.O.@.O.$.+.#.#.#.+.*.*.*.*.*.*.%.%.%.%.%.*.*.*.*.*.*.%.%.*.%.*.*.*.*.*.*.*.*.*.*.*.*.*.*.+.+.*.*.*.+.+.+.+.+.#.*.*.%.*.*.*.%.*.+.+.+.$.$.$.+.+.+.+.+.+.+.+.+.$.! +.",
"}.}. X X X X XXXXXXXXX XXXXXXX XXXXX X XXX X X X X X X X X X X X}.}.}.}.}.}.}.}.}.}.}.}.}.}.}.}.}.}.}.}.}.}.}.}.}.}.}.}.}.}.}.}.}.|.}.}.{.{.{.{.{._._.{.{.{.{.{.{.{.{.{.}.{.}.{.}.}.}.}.}.|.|.}.}.}.}.}.}.}.}.}.|.|.|.}.}.}.}.}.}.}.}.}. X XXXXXXX.X.XoXoXoXoXjXoXoXoXoXoXjXjXMXjXjXjXoXjXoXoXOXOXoXoX.XOX.XXXXXXXXXXX X X}.}.|.}.}.}.}.}.}.}.}.|.|.|.|.}.}.}.}.}.}.|.|.}.{._.'._._.{.{.{._._._._._._._.Q.Q.Q.Q.Q.Q.Q.Q.Q.Q.Q.Q.Q.W.W.W.W.Q.W.W.W.W.W.W.W.U.W.W.W.W.U.U.W.W.W.W.W.W.U.U.U.U.U.U.Y.U.U.U.I.U.U.U.U.I.I.P.P.I.U.I.I.I.P.P.P.I.I.P.P.P.P.P.P.P.P.P.P.P.;.;.;.;.;.;.;.P.P.;.;.;.;.;.;.;.;.;.;.;.;.;.;.;.;.;.;.;.;.;.=.;.:.:.:.:.;.;.;.;.;.;.;.:.:.:.;.;.;.:.;.;.;.;.:.:.;.;.;.;.=.=.=.;.;.:.:.:.:.*.:.:.*.:.:.*.*.*.:.*.*.*.:.:.:.:.:.:.*.*.*.*.*.*.:.:.:.:.:.:.:.;.*.*.*.:.=.:.:.:.;.:.:.:.:.:.*.:.*.*.=.*.*.*.*.*.*.*.*.:.:.=.*.*.=.*.*.*.*.*.*.*.*.*.*.*.#.#.#.#.*.#.#.#.*.*.#.#.#.#.#.@.+.@.#.#.#.#.*.*.*.#.#.*.*.#.#.#.#.@.#.#.@.@.#.#.#.#.#.*.*.*.#.#.+.+.+.+.#.+.#.#.#.+.+.+.+.#.#.#.+.O.+.+.#.+.O.O.$.O.O.O.O.O.O.O.O.O.O.@.O.+.@.#.#.+.+.#.#.#.#.#.#.#.+.+.$.$.$.O.+.+.@.+.+.+.+.+.+.+.+.+.+.+.@.+.O.O.O.O.@.@.@.@.@.O.@.O.+.+.@.+.+.$.+.+.+.+.+.#.*.#.#.#.#.#.#.#.#.+.+.+.O.O.O.O.+.+.+.+.+.+.+.+.+.+.+.+.#.+.+.+.*.*.*.%.=.*.*.*.%.*.=.=.*.*.*.=.=.=.=.=.=.=.=.*.=.=.=.*.*.*.*.*.*.+.*.*.*.*.*.+.+.*.*.*.*.+.+.+.+.+.+.+.%.*.+.*.*.+.+.! @.$.$.$.+.+.+.$.$.+.+.+.$.! ! ! ",
" X X X X XXXXXXX X X XXXXX X X X X XXX X X X X X X X X X X X X X}.}. X X}.}.}.}.}.}.}.}.}.}.}.}.}.}.}.}.}.}.}.}.}.}.}.}.}.|.|.|.}.}.}.|.}.{.{.{.{.{._.{.{.{.{.{.}.}.}.|.|.|.|.|.}.}.}.}.}.}.}.}.}.}.}.}.}.}.}.}.XXXXXXXXXX}. X XXXXXXXXXXXXXoXoXoXoXoXoXjXjXjXjXjXjXoXoXoXoXoXjXoXoXoX.X X XOXOXXXXX XXXXXXX X X X X X}.}.}.}.|.|.}.}.}.}.}.}.}.}.}.{.{.}.}.}.}.}.}.}.}.{.{.{.{.{.{.Q.Q.Q.Q.Q.Q.Q.Q.Q.Q.Q.Q.Q.Q.Q.Q.Q.Q.Q.Q.Q.Q.W.W.W.W.W.W.W.W.W.W.W.W.W.U.U.W.W.W.W.W.W.W.U.U.W.W.U.U.U.U.U.I.Y.I.U.I.I.P.I.U.I.I.P.P.P.P.P.P.P.P.P.P.P.P.P.P.P.P.P.P.P.P.P.P.P.P.P.P.P.P.P.P.;.;.;.;.;.P.;.;.;.;.;.;.;.;.;.;.;.;.;.:.:.:.;.;.;.*.*.*.;.;.;.;.:.:.;.*.:.:.:.;.;.;.;.;.:.;.:.:.:.:.;.;.=.=.=.=.;.;.;.:.*.;.;.;.:.:.:.:.*.*.*.:.*.:.:.*.*.:.:.:.*.*.*.*.*.*.*.*.:.;.;.:.;.=.=.=.=.=.=.=.=.*.*.=.=.=.=.=.=.=.:.;.:.;.=.*.=.=.=.:.*.:.*.*.:.:.*.*.*.*.=.:.:.*.*.*.*.*.*.*.#.#.#.#.*.#.#.#.#.#.#.#.#.@.+.+.+.+.#.#.#.#.*.*.*.*.*.*.#.#.#.#.+.+.#.#.#.#.#.#.#.#.#.+.+.#.#.#.#.#.+.#.#.#.+.+.+.+.+.+.+.#.#.#.#.+.+.#.+.+.+.+.+.O.+.O.O.O.@.O.O.O.O.+.+.+.#.#.+.+.+.+.+.+.+.#.#.+.+.+.+.+.+.+.+.+.+.+.#.+.$.+.$.+.+.#.#.#.#.+.+.+.+.+.O.+.@.@.+.+.+.+.+.+.#.#.#.#.#.#.*.*.*.*.*.*.*.#.*.+.+.+.+.+.+.+.+.+.+.+.#.#.#.+.*.#.*.#.%.#.%.#.%.%.*.*.*.=.=.=.=.=.=.=.=.=.=.=.=.=.=.=.=.=.=.=.=.=.=.=.=.=.=.*.*.*.*.*.*.*.*.*.*.+.*.*.%.%.*.+.+.+.+.+.+.+.+.+.+.+.+.+.+.$.$.$.^ O.^ ^ / / +.+.+.+.+.+.+.+.$.$.",
" X XXXXXXXXXXXXXXX X XXXXX X X X X XXXXX X X X X X X X X X X X X}. X X X}.}.}.}.}.}.}.XXXXXX}.}.}.}.}.}.}.}.}.}.|.|.|.|.|.|.|.|.}.}.}.}.}.}.}.{.}.{.{.{.}.|.}.|.}.|.}.|.}.|.}.}.}.|.}.|. X}. X|.}. X X X X X X XXXXXXXXXXXXXXX.XXX.XoXoXoXoXoXoXoXoXjXjXMXjXjXMXMXjXjXjXoXoX.X.XOXXXXXXXXXXX X X}.}.}.}.}.}.}.}. X}.}.}.}.}.}.}.}.}.}.}.}.}.}.}.}.}.{.{.}.}.}.{.}.}.}.{.{.{.{.{.{.Q.Q.Q.Q.Q.{.Q.Q.Q.Q.Q.Q.Q.Q.Q.Q.Q.Q.Q.Q.W.W.W.W.W.W.W.W.W.W.W.W.W.W.W.U.U.U.U.U.U.U.U.W.W.W.W.U.U.U.U.U.U.I.I.I.I.I.I.I.I.U.U.I.I.P.P.P.P.P.P.P.P.P.P.P.P.P.P.P.P.P.;.P.P.P.P.P.P.P.P.P.P.P.P.;.;.;.;.;.;.;.;.;.;.;.;.;.;.;.;.;.;.;.:.:.:.:.:.:.:.:.;.;.;.;.;.;.;.;.;.:.:.;.;.;.;.;.;.;.;.:.:.;.:.;.=.=.=.;.;.;.;.;.;.*.;.;.=.:.:.:.:.*.*.*.*.*.:.:.:.*.:.*.*.*.*.*.*.*.*.*.*.;.;.;.;.;.;.;.;.=.=.;.;.=.=.=.=.=.=.;.=.=.=.=.=.;.;.=.=.=.=.=.=.=.*.*.*.:.:.=.*.*.*.*.=.:.*.*.*.*.*.#.#.#.#.#.#.#.*.#.*.*.#.#.#.#.+.@.+.+.#.#.#.*.*.*.*.*.*.*.*.*.#.#.*.*.#.#.#.#.#.#.#.#.#.#.#.+.+.#.#.#.+.+.+.+.+.#.#.#.+.+.+.+.#.#.#.+.+.+.#.+.#.+.+.+.+.+.+.O.O.O.O.+.+.+.+.+.#.#.#.+.+.+.+.+.+.#.#.*.*.%.*.+.*.%.+.+.+.+.+.#.+.+.+.+.#.#.#.#.#.#.#.+.+.+.+.+.+.#.#.+.+.+.+.+.+.*.*.*.*.*.*.*.*.*.*.*.*.*.*.*.%.+.+.#.+.+.+.+.+.+.#.#.+.*.*.*.*.*.*.%.%.%.%.*.*.*.*.=.=.=.=.=.=.=.=.=.=.=.=.=.=.=.=.=.=.=.=.=.=.*.=.=.=.=.*.*.*.*.*.*.*.*.+.+.+.+.+.*.+.+.+.+.$.+.+.+.+.+.%.*.*.+.+.+.$.$.$.O.O.^ ^ / $.$.+.+.#.#.+.#.+.+.! ",
" XXX X X X X X X X X X XXX XXXXX.X.X X X X XXXXX X XXX X X}. X X X X X}. X X X X X XXXXXXXXX}.}.}.}.}.}.}.}.}.}.}.|.}.}.|. X}. X}.|.|.|.}.}.}.}.}.}.}.}.}.|.}.|.}.|. X}.}.}.}. X}.|. X|. X X X XXXXXXXXX.XXX XXX.X.X.X.X.XoXoXoXoXoXoXjXjXjXoXoXjXjXjXjXjXjXjXjXoXoXoXoXoX.X XXX XXXXXXX}.}.}.}.}.|.|.|.}.}.}.}.}.}.}.}.|.|.|.}.}.}.XX}.}.}.}.}.}.}.{.{.{.{.{.{.{.{.{.{._._._.{.Q.Q.Q.Q.Q.Q.Q.Q.Q.Q.Q.Q.Q.Q.Q.Q.Q.Q.Q.Q.Q.W.W.W.W.W.W.W.W.W.W.W.W.W.U.U.U.U.U.U.U.U.U.U.U.U.U.U.U.U.U.U.U.U.I.P.U.P.P.P.P.I.U.I.P.P.P.P.P.P.P.P.P.P.P.P.P.P.P.P.P.P.;.;.;.;.;.P.P.P.P.P.P.P.P.P.;.P.;.;.;.;.;.;.;.;.;.;.;.;.;.;.;.;.;.;.;.;.;.;.;.;.;.;.;.;.;.;.;.;.;.;.:.:.;.;.:.:.:.:.:.:.:.;.;.;.;.;.;.;.;.;.;.;.;.;.=.=.=.=.=.=.=.:.=.=.=.*.*.*.:.:.*.*.*.*.*.*.*.:.*.:.:.:.;.;.;.;.;.;.;.;.=.;.;.;.;.=.=.;.;.;.;.;.;.;.;.;.P.;.;.;.;.;.=.;.=.=.=.=.=.=.=.=.:.=.:.=.*.*.*.*.*.*.*.*.*.*.*.*.#.*.*.*.*.*.#.#.#.#.#.#.#.#.#.*.*.*.*.*.*.*.*.*.*.*.*.*.*.*.*.#.#.*.#.*.*.*.#.#.#.#.+.+.+.+.+.+.+.+.#.#.#.#.#.+.+.#.#.#.*.*.*.*.*.#.*.+.+.#.+.@.@.#.@.@.#.#.#.#.#.#.*.#.*.*.*.*.*.*.*.*.*.*.*.*.*.*.*.*.*.*.*.+.*.*.*.*.*.#.#.*.#.*.*.#.#.+.+.#.#.#.%.#.*.*.#.#.*.*.*.*.*.*.*.*.*.*.*.*.*.*.*.%.*.*.*.*.*.*.*.+.#.#.+.+.*.*.*.*.*.*.*.*.*.*.*.*.*.*.*.=.=.=.=.=.=.=.=.=.=.=.=.=.=.=.=.=.=.=.=.=.=.=.=.=.=.=.=.*.%.*.*.*.*.*.*.+.+.*.*.%.*.*.*.*.+.+.+.+.+.+.+.+.*.*.+.+.+.+.$.$.$.$.$.$.$.$.$.$.+.+.#.+.#.+.$./ ",
" X X X X X X X X X X XXXXXXXXXXX.X.X X XXXXXXXXXXXXXXXXX X}. X XXX X X}. X X X X X XXXXXXX}.}.}.}.}.}.}.}.}.}.}.}.}.}.}. X X X X}.}.|.|.}.}.}.|.}.|.}.}.}.}.}.}. X X X X X X X X X X XOXOXXX.X.XoXoXoXoXoX.X.X.X.X.XoXoXoXoXoXjXjXjXjXMXjXjXoXoXoXoXoXjXoXoXoXoX.X.X.X.X.XXXXXXX X}.}.}.}.}.|.|.}.}.}.|.}.}.}.}.}.}.}.}.|.|.}.}.}.XXXX}.}.}.}.}.}.}.{.{.{.{.{.{.{.{.{.{._.Q.Q.Q.Q.Q.Q.Q.Q.Q.Q.Q.Q.Q.Q.Q.Q.Q.Q.Q.Q.Q.Q.Q.W.W.W.W.W.W.W.W.W.W.W.U.I.I.U.U.U.U.U.U.U.U.U.U.U.U.U.U.U.U.I.U.U.I.I.P.I.P.P.P.P.I.I.P.P.P.P.P.P.P.P.P.P.P.P.P.P.P.P.P.P.P.P.P.;.;.P.P.P.P.P.P.P.P.;.;.;.P.P.;.;.P.;.;.;.;.;.;.;.;.;.;.;.;.;.;.;.;.;.;.;.;.;.;.;.;.;.;.;.;.;.;.:.:.:.;.:.:.:.:.:.:.;.;.=.=.;.;.;.;.;.;.=.;.;.;.=.:.=.;.;.;.;.=.=.=.=.=.*.:.:.:.*.*.*.*.*.;.*.;.;.;.:.:.;.P.P.P.P.;.;.=.;.;.;.;.;.=.=.=.;.;.;.;.;.;.;.;.P.P.;.;.;.;.;.;.;.=.=.=.=.;.;.=.;.:.:.=.=.*.*.*.*.*.*.*.*.*.*.*.*.*.*.*.*.*.*.#.#.@.#.#.#.#.*.*.*.*.*.*.*.*.*.*.*.*.*.*.*.*.*.#.#.*.*.*.*.*.#.#.*.#.+.+.*.#.%.+.#.#.#.#.#.#.#.#.+.#.#.#.*.*.*.*.*.*.*.*.*.#.#.#.#.#.#.#.#.+.+.#.*.*.*.*.*.*.*.*.*.*.*.*.*.*.*.*.%.*.*.*.*.*.*.*.*.*.*.*.*.*.*.*.*.*.*.*.%.*.*.*.*.*.*.*.*.*.*.*.*.*.*.*.*.*.*.*.=.=.=.*.*.*.*.%.*.*.*.*.*.+.+.*.#.#.+.+.*.*.*.*.*.*.*.*.*.*.*.*.*.*.%.*.*.=.=.=.=.=.=.=.=.=.=.=.=.=.=.=.=.=.=.=.=.=.=.=.=.=.=.%.%.%.*.*.*.*.*.*.*.*.*.%.%.*.%.%.%.%.*.*.+.+.%.*.%.*.*.+.+.+.+.$.#.+.+.+.$.$.$.+.+.+.#.+.+.$.$./ ",
".XXXXXXX X XXX.X.X.X.X.X.X.X.X.X.X.X.X.X.X.XXXXXXXXXXX X X X X X X X X X}. X X X X X X X X X X X}.}.}.}. X X X X X X}.}. X X X X X X}. X X X X}. X}. X X XXX X X X X X XXXXX.X.X.X.X.X.X.X.XoXoXoXoXoXoXjXoXoXoXoXoXoXoXjXjXjXjXjXjXjXjXjXjXoXoXoXoX.XoX.X.X.X.X.XXX.XXXXXXXXX X X}.}.}.}.}.|.|.|.|.}.}.}.}. X}.}.}.}.}.}.}.}.XX}.}.}.}.}.}.}.}.}.}.{.{.{.{.{.{.{.{.{.Q.Q.Q.Q.Q.Q.Q.Q.Q.Q.Q.Q.Q.Q.Q.Q.Q.Q.Q.Q.Q.Q.Q.Q.Q.W.W.W.W.W.W.U.U.U.W.U.U.U.U.U.U.U.U.U.I.U.U.U.U.U.U.U.U.U.U.U.U.U.I.I.P.I.I.I.I.I.I.P.P.P.P.P.P.I.P.P.P.P.P.P.P.P.P.P.P.P.P.P.P.P.P.P.P.P.P.P.P.;.;.;.;.P.P.P.;.;.;.;.P.;.;.;.;.;.;.;.;.;.;.;.;.;.;.;.;.=.;.;.;.;.;.;.;.;.;.;.;.;.:.:.=.=.=.=.;.;.;.;.;.;.;.;.;.;.;.;.;.=.=.;.;.=.=.=.;.;.;.;.;.;.;.;.;.=.:.=.;.=.;.=.;.;.;.;.;.;.;.;.;.P.P.P.P.P.P.P.P.P.;.;.=.=.=.;.;.;.;.;.;.;.;.;.P.P.P.P.P.;.;.=.;.;.=.=.=.;.;.;.;.;.;.:.=.*.*.*.*.*.*.*.*.*.*.*.*.*.*.*.*.*.*.*.#.#.#.#.#.#.#.*.*.*.*.*.*.*.*.*.*.*.*.*.*.*.*.*.*.%.*.*.*.*.*.*.*.*.*.*.*.*.*.*.*.*.*.*.+.*.+.%.#.+.#.*.*.*.*.*.*.*.*.*.*.*.*.*.*.*.*.*.*.*.*.*.*.*.*.*.*.*.*.*.*.*.*.*.*.*.*.*.=.=.*.*.*.*.*.*.*.*.-.-.-.*.*.*.*.*.*.*.*.*.*.*.*.*.*.*.*.=.=.*.*.=.*.=.=.=.=.=.=.=.=.=.=.=.*.*.-.*.*.*.*.*.+.+.+.#.+.*.*.*.*.*.*.*.*.*.*.*.*.*.%.*.*.%.*.*.-.*.*.=.*.*.*.*.=.=.=.*.=.=.=.=.=.=.=.&.&.&.&.&.&.&.%.%.%.%.%.*.*.*.%.%.*.%.%.%.%.%.%.%.*.%.%.%.%.*.*.=.*.%.*.%.%.+.+.%.%.%.#.$.$.+.#.+.+.%.+.+./ O.+.",
"XXXXXXXX XXX.X.X.XoXoX.X.X.X.XXX.X.X.X.X.X.XXXXXXXXXXXXX X X X XXX X X X X X X X X X X X X X X}.}.}.}.}. X X X X X}. X}.}. X X X X X X X X X X X X X X XXXXX XXX.X.X.X.XoXoXoXoXoXoXoXjXjXjXjXjXjXjXjXjXjXjXjXjXoXoXjXjXjXjXjXjXjXjXjXjXoXoXoXoXoX.X.X.X.XXXXX XXXXXXXXXXX X X|.}.}.}.}.}.|.}.|.}.}.}.XX XXX}.}.}.}.}.}.}.XX}.}.}.}.}.}.}.}.}.}.}.}.{.{.{.{.{.{.{.{.Q.Q.Q.Q.Q.Q.Q.Q.Q.Q.Q.Q.Q.Q.Q.Q.Q.Q.Q.Q.Q.Q.Q.Q.W.Q.W.W.W.W.W.W.W.U.U.U.U.U.U.U.U.U.U.U.I.I.U.U.U.U.U.U.U.U.U.U.U.U.U.I.I.P.P.I.U.U.I.I.P.P.P.P.P.P.I.I.I.P.P.P.P.P.P.P.P.P.P.P.P.P.P.P.P.P.P.P.P.P.P.;.;.;.;.P.P.;.;.;.;.;.;.;.;.;.;.;.;.;.;.;.;.;.;.;.;.;.;.;.;.;.;.;.;.;.;.;.;.;.;.:.;.:.;.;.;.;.;.;.;.;.;.;.;.;.;.;.;.;.;.;.;.;.;.=.=.;.;.;.;.;.;.;.:.;.;.;.;.;.;.;.;.;.P.P.;.;.;.P.P.P.P.P.P.P.P.P.P.P.P.P.P.;.;.;.P.P.;.;.;.;.;.;.P.P.P.P.P.P.;.;.=.=.;.=.=.=.;.;.;.;.;.=.=.=.=.*.:.:.*.*.*.*.*.*.*.*.*.*.*.*.*.*.*.*.#.#.#.#.#.#.*.*.*.*.*.*.*.*.*.*.*.*.*.*.*.*.*.*.*.*.*.*.*.*.*.*.*.*.*.*.*.*.*.*.*.*.*.*.*.*.*.*.#.#.*.*.*.*.*.*.%.%.*.*.*.*.*.*.*.*.=.*.*.*.*.*.*.*.=.*.*.*.=.*.*.*.=.=.=.=.=.=.=.=.=.=.=.=.=.=.=.=.=.=.=.=.*.*.*.*.*.*.*.*.*.=.=.=.=.=.=.=.=.=.=.=.=.=.=.=.=.=.=.=.=.=.=.=.-.%.*.*.*.*.*.*.*.*.#.+.*.*.*.*.*.*.*.*.*.*.*.*.*.*.*.*.*.*.-.*.*.*.=.*.-.-.*.*.=.=.=.=.=.=.=.=.=.=.=.=.&.=.=.=.=.=.=.*.*.*.*.%.*.*.%.%.%.%.%.%.=.=.=.*.*.=.=.=.=.=.=.*.%.%.*.%.%.%.%.%.%.%.+.$.+.+.+.+.#.+./ ! O.+.",
".X.X.X.X.X.X.X.X.X.X.X.X.X.X.X.XXXXXoXXX.X.XXXXXXXXXXX XXXXXXXXX X X X X X X X X}.}. X X X X X X}.}. X X X X X X X X X X X X X X X X X XXXXX X XXXXXXXXXXX.X.X.X.X.XoX.XoXoXoXjXjXoXoXjXMXjXjXMXjXjXjXjXjXjXjXjXjXjXoXoXoXoXjXjXoXoXoX.X.X.X.X.XOXXXXXXXXX X X X X}. XXXXX}.}.}. X X|.}.|.}.}.}.}.}.XXXXXXXX X XXXXXXX X}.}.}.}.}.}.}.}.}.}.}.}.{.}.{.{.{.{.{.{.{.{.Q.Q.Q.Q.Q.Q.Q.Q.Q.Q.Q.Q.Q.Q.Q.Q.Q.Q.Q.Q.Q.Q.Q.Q.Q.Q.W.W.W.W.W.W.W.W.U.U.U.U.U.U.U.U.U.U.U.I.U.U.U.U.U.U.U.U.U.U.U.U.U.I.P.P.P.P.I.I.P.P.I.I.I.I.I.I.I.I.P.P.P.P.P.P.P.P.P.P.P.P.P.P.P.P.P.P.P.P.P.P.P.P.;.;.P.P.P.;.;.;.;.;.;.;.;.;.;.;.;.;.P.;.;.;.;.;.;.;.P.P.P.P.P.;.;.;.;.;.;.;.;.;.;.;.;.;.;.;.;.;.;.;.;.;.;.;.;.;.;.;.P.;.;.P.P.;.;.;.P.P.;.P.P.P.P.P.;.P.P.P.P.P.P.P.P.P.P.P.P.P.P.P.P.P.P.P.P.P.P.P.P.P.P.P.P.P.P.P.;.;.P.P.P.P.P.P.P.P.P.P.P.;.;.;.;.;.;.=.;.;.;.;.=.=.=.=.*.*.*.*.*.*.=.*.=.*.=.*.*.*.*.*.*.*.*.*.*.#.#.#.#.*.*.*.*.*.*.*.*.*.*.*.*.*.*.*.*.*.*.*.*.*.*.*.*.*.*.*.=.*.*.*.*.*.*.*.*.*.*.*.*.*.*.*.#.*.*.*.*.*.*.*.*.*.*.*.*.*.*.*.*.*.=.=.=.=.=.=.=.=.=.=.=.=.=.=.=.=.=.=.=.=.=.=.=.=.=.=.=.=.=.;.=.=.=.=.=.=.=.=.=.*.=.=.=.=.=.=.=.=.=.=.=.=.=.=.=.=.=.=.=.=.=.=.=.=.=.=.=.=.*.%.*.*.*.*.*.*.*.*.%.*.*.*.*.*.*.*.*.*.*.*.*.*.*.*.*.*.*.*.=.=.-.*.-.-.-.*.*.*.*.*.*.*.=.=.*.*.=.=.=.=.=.=.=.=.=.=.=.=.=.=.*.%.*.=.=.=.=.=.=.=.=.=.=.=.=.=.=.=.=.-.=.*.-.%.*.*.*.*.*.%.%.%.%.#.+.+.+.+.+.+.$./ ^ +.",
"XXXXoX.X.X.XXX.X.X.XXX.X.X.X.XOXXX.XXXXX.X.X.X.X X X XXXXXXX X X X X X X X X X X X X X X X X X X X X X XXXXXXXXXXXXXXXXXXXXXXX X.X.XXXXXXXXXXX.XXX.X.X.X.X.X.X.XoXoXoXoXoXoXoXjXjXoXoXjXjXjXjXMXjXjXjXjXjXjXjXjXjXoXoXoXoXoXoXoX.X.X.X.X.X.XXXXX XXXXXXX X X}. X X}.}.}.}.}.}.}. X}.}.|.|. X XXXXXXXXXXXXXXXXX X XXXXX X X}. XXX}.}.}.|.|.}.}.}.}.}.{.{.{.{.{.{.{.{.Q.Q.Q.Q.Q.Q.Q.Q.Q.Q.Q.Q.Q.Q.Q.Q.Q.Q.Q.Q.Q.Q.Q.Q.Q.Q.W.W.W.W.W.W.W.W.U.U.U.U.U.U.U.U.I.U.U.U.I.U.U.U.U.U.U.W.U.U.U.U.U.U.P.I.P.I.P.P.P.P.U.U.I.I.I.I.P.P.P.P.P.P.P.P.P.P.P.P.P.P.P.P.P.P.P.P.P.P.P.P.P.P.P.P.P.P.P.P.;.;.P.P.;.;.;.P.P.;.;.;.P.P.;.;.P.;.P.;.P.;.;.;.P.P.;.;.;.;.;.;.;.;.;.;.;.;.;.;.;.;.;.;.;.;.;.;.P.;.;.;.;.;.;.P.P.P.P.P.P.P.P.P.P.P.P.P.P.P.P.P.P.P.P.P.P.P.P.P.P.P.P.P.P.P.P.P.P.P.P.P.P.P.P.P.P.P.P.P.P.P.P.P.P.P.P.P.P.P.P.P.P.P.;.;.;.;.;.;.=.=.=.=.=.=.=.=.=.*.=.=.=.=.=.:.;.=.=.=.=.=.=.*.=.*.*.*.*.*.*.*.*.*.*.*.*.*.*.*.*.*.*.*.*.*.=.*.=.*.*.*.*.*.*.*.*.*.*.=.=.=.=.=.=.=.=.=.*.*.*.*.*.*.*.*.*.*.*.*.*.*.*.*.*.*.*.*.*.*.*.*.=.=.=.=.=.=.=.=.=.=.=.=.=.=.=.=.=.=.=.=.=.=.=.=.=.=.=.=.;.=.;.;.P.J.J.P.P.=.=.:.=.=.=.=.=.=.=.=.=.=.=.=.=.=.=.=.=.=.=.=.=.=.=.=.=.=.=.=.=.=.=.*.=.=.=.*.*.*.*.*.*.*.*.*.*.*.*.*.*.*.*.*.*.*.*.*.*.*.=.=.=.=.=.=.-.*.*.=.=.*.*.=.*.=.=.=.*.*.*.=.=.=.*.*.*.=.=.=.=.&.=.=.*.*.=.=.=.=.&.&.=.=.=.=.=.=.=.=.=.=.=.=.-.-.%.%.%.*.*.*.*.+.%.%.*.*.#.+.%.+.+.+.+.+./ $.",
"oXoXoXoX.X.X.XoX.XoXoXOXoXoXOXOX.XOX.X.XoX.XOXOX.XOX X XXXXXXXXX X X X XXXXXXX X X X XXXXXXXXXXXXXXXXXXXoXoXoXoXoXoXoXoXXXXXXXXX.X.XXXXXXXoXoXoXXX.XoXoXoXoXoX.XoXoXoXjXjXjXjXjXjXjXMXMXjXjXjXjXjXjXjXoXoXoXoXoXoX.X.X.X.X.X.XXXXX.X.XOX XXXXXXXXX X X X X X}.}.}. X X X}.}.}.}.}.}. X XXXXXXXXX XXXXXXXXXXXXXXX X X X XXXXXXX X}.}.}.}.|.|.}.}.}.}.}.}.|.|.{.{.{.{.{._.Q.Q.Q.Q._.Q.Q.Q.Q._.Q.Q.Q.Q.Q.Q.Q.Q.Q.Q.Q.Q.Q.Q.W.W.W.W.W.W.W.W.W.W.W.I.U.U.U.U.U.I.I.I.U.U.U.U.U.U.U.U.U.U.U.U.U.U.I.I.I.I.I.I.I.I.I.I.I.I.I.I.I.I.I.I.I.I.I.I.P.I.I.P.P.P.P.P.P.P.P.P.I.P.P.P.P.P.P.P.P.P.;.;.;.P.P.P.P.P.P.P.P.P.P.P.P.P.P.P.P.P.P.P.P.P.P.P.P.P.P.P.;.;.;.;.;.;.;.;.;.P.;.;.;.;.;.;.;.;.;.;.P.P.P.P.P.P.P.P.P.P.P.P.P.P.P.P.P.P.P.P.P.P.P.P.P.P.I.U.I.P.P.P.P.P.P.P.P.P.P.P.P.P.P.P.P.P.P.P.I.I.I.P.P.P.P.P.P.P.P.P.P.P.P.P.P.P.P.P.P.P.P.;.;.;.=.=.=.=.=.=.=.=.=.=.=.=.=.;.=.=.;.;.;.;.;.=.=.=.=.=.*.*.*.*.*.*.*.=.*.*.=.*.=.=.=.=.=.=.=.=.=.=.=.=.=.=.=.=.=.=.=.=.=.=.=.=.=.=.=.=.=.=.=.*.*.=.=.*.*.*.*.*.=.=.=.=.=.=.=.=.=.=.=.=.=.=.=.=.=.=.=.=.=.=.=.=.=.=.=.=.=.=.=.=.=.=.=.=.=.=.=.P.J.J.J.P.P.P.J.J.J.J.J.J.J.J.J.;.;.G.G.J.G.G.J.J.=.=.=.=.=.=.=.=.=.=.=.=.=.=.=.=.J.=.=.=.=.=.=.=.=.*.*.*.*.*.*.=.=.=.=.=.=.=.=.*.=.=.=.=.=.=.=.=.=.=.=.=.=.=.=.*.*.%.*.*.*.*.*.*.*.*.=.*.=.=.=.*.&.=.=.=.*.*.*.*.=.=.=.=.=.=.=.=.=.J.J.=.=.=.=.=.=.=.=.=.&.%.%.%.*.%.*.*.*.+.+.*.*.%.*.%.+.*.*.*.+.+.+.+.",
"oXoXoXoXoXoXoXoXoXoXoXoXoXoXOXoXoXoXoXoXoXoXoX.X.X.X.X.X.X.X.X.X.XXXXX.XXX.XXX.XXX.X.XXXXX.X.XoXoXoXoXoXoXoXoXoXoXoXoXoXoXXXoXoXoXoXoXoXoXoXoXoXoXjXjXjXoXoXoXoXoXoXjXjXjXjXjXjXjXjXjXjXjXjXjXoXoXoXoXoXoX.X.XOX.X.X.XXXXXXXXXXXXXXXXXXXXXXXXXXX X X X X X X X}. X X X X X}.XXXX X X XXXXXXXXXXXXXXXXXXXXXXXXXXX X X XXXXXXXXX X X}.}.}.|.}.}.}.}.}.|.|.|.|.|.|.|.|.{.{._._._._._._._.Q.{.{.{.{.Q.Q.Q.Q.Q.Q.Q.Q.Q.Q.Q.Q.W.W.W.W.W.W.W.W.W.W.W.W.W.U.U.U.W.U.U.U.U.U.U.U.U.U.U.U.U.U.U.U.U.U.U.I.I.I.U.U.U.U.U.U.U.U.I.I.I.I.I.I.I.I.Y.Y.I.I.I.I.I.I.P.P.P.P.P.P.U.P.P.P.P.P.P.P.P.P.P.;.P.P.P.P.P.P.P.P.P.P.P.P.P.P.P.P.P.P.P.P.P.P.P.P.P.P.P.P.P.;.P.;.P.P.P.P.P.P.P.P.P.P.P.;.P.;.P.P.P.P.P.P.P.P.P.P.P.P.P.P.P.P.P.P.P.P.P.P.P.P.P.P.P.P.P.P.P.P.P.P.P.P.P.P.P.P.P.P.P.P.P.P.P.P.I.P.I.I.P.I.I.P.P.P.P.P.P.P.P.P.P.P.P.P.P.P.P.P.P.P.P.P.P.=.=.=.;.;.=.=.=.=.=.=.;.;.;.=.;.;.;.P.;.;.=.;.=.=.=.=.=.=.=.=.=.=.=.=.=.=.=.=.=.=.=.=.=.=.=.=.=.=.=.=.=.=.=.=.=.=.=.P.P.=.=.;.=.=.;.=.=.=.=.=.=.=.=.=.=.=.=.=.=.=.=.=.=.=.=.=.=.=.=.=.=.=.=.=.=.=.=.=.=.=.=.=.=.=.=.=.=.=.J.P.J.J.J.J.K.P.P.G.K.K.Y.Y.K.K.K.P.P.P.P.P.P.G.P.P.K.P.P.P.P.P.P.J.J.J.J.P.P.P.P.P.J.J.=.=.=.J.P.J.=.=.=.=.=.=.=.=.=.=.*.*.=.=.=.=.=.=.=.=.=.=.=.=.=.*.=.=.=.=.=.=.=.=.=.=.%.&.*.*.*.*.*.=.=.*.*.*.*.*.*.*.=.*.&.=.=.=.=.=.=.=.=.=.=.=.=.=.=.=.J.J.J.J.=.=.=.=.=.=.=.=.&.=.&.%.*.*.%.*.%.*.*.*.%.*.%.+.*.*.*.*.%.+.+.+.",
"oXjXjXoXoXoXoXoXoXoXoXoXjXjXoXoXoXoXoXoXjXoXoXoXoXoXjXoXoX.XoXoX.XoXXXoXoXoXoXoXjXoXoXoXoXoXoXoXoXoXoXjXoXoXoXjXjXjXjXoXjXoXoXoXoXjXjXjXjXjXjXjXjXjXjXjXjXjXoXoXoXoXoXoXjXjXjXjXjXoXoXoXoXoX.X.X.X.X.X.XOXOX XOX.X.XXXXXXXXXXXXXXXXXXXXXXX X X X X XXX X X X X X XXXXX X XXXXXXXXXXXXXXXXXXX.XXX.X.X.XXXXX.X.XXXXXXX X XXXXXXX XXX X}.}.}.}.|.|.}.}.|.}.}.|.|.|.|.|.}.{.{.{.{.{.{.{.{.{.{.{.{.{.{.{.{.{.Q.Q.Q.Q.Q.Q.Q.Q.Q.Q.W.W.W.W.W.W.W.W.W.W.W.W.W.W.W.W.W.W.U.U.U.U.W.W.W.W.W.W.U.U.U.U.W.U.U.U.U.U.U.U.U.U.U.U.I.U.I.U.U.U.I.I.I.Y.I.I.I.I.I.I.I.I.P.P.P.I.U.I.P.P.P.P.P.P.P.P.P.P.P.P.P.P.P.P.P.P.P.P.P.P.P.P.P.P.P.P.P.P.P.P.P.P.P.P.P.P.P.;.;.;.P.P.P.P.P.P.P.P.P.P.P.P.P.P.P.P.P.P.P.P.I.I.P.P.I.I.I.I.P.P.I.I.P.I.I.P.P.P.P.P.P.P.P.P.I.I.P.P.P.P.P.P.I.I.P.P.P.P.P.I.I.I.I.I.I.I.I.I.I.Y.P.P.P.P.P.P.P.P.P.P.P.P.P.P.P.P.P.P.P.P.P.P.P.P.P.P.P.;.J.;.=.;.;.P.P.P.P.P.P.P.P.P.P.P.P.;.=.=.=.;.P.;.=.;.=.:.=.:.=.=.=.=.=.;.;.;.;.;.=.;.;.;.;.;.P.P.J.J.P.P.P.;.;.P.P.=.;.=.=.=.=.=.=.=.=.=.=.=.=.=.=.=.=.=.=.=.=.=.=.=.=.=.=.=.=.=.=.=.J.J.J.J.J.J.J.=.J.=.J.J.P.P.K.J.J.P.K.K.K.G.G.G.Y.Y.Y.Y.Y.P.P.Y.I.Y.Y.Y.Y.Y.Y.Y.I.I.Y.I.I.I.P.P.P.P.P.P.P.P.J.J.=.=.P.P.P.J.=.J.=.=.=.=.=.=.=.=.*.=.=.=.=.=.=.=.=.=.=.=.=.=.=.=.=.=.=.=.=.=.=.=.=.=.=.=.=.=.=.=.=.=.=.*.%.*.*.*.%.*.*.*.&.=.=.=.=.=.=.=.=.=.=.=.=.=.J.J.J.J.J.J.J.J.J.=.=.=.=.=.=.=.&.&.=.*.*.*.*.%.*.%.%.%.%.%.*.*.%.%.%.%.%.%.",
"jXoXjXoXjXoXjXoXoXoXjXoXjXjXjXjXoXoXoXjXjXjXjXjXjXjXMXjXoXoXoXoXoXoXoXoXoXoXjXoXjXjXoXoXjXjXjXjXoXoXjXjXjXjXjXjXjXjXjXjXjXjXjXjXjXjXjXjXjXjXjXjXoXoXjXjXjXoXoXoXoXoXoXoXoXoXjXjXoXoX.X.X.X.X.XOXOXOXOXOXOXOX X X.X.X.X.XXXXXXXXXXXXXXXXX X X X X X X X XXXXXXXXXXXXXXXXXXXXXXXXXXXXXXXXX.X.X.XXX.X.X.X.X.X.X.XXXXXXXXXXXXXXXXXXXXX X X}.}.}.}.|.}.}.}.}.}.}.}.}.}.}.|.|.|.}.{.{.{.{.{.{.{.{.{.{.{.{.{.{.Q.Q.Q.Q.Q.Q.Q.Q.Q.Q.Q.Q.W.W.W.W.W.W.W.W.W.W.W.W.W.W.W.W.W.U.W.W.W.W.W.W.W.W.W.W.W.W.W.W.W.U.U.U.U.U.U.U.U.U.U.U.I.I.I.I.I.U.U.I.I.U.U.I.I.I.I.I.I.P.P.I.I.P.P.P.P.P.P.P.P.P.P.P.P.P.P.P.P.P.P.P.P.P.P.P.P.P.P.P.I.I.I.P.P.P.P.I.I.P.P.P.P.P.P.P.P.P.P.P.I.P.P.I.I.I.I.I.P.P.P.P.I.I.I.I.I.I.I.I.I.I.I.I.I.I.I.P.P.I.I.I.I.P.P.P.P.P.P.P.I.I.I.I.P.P.P.P.I.I.P.P.P.I.I.I.I.I.I.I.I.I.I.I.I.I.Y.I.I.P.P.P.P.P.P.P.P.P.P.P.P.P.P.P.P.P.P.P.P.P.P.P.P.P.P.P.P.P.P.P.P.P.P.P.P.P.P.P.P.P.P.P.P.;.P.;.P.;.P.;.P.;.=.;.=.;.P.P.;.;.P.P.P.P.P.P.P.;.G.P.P.P.P.P.P.P.P.;.P.P.P.;.=.;.=.=.=.=.=.=.=.=.=.=.;.;.=.:.=.=.=.=.;.;.;.;.J.=.;.J.J.G.J.J.K.P.P.K.K.K.P.P.J.K.K.K.P.Y.P.K.K.Y.Y.Y.Y.Y.I.H.Y.Y.W.W.I.I.I.I.I.I.I.I.I.I.I.I.I.I.U.U.I.I.I.P.I.Y.I.P.P.P.J.J.J.=.P.P.P.J.=.J.=.=.=.=.=.=.=.=.=.=.*.*.*.*.=.=.=.=.=.=.=.=.=.=.=.=.=.=.=.=.=.=.=.=.=.=.=.=.*.%.*.=.*.*.%.%.%.*.*.%.*.-.&.=.=.=.*.*.%.=.=.=.=.=.=.J.K.J.K.J.K.K.J.K.K.J.=.=.=.=.=.=.=.=.=.=.=.=.&.=.=.=.=.*.&.*.%.*.%.*.%.%.%.%.",
"jXjXjXjXjXjXjXjXjXjXjXjXjXjXjXjXjXjXjXjXjXjXjXMXjXjXjXjXjXjXjXjXjXjXjXjXjXjXjXjXjXjXjXjXjXjXjXjXjXjXjXkXjXjXjXMXjXjXjXjXjXjXjXjXjXjXjXjXjXoXoXoXoXoXoXoXjXoXoXoXoXoX.X.X.X.XoXoXXXXX.X.X.X.X.X.X.XXXXXXXXX.XXXXX.X.X.X.XXXXX.X.X.X.X.XXXXXXXXX.XXXXXXXXX.X.X.XoXoXoXXXoXoXoXoXXX.X.X.X.X.X.X.XoX.XOX.X.XoX.X.XOX.X.X.X.X.X.X.XXXOX X XXXXX X XXX XXXXX}.}.}.}.}.}.}.}.}.}.|.}.}.}.{.{.{.{.{.{.{.{.{.{.{._._._.Q.{.Q.Q.Q._.Q.Q.Q.W.W.W.W.Q.Q.W.W.Q.W.W.W.W.W.W.W.W.W.W.W.W.W.W.W.W.W.W.W.W.W.W.W.W.W.W.U.U.U.U.W.U.U.W.U.U.I.I.U.U.U.U.U.U.U.U.U.I.I.I.I.I.P.P.I.I.I.I.P.P.P.P.P.I.I.I.I.P.P.I.I.P.P.P.P.P.P.I.I.I.I.I.I.U.I.U.I.I.I.I.I.I.I.I.I.P.P.P.P.I.I.I.I.Y.Y.Y.Y.I.I.I.U.I.Y.I.I.I.I.I.I.U.U.I.I.U.U.U.U.I.I.I.I.I.I.I.I.I.P.P.P.P.P.P.P.P.I.I.I.I.I.I.I.I.I.I.I.I.I.I.I.U.U.U.U.I.I.I.I.U.I.I.I.I.I.P.P.I.P.P.P.Y.P.P.P.P.P.P.P.P.P.P.P.P.P.P.P.P.P.P.P.P.P.P.Y.Y.Y.Y.Y.I.I.I.I.P.P.I.P.P.P.P.P.P.P.P.P.J.G.G.G.P.P.P.P.P.P.P.P.P.P.P.P.P.P.P.P.P.P.P.G.P.P.P.P.J.P.P.J.=.=.J.=.=.=.=.=.=.=.=.;.=.;.;.;.;.;.G.G.G.G.P.G.G.G.G.P.P.K.K.Y.Y.Y.K.K.K.P.Y.P.K.K.Y.Y.Y.Y.Y.Y.I.I.W.R.R.W.W.T.W.Q.Q.Q.Q.Q.W.W.W.W.W.W.W.I.R.W.Y.I.I.U.I.I.I.I.Y.Y.Y.Y.P.P.K.J.J.J.J.J.P.=.=.=.=.=.=.=.=.=.=.=.=.=.=.=.*.=.=.=.=.=.=.=.=.=.=.=.=.=.=.=.=.=.=.=.=.=.=.=.=.*.-.-.-.-.-.-.%.%.%.*.*.*.*.*.&.=.=.=.=.=.=.=.=.=.J.J.J.P.P.J.J.J.K.P.K.K.J.J.=.=.=.=.J.J.J.J.J.J.=.=.=.=.=.=.=.=.=.=.=.=.=.=.=.=.=.=.",
"jXjXjXjXjXjXjXkXjXkXjXjXMXkXjXMXMXkXMXkXmXMXmXMXmXkXjXkXjXjXjXjXjXjXjXjXjXjXjXjXjXjXjXjXjXjXjXjXjXjXjXkXkXjXkXmXjXjXjXjXjXjXjXjXjXjXjXjXoXoXoXoXoXoXoXoXoXoXoXoX.X.X.X.X.XOXOX.X.X.X.X.XXXXXXXXX.X.X.X.X.X.X.X.X.X.X.X.X.X.X.X.X.X.XXXXXXXXXXX.X.X.X.XoXXXoXoXoXoXoXoXoXoXoXoX.XoXoX.XoXoXoXoXoXoXoXoXoXoX.X.X.X.X.X.X.XoXoXoXoX.XXXXXXXXXXXXXXXXXXXXXXXXX}.XX}.}.}.}.}.}.}.}.}.}.}.{.{.{.{.{.{.{.{.{.{._._._._.Q.Q.Q.Q.Q.Q.Q.Q.Q.Q.Q.Q.Q.Q.Q.Q.Q.Q.Q.Q.Q.W.W.W.W.W.W.W.W.W.W.W.W.W.W.W.W.W.W.W.W.W.W.W.W.W.W.W.U.U.W.W.U.U.U.U.U.U.W.U.U.U.U.U.U.I.I.I.I.I.I.I.I.I.I.I.I.I.I.I.I.I.U.I.I.I.I.U.I.I.P.P.I.I.U.I.U.U.I.I.I.U.U.I.U.U.U.U.U.U.I.I.I.I.I.I.I.U.U.U.I.U.Y.Y.U.U.U.U.U.U.I.U.I.U.I.I.U.I.U.I.U.U.U.U.I.I.I.I.I.I.I.U.I.I.I.I.I.P.I.P.I.I.I.I.I.I.I.I.I.I.I.I.I.I.I.I.U.U.U.U.I.I.I.U.I.I.I.I.I.I.I.I.I.I.P.I.I.P.P.Y.P.P.P.P.P.P.P.P.P.P.P.I.P.I.I.I.I.I.I.I.I.I.Y.Y.I.I.I.I.I.I.I.I.Y.P.P.P.P.P.P.P.P.G.P.P.P.P.P.P.P.P.P.P.P.P.P.P.P.P.P.P.Y.P.P.G.P.P.K.G.G.G.J.J.G.J.J.G.=.=.;.G.G.G.G.G.G.G.G.G.G.G.G.P.Y.Y.Y.Y.Y.Y.I.I.I.I.I.I.I.I.I.I.I.I.I.I.I.I.I.I.I.I.W.W.W.W.W.W.W.E.E.W.Q.Q.Q.Q.Q.Q.Q.Q.Q.W.Q.W.W.E.E.E.W.W.W.W.I.I.I.I.Y.Y.Y.P.P.P.P.K.J.J.J.J.P.=.=.=.=.=.=.=.=.=.=.=.=.=.=.=.=.=.=.=.=.=.=.=.=.=.=.=.=.=.=.=.=.=.=.=.=.=.=.=.=.=.=.=.=.=.=.=.=.-.=.=.=.=.=.=.=.=.=.=.=.=.=.=.=.=.J.J.P.P.P.P.P.P.K.P.G.G.J.J.=.=.=.=.J.J.G.K.J.J.J.J.=.=.=.=.=.=.=.=.=.=.=.=.=.=.=.=.",
"kXkXkXjXkXmXkXmXmXmXmXmXmXmXmXmXmXmXmXmXmXmXmXmXmXmXmXmXmXmXMXMXmXmXkXkXjXjXjXjXjXjXjXjXjXkXkXjXjXjXjXjXjXjXjXjXjXjXjXjXjXjXjXjXjXoXoXoXoXoXoXoXoX.XoXoXoXoXoXoXoXoXoX.X.XOX.X.X X.X.X.XXXXXXXXXXXXXXXXX.X.X.X.X.X.X.X.XOXOXOXOXOXOX.X.X.X.X.X.XoXoXoXoXoXoXoXoXoXoXoXoXjXoXoXoXjXoXoXoXjXoXjXoXoXoXoXoXoXoX.XoXoX.XoXoXoXoXoXoXoXoXoXoXoXoXXXXXXXXXXXXXXXXXXX}.}.}.}.}.}.}.{.}.}.}.}.}.{.{.{.{.{.{._.{._._._._._._._._.Q.Q.Q.Q.Q.Q.Q.Q.Q.Q.Q.Q.Q.Q.Q.Q.Q.Q.Q.Q.W.W.W.W.W.W.W.W.W.W.W.W.W.W.W.W.W.W.W.W.W.W.W.W.U.W.W.W.W.U.U.W.U.W.W.W.W.U.U.U.U.U.U.U.U.U.I.I.U.U.U.U.U.Y.Y.I.I.I.I.I.I.I.I.U.U.I.I.I.U.U.U.U.I.U.I.I.I.U.I.U.W.W.W.W.U.U.I.I.I.I.U.U.W.W.W.W.W.W.W.W.W.W.W.W.W.W.W.W.W.W.W.W.W.U.W.U.U.U.U.I.I.I.I.I.I.I.U.U.I.I.I.I.I.I.I.I.I.I.I.I.I.I.I.I.I.I.I.I.I.I.I.I.U.U.U.I.I.I.Y.Y.I.Y.I.I.I.I.I.U.I.I.I.I.I.Y.Y.Y.P.P.P.P.P.P.Y.I.I.I.I.I.I.I.I.I.U.I.I.I.I.I.I.Y.I.I.I.I.I.I.I.I.Y.P.Y.I.Y.Y.Y.Y.G.G.G.P.P.P.P.P.P.P.Y.P.P.P.P.P.I.P.Y.Y.Y.Y.P.Y.P.P.P.P.P.P.P.P.P.P.G.G.G.G.G.G.G.P.P.P.P.P.Y.Y.Y.Y.Y.I.I.I.W.W.W.W.W.W.W.W.W.W.W.W.W.R.W.W.W.W.W.W.W.W.W.W.Q.Q.Q.W.Q.Q.Q.Q.Q.Q.Q.Q.Q.Q.Q.Q.Q.Q.Q.W.W.W.W.W.E.E.E.W.W.I.I.Y.K.K.Y.Y.P.P.K.K.J.J.G.G.J.J.J.J.J.J.J.J.=.=.=.=.=.=.=.=.=.=.=.=.J.J.J.J.J.J.=.=.=.=.=.=.=.=.=.=.=.=.=.=.=.=.=.=.=.=.=.=.=.=.=.=.=.=.=.=.=.=.=.=.=.=.=.=.=.J.J.J.J.J.J.J.K.K.J.J.P.P.J.G.G.J.=.=.=.J.J.J.G.G.J.J.=.=.=.=.=.=.=.=.=.=.=.=.=.=.=.=.=.=.",
"mXmXmXmXmXmXmXmXmXmXmXmXmXmXmXmXmXmXmXmXmXmXmXmXmXmXmXmXmXmXmXmXmXmXmXkXjXjXjXjXjXjXkXjXjXkXkXjXjXjXjXjXjXjXjXjXjXjXjXjXjXjXjXoXoXoXoXoXoXoXoXoXoXoXoXoXoXoXoXoX.XoXoXoX.X.X.X.X.XXX.XXXoXoXXXXXXX.XXX.X.X.X.X.X.X.X.XoX.XOXOXOXoXoXoXoXoXoXoXoXjXjXjXjXjXjXjXjXjXjXjXjXjXjXkXMXMXjXjXjXjXMXjXjXjXoXoXoXoXOX.XoXoXoXoXoXoXoXoXoXjXoXoXoXoXoXoXoXXXXXXXXXXX X X}.}.}.}.}.}.}.{.}.}.}.}.}.{.{.{.{.{.{._._._._._._.Q._._.{.Q.Q.Q.{.Q.Q.Q.Q.Q.Q.Q.Q.Q.{.{.{._.Q.Q.Q.Q.Q.W.W.Q.W.Q.W.Q.Q.W.W.W.W.W.W.W.W.W.W.W.W.W.W.W.W.W.W.W.U.W.W.U.W.W.W.W.U.U.U.U.U.U.U.W.U.U.U.U.U.U.U.U.U.U.U.U.U.I.U.U.U.W.U.U.U.U.U.U.U.U.W.U.W.W.W.W.W.W.W.W.W.W.W.W.W.W.W.W.W.W.W.W.W.Q.Q.Q.Q.Q.W.Q.Q.Q.Q.W.W.W.W.W.W.Q.W.W.W.W.W.W.U.U.U.I.I.U.U.U.U.U.U.U.U.I.U.U.U.I.I.I.I.I.I.I.I.U.U.I.I.I.I.I.I.I.I.U.U.U.U.I.I.I.I.U.U.I.I.I.I.I.I.I.I.I.I.I.I.I.I.I.I.I.I.P.P.I.U.I.I.I.U.I.I.I.Y.U.U.U.I.I.I.I.Y.I.I.I.I.I.I.Y.Y.P.P.Y.I.I.I.Y.P.G.P.G.P.P.P.P.P.I.Y.Y.Y.Y.Y.Y.Y.Y.Y.Y.Y.I.Y.Y.I.Y.Y.Y.Y.H.H.Y.Y.Y.H.H.H.Y.Y.Y.Y.Y.Y.I.I.U.I.W.W.W.W.W.W.W.W.W.W.Q.Q.Q.Q.Q.W.W.W.W.E.E.E.E.W.W.W.W.W.W.W.Q.Q.Q.Q.Q.Q.Q.Q._._._._._._._._.Q.Q.Q.Q.W.W.W.W.W.W.E.E.R.R.K.K.I.I.K.K.Y.Y.P.P.P.P.J.J.G.G.J.P.J.J.J.P.J.J.J.=.=.=.=.=.=.=.=.=.=.=.J.J.J.J.J.=.=.=.=.=.=.=.=.=.=.=.=.=.=.=.=.=.=.=.=.=.=.=.=.=.=.=.=.=.=.=.=.=.=.=.=.=.=.=.=.J.J.J.J.J.J.J.G.J.K.J.J.G.J.G.G.=.=.=.=.P.J.K.K.J.J.J.J.=.=.=.=.=.=.=.=.&.=.=.=.=.=.=.=.=.",
"mXmXmXmXNXNXmXmXmXmXmXmXmXmXmXmXmXmXmXmXmXkXmXmXmXmXmXmXmXmXmXmXmXmXmXmXjXjXjXjXjXkXjXjXjXkXjXjXoXjXjXjXjXjXjXoXjXoXjXoXoXoXoXoX.X.X.X.X.X.X.XoXoXoXoXoXoXoXoXoXoXjXjXoXoXoXoXoXoXoXoXoXoXoXoXoXoX.X.X.XoXoXoXoXoXoXoXOXoXOXoXoXoXoXjXjXjXjXjXjXjXjXjXjXjXjXjXjXjXMXMXkXkXkXmXmXmXkXkXkXkXkXkXkXjXoXoXoXoXoXjXjXjXoXjXjXjXjXjXoXoXoXoXoXoXoXoX.X X X X X X X X X X}.|.|.|.|.{.}.{.{.{.{.{.{.{.{.|.{.{.{._._.{.{.{.{.{.{.{.{._.{.Q.Q.Q.Q._._.{.{.{.{.{.{.{.{._.Q.Q.Q.Q.Q.Q.Q.Q.Q.Q.Q.Q.Q.W.W.W.W.W.W.W.W.W.W.W.W.W.W.W.W.W.W.W.W.W.W.W.W.W.W.W.W.W.W.W.W.W.W.W.W.W.W.W.W.W.W.W.W.W.W.W.W.W.W.W.W.W.W.W.U.U.W.W.W.W.W.W.!.W.W.W.W.Q.Q.Q.W.Q.W.Q.W.Q.Q.Q.Q.Q.Q.Q.Q.Q.Q.Q.Q.Q.Q.Q.Q.Q.Q.Q.Q.Q.Q.Q.Q.W.W.W.W.W.W.W.W.W.W.U.I.U.U.U.I.I.I.I.U.I.I.I.U.W.I.I.I.I.I.U.I.U.U.U.U.I.I.I.U.W.W.U.I.I.I.I.I.I.I.I.U.U.U.I.U.I.I.I.U.U.I.I.U.I.I.I.I.I.I.U.U.U.U.U.W.W.U.I.I.U.U.U.I.I.Y.Y.I.Y.I.I.I.I.I.I.I.Y.Y.I.Y.Y.Y.Y.Y.Y.P.Y.Y.I.I.I.I.Y.I.U.U.U.U.I.I.I.I.I.I.I.H.I.R.T.T.T.T.W.W.W.E.Q.Q.E.Q.Q.Q.Q.Q.Q.Q.Q.Q.Q.Q.Q.Q.Q.Q.Q.Q.Q.Q.Q.Q.Q.Q.Q.Q.Q.Q.Q.Q.Q.Q.Q.Q.Q.Q.Q.Q.Q.Q.Q.Q.Q.Q._._._._._._._._._._._._._._._.Q.Q.!.W.T.W.W.W.W.E.E.E.R.I.R.I.I.Y.K.P.P.P.P.P.K.P.P.G.P.J.G.J.P.P.J.J.J.J.=.=.=.=.=.=.=.=.=.=.=.J.J.J.G.J.J.=.;.J.P.=.J.P.P.;.=.=.P.=.=.=.=.=.=.=.=.=.=.=.=.=.=.J.=.=.=.=.=.=.=.=.J.J.=.=.=.=.J.J.J.J.J.J.J.J.G.G.J.J.=.=.=.=.=.J.J.J.J.J.J.J.J.J.=.=.=.=.=.=.=.=.=.-.=.=.%.%.%.-.-.",
"NXmXmXNXNXNXNXmXmXmXmXmXmXmXmXmXmXmXmXmXmXmXmXmXmXmXmXmXmXmXmXmXkXmXmXmXjXjXjXjXjXkXjXjXjXjXjXoXoXjXjXjXjXjXoXoXoXoXoXoXoXoXoXoXoXoXoXoXoXoXoXoXoXoXoXoXoXoXoXjXjXjXjXjXjXoXjXjXjXoXoXoXjXoXoXoXoXoXoXoXoXoXoXoXoXoXoXoXoXoXjXjXjXjXkXkXjXjXkXkXjXkXjXkXmXjXjXjXmXmXmXmXkXmXmXmXmXmXkXkXkXkXkXkXkXjXjXjXjXjXjXjXjXjXoXjXjXjXoXoXoXoXoXoXoX.X.X.XXXXXXX XXX X X X XXX}.}.}.|.}.}.}.}.{.{.{.{.{.{.{.{.{.|._.'.{.{.{.{.{.{.{.{.{.{._.{._.'._.{.{.{.{.{.{.{.{.{._._.Q.Q.Q.Q.Q.Q.Q.Q.Q.Q.Q.Q.Q.Q.W.W.W.W.W.W.W.W.W.W.W.W.W.W.W.W.W.W.W.W.W.W.W.W.W.W.W.Q.W.W.W.Q.Q.W.W.W.W.W.W.W.W.W.W.W.W.W.W.W.W.W.W.W.W.W.W.W.W.W.W.!.Q.Q.Q.Q.Q.Q.Q.Q.Q.Q.Q.Q.Q.Q.Q.Q.Q.Q.Q.Q.Q.{.{.Q.Q.Q.Q.Q.Q.Q.Q.Q.Q.Q.Q.Q.Q.Q.Q.W.W.W.W.W.W.W.W.W.W.W.W.W.W.I.U.U.W.W.W.W.U.U.I.I.I.I.U.W.W.W.U.U.U.U.U.U.U.U.W.W.U.U.I.I.I.I.I.I.U.W.W.W.W.W.W.I.U.U.U.I.I.I.U.I.U.I.I.I.I.I.I.I.U.W.W.W.W.W.W.W.W.I.I.Y.I.I.Y.Y.Y.I.Y.Y.I.Y.Y.H.Y.Y.Y.U.I.Y.W.Y.Y.U.I.U.I.Y.Y.I.I.W.W.R.R.R.R.W.W.W.R.W.W.W.E.!.Q.Q.Q.Q._._._._._._._._._._.Q._._._._.Q.Q.Q._._.Q.Q.Q.Q._.Q.Q.Q.Q._.Q.Q._._._._._._._.{._._._._._._._._._._._._._._._.'._._._._.Q._._.Q.Q.Q.Q.W.W.W.W.W.E.E.W.R.I.I.I.K.K.K.K.K.K.K.K.K.P.P.G.G.G.J.K.P.P.P.J.J.J.=.=.=.J.J.=.;.=.J.=.J.J.J.J.J.P.P.J.;.G.J.J.J.P.P.;.=.=.J.=.=.=.=.=.J.J.=.=.=.=.=.=.=.=.=.=.=.J.J.=.=.=.J.=.=.=.=.=.J.=.=.J.J.J.J.G.G.G.J.J.=.=.=.=.=.=.=.=.J.K.J.=.=.=.=.=.=.=.=.%.%.&.-.-.-.*.-.-.-.-.-.",
"NXNXNXNXNXNXNXNXNXNXmXmXmXNXNXmXmXmXmXNXNXmXmXmXmXmXmXmXmXmXmXmXkXkXmXmXkXkXjXmXjXjXjXjXjXjXjXjXjXjXjXjXoXoXoXoXoXoXoXoXoXoXoXoXoXoXoXoXjXjXjXjXjXjXjXjXjXjXjXjXjXjXjXjXjXjXjXMXjXjXjXjXjXjXjXjXjXjXjXjXjXjXjXjXjXjXjXjXjXjXjXjXmXmXmXmXmXmXmXmXmXmXmXmXmXmXmXmXmXmXmXmXmXmXmXmXmXmXmXmXmXmXmXmXkXkXkXkXkXjXjXjXjXjXjXjXoXoXoXoXoXoXoXoX.X.X.X.XXXXX X X X X XXXXXXXXXXX}.}.}.|.}.}.}.}.|.}.}.}.|.}.}.}.{.|.{.{.}.|.|.|.{.{.{.{.{.{.{.{.{.|.{.}.{.{.{.{.{.{.{._.Q.Q.{.{.{.{.Q.Q.Q.Q.Q.Q.Q.Q.Q.Q.Q.Q.Q.Q.Q.W.Q.Q.Q.W.W.W.W.W.W.W.W.W.Q.Q.Q.Q.Q.Q.Q.Q.Q.Q.Q.Q.Q.Q.Q.Q.Q.Q.W.Q.Q.Q.Q.Q.Q.Q.Q.W.Q.W.Q.W.Q.Q.Q.Q.Q.Q.Q.Q.Q.Q.{.Q.{.{.{.{.{.{.Q.Q.Q.Q.Q.Q.Q.{.{.{.{.{.{.{.Q.Q.Q.Q.Q.Q.Q.Q.Q.Q.Q.Q.Q.Q.Q.Q.W.W.W.W.W.W.W.W.W.W.W.W.W.W.W.W.W.W.W.W.W.W.W.W.W.W.W.W.W.W.W.U.U.U.W.W.U.I.W.W.W.W.W.W.W.W.W.U.W.W.W.W.W.W.W.I.W.U.W.I.I.I.U.I.I.Y.Y.Y.I.I.I.T.W.W.W.W.W.W.W.W.W.Y.I.Y.I.Y.Y.I.I.I.I.I.I.I.T.T.W.W.W.W.W.W.W.W.W.W.W.W.W.T.T.T.W.W.W.Q.Q.Q.Q.Q.Q.Q.Q._._._._._.`.{.{.{.{.{.{.{.{.{.{.{.{.{._._._._._._._._._._._._._._._._.Q._._._._._._._._._._._.{.{.{.{._._._.{._._._._._._._._._._._._._._.Q.Q.Q.Q.Q.Q.Q.W.W.W.W.W.E.W.W.R.I.I.I.K.K.I.Y.Y.P.P.K.P.P.P.G.G.G.G.K.P.P.K.I.P.K.J.J.J.P.P.K.G.K.G.P.G.K.K.G.G.P.P.P.G.G.P.J.J.P.J.;.G.G.G.;.;.;.J.J.J.J.J.J.J.J.J.J.J.J.=.J.J.J.J.J.J.J.J.J.J.G.J.J.J.J.J.J.J.J.J.J.J.J.J.=.=.=.=.=.=.=.=.=.=.=.=.=.=.=.=.%.%.%.%.%.%.%.%.%.%.%.%.%.%.%.-.",
"NXNXNXNXNXNXNXNXNXNXmXmXmXNXmXmXmXkXkXmXNXmXmXmXmXmXmXmXmXmXmXmXkXkXkXkXkXkXkXjXjXkXjXjXjXjXjXjXjXjXjXjXjXoXjXoXoXoXjXjXjXoXoXoXjXjXjXjXjXjXjXjXMXkXMXkXMXkXMXMXjXmXmXmXjXjXmXmXjXjXjXjXjXjXjXjXjXjXjXjXjXjXjXjXmXmXmXmXmXmXmXmXmXmXmXmXmXmXmXmXmXmXmXmXmXmXmXmXmXmXmXmXmXmXmXmXmXmXmXmXmXmXmXmXmXkXkXkXkXkXjXjXjXjXjXjXoXoXoXjXoXoXoXoX.X.X.X.XXXXX X X X XXXXXXXXXXXXX X}.}.}.}.}.}.}.}.|.}.|.}.|.}.|.}.}.}.|.}.|.}.|.}.}.}.|.|.|.{.{.{.}.|.|.}.}.{.{.{.{.{._.{.{.{.{.{.{.Q.Q.Q.Q.Q.Q.Q.Q.Q.Q.Q.Q.Q.Q.Q.Q.Q.Q.Q.Q.Q.Q.Q.Q.Q.Q.Q.Q.Q.Q.Q.Q.Q.Q.{.{.{.Q.Q.Q.Q.Q.Q.Q.Q.Q.Q.Q.Q.Q.Q.Q.Q.Q.Q.Q.Q.Q.Q.Q.Q.Q.Q.Q.Q.Q.Q.{.{.{.{.{.{.{.{.{.{.{.{.{.{.{.{.{.{.{.{.{.{.{.{._.Q.Q.Q.Q.Q.Q.Q.Q.Q.Q.Q.Q.Q.Q.Q.Q.Q.W.W.Q.Q.W.W.W.W.W.W.W.W.W.W.W.W.W.W.W.W.W.W.W.W.W.W.W.W.W.W.W.W.U.W.W.W.T.W.W.W.W.W.W.W.W.T.W.W.W.W.W.W.W.T.T.T.W.W.T.W.W.W.W.W.T.T.T.W.W.T.W.W.W.W.W.W.W.W.W.W.W.W.W.W.W.W.W.W.W.W.W.W.W.Q.Q.Q.Q.Q.Q.Q.Q.Q.W.Q.Q.Q.W.Q.W.Q.Q.Q.Q.Q._._._._.{.{._._.{.{._.{.{.}.}.}.}.}.}.}.}.{.{.{.{.{._.{.{.{._._._._._._._._._._._._._._._._._._._._._._._._._.{.{.{.{.{.{._._._._._._._._._._._._._.{._._.Q.Q.Q.!.W.W.Q.W.W.W.W.W.W.W.R.W.W.W.I.K.K.I.Y.Y.K.K.G.K.K.K.G.P.P.Y.K.P.P.K.I.I.K.K.P.P.P.P.P.P.P.P.P.K.K.K.G.P.P.P.P.G.G.P.J.P.P.J.G.G.;.;.;.;.J.J.K.K.K.J.J.J.J.J.J.J.J.J.J.J.J.J.J.J.K.K.J.J.J.J.P.P.J.J.J.J.J.J.J.J.J.J.=.=.=.=.=.=.=.=.-.=.&.-.=.=.=.=.%.%.%.%.%.%.%.%.-.%.%.%.%.%.-.-.",
"NXNXNXNXNXNXNXNXNXNXNXNXNXNXNXNXmXmXmXmXmXmXmXNXmXmXmXmXmXmXmXmXkXkXkXkXkXkXkXkXjXjXjXjXjXjXjXjXjXjXjXjXjXjXjXjXjXjXjXjXjXjXjXjXjXjXjXkXjXjXjXjXmXjXmXmXmXmXmXmXmXmXmXmXmXmXmXmXmXkXkXkXkXkXkXkXjXkXmXmXmXkXmXmXmXmXmXmXmXmXmXmXNXNXNXmXNXmXNXmXmXmXmXmXNXmXmXNXmXmXmXmXNXNXNXNXmXmXmXmXmXmXmXmXmXmXmXmXkXkXkXkXjXjXjXjXoXoXoXjXoXoXoXoXoX.X.X.X.X.XXXXXXXXX.XXXXXXXXXXX X X X X X}. X X}.}.}.}.}.}.}.|.}.}.}.}.}.}.}.}.}.|.}.|.|.|.|.}.}.}.}.}.|.}.{.{.{.{.{.{.{.{.{.{.{.{._._._.Q._.Q.Q.{.Q.Q.Q.Q.Q.Q.Q.Q.Q.Q.Q.Q.Q.Q.Q.Q.Q.Q.Q.Q.Q.Q.Q.Q._.Q.{.{.{.{.{.{._._.{.{.{.{.{.{.{.{.{.{.{.{.{.{.{.{.{.{.{.{.Q.{.{.{.{.{.{.{.{.{.}.}.{.}.}.}.{.{.{.{.{.{.{.{.{.{.{.{.{.Q.Q.Q.Q.Q.Q.Q.Q.Q.Q.Q.Q.Q.Q.Q.Q.Q.Q.W.W.W.W.W.W.W.W.W.W.W.W.W.W.W.W.W.W.W.W.W.W.W.W.W.W.W.W.W.W.W.W.W.W.W.W.T.W.W.W.T.W.T.W.T.T.T.T.W.W.W.W.W.W.W.W.W.W.W.W.Q.Q.W.W.W.T.T.W.W.!.!.!.Q.Q.Q.Q.Q.Q._._._._._._._.Q._._.Q.Q.Q.Q.Q._._.{.{.Q.Q.Q.Q.Q.Q.Q.Q.Q.Q.Q.Q._._._._._._.{.{._.{.}.`.`.}.}.`.}.}.}.}. X}.}.}.}.}.}.}.}.{.`._.`.`._._._._.`.`._._._._._._._._._._._._._._._._.`.`.`.`.{.{.{.{.{.{.}._._._._._._._._._._._._._.Q.Q.Q.Q.Q.!.Q.Q.Q.T.W.W.W.E.E.W.W.W.R.R.R.I.K.H.H.H.H.Y.K.I.I.I.I.I.I.I.I.Y.Y.Y.Y.I.Y.Y.Y.K.K.K.Y.Y.K.K.K.P.K.K.G.G.P.P.P.K.G.P.P.P.P.J.G.G.G.G.;.G.J.J.K.K.K.K.J.J.J.J.G.G.G.J.G.G.J.J.P.P.K.K.J.J.J.J.J.J.J.J.=.=.=.J.J.J.=.=.=.=.=.=.=.=.=.=.-.=.=.-.-.-.=.*.-.-.%.%.%.%.%.%.%.%.%.%.%.%.%.%.",
"NXNXNXVXNXNXNXNXNXNXNXNXNXNXNXNXNXNXNXNXmXkXkXmXmXmXmXmXmXmXmXmXmXmXmXkXmXmXkXkXkXkXkXjXjXjXjXkXjXjXjXjXjXjXjXjXjXjXkXkXkXkXkXkXkXmXmXkXkXkXkXkXkXkXkXmXmXmXkXmXmXmXmXmXmXmXmXmXmXmXmXmXmXmXmXmXmXmXNXmXNXNXNXNXNXNXVXVXNXNXNXNXNXNXNXNXNXNXNXNXNXNXNXNXNXNXNXNXNXmXNXNXNXNXNXNXmXmXmXmXmXmXmXmXmXmXmXkXkXkXkXkXjXjXjXjXoXoXoXjXjXjXjXoXoXoX.X.X.X.XXXXX.X.X.X.X.XXX.XXX.XXX XXX X XXX XXXXX X X X}.}.}. X}. X}. X}. X}.}.}.}.}.}.|.|.|.|.|.}.}.|.|.}.{.{.{.{.{.{.{.{.{.{.{.{.{.{.{.{.{.{.{.{.{.{.{.{.{.{.{.{.{.{.{.{.{.{.{.{.{.{.Q.Q.{.{.{.{.{.{.{.{.{.{.{.{.{.{.}.}.}.}.}.}.}.}.}.}.}.}.|.{.{.{.{.}.}.{.{.{.{.{.{.}.}.}.}.}.}.{.{.{.{.{.{.{.Q.Q.Q.Q.Q.{.Q.Q.Q.Q.Q.Q.Q.Q.Q.Q.Q.Q.Q.Q.Q.Q.Q.Q.Q.W.W.W.W.W.W.W.W.W.W.W.W.W.W.W.W.W.W.W.W.W.W.W.W.W.W.W.W.W.W.Q.W.W.!.W.!.W.W.W.W.W.W.Q.Q.Q.W.Q.!.Q.Q.Q.Q.Q.Q.Q.Q.Q.Q.Q.Q.Q.!.Q.Q.Q.Q.Q.Q.Q.Q.Q.Q.Q.Q._._._._._._._.{.{.}.{.{.{.}.{.{.{.{._._._.{.{._.{.{._._._._._._._._._._._._._.{._._._._.}.}.}.}.}.`.}.}. X}. X X}.}.}.}. X}.}.}.}.}.}.{.`.`.`._._._._.`.`.`.`._._._.`.`.`._._._._._._._._._.`.`.`._._.`.{.`.}.}.{._._._._._._._._.Q.Q.Q.Q.Q.Q.Q.Q.Q.Q.!.Q.Q.Q.E.W.W.W.E.E.!.W.T.W.W.E.W.R.Y.W.W.W.W.E.W.R.W.W.W.W.W.W.I.Y.Y.I.I.I.I.Y.Y.K.K.P.K.P.K.K.P.K.K.G.G.G.P.P.K.P.P.P.P.P.J.K.J.G.G.G.J.J.P.K.K.K.K.J.J.G.J.K.J.J.P.P.J.J.J.P.P.J.J.J.J.J.J.J.J.=.=.=.=.=.J.J.J.=.=.=.=.=.=.=.=.=.=.=.=.=.-.=.=.=.=.-.-.%.%.%.%.%.%.%.%.%.%.%.%.%.%.",
"VXVXVXVXVXNXNXNXNXNXNXNXNXNXNXNXNXNXNXNXNXmXmXmXNXNXmXmXmXmXmXmXmXmXmXmXmXmXmXmXmXmXmXmXkXkXmXmXkXkXkXmXmXmXkXkXkXkXkXmXmXmXmXmXmXmXmXmXmXmXmXmXmXmXmXmXNXmXmXmXmXmXNXNXmXmXNXNXNXNXNXNXNXNXNXNXNXNXNXVXNXNXNXVXNXNXVXVXVXVXVXNXNXNXNXNXNXNXNXNXNXNXNXNXNXNXNXNXNXNXNXNXNXNXNXNXNXNXmXmXmXmXmXmXmXmXmXkXkXkXkXjXkXjXjXjXjXjXjXjXjXjXjXjXoXoXXX.X.X.X.X.X.XoXXX.XoXoX.X.X.X.XXX X XXX XXXXXXXXXXX X X X X X X X X X X X X X}. X X}.}.}.}.}.}.}.}.}.}.}.|.}.{.{.}.}.}.}.}.}.}.{.}.}.{.{.{.{.{.{.{.}.{.{.{.{.{.{.{.{.|.}.{.{.{.{.{.{.{.{.{.{.{.{.|.|.|.|.|.}.}.}.}.}.}.}.}.XXXXXXXX}.}.}.}.}.|.}.|.}.}.}.}.}.{.{.{.{.{.{.{.'.'.'.{.{._.'.Q.Q.Q.!.!.!.!.!.Q.Q.Q.Q.Q.Q.Q.Q.Q.Q.Q.Q.Q.W.Q.Q.Q.Q.W.Q.Q.W.W.W.W.W.W.W.W.W.W.W.Q.Q.Q.W.W.W.W.W.W.W.W.W.W.W.W.W.W.W.Q.Q.Q.Q.!.Q.Q.Q.Q.Q.Q.Q.Q.Q.Q.Q.Q.Q.Q.{.{.{.{._.{.{._._.{.{._._.Q._._._._._.{.{.{.{.{.{.{.}.{.{.}.}.{.}. X X X}.}.}.}.}.{.{.{.}.}.}.}.{.{.{.{._._.{._._._._._._._.{._._._._._.}.}.}.}.}.}.}.}.}.}. X X X X}.`.}.}.}.}.}.}.}.}.{.{._._._._._._._.{.}.}.{._._.{._.{._._._._._._._._._._._._._._._._._._._._._.'._._._._._.Q.Q.Q.Q.Q.Q.Q._.Q.Q.Q.Q.Q.!.Q.Q.Q.Q.Q.E.E.Q.E.E.Q.Q.Q.Q.E.Q.W.Q.Q.Q.Q.Q.Q.E.E.W.W.W.W.W.I.I.I.I.Y.Y.Y.Y.Y.K.K.K.P.K.K.K.K.K.K.K.K.K.K.K.K.K.K.K.K.P.P.P.P.J.J.J.J.K.P.K.K.K.K.J.J.K.K.K.K.P.P.P.P.K.K.P.P.J.J.G.G.=.J.J.J.J.=.=.=.=.=.J.=.=.=.=.=.=.=.=.=.=.=.=.=.=.=.=.=.=.=.%.%.-.-.=.=.=.=.=.=.=.%.=.=.=.=.",
"VXVXVXVXVXNXNXVXVXNXNXNXNXNXNXNXNXNXNXNXNXNXNXNXNXNXNXNXNXNXNXNXNXNXmXNXNXNXNXNXNXNXmXmXmXmXmXmXmXmXmXmXNXNXmXmXmXNXNXNXNXNXNXNXNXNXNXNXNXNXNXNXNXNXNXNXNXNXNXNXNXNXNXNXNXNXNXNXNXNXNXNXNXNXNXNXVXVXVXVXVXVXVXVXNXVXVXVXNXNXNXNXNXNXNXNXVXVXVXNXVXNXNXNXNXNXNXNXNXNXNXNXNXNXNXNXNXmXmXmXmXmXmXmXMXMXmXkXkXkXkXkXkXkXjXjXjXjXjXjXMXMXjXjXjXoXoXoXoX.XoXoXoXoXoXoXoXoX.X.X.X.X.XXX XXXXXXXXXXXXXXX X XXX X X X XXXXXXX X X X X X XXX}.}.}.}.}.}.}.}.}.}.}.}.}.|.}.}.}.}.}.}.}.}.}.}.}.}.}.}.}.}.}.}.|.}.}.}.}.|.}.}.|.}.|.{.{.}.}.}.}.|.|.}.|.}.}.|.}.}.}.}.XXXXXXXXXXXXXXXXXXXX}.}.}.}.|.}.|.|.|.}.{.{.{.{.'.{.{._.'._.'.Q.!.Q.'._.Q._.Q.!.!.!.Q.Q.!.!.Q.Q.Q.Q.Q.Q.Q.Q.Q.Q.Q.W.W.!.Q.Q.W.!.!.!.Q.Q.W.W.W.W.W.!.W.W.W.Q.Q.Q.Q.W.W.W.W.W.W.W.W.W.T.Q.Q.W.Q.Q.Q.Q.Q.Q.Q.Q.Q.Q.Q.Q.Q.Q.Q._._._._._.{.{.{.{.{.{.{.{.{.{.{.{.{.{.{.{.}.}.}.}.}.XXXXXXXXXX}.}.}.}.}.}. XXX X X X X X X}.}.}.}.}.}.}.}.}.}.}.{.{.{.{.{._._.'._.`.}._.}._.`.}.{.{.{.{.}.}. X}.}.}.}.}.}. X X}.`.`.`.}.}.`.`.`.`.{.{.{.`._._._._._._.{.{.}.{._._._._._._._._._._._._._._._.'._._._._._._._._._._._._._._._._._.Q.Q.Q.Q.Q.Q.Q.Q.Q.Q._._.Q.Q.Q.Q._.Q.Q.Q._._._._._.Q.Q.Q.Q.Q.E.E.Q.Q.E.W.W.W.R.I.I.I.I.I.H.Y.Y.Y.P.P.P.P.K.K.K.P.P.K.K.K.K.K.K.K.K.K.K.K.K.K.K.K.K.P.P.P.G.G.J.K.P.K.K.G.K.K.K.K.K.P.P.K.P.Y.P.P.K.K.P.P.J.J.J.=.=.=.=.=.=.=.=.=.=.=.=.=.=.=.=.=.=.&.%.%.%.%.-.=.=.=.=.=.=.=.=.=.=.=.=.=.=.=.=.=.=.=.&.=.=.=.",
"VXVXVXVXVXVXBXVXVXNXNXNXNXNXNXNXVXNXNXNXNXNXNXNXNXNXVXNXNXNXNXNXNXNXNXNXNXNXNXNXNXNXNXNXNXNXNXNXNXNXNXNXNXNXNXNXNXNXNXNXNXNXVXVXVXNXNXVXVXNXVXVXNXNXNXNXNXNXNXNXNXNXNXNXNXNXVXNXVXVXVXVXVXVXVXVXVXVXVXVXVXVXVXVXVXVXVXVXVXVXVXVXVXVXNXNXVXNXNXNXVXNXNXNXNXNXNXNXNXNXNXNXNXNXNXmXNXmXmXmXmXmXmXmXmXmXmXmXmXmXkXmXmXjXjXjXjXjXjXjXjXjXjXjXjXjXjXoXoXoXoXoXoXoXjXjXjXoXoXoXoX.X.X.XoX.X.XXXXXXX.XXX.X.XXXXXXXXXXXXX.X X X X.X.X X XXX X}.}.}. X}.}.}.}.}.}.}.}.}.}.}. X X X X X X X X}.}.}.}.}.}.}.}.}.}.}.}.}.}.}.}.}.}.}.}.|.}.}.}.}.}.}.}.}.}.}.XXXX}.}.XXXXXXXX XXXXX X}.XX}.}.}.}.}.|.}.{.{.{.{.{.'.'.Q.Q.Q.Q._.{._.'._.'._._._.Q.Q.Q.!.!.Q.Q.Q.Q.Q.Q.Q.Q.Q.Q.Q.Q.Q.Q.Q.Q.Q.Q.!.!.!.!.!.!.Q.Q.Q.W.Q.Q.Q.!.!.Q.Q.Q.Q.Q.Q.Q.Q.Q.Q.Q.Q.Q.Q.Q.Q.Q.Q.Q.Q.Q.Q.Q.Q._._._._._.'._.{.{.{.}.{.}.}.}.{.}.}.}.}.}.}.}. X}. X}. X X}.}. X X X XXXXXXXXXXXXXXXXX X X X}. X X X XXX X X X X}.}.}.|.|.`.`.`.`.`.}.}.}.}.`.`.`.'.'.}.}.}._.{.}.}.}.}.}.{.{.{.{.}.}.{.}.{.{.}.}.{.}.`.'._.'.`.}.}._.}.{.`._._._._._._._._._.{.{.{._._._._._._._.{.{._._._._._._._._._._._._._._.Q._._._.Q.Q._._._.Q.Q.Q.Q._._._._._._._._._._._._._._.Q.Q.Q._._._._._.Q.Q.E.E.W.W.W.W.W.W.W.W.W.W.I.Y.Y.Y.Y.Y.H.Y.Y.Y.K.P.P.P.Y.P.P.P.P.K.P.K.P.J.K.K.P.P.K.K.P.G.K.K.K.K.K.K.G.G.K.Y.Y.K.K.K.K.K.K.K.K.K.I.P.P.P.K.K.K.J.K.J.J.=.=.=.=.=.=.=.=.=.=.=.=.=.=.=.=.=.=.=.=.=.=.=.=.=.=.=.=.=.=.=.=.=.=.=.=.=.&.=.=.=.=.=.=.J.J.J.J.",
"VXVXVXVXVXVXVXVXVXVXVXVXVXVXVXVXVXVXVXVXVXNXNXNXVXVXVXVXVXVXVXVXVXVXVXVXNXNXNXNXNXNXNXNXNXNXNXNXNXNXNXNXNXNXNXNXNXVXNXVXVXVXVXVXVXVXVXVXVXVXVXVXVXVXVXNXVXVXVXVXVXVXVXVXVXVXVXVXVXVXVXVXVXVXVXVXVXVXVXVXVXVXVXVXVXVXVXVXVXVXVXVXVXVXVXVXVXVXNXNXNXNXNXNXNXNXNXNXNXNXNXNXNXNXmXmXmXmXmXmXmXmXmXmXmXmXmXmXmXmXmXmXmXmXkXjXkXkXkXkXkXkXjXjXjXjXjXjXoXoXjXjXjXjXjXjXoXoXoXoXoXoX.X.X.X.X.XoXoXoX.X.X.X.X.X.XXXXXXXXXXX X X XXX.XXX XXXXX X X}.}.}.}. X X X X X X X X X XXXXXXXXXXXXXXXXX X X X X XXXXXXXXXXXXXXXXXXXXXXXXX}.}.}.}.}.}.}.}.}.}.}. XXXXXXXXXXXXXXX}.}.}. X X}.}.}.}.|.}.}.}.|.{._._._.'.Q.Q.!.Q.Q.Q.Q._._._.Q._._._._._.Q._.Q.Q.Q.Q.Q.Q.Q.Q.Q.Q.Q.Q.Q.Q.Q.Q.Q.Q.Q.Q.Q.Q.Q.!.Q.!.!.Q.Q.Q.Q.Q.Q.Q.W.Q.Q.Q.Q.Q.Q.Q.Q.Q.Q.Q.Q.Q.Q.Q.Q.Q.Q.Q.Q._._._.{.{.{.{.{.{.{.}.}.}.}.}.}. X X X}.}.}.XXXXXXXX}. X X X X X X X X X X X X.X.X.X.X.XXXXX X X X X}.}. X X X X X X X X X X}.}.}.|.|.|.`.`.}.}.}.}. X}.}.}.}.}.}.}.}.}.}.|.}.}.}.}.{.{.{.}.}.}.{.{.{.{.`.{.}._._._._._._._.`.{.`.{.`._._._._._._._._._.{.{._._._._._._._.Q._.Q._._._._._._._._._._._._.Q.Q.Q._._.Q._._._._._.Q.Q.Q._._._._._._._._._._._._._._.Q.Q.Q.Q.Q.Q.Q.Q._.Q.Q.Q.E.E.Q.E.E.W.W.W.R.W.I.I.Y.Y.Y.I.Y.H.Y.I.Y.Y.Y.Y.Y.Y.P.P.K.K.K.P.K.K.K.K.K.Y.I.P.K.P.K.K.K.K.K.K.K.P.K.K.Y.Y.Y.Y.I.K.K.K.Y.K.K.P.P.K.K.K.K.J.J.K.J.J.J.=.=.=.=.=.=.=.=.=.=.=.=.=.=.=.=.=.=.=.=.=.=.=.=.=.=.=.=.=.=.=.=.=.=.=.=.=.J.J.J.J.=.J.J.J.J.J.",
"VXVXVXVXVXVXVXVXVXVXVXVXVXVXVXVXVXVXVXVXVXVXVXVXVXVXVXVXVXVXVXVXVXVXVXVXVXVXVXVXVXNXNXNXNXVXVXVXVXVXVXVXVXVXVXVXVXVXVXVXVXVXVXVXVXVXVXVXVXVXVXVXVXVXVXVXVXVXVXVXVXVXVXVXVXVXVXVXVXVXVXVXVXVXVXVXVXVXVXVXVXVXVXVXVXVXVXVXVXVXVXVXVXVXVXVXVXVXNXVXNXNXNXNXNXNXNXNXNXNXNXNXNXNXmXmXmXmXmXmXmXmXmXmXmXmXmXmXmXmXmXmXmXmXmXmXkXkXkXkXkXMXMXjXjXMXMXjXjXoXjXjXjXjXjXjXjXjXoXoXoXoX.XoX.XoXoXoXoXXXXX.X.X.X.X.X.X.X.XoX.X XXXXXXXXXXXXX XXXXX X X X X X X X XXXXXXXXXXXXXXXXXXXXXXXXXXXXXXXXXXXXXXXXXXXXXXXXXXXXXXXXXXXXXXXXXXX X}. X X}.}.}.}.}.}.}.}.XXXXXXXX}.}.}.}.|.}.}.}.}.}.}.|.|.|.|.|._.'.'.'.'.'.'.'.'.'._._._.{.{.{.{._._._._.{.{.{._.{.Q.Q.Q.Q.Q.Q.Q.Q.Q.Q.Q.Q.Q.Q.Q.Q.Q.Q.Q.Q.Q.Q.Q.Q.Q.Q.Q.Q.Q.Q.Q.Q.Q.Q.Q.Q.Q.{.{.{.Q.Q.Q.Q.Q.Q.{.{.{.Q.{.{.{.{.{.}.}.{.}.}.}.}.}.}.}.{.}.}. X X}.}.}.}.}.}.}.}.}.}. X X}. X X X X X X XXXXXXXXX XXXXX X X X X X}.}.}. X X X X X X X X X X X}.}.}.}.}.}.}.}.}.}.}.}.}.}.}.{.}.{.{.}.}.{.{.{.{.{.{.{.{.{.{.`.`.`.`.`.`.`._._._._._._._._._._._._._._._._._._._._._._._._._.Q.Q.Q.Q.Q.Q.Q.Q.Q.Q.Q._._._._._._._._._._.Q.Q.Q._._._._._._.Q.!.Q.!.Q.Q.Q.Q._._._._._._._._._._._._._._._._.Q.Q.Q.Q.Q.Q.Q.Q.Q.Q.Q.W.W.R.W.R.R.Y.Y.Y.Y.I.I.Y.Y.Y.Y.Y.Y.Y.Y.P.P.Y.G.G.G.K.K.Y.Y.K.K.Y.Y.Y.Y.K.K.K.K.K.K.P.I.P.P.K.K.K.K.I.I.Y.K.J.K.K.K.K.P.K.J.K.J.J.J.J.J.J.J.J.J.=.=.=.=.=.&.=.=.=.=.=.=.=.=.=.=.=.=.=.=.=.=.=.J.J.J.K.K.J.J.J.J.J.J.J.J.J.J.J.J.J.J.J.J.J.J.",
"VXVXVXVXVXVXVXVXVXVXVXVXVXVXVXVXVXVXVXVXVXVXVXVXVXVXVXVXVXVXVXVXVXVXVXVXVXVXVXVXVXVXVXVXVXVXVXVXVXVXVXVXVXVXVXVXVXVXVXVXVXVXHXVXVXVXDXVXDXVXVXVXVXVXVXVXVXVXHXVXVXVXVXVXVXVXVXVXVXVXVXVXVXVXVXVXVXVXVXVXVXVXVXVXVXVXVXVXVXVXVXVXVXVXVXVXVXVXNXNXNXNXNXNXNXNXNXNXNXNXNXNXNXNXmXmXmXmXmXmXmXmXmXmXmXmXmXmXmXmXmXmXmXmXmXmXkXkXkXkXkXmXMXMXMXMXMXjXjXjXjXjXjXjXjXjXjXjXjXoXoXoXoXoXoXoXoXoXoXoXXX.X.X.X.X.X.X.X.X.X X XXXXXXXXXXXXXXXXXXXXXXX X X X XXXXXXXXXXXXXXXXXXXXXXXXXXXXXXXXXXXXXXXXXXXXXXXXXXXXXXXXXXXXXXX X X X}.}.}.}.}.}.}.}.}.}.}.}.}.}.}.}.}.|.}.}.}.}.}.}.}.}.}.}.}.}.|.}.|.'.{.{.{.{.|.|.{.{.{.}.{.{.}.}.{.{.{.{.{.{.{.{.{.{.{._.Q.Q.Q.Q.Q.Q.Q.Q.Q.Q.Q.Q.Q.Q.Q.Q.Q.Q.Q.Q.Q.Q.Q.Q.Q.Q.{.{.{.{.{.{.{.{.{.{.{.{.{.{.{.{.{.{.{.{.{.{.{.{.{.{.{.{.{.{.{.{.{.{.{.{.{.}.}.}.}.}.}.}.}.}.}.|.}.}.}.}.}. X X}.}. X X X X X X X X X X X X X X X X}.}.}.}.}. X X X X X X X X X X X}.}.}.}.}.}.`.}.}.}.}.}.{.{.{._._._.{.{.}.}.{.{.}.{.}.}.}._.`.`.`._.`._._._._._._._._.Q._.Q.Q.Q._._.Q.Q.Q.Q.Q.Q.Q.Q.Q.Q.Q.Q.Q.Q.Q.Q.Q.Q.!.!.E.E.Q.Q.Q._._._._._._._.Q.Q.Q.Q.Q.Q._._._.Q.Q.Q.Q.Q.Q.Q.E.E.Q._._._._._._._._._._._._._._._._.Q.Q.Q.Q.Q.Q.W.W.E.E.W.E.W.W.R.I.I.Y.Y.Y.Y.Y.Y.K.K.K.Y.Y.P.K.P.P.G.K.H.H.H.H.H.Y.K.K.Y.Y.Y.Y.K.H.H.K.K.J.K.P.P.P.K.K.G.G.K.Y.K.K.H.K.K.K.K.P.K.J.J.J.J.J.J.G.G.J.J.J.J.=.=.=.J.=.=.=.=.=.=.=.=.=.=.=.=.&.=.=.J.J.G.J.J.K.K.K.K.K.K.J.J.K.K.J.J.K.K.J.K.J.J.J.J.K.K.",
"HXVXVXVXHXHXHXHXVXVXVXVXVXVXVXVXVXVXVXVXHXVXHXVXVXVXVXVXVXVXVXVXVXVXVXVXVXVXVXVXVXVXVXVXVXVXVXVXVXVXVXVXVXVXVXVXVXVXVXVXVXVXVXHXHXHXHXHXDXHXHXVXHXVXVXVXVXVXHXVXHXVXHXVXHXVXHXHXVXVXVXVXVXVXVXVXVXVXVXVXVXVXVXVXVXVXVXVXVXVXVXVXVXVXVXVXVXVXVXNXNXNXNXNXNXNXNXNXNXNXNXNXNXmXmXNXmXmXmXmXmXmXmXmXmXmXmXmXmXmXmXmXmXmXmXmXkXkXkXkXmXMXMXMXMXMXjXjXoXjXjXjXjXjXjXoXjXjXjXjXoXoXoXoXoXoXoXoXoXoX.X.X.X.X.X.X.X.X.X.XXXOXOXXXXXXXXXXXXXXX X XXXXXXXXXXXXXXXXXXXXX.XXX X X X XXXXXXXXXXXXXXXXXXXXX X X X X X X X X X XXX X X X X}.}.}.}.}.}.}.}.}.}.}.}.}. X X}.|. X X X X XXX XXX X X X}.}.}.|.|.}.|.}.|.}.|.}.|.}.}.}.}.}.|.{.}.{.{.{.|.{.{.{.{.{.{.'.{._.{.{.{._._._._._._._._.{.{.{.{.{.Q.Q.{.{.{.{.{.{.{.{.{.{.{.{.{.{.{.{.{._._.Q._._._._.{._._._.{.{._.{.{.{.{.{.{.{.{.}.}.}.}.}.}.}.}.}.}.}.}.|.}.}.}.}.}.}. X}.}. X X X X X X X X X X X X X|.}.}.}.}.}.}.}.}.|.}. X}.}.}.}.}.}.}.}.}.}.`.|.|.}.}.}.}.}.}.{.{.`._._._._.{.{.{._._._._._._._._._._._._._._._._._.Q.Q.Q.Q.!.Q.Q.Q.Q.Q.Q.Q.E.E.E.Q.Q.Q.Q.E.E.E.E.Q.E.E.Q.Q.E.E.E.Q.Q.Q.Q.Q.Q.'.'._._._.Q.Q.!.!.!.Q.Q.Q._._._.Q.Q.Q.Q.Q.Q.!.!.Q.Q._._.Q._._._._._._._._._.Q.Q.Q.Q.Q.Q.W.W.W.W.R.R.I.I.I.I.I.Y.H.G.G.P.P.P.P.K.K.G.K.K.P.K.K.K.K.G.K.H.H.H.H.K.I.I.K.I.I.K.H.H.H.H.K.K.K.K.P.P.K.K.K.K.K.K.K.K.K.K.G.K.K.K.G.G.K.K.G.J.J.J.G.G.G.J.K.K.J.J.J.K.K.J.J.=.J.=.=.=.=.=.=.=.=.G.J.J.J.G.J.G.K.K.K.G.K.K.K.K.J.K.K.K.K.J.G.G.G.G.J.J.H.K.",
"HXHXHXVXHXHXHXHXHXVXVXVXVXVXVXVXVXVXHXVXHXHXHXVXHXHXHXVXHXVXVXVXVXVXVXVXVXVXVXVXVXVXVXVXVXVXVXVXVXVXVXVXVXHXVXVXVXVXVXVXVXHXHXVXHXHXHXHXDXHXHXHXHXHXVXVXVXHXHXHXHXHXHXVXHXHXHXHXVXVXVXVXVXVXVXVXVXVXVXVXVXVXVXVXVXVXVXVXVXVXVXVXVXVXVXVXVXVXNXNXNXNXNXNXNXNXNXNXmXmXmXmXmXmXmXmXmXmXmXmXmXmXmXmXmXmXmXmXmXmXmXmXmXmXkXkXkXkXkXmXmXMXMXMXjXjXjXjXjXjXjXjXjXjXjXoXjXjXoXjXoXoXoXoX.X.XoXoXoXoXoX.XoX.X.X.X.X.XXXXXOXXXXXXXXXXXXXXXXX X X XXXXXXXXX X XXXXXXXXXXXXXXX X XXXXXXXXXXXXX XXXXX X X X X X X X XXXXXXXXXXX X X X}.}.}.}.}.}.}.}.}.}.}.}.}. XXX X X X X X XXXXXXXXXXXXXXXXX X X X XXXXXXX}.}.XXXX X}.}.}.}.}.{.}.}.}.{.{.}.{.{.}.}.{.{.{.{.{.{.{.{.{.{.{.{._._.{.{.{.{.{.{.{.{.{.Q.Q.Q.{._.{.{._._._._._.Q.Q.Q.Q.Q.Q.Q.Q.Q.Q._.Q._._._._.'._._._._._.{._.{.{.{.{.}.{.}.}.}.}.}.}.}.}.`.}.|.}.}.}.}.}.}.}.}. X X X X X X X X X X X}.|.|.|.|.|.}.}.}.}.}.}.|. X}.}.}.}.}.}.}.}.}.}.`.`.|.|.}.}.}.}.}.`.}.{._._._._._._._._._._._._._._._._._._.Q.Q._._.Q.Q.Q.Q.Q.!.!.!.Q.Q.Q.Q.Q.Q.E.E.E.E.Q.Q.Q.Q.E.E.E.E.W.W.W.E.E.!.T.E.Q.Q.Q.Q._.Q.Q._.'.Q.Q.Q.Q.Q.Q.Q.Q.Q.Q._._.Q.Q.Q.Q.Q.Q.Q.E.E.Q.Q.Q.Q.Q.Q.Q.Q.Q.Q.Q.Q.Q.Q.Q.Q.Q.W.W.W.W.W.R.I.I.I.I.Y.K.Y.H.G.G.G.G.G.G.P.K.K.G.G.K.Y.Y.P.K.K.Y.K.Y.Y.H.K.K.Y.I.I.I.I.K.H.H.G.H.K.G.K.K.J.K.K.K.K.K.K.K.K.K.G.K.K.H.G.G.G.G.G.G.G.G.G.G.G.G.G.K.K.K.K.K.G.J.K.K.K.J.J.J.G.=.J.=.=.G.G.G.G.J.G.G.G.G.G.K.K.K.K.K.K.H.G.J.G.K.K.K.H.G.G.H.H.K.H.K.Y.",
"HXHXHXHXHXHXHXHXHXHXHXHXHXHXHXHXVXHXHXHXHXVXHXVXHXHXHXHXHXHXHXVXHXVXHXVXVXVXVXVXVXVXHXVXVXVXVXVXVXVXHXHXHXHXHXVXHXHXHXHXHXHXHXHXHXHXHXHXHXHXHXHXHXHXHXHXHXHXHXHXHXHXHXVXVXHXVXHXVXVXVXVXVXVXVXVXVXVXVXVXVXVXVXVXVXVXVXVXVXVXVXVXNXNXNXNXNXNXNXNXNXNXNXNXNXNXNXmXmXmXmXmXmXmXmXmXmXmXmXmXmXmXmXmXmXkXmXmXmXmXmXmXkXkXkXkXjXjXkXkXmXjXjXjXjXjXjXkXjXjXMXjXjXjXjXjXjXjXjXjXoXoXoXoXoXoXoXoXjXjXoX.XoXoXoX.X.X.X.XOXXXXXXXXXXXXXXXXX.XXXXXXXXXXXXXXX.X.X.X.XXXXXXXXX.XXX X.XXX.XXXXX X X X X X X X XXX X X XXXXXXXXX X X X X}. X X}.}.}.}.}. X X X X X X XXXXX X X XXXXXXXoXoX+XoXoXoXoXXXXXXXXXXXXXXXXXXXXX X X X}.}.}.}.}.}.}.}.}.}.}.}.}.}.}.}.}.}.{.{.{.{.{.{.{.{.{.{.{.{.{.{.{.{.{.{.Q.Q.Q.Q.Q.Q._._._._._._._._.'.'.'.{.'.{.{.Q._._._._._._._._._.{._._.{.{.{.{.{.{.{.}.{.}.}.}.}.}.}.}.}.}.}.|.|.}.}.}.}.}.}. X X X X X X X X X X X}.}.`.`.}.}.}.}.}.}.}.}.}.|.}.}.}.}.}.}.}.}.}.}.}.}.`.`.}.|.}.}.}.}._._.}._._._._.Q.Q.Q.Q.Q.Q.Q.Q.Q.Q.Q.Q.Q.Q.Q.Q.Q.Q.Q.Q.Q.Q.E.Q.W.W.W.W.Q.Q.Q.W.W.W.E.W.W.W.W.W.E.E.W.W.W.W.W.W.W.T.R.E.Q.Q.Q.Q.Q.Q.Q.Q.Q.Q.Q.Q.Q.Q.Q.Q.Q.Q.Q.Q.Q.Q.Q.Q.Q.Q.Q.Q.Q.Q.W.Q.Q.W.W.W.W.W.W.W.W.W.W.W.W.W.W.I.Y.I.I.I.I.Y.I.Y.Y.K.G.K.K.G.G.K.J.J.K.K.K.K.G.G.K.K.K.K.K.Y.Y.K.K.P.K.K.K.Y.K.Y.Y.Y.K.G.K.K.K.G.G.G.K.K.H.G.G.K.H.K.K.G.G.G.K.Y.K.H.H.H.H.G.H.G.G.G.G.G.G.G.G.G.K.K.K.K.K.K.K.G.K.K.K.K.K.K.J.G.J.G.G.G.G.G.H.K.H.K.I.I.I.K.K.K.K.K.K.H.K.K.K.K.K.I.R.I.I.I.R.I.",
"HXHXHXHXHXHXHXHXHXHXHXHXHXHXHXHXHXHXHXHXHXHXHXHXHXHXHXHXHXHXHXHXHXHXHXHXVXVXHXVXVXVXVXVXHXHXHXHXHXHXHXHXHXHXHXHXHXHXHXHXHXHXHXHXHXGXHXHXHXHXHXHXHXHXHXHXHXHXHXHXHXHXHXVXVXVXVXVXVXVXVXVXVXVXVXNXBXBXBXVXVXVXVXVXVXVXBXNXNXNXBXBXNXNXNXNXNXNXNXNXNXNXNXNXNXmXmXmXmXmXmXmXmXmXmXmXmXmXmXkXkXkXmXmXkXkXjXjXjXjXjXjXjXjXjXkXjXjXkXkXkXjXjXjXjXjXjXjXjXjXjXjXjXjXjXjXjXjXjXjXoXoXoXoXoXoXoXoXjXjXoXoXoXoXoXoX.X.X.X.X.X.XXXXXXXXXXXXX.X.X.X.XXXXXXX.X.X.X.X.XXXXX.X.X.XOX X XXXXXXX X X X X X X X X X X X X X XXX XXXXXXXXX X X X X X}.}. X X X X XXXXX X XXX.X.X.X.XoXoXoXoXoXoXoXoXoXoXoXoXoXoXXXoXXXXXXX X X X X X}.}.}.}.}.}.}.}.}.}.}.}.}.}.}.}.}.}.}.{.{.{.{.{.{.{.{.{.{._._._.{.{.{.Q.Q.Q.{._._.{.{._._._._._._.'.'._.{.'.'._._._._._.{.{._._._.{.{.{.{.{.{.{.{.{.{.}.}.}.{.}.}.}.}.}.}. X X X X}.}.}. X X X X X X X X X X X X}. X X}.}.`.}.}.`.`.}.}.}.}.}.}.}.}.}.}.|.|.}.}.`.}.}.}.`.`.`.`.|.'._._._._._._._._._._.Q.Q.Q.Q.Q.Q.Q.Q.Q.Q.Q.Q.Q.Q.Q.Q.Q.Q.Q.Q.Q.Q.Q.W.W.W.W.W.W.W.W.W.W.W.W.W.W.W.W.W.W.W.W.W.W.W.W.W.R.R.R.E.W.E.Q.Q.Q.Q.Q.Q.Q.Q.Q.Q.E.Q.Q.Q.Q.Q.Q.Q.Q.W.Q.Q.Q.W.W.R.R.R.W.W.W.I.I.I.I.Y.Y.Y.I.Y.H.H.H.H.K.H.H.H.H.H.G.G.G.G.K.G.G.Y.Y.K.K.K.G.J.K.J.K.G.K.K.K.K.K.K.K.K.Y.K.K.K.K.G.K.K.Y.Y.Y.K.H.G.K.K.K.G.G.H.K.K.K.K.K.I.K.K.K.K.H.Y.I.R.I.Y.T.T.Y.K.K.Y.I.I.Y.H.H.H.H.Y.Y.I.I.I.I.Y.H.H.I.I.R.R.I.R.I.K.K.K.K.H.H.H.K.I.K.R.R.W.R.I.I.I.R.I.I.Y.I.I.R.R.W.E.E.E.W.R.W.W.",
"HXHXHXHXHXHXHXHXHXHXGXGXHXHXHXHXHXHXHXHXHXHXHXHXHXHXHXHXHXHXHXHXHXHXHXHXHXHXHXHXHXHXHXHXHXHXHXHXHXHXHXHXHXHXHXHXHXHXHXHXDXHXHXHXHXVXHXHXHXHXHXHXHXHXHXHXHXHXHXVXVXVXVXVXVXVXVXVXVXVXVXVXVXVXVXVXNXVXNXNXNXNXNXVXVXVXVXVXNXNXNXNXNXNXNXNXNXNXNXNXNXNXNXNXNXNXNXNXmXmXmXmXmXmXmXmXmXkXkXkXkXkXmXmXmXkXkXkXkXjXjXkXjXkXkXkXkXmXkXkXkXkXlXlXjXkXkXmXkXjXjXjXjXjXjXjXjXjXjXjXjXjXoXoXoXoXjXjXjXoXoXoXoXoXoXoXoX.X.X.X.X.X.X.XXXXXXXoX.X.X.X.X.X.X.X.X.X.X.X.XXXXXXX.X.XXXXXXXXX XOXOX X X XXXXXXX X X X X X X XXX.XXX X XXXXX X X X X X X XXX X X X X XXX.XOXOX.X.X.XoXoXjXjXjXjXoXoXoXoXoXoX.XoX.X.XXXXXXX X X}.}.}. X}.}.}.}.}.}.}.}.}.}.}.}.}.}.}.}.}.}.}.{.}.{.{.{.{.{.}.{.{.{.{._._.{.{.{._.{.{.{.{._.{.{.{._._._._._._.{._._.{._.{.{.{.{.{.{.{.{.{.{.{.{.{.{.{.|.|.}.}.}.}.}.}.}.}. X X X X X X X X X}. X X X X X X X X X X X X}.}.}.}.}.}.}.}.}.}.}.}.}.}.}.}.}.}.}.|.|.|.|.`.}.`.`.`.}.}.}.`.}.}.}.}.}.}._.{._._._._.Q.Q.Q.Q.Q.Q.Q.Q.Q.Q.Q.Q.Q.Q.Q.Q.Q.Q.Q.Q.Q.Q.W.W.W.W.W.W.W.W.W.W.W.W.W.W.W.W.W.W.W.W.W.E.E.E.W.W.W.W.E.W.Q.E.W.W.Q.Q.Q.Q.Q.E.W.W.E.E.E.E.E.W.W.W.W.W.R.W.I.I.I.I.Y.Y.Y.Y.Y.G.G.Y.G.G.K.G.K.K.K.P.P.P.H.H.G.H.H.H.H.H.H.G.H.H.G.G.K.K.K.K.K.K.K.K.K.H.K.I.K.I.I.I.K.I.I.I.I.Y.K.K.I.I.I.I.R.I.I.I.I.I.K.H.R.R.R.T.T.R.R.R.K.K.Y.Y.T.T.R.W.R.R.W.R.R.R.R.W.E.E.E.R.W.W.E.E.E.E.E.E.E.E.E.E.E.E.E.W.Q.Q.E.R.R.I.K.K.K.K.R.R.E.E.R.R.R.R.R.T.R.R.R.R.R.T.T.R.E.E.E.W.E.W.E.W.",
"HXHXHXHXHXHXHXHXHXHXHXHXHXHXHXHXHXHXHXHXHXHXHXHXHXHXHXHXHXHXHXHXHXHXHXHXHXHXHXHXHXHXHXHXHXHXHXHXHXHXHXHXHXHXHXHXHXHXHXHXDXDXHXHXHXVXHXVXHXVXVXHXVXVXVXVXVXVXVXVXVXVXVXVXVXVXVXVXVXVXVXVXVXVXNXNXNXNXNXNXNXNXNXNXNXNXNXNXNXNXNXNXNXNXNXNXNXNXNXNXNXNXNXmXmXNXmXkXmXmXmXmXmXmXmXmXmXmXkXmXmXmXmXmXmXmXmXkXkXkXkXkXkXkXkXmXmXmXmXmXmXkXkXjXkXkXmXmXmXkXjXjXjXjXjXjXjXjXjXjXjXoXOXoXoXoXjXjXjXjXoXoXoXoXoXoXoXoX.X.X.X.X.X.XXXXXXX.X.X.X.X.X.X.X.X.X.X.X.X.XXXXXXX.XXXXXXXXXXX X XOX X X XXX X X X X X XXXXXXX.X.X.X.X.XXXXX X X X X X X X X X XOXXXXX.XOX.X.X.X.XoXoXjXjXjXjXjXoXoXoXoXoXoXoXoX.X.XXXXXXX X X X X}. X X X X X}.}.}.}.}.}.}.}.}.}.}.}.}.}.}.}.}.}.{.{.{.{.}.{.{.{.{.{.{.{.{.{.{.{.{.{.{.{.{.{.{.{.{.{.{.{.{._._._.{.{.{.{.{.{.{.{.{.{.{.{.{.{.{.{.}.}.|.}.}.}.}.}.}.}. X X X X X X X X X X X X X X X X X X X X X}.}.}.}. X}.}.}.}.}.}.}.}.}.}.}.}.}.}.}.}.`.`.`.`.`.`.`.`.`.}.}.}.{._._.'.}.}.}._._._._._.Q.Q.Q.Q.Q.Q.Q.Q.Q.Q.Q.Q.Q.Q.Q.Q.Q.Q.Q.Q.Q.W.W.W.W.W.W.W.R.W.W.W.W.W.W.T.T.W.W.W.W.W.W.E.E.W.E.W.W.W.W.W.W.E.E.W.W.Q.Q.Q.Q.W.W.W.W.R.R.R.I.I.Y.I.I.I.Y.H.I.Y.Y.Y.Y.G.G.G.K.P.G.G.G.G.G.G.G.J.K.K.K.K.G.G.G.H.H.Y.H.H.H.H.H.H.H.H.Y.Y.Y.K.I.K.K.I.I.I.I.I.I.I.R.R.R.R.W.W.R.R.I.K.K.R.R.R.T.W.R.R.R.T.R.R.R.R.E.E.W.W.Q.Q.Q.W.W.W.W.W.W.E.E.E.E.E.Q.E.Q.Q.E._.Q.Q.Q.Q.Q.Q.Q.Q.Q.Q.Q.E.E.E.E.E.Q.Q.Q.Q.Q.E.E.E.W.R.R.R.R.R.R.E.E.E.E.E.E.R.R.R.R.R.W.R.R.W.E.E.E.W.W.W.W.W.R.",
"HXHXHXHXHXHXHXHXHXHXGXHXHXHXHXHXHXHXHXHXHXHXHXHXHXHXHXHXHXHXHXHXHXHXHXHXHXHXHXHXHXHXHXHXHXHXHXHXHXHXHXHXHXHXHXHXHXHXHXHXHXHXHXHXVXVXVXVXVXVXVXVXVXVXVXVXVXVXVXVXVXVXVXVXVXVXVXVXVXVXVXVXVXVXVXVXVXVXNXNXNXNXNXNXNXNXNXNXNXNXNXNXNXNXNXNXNXNXNXNXmXNXmXmXNXNXmXmXmXmXmXmXmXmXmXmXmXmXmXmXmXmXmXmXmXmXmXmXmXmXmXmXmXmXmXmXmXmXmXmXmXmXkXmXmXmXmXmXmXmXkXjXkXkXkXkXMXjXjXjXjXjXoXoXoXoXoXoXjXjXjXjXjXjXoXoXoXoXoXoX.X.X.X.X.X.X.X.XoXoX.X.X.X.XXXXXXXXXXXXXXXXXXXXX X XXX X X XXXXX XXX X XXXXXXXXX X XXXXXXXXXXXXXXXXXXXXX X X X X X X X X X XXXXX.X.X.X.X.X.XoXoXoXoXjXjXjXoXoXoXoXoXoXoXoXXX.X.X X X X X X X}.}.}.}.}.}.}.}.}.{.}.}.}.}.}.}.}.}.{.{.{.{.{.}.}._._._._._.{.{.{.{.{.{.{.{.{.{._._._.{.{.{.{.{.{.{._._._._.{._._._._._.}.}.{.{.{.{.{.|.}.|.{.}.{.}.|.|.|.|. X}.}.}.}. X X X X X X X X X X X X X X X X X X X X}.}. X|.|.}.}.}.}.}.}.}.}.}.}.`.`.`.`.}.|.`.`.`.`.`.`.`.}.}.`.`.}.}.}.}.}.}.}.{.{.{.{.{._._.Q.Q.Q.Q.Q.Q.Q.Q.Q.Q.W.E.E.Q.Q.Q.Q.Q.W.W.W.W.W.W.W.E.E.W.I.W.W.W.W.W.T.T.T.W.T.T.T.R.R.W.W.W.W.W.W.W.W.W.W.E.E.W.W.W.W.W.W.W.W.R.R.I.I.K.H.K.H.K.K.H.H.H.K.H.H.G.G.G.G.G.G.G.G.G.G.G.G.G.G.G.G.K.K.Y.Y.Y.Y.K.Y.R.T.T.I.W.W.R.I.R.W.I.I.I.I.I.I.W.W.R.R.R.R.R.W.W.R.R.W.W.R.W.W.W.W.E.E.E.!.E.E.E.E.!.E.E.E.E.Q.Q.Q.Q.Q._._.Q.Q.Q.Q.Q.Q.Q._._._._._._._._._._._._._._._._._.Q.Q._.Q.Q.Q.Q.E.E.Q.Q.Q.Q.Q.Q.E.E.W.R.W.W.W.W.W.R.W.E.E.E.E.R.R.R.R.R.R.R.R.R.W.E.W.R.T.R.W.R.T.",
"HXHXHXHXHXHXHXHXHXHXHXHXHXHXGXGXHXHXHXHXHXHXHXHXHXHXHXHXHXHXHXHXHXHXHXHXHXHXHXHXHXHXHXHXHXHXHXHXHXHXHXHXHXHXHXHXVXHXHXHXHXHXHXVXVXVXVXVXVXVXVXVXVXVXVXVXVXVXVXVXVXVXVXVXVXVXVXVXVXVXVXNXVXVXVXNXVXNXNXNXNXNXNXNXNXNXNXNXNXNXNXNXNXNXNXNXNXNXNXNXmXNXNXNXNXNXNXNXmXmXmXmXmXmXmXmXmXmXmXmXmXmXmXmXmXmXmXmXmXmXNXNXmXmXmXmXmXNXNXNXNXmXmXmXmXmXmXmXmXmXmXmXkXmXkXkXMXMXjXjXjXjXjXjXjXoXoXoXjXjXjXjXjXjXjXoXoXoXoXoX.X.X.X.X.XoXoX.XoX.X.X.X.X.XXXXXXXXXXXXXXXXXXXXX X X X X X XXXXX XXXXXXXXXXXXXXXXXXXXXXXXXXXXXXXXXXXXXXX X X X XXX X XXX XXX.X.X.X.X.XoXXXoXoXoXoXoXoXoXoXoXoX.X.XoX.X.XXXXX X X X X X X X}.}.}.}.}.}.}.}.}.}.}.}.}.}.}.}.}.}.}.}.}.{.{.{.{._._._._._.{._._._._._._._._._.{._._.{.{.{.{.{._.{.{._._._._._._.{.{._.{.}.{.}.`.}.}.}.}.}.}.}.}.}.}.|.|. X}. X X X X X X X X X X X X X XXXXX X X X X X X X X}.}. X X X X}.|.`.|.}.}.}.}.}.`.`.`.`.`.|.|.`.`.`.`.`.`.}.}.}.}.`.`.}.}.{.}.}.}.{.{.{.{.{.{._.Q.Q.Q.Q.Q.Q.Q.Q.Q.Q.W.E.E.Q.Q.Q.Q.Q.Q.Q.Q.E.E.W.W.E.W.W.R.R.R.W.W.W.W.W.T.W.W.W.W.R.W.W.W.W.W.W.W.W.W.W.W.W.W.W.W.W.W.W.W.T.T.T.K.K.H.H.H.H.H.H.H.H.H.H.H.H.H.H.H.H.H.G.H.H.H.H.H.Y.Y.H.Y.K.Y.I.I.U.W.W.E.W.W.E.E.W.W.Q.Q.Q.Q.Q.Q.W.W.W.R.W.W.W.W.W.W.W.T.T.W.W.W.E.E.E.E.Q._._._._._._._.`._._._._._._._._._._._._._._._._._._._._._._._._._._._._._._._._._._._._._._._.Q.Q.Q.Q.Q.Q.E.E.E.E.E.E.Q.E.E.E.R.W.W.E.E.R.W.E.R.R.W.W.R.W.R.R.R.R.R.R.R.R.T.T.R.T.T.T.T.R.T.T.",
"HXHXHXHXHXHXHXHXHXHXHXHXHXHXHXGXHXHXHXHXHXHXHXHXHXHXGXHXHXHXHXHXHXHXHXHXHXHXHXHXVXVXHXHXHXHXVXVXVXVXVXVXVXVXDXDXVXVXVXVXVXVXVXVXVXVXVXVXVXVXVXVXVXVXVXVXVXVXVXVXVXVXVXVXVXVXVXVXVXNXVXVXVXVXVXVXNXNXNXNXNXNXVXNXNXNXNXNXNXNXNXNXNXNXNXNXNXNXNXNXNXNXNXNXNXNXNXNXmXmXmXmXmXmXmXmXmXmXmXmXmXmXmXmXmXmXmXmXmXmXNXmXmXmXmXmXmXmXmXmXmXmXNXNXNXNXNXmXmXmXmXmXmXmXkXkXMXMXjXjXjXjXjXjXjXjXjXoXjXjXoXjXjXjXoXoXoXoXoX.XXX.X.X.XoXoXoXoX.X.XXXXXXXXXXX.XXXXXXXXXXXXXXXXXXXXXXXXXXX X X X XXXXXXXXXXXXXXXXXXXXXXXXXXX.XXX X XXX XXXXX X X X X X XXX XXXXXXXXXXXXXXXXXXXoXXXXXXX.X.XXXXXXXXXXXXXXX X X X}.}.}.}.}.}.}.}.}.}.}.}.}.}.}.}.}.}.}.}.}.}.}.{.{.{.{.{.{.{.{.{.{.{.{.{._._.{._.{._._._._._._._._.{.{.{._.{._.{.{._.{.{.}.}.}.}.}.}.}.}.}.}.}.}.}.}.}.}.}. X X X X X X X X X X X X X X X X XXX XXX X X X X X X X X X X X X X X X X X X X}.|.|.}. X X X}.}.|.}. X X`.`.`.}.}.}.}.}.}.}.}.}.}.}.}.}.}.{.}.}.{.{.{.{.{.{._.Q.Q.Q.Q.E.W.W.W.Q.Q.Q.Q.Q.E.E.E.W.W.Q.Q.Q.E.W.W.W.W.W.W.W.R.R.R.R.W.W.T.T.T.T.T.W.R.W.W.W.Q.Q.E.W.W.E.E.T.R.T.T.T.T.T.T.T.T.T.~.H.H.H.H.K.K.K.K.K.K.K.Y.Y.Y.T.T.T.R.R.R.R.T.W.R.R.W.R.I.W.E.E.W.Q.Q.Q.Q.Q.Q._._._.Q.Q.Q._._.Q.Q.Q.Q.Q.E.E.Q.Q.Q.Q.Q.Q.E.T.E.E.Q.Q.Q._._._._._._.`.`.`.`.`.}.`.`.`.`.`.`.{._._._._._._._._._._._._._._._._._._._._._._._._._._._.'._._._.E.Q.Q.Q.E.E.E.E.E.E.E.E.E.E.E.W.R.R.W.E.E.W.R.W.E.R.W.E.W.W.W.W.R.T.R.R.R.R.R.R.R.T.R.R.R.R.R.R.T.",
"HXHXHXHXHXHXHXHXHXHXHXHXHXHXHXHXHXHXHXHXHXHXHXHXHXHXHXHXHXHXHXHXHXVXHXHXHXHXVXVXVXVXVXVXVXVXVXVXVXVXVXVXVXVXVXVXVXVXVXVXVXVXVXVXVXVXVXVXVXVXVXVXVXVXVXVXVXVXVXVXVXVXVXVXVXVXVXVXNXNXVXVXVXVXVXNXNXNXNXNXNXNXNXNXNXNXNXNXNXNXNXNXNXNXNXNXNXNXNXNXNXNXNXNXmXmXmXmXmXmXmXmXmXmXmXmXmXmXmXmXmXmXmXmXmXmXmXmXmXmXmXmXmXmXmXmXmXmXmXmXmXmXmXmXmXmXmXmXmXmXmXmXmXkXkXMXMXjXjXjXMXjXjXjXjXjXoXoXjXjXjXjXjXjXoXoXoXoX.X.X.X.X.XXXoXoX.X.X.XXXXXXXXXXX.X.XXXXXXXXXXX X X X X XXXXX X X X X XXXXXXXXXXXXXXXXXXX X XXXXXXXXX X X X X X X X X X X X XXX XXXXXXXXXXXXXXXXXXXXXXX X X X X X X X X X}.}.|.|.}.}.}.}.}.}.}.}.|.}.{.}.}.}.}.}.}.{.}.}.}.}.}.}.{.{.}.{.}.{.{.{.{.{.{.{._._._._._._._._._._._._.`._.{.{._._.{.{.{.}.}.}.}.}.}.}.}.}.}.}.}.}.}.|.}. X X X X XXX.X.X.X X X X X X X X X X X X XXXXXXX.XXX.X.X X X X X X X X X X X X X X X X X X X X X X X X X}.}. X XXX X X X X X X X X}. X}.}.}.}.}.}.}.{.}.}.{.{.{.{._._._._.Q.Q.Q.Q.W.W.W.W.Q.Q.Q.E.W.W.R.W.W.W.W.W.W.W.T.T.R.R.R.W.R.R.R.R.W.T.T.T.T.T.W.W.W.W.W.W.E.E.E.W.E.Q.Q.E.E.W.E.W.W.T.T.T.T.T.T.T.T.Y.T.T.T.T.W.W.W.W.E.W.E.E.E.Q.Q.Q.Q.E.Q.Q.Q.Q.Q.E.W.W.Q.Q.Q.Q._._._._._._._._._._._._._._._._._._._.Q._._._.Q._._._.!._._._._._._._._._._.`.`.`.`.`.}.}.}.`.`.`.{.`.`.`.`._._._._._._._._._._._._._._._._._._._._._._._.'.'._._._._.E.Q.E.E.E.E.E.E.E.E.E.E.E.E.E.R.R.R.R.E.E.R.R.R.W.W.E.E.R.R.W.W.R.T.R.R.R.R.R.R.R.R.R.E.R.R.R.R.R.",
"HXHXHXHXHXHXHXHXHXHXHXHXHXHXHXHXHXHXHXHXHXHXHXHXHXHXHXHXVXVXVXHXVXVXVXVXVXVXVXVXVXVXVXVXVXVXVXVXVXVXVXVXVXVXVXVXVXVXVXVXVXVXVXVXVXVXVXVXVXVXVXVXVXVXVXVXVXVXVXVXVXVXVXNXNXNXNXNXNXNXNXNXNXNXNXNXNXNXNXNXNXNXNXNXNXNXNXNXmXmXmXmXmXmXmXmXmXmXmXmXmXmXmXmXkXkXkXmXmXmXmXmXmXmXmXmXmXmXkXkXkXkXkXmXmXkXkXkXkXkXkXkXkXkXkXkXkXkXmXmXmXmXmXmXkXmXmXmXmXmXmXjXjXjXjXjXjXjXjXjXjXjXoXoXoXoXoXoXoXoXoXoXoXoX.X.XoX.X.X.X.X.XXXXX.X.X.X.XXX X X X X XXXXXXX X XXX X X X X X X X X X XXX X X XXXXXXXXX X XXX X X X XXX X X X X X X X X X X X}. X X XXX X X X}. X}. X}. X}. X}.}.|.}.|.}.|.}.|.|.|.}.}.}.{.{.{.}.}.}.}.}.}.{.{.}.{.{.{.{.{.{.{.{.{._.{.{.{.{.{.{.{._._.{.{.{.{.{.{._._.Q.Q._.{.{._._._.}._.}.{.}.}.}.}.}.}.}.}.}. X X X X}. X X X}. X X X X X X X.XXX.XXX.X.X.X.X.X.X.XXXXXXXXX.X.X.X.X.X.X.X.X.X.XXXXX X X X X X X X X X X X X X X X X X XXX X X X X XXXXXXXXXXXXXXXXXXXXX X X X X}.}.}.`.}.{.}.`.}.{.}.`._._._.Q.Q.Q.Q.Q.E.W.W.W.W.E.W.W.W.R.W.W.W.W.W.W.T.T.T.T.Y.R.R.R.R.R.R.W.W.W.T.T.E.E.E.E.!.E.E.E.E.E.E.E.Q.Q._.Q.Q.Q.Q.Q.Q.Q.Q.!.E.E.Q.Q.Q.Q.Q.Q.Q._._._._._._._._._._._._._._._._._._._.Q.Q.Q.Q.Q.Q.Q._._._._._._._._._._._._.{.`._._._._._._._._._._._._._._._._._._._._._._._._._._.`.`.`.`.`.}.}.`.`.`._.`.`.`.`.`._._.{._._._._._._._._._._._._._._._._._._._.'.'.E._.Q.Q.E.E.E.E.T.R.R.E.E.W.R.R.W.E.E.W.E.R.R.R.R.R.R.R.R.R.W.W.R.R.R.R.R.R.W.W.R.R.R.R.E.R.E.E.E.R.R.R.R.",
"HXHXHXHXHXHXHXHXHXHXHXHXHXHXVXVXVXVXVXVXVXVXVXVXVXVXVXVXVXVXVXVXVXVXVXVXVXVXVXVXVXVXVXVXVXVXVXVXVXVXVXVXVXVXVXVXNXVXVXVXVXNXVXVXVXVXVXVXVXVXVXVXVXVXVXVXNXNXNXNXNXNXNXNXNXNXNXNXNXNXNXNXNXNXNXNXNXNXNXNXNXNXNXNXmXNXmXNXmXmXmXmXmXmXmXmXmXmXmXmXmXmXmXkXkXkXmXmXmXmXmXmXmXkXkXkXkXkXkXkXkXkXkXkXmXkXkXkXjXkXkXjXjXjXjXjXjXjXkXmXjXjXjXjXjXjXjXjXjXjXjXjXjXjXjXjXoXoXoXoXoX.XOXOX.XOX.XOX.X.X.XOX.X.X.X.X.X.X.XXX.X.XXXoX.X.X.X X X X X X XXXXXXXXXXX XXX X X X X X X X X X X X X X X X XXX X X X X X X XXXXXXX XXX X X X X X X X}.}.}.}.}.}.}.}.}.}.}.}.}.|.}.|.}.}.|.|.|.|.|.|.}.}.|.|.{.{.{.{.{.{.}.{.}.}.}.}._.{.{.'._._.{.{.{.{.{.{.{.{.{.{.}.{.{._._._._._.{.{.{.{.{.{._.Q._.{.{._._.{.{.}.{.}.}.}.}.}.}.}.}.}. X XXXXXXX XXX X X X X X X X.XXX.X.X.XoXoX.XoXoXoXoXoXoXoX.XoXXXoXoXoXoXoX.XoXoX.X.X.X.X X X X X X X X X X X X X X X X X X XXXXXXX XXX XXXXXXXXXXXXX X X X X}.}.}.}.}.}.}.}.`._._._._.`._._._._.Q.!.Q.Q.!.!.T.W.W.W.W.W.W.T.R.T.T.W.W.E.W.W.T.T.W.T.R.R.R.W.T.R.W.W.E.E.!.!.Q.Q.Q.Q.Q.Q.Q.Q.Q.Q.Q.Q._._._._._._._._._._._._._._._.{.{.{.{.{.`.{.`.{.`._._._.{.{.`.`.`.`._._.{._.`._._._._._._._._._._._._._._._._.`.`._._.{._._._._._._._._._._._._._._._._._._.'.'._._._._._._._.`.`.`.`.}.}.}.{.`.`._._._._._.`._._._._._._._._._._._._._._._._.Q._._._.'._.'.'.'._.Q.Q.E.E.E.E.T.R.E.E.W.W.W.W.W.E.R.R.W.E.R.R.R.W.W.R.R.R.W.E.W.W.W.W.R.W.E.E.R.R.E.E.E.E.E.E.R.R.R.R.R.",
"HXHXHXHXHXDXHXHXHXHXDXHXDXVXVXVXVXVXVXVXVXVXVXVXVXVXVXVXVXVXVXVXVXVXVXVXVXVXVXVXVXVXVXVXVXVXVXVXVXVXVXVXVXVXVXVXVXVXVXNXVXVXVXVXVXVXVXVXVXNXNXNXNXNXNXVXNXNXNXNXNXNXNXNXNXNXNXNXNXNXNXNXNXNXNXNXNXNXNXNXmXmXmXNXmXmXmXNXmXmXkXkXmXmXmXkXmXmXmXmXmXmXmXmXmXmXmXmXmXmXmXmXmXmXmXmXmXmXkXMXkXmXkXmXmXmXkXkXjXjXjXjXjXjXjXjXjXjXjXjXjXjXjXjXjXjXjXjXoXoXoXoX.X.X.X.X.X.X.X.XOX X.X X.X.X.X.X.XOX.X.X.X.X.X.X XXX XXXXX X X XXXXX X X X X X X X X X X X X X X X X}.}.}.}.}.}. X X X X X X X X XXX}.}.}.}.}.}. X X X X X X X X X}.}.}.}.}.}.}.}.}.}.}.}.}.}.}.}.|.|.|.}.}.}.|.}.|.}.}.}.{.{.{.{.{.{.{.{.{.{.{.{.{.{.{.{._.{.{._._._._._.{.{.{.{.{.{.{.{.}.{.}.}.`.`.}.}.}.{.{.{.{._._._._._._.}.}.}.}.}.}.}.}.}.}.}.}. X XXX XXXXXXXXXXX.X.X.X.X.X.XoXoXoX.XoXoXoXoXoXoXoXoXoXoXoXjXoXjXoXoXjXoXoX.X.XoXoXoX.X.X.X.X.X X XXX X X XXXXXXXXXXXXXXXXX X}. XXXXX}. X}. X X X}.}.}.}.}.{.{._._._._._._._.Q.Q._.Q.E.Q.Q.Q.Q.Q.!.!.Q.Q.!.!.!.Q.E.T.E.Q.Q.E.!.E.!.E.!.Q.Q.Q.Q.!.!.E.E.Q.Q.Q.Q.Q.E.Q.Q.Q.Q.Q._._._._._._.Q._._._._._._._.{.{.{.{.{.{.{.`.`.`.`.`.}.}.{.{.{.{.}.`.}. X}.`.`.`.`.}.`.`.`.{.}.{.}.}.}.`.`._._._._._._._._._._._.`.{.{.{.{._._._.{._._._._._._._._._._._._._._._._._._._._._._._.Q._._._._._.{.{._._._._._._._.`._._._._._._._._.Q.Q.Q.Q.Q.Q.Q.Q.Q.Q.Q.Q.Q.Q.Q.E.!._.Q.!.!.E.Q.Q.E.E.T.T.E.E.W.R.W.E.E.E.E.R.R.R.R.R.R.W.W.W.W.R.R.T.R.W.W.W.W.W.W.W.E.E.R.R.R.W.R.E.E.E.R.R.R.R.R.",
"HXHXHXHXVXDXVXVXVXVXVXVXVXVXVXVXVXVXVXVXVXVXVXVXVXVXVXVXVXVXVXVXVXVXVXVXVXVXVXVXVXVXVXVXVXVXVXVXVXVXVXVXVXVXVXVXVXVXVXVXVXVXVXNXVXVXVXNXNXNXNXNXNXNXNXNXNXNXNXNXNXNXNXNXNXNXNXNXNXNXNXNXNXNXmXNXmXNXNXmXmXmXmXmXmXNXNXNXmXmXkXkXmXmXmXmXmXmXmXmXmXmXmXmXmXmXmXmXmXmXkXkXmXmXmXmXmXmXkXkXkXkXkXjXkXkXkXjXjXjXjXjXMXMXjXjXjXjXjXjXjXjXjXoXoXoXoXoXoX.X.X.X.X.X.X.XXXXX.X X X X XOX.X.X.X.X.X.X X X X X X X X XXXXXXX X X XXXXXXX X X X X X X X X X XXXXXXXXX}.}.}.}.}.XX}. X X X X X X X}.}.}.}.}.}.}.}.}. X X X X X X}.}.}.}.}.}.}.}.}.}.}.}.}.}.}.}.}.}.}.}.|.|.}.}.}.|.}.}.}.}.}.}.}.{.}.{.}.{.}.}.}.}.{.{.{.{.{.{.{.{._.'.}.{._.{.{.{.{.}.}.}.}.}.}.}.}.|.}.}. X}.}.}.}.}.}.}.}.}.}.}.}.}.}. X X X X X X X X XXXXXXXXXXXXX.X.XoXoXoXoXoXoXoXoXoXoXjXoXjXjXjXoXoXoXoXoXjXjXjXjXjXjXoXoXoXoXoXoXXXXX.X.XXXXXXXXXXXXXXXXX X X XXX XXX X X}. X}.}.}.}.}.}.}.}.}.}.}._._._._._._._._.Q.Q.Q.Q.Q.Q.Q.Q.Q.Q.Q.Q.Q.Q.Q.Q.Q.Q.Q.Q.Q.Q.Q.Q.Q.Q.Q.Q.Q.Q.Q._._._._._._._._._._._._._._._._._._._._._._._._.{._._._._._._._._._._.{.{.}.}.}.}.}.}.}.}.}.`.}. X X X X X X X X X X X X X X X}.}.`.`.`.}.}.}.}.}.}.`.`.`._._._._._._._._._._.{._.{.{._._._._._.Q.Q.Q.Q.Q.Q.Q.Q.Q.Q._.Q.Q.Q.Q.Q.Q.Q.Q.Q.Q.Q.Q.Q.Q.Q.Q._._._._._._._._.'.'.'._._.'.'._._.!.Q.Q.Q.Q.Q.Q.!.!.Q.!.!.E.E.E.E.E.E.E.!.!.!.!.!.E.Q.E.E.E.E.E.W.W.R.R.W.E.W.E.E.E.R.R.R.R.R.R.W.R.R.R.R.T.T.T.T.T.R.R.T.W.W.E.R.R.R.R.R.R.R.E.R.R.R.R.K.",
"VXHXVXVXVXVXVXVXVXVXVXVXVXVXVXVXVXVXVXVXVXVXVXVXVXVXVXVXVXVXVXVXVXVXVXVXVXVXVXVXVXVXVXVXVXVXVXVXVXNXNXNXVXVXVXVXVXVXVXNXNXNXNXNXVXVXNXNXNXNXNXNXNXNXNXNXNXNXNXNXNXNXNXNXNXNXNXNXNXmXmXNXNXNXNXmXmXmXmXmXmXmXNXNXmXmXmXmXmXmXmXmXmXmXmXmXmXmXmXmXmXmXmXmXmXmXmXmXmXkXkXkXkXkXkXkXjXjXjXMXMXMXMXjXMXjXjXjXjXjXjXjXMXjXjXjXoXoXoXoXoXoXoX.X.X.XOXOX.XoXoX.X.X.X.X.XXXXXXXXX X XXX XXXXX.X.X.X X X X X X X XXXXX XXXXXXX X X X X X X X}. X X X X X XXX XXXXX X}.}.}.}.}.}.}. X X X X X X X}.}.}.}.|.}.|.}.}.}.}.}.}.}.}.}.}.}.}.}.}.}.}.}.}.}.}.|.|.}.}.}.|.|.|.|.|.|.|.|.|.|.|.|.}.}.}.}.|.}.}.}.}.}.}.}.}.}.}.}.}.}.{.}.}.'.'.}.}.}.}.}.}.}.}.}.}.}. X X X X X X XXXXX X X X X X X}.}. X X X X X X X.X.X.X.X.X.X.XoXoXoXoXoXoXoXoXjXoXjXjXoXoXoXoXjXjXjXjXjXjXjXjXoXoXoXoXoXjXjXjXjXoXoXoXoXoXXXXXXXXXXXXXXXXX X X X X X}.}.}.}.}.{.{.{.{.}.}.}.}._._._._.'._.'.'._._._._._.Q.Q.Q.Q.Q.Q.Q.Q.Q.Q.Q.Q.Q.Q.Q.Q.Q.Q.Q.Q.Q._._._._._._._._._._._._._._._._._.{.{.{.`.}.`.`.`.}.{.{.{.{.{.{.`._._._.}.{.{.{.{.{.}.{.`._.`.}.{.}.}.}.}.}.}.}.}.}.}.}. X X X X X X X X X X X X X}. X X}.}.}.{.`.{.`.{.}.{.`.`.`.`._._._._._._._._._._._.Q.Q.Q.Q.Q.E.W.W.W.W.W.W.W.W.W.W.W.W.W.E.W.E.T.E.W.R.W.E.W.R.R.R.R.T.T.T.E.E.E.E.E.E.!.!.!.!.!.!.!.!.!.!.'.!.'._.'._._.'.Q.Q.!.!.!.E.E.E.E.E.E.!.!.!.!.!.!.E.Q.E.E.E.E.E.T.T.E.E.E.W.W.W.W.E.R.T.T.T.R.R.R.R.R.R.T.R.T.T.T.T.R.R.R.R.W.R.R.R.R.R.R.R.R.K.K.K.K.K.K.",
"VXVXVXVXVXVXVXVXVXVXVXVXVXVXVXVXVXVXVXVXVXVXVXVXVXVXVXVXVXVXVXVXVXVXVXVXVXVXVXVXVXVXVXVXVXVXVXVXVXNXNXNXNXVXVXVXVXVXNXNXNXNXNXNXNXNXNXNXNXNXNXNXNXNXNXNXNXNXNXNXNXNXNXNXmXmXNXNXmXmXmXmXNXmXNXNXNXNXNXNXmXmXNXNXmXmXmXmXmXmXmXmXmXmXmXmXmXmXmXmXmXmXmXmXmXmXmXmXmXmXmXkXkXmXkXjXjXMXjXjXjXjXjXjXMXjXjXjXjXjXjXjXjXjXjXjXoXoXoXoXoX.X.X.X.XOXOXOX.X.X.X.X.X.X.XoXXXXXXXXXXX XXXXXXXXX X X X X X X X X X XXXXX X XXXXX X X X X XXX}.}. X X X X XXX X XXX XXX}.}.}.|.}.}.}.}. X X X X X}.}.}.}.|.|.}.|.}.}.}.}.}.}. X}.}.}.}.}.}.}.}.}.}.}.}.}.}.}. X}.}.}.}.}.}.}.}.}.}.}.|.|.}.}.}.}.}.}.}.}.}.}. X X X}.}.|.}.|.}.|.}.}.`.|.}.}. X X}.}.}.}. X XXXXXXXXX XXXXXXXXX XXX XXX XXXXXXXXXXXXXXXXXXX.X.X.XoXoXoX.X.XoXoXoXjXjXjXoXoXoXjXoXoXOX.XOXoXoXjXjXjXoXoXoXoXoXoXoXoX.XoXoXoXoXoXoXoXXXXXXXXX X}.}.}.}.}.}.{.}.}.}.{.{._._._._._._._._._._._._._._.Q.Q.Q.Q.Q.!.Q.Q.Q.Q.Q.Q.Q.Q.Q.Q.Q.Q.Q.Q.Q.Q.Q.Q.Q.Q.Q.Q.Q.Q.Q._._._._._._._.`.`.`.{.{.`.`.`.`.{.{.}.}.}.}.}.}.}.}.}.}.}.}.{.}.{.{.}.`.}.}.}.{.}.}.{.{.}.`.`.`.`.{.}.}.}.}. X}.}.}.}.}. X X}.`.}.}.}. X}.}.}.}.}.}.}.`.}.{.`.`.`._._._._._._._._._._._._._.Q._.Q.Q.E.E.E.W.R.H.T.T.T.K.K.K.H.Y.H.H.I.H.H.H.H.H.G.K.H.I.K.I.Y.H.Y.I.Y.K.H.H.H.H.H.~.T.T.T.R.T.E.T.T.!.E.!.E.Q.E.!.'._.'._._._._._._._.Q.Q.Q.Q.Q.Q.Q.E.E.E.E.E.!.!.!.!.Q.Q.E.E.E.E.E.E.T.E.E.E.W.W.W.W.R.R.T.T.R.R.R.R.R.R.R.K.R.T.K.K.R.T.R.R.R.R.R.R.R.K.R.K.K.K.H.G.G.G.H.H.",
"VXVXVXVXVXVXVXVXVXVXVXVXVXVXVXVXVXVXVXVXVXVXVXVXVXVXVXVXVXVXVXVXVXVXVXVXVXVXVXVXNXNXNXVXVXVXVXNXNXNXNXNXNXNXNXNXNXNXNXNXNXNXNXNXNXNXNXNXNXNXNXNXNXNXNXNXNXNXNXNXNXNXNXNXNXNXNXNXmXNXmXmXmXmXmXmXmXmXmXmXmXmXmXmXmXmXmXmXmXmXmXmXkXmXmXmXmXmXmXmXmXmXmXmXmXmXmXmXmXmXkXjXjXjXjXjXjXjXjXjXjXjXjXjXjXjXjXjXjXjXjXjXjXjXoXoXoXoXoXoX.XXXXXXXXXXX X X X XXXXXXXXXXXXXXXXXXXXXXXXXXXXXXXXXXXXXXXXXXXXXXX X X XXX X X XXXXXXX X X X X X X X X X X X X X X X X XXX}.}.}.|.}.}.}.}.}. X X X X}.}.|.}.}.|.}.|.}.}.}.}. X X X X}.}.}.}.}.}.}.}.}.}. X X X X X X X X|.}.}. X X X X X X}. X X X}.}. X X X X X X X X X X X X}. X}. X X X X X X X X X X X XXX XXX XXXXXXXXX.X X.X.X.XXX XXX XXXXXXXXX.XXX.XXX.X.XoXoXoXoXoXoXoXoXoXoXoXoXoX.XoXoX.X.X.X.XOX.X.XoXoXoXoXXXXX.XXXXXXXXXXXXXXXXXXXXXXXXX X X}.}.}._._._.{.{.{._._._._.Q.Q.Q.Q.Q.Q.Q.Q.Q.Q.Q.Q.Q.Q.Q.Q.Q.Q.Q.E.T.T.E.!.Q.Q.Q.Q.Q.Q.Q.Q.Q.Q.Q.Q.!.!.Q.Q.Q.Q.Q.Q.Q.'.'._._._.`.`.`.`.{.}.}.}.}.`.`.`.`.}.}. X X X}.}.}.}.}.}. X}.}.}.}.}.`.`.`.`.}.}.`.`.}.}.}.{.`.`.`.`.`.`.}.}. X}.`.`.`.`.}.}.}.}.`.`.`.}.}.`.`.`.`.`.`.`.`.{._._._._._._._._._._._.Q.E.E.Q.Q.Q.Q.Q.E.W.R.R.T.T.K.H.K.H.H.H.H.H.H.H.G.H.H.G.G.G.G.G.G.K.G.K.G.K.G.H.H.K.K.K.H.H.H.K.T.T.T.T.T.W.Q.Q.W.E.E.E.E.E.Q._.E._._._._._._._._._._.'._._._.Q._._.Q.E.Q._._.Q.Q.Q.Q.Q._._.Q.E.E.E.E.E.E.E.E.E.E.E.E.R.T.T.T.R.R.R.R.R.R.R.R.R.R.R.R.K.R.R.R.R.I.K.K.K.H.H.H.G.G.H.J.G.G.G.L.",
"VXVXVXVXVXVXVXVXVXVXVXVXVXVXVXVXVXBXVXVXVXVXVXVXVXVXVXVXVXVXVXVXVXVXVXVXVXVXVXVXNXNXNXNXVXVXNXNXNXNXNXNXNXNXNXNXNXNXNXNXNXNXNXNXNXNXNXNXNXNXNXNXNXNXNXNXNXNXNXNXNXNXNXNXNXNXNXNXmXNXmXmXmXmXmXNXmXmXmXmXmXmXmXmXmXmXmXmXmXmXmXmXkXkXmXmXmXmXmXmXmXmXmXmXmXmXmXmXkXkXjXjXjXjXjXjXjXjXjXjXjXjXjXjXjXoXoXoXoXjXjXjXjXjXoXoXoXoXoXoX.X.XXXXXXXXXXX X X XXXXX X XXXXXXXXX XXXXXXXXXXXXXXXXXXXXXXX X XXXXX.XXX.XXX X X XXXXX X X X X X X X X X X X X X X X X X X}. X}.}.}.}.}.}. X X X X X}.}.}.}.}.|.}.}.}.}. X X X X X X}.}.}.}.}.}.}. X X X X X X XXX X X X X X X X X X X X X X X X X X X X XXXXXXX X X X XXXXXXXXXXX XXXXXXXXXXX X.XXXXXXXXXXX.X X X X XXXXXXX.X.XXXXX.X X X XXXXXXXXXXXXXXXXXXX X.X.XXX.XXX.XXX.XXXXXXXXXXXXX.XXXXXXXXXXXXXXX X XXXXXXX X X X X}.}.}.}.}.}.}.}.}.{.{._._._._._.Q.Q.Q.Q.Q.Q.Q.Q.!.Q.Q.!.T.!.!.!.!.T.T.!.!.Q.Q.Q.Q.Q.Q.Q.Q.W.T.T.W.T.T.W.Q.Q.Q.Q.Q.Q.Q.Q.!.Q.!.Q.Q.Q.Q.Q._._.'.'.'.'._.`.`.`.`.`.`.}.}.}.}.}.`.`.`.}. X X X X X X}.}.}.}.}. X X X X}.}.`.`.`.`.}.}.}.}.}.}.}.}.`.`.`.`.`.`.}.}.}.`.`.`.`.`.`.`.`.`.`.`.`.`.`.`.`.`.`._._._._._._._._._.Q.Q.E.E.E.E.E.E.R.R.R.W.W.R.R.R.R.R.K.K.K.K.H.K.H.H.H.H.G.G.G.G.G.G.G.G.G.G.K.K.K.K.Y.H.K.K.K.K.K.I.I.I.I.K.R.R.W.R.W.W.E.Q.Q.Q.Q.Q.E.E.E.E._.Q._._._._._._._._._._.'._._._._._._._.Q._._._._._.Q.Q.Q.Q._._._.Q.E.E.E.E.E.E.E.E.E.R.T.T.T.R.R.R.R.R.R.R.R.R.R.R.R.R.K.K.K.K.K.K.H.G.G.G.G.J.J.G.J.K.J.G.L.L.",
"VXVXVXVXVXVXVXVXVXVXVXVXVXVXVXVXVXVXVXVXVXVXVXVXVXVXVXVXVXVXVXVXVXVXVXVXVXNXNXNXNXNXNXNXNXNXNXNXNXNXNXNXNXNXNXNXNXNXNXmXNXNXNXNXNXNXNXNXNXNXNXmXNXNXNXNXNXmXNXNXNXNXmXmXmXmXmXmXmXmXmXmXmXmXmXmXmXmXmXmXmXmXmXmXmXmXmXmXmXkXmXmXkXkXmXmXmXmXmXmXmXmXmXkXmXmXkXjXjXjXjXjXjXjXjXjXjXjXjXjXjXjXoXoXoXoXoXoXoXjXjXjXoXoXoXoXoXoXoX.X.X.X.X.X.X.X.X X.X.X.X.XXXXX.X.X.XXX.XXX.X.X.X.X.X.X.XXX.XXX.X.X.X.X.X.X.XXX XXX.XXX X X XXX X X X X X X X X X X X X X X X X X X X XXX X X XXX X X X X}.}.}.}.}. X X X X X X X X X X X X X X X X X X X X XXXXX X XXX.XXXXX X X X X X X X X.X X X X X X X.XXXXXXXXX.X X XXXXXXXXXXXXXXXXXXXXXXXXXXXXXXXXXXXXXXXXXXX X XXXXXXXXXXXXXXX X X X X X X X X X X X X X X X X X}. X}.}.}.}.}. X X X X X}.}.}.}.}.}.}.}.}.{.{.{.}._._._.'.Q.Q.Q.Q.Q.Q.Q.Q.Q.Q.Q.T.T.!.!.!.Q.Q.Q.Q.Q.Q.Q.Q.Q.W.T.T.T.W.W.W.W.T.T.!.W.T.W.W.Q.W.W.W.W.W.W.W.T.T.Q.Q.Q.Q.Q.Q._._._._._._._.{._._.{.{._._.`.`.}.}.}.`.`.`.`. X X X X X X X X X X X X X X X X X X X X X X X X X X X X X}.}.}.}.}. X X X`.`.`.`.`.`.`.}.}.}.`.`.`.`.`.`.`.`._._._.'.'.`.`._._._._._._.'.'._._.!.Q.!.E.!.!.T.W.W.R.R.R.T.T.T.Y.Y.K.I.I.I.K.K.K.K.K.K.K.H.H.H.K.K.G.G.G.K.G.G.G.G.K.H.I.Y.R.K.R.R.R.R.T.R.W.W.W.R.E.E.E.E.E.E.Q.Q.Q.Q.Q.Q.Q.Q.Q.E.Q.E.E.Q.Q.Q.Q.Q.Q.Q.E.E.E.E._._._._._.Q.E.Q.Q.Q._._.Q.Q.Q.Q._._.Q.Q.E.W.E.W.E.E.R.R.R.R.R.R.R.R.R.I.I.I.R.I.R.I.I.I.I.I.K.K.K.H.J.G.G.G.J.J.J.K.J.J.J.L.L.L.L.J.",
"VXVXVXVXVXVXVXVXVXVXVXVXVXVXVXVXVXVXVXVXVXVXVXNXVXBXNXNXNXNXNXNXNXNXNXNXNXNXNXNXNXNXNXNXNXNXNXNXNXNXNXNXNXNXNXNXNXNXNXNXNXNXNXNXmXmXmXmXmXmXmXmXmXNXNXNXmXmXmXNXNXNXmXmXmXmXmXmXmXmXmXmXmXmXmXmXmXmXmXmXkXkXmXmXmXmXmXmXkXkXkXkXkXkXmXmXmXmXkXkXkXkXjXjXkXkXjXjXjXjXjXjXjXjXjXjXjXjXjXjXjXjXjXoXoXoXoXoXoXoXjXoXoXoXoXoXoXoXoX.XoX.X.XOX.X.X.XOX.X.X.X.X.X.XXX.X.XoX.X.X.X.XoXoXoX.X.X.X.X.XoXoXoX.XoXoXoX.X.X.X.X.X.X.X.X X XOX XXX XXX X X X X X X XXX X X X X XXXXX XXX XXX X X X X|. X X X X X X X X X X X X X X X XXXXX X X X XXXXXXXXX X XXXXXXXXXXXXXXX X X XXXXXXXXXXXXXXXXXXXXXXXXXXXXXoXXX X XXXXXXXXXXXXXXXXX X XXXXXXXXXXX X X X X X X}.}.XXXX}.}. X X X}.}.}.}.}.}.}.}.}.}.|.'.|.}.}.{.{.{._._.{._._.{.{._._._._._._._._._._.Q.Q.Q.Q.!.Q.Q.Q.Q.Q.!.!.!.!.!.!.!.!.!.T.!.T.T.!.!.Q.!.W.W.W.W.Q.Q.Q.Q.Q.Q.Q.!.Q.Q.Q.Q.Q.W.Q.W.W.W.Q.Q.Q.Q.Q.Q.Q.W.W.W.T.!.Q.Q.Q.Q._._._._._.{.{.{.{.{.{.{.{.}.}.}.}. X X X X X`.`. X X X XXXXX X X X X X X X X X X X X X X X X X X X X X X X}.`.`.}.`.`.}.}.`.`.`.`.`.`.`.`.`.}.`.`.`.`.`.`.`.`.`.'.'.'.'.'._._._.'.'.'.'.!.!.!.!.!.!.E.!.E.!.T.T.W.W.T.T.T.T.T.Y.Y.Y.Y.Y.R.I.I.I.I.R.I.I.K.H.K.Y.Y.Y.H.H.K.K.K.H.K.I.Y.T.W.T.W.T.W.W.E.E.E.E.Q.Q.Q.Q.Q.Q.Q.Q.E.Q.Q.E.Q.Q.Q.Q.Q.Q.Q.Q.Q.T.!.E.E.E.E.E.E.E.E.E.E.E.E.E.E.Q.E.E.E._._._._._._.Q.E.E.E.E.E.R.R.T.T.T.R.E.R.R.R.R.R.R.R.R.K.K.K.K.K.K.K.K.K.K.K.K.K.K.J.J.J.G.L.G.J.L.L.J.J.J.J.J.J.J.L.&.",
"VXVXVXVXVXVXVXVXVXVXNXNXVXVXVXNXNXBXNXNXNXNXNXNXNXNXNXNXNXNXNXNXNXNXNXNXNXNXNXNXNXNXNXNXNXNXmXmXmXNXNXmXmXNXNXmXkXkXmXNXmXmXkXmXNXNXmXmXmXmXmXmXmXmXmXmXmXmXmXmXmXmXmXmXmXmXmXmXkXkXkXkXkXkXkXmXkXmXmXmXkXkXmXmXmXmXkXkXkXkXkXkXkXkXkXkXkXmXmXmXmXmXkXmXmXmXjXjXjXjXjXjXjXjXMXMXjXjXjXjXjXjXoXoXoXjXjXoXoXjXjXjXjXjXjXjXjXjXoXoXjXoXoXoXoXoXoXoXoXoXoXoXoXoXoXoXjXjXoXoXoXoXjXoXjXoXjXoXoXoXoXoXoXoXoXoXoX.XoXoXoX.X.XoXoX.X.X.X.X.X.X.XXX.X.XXXXXoX.X.X.X.X.XXX XXX XXXXX.XXX.XXX.X.XXXXXXXXXXX XOX X.XXX.X.XXX XXXXX.X.XXX.X XXXXXXXXXXXXX.XXXXXXXXX.X.XXXXXXXXXXXXXXXXXXXXXXX X X XXXXXXXXXXXoXXXXXXXXXXXXXXXXXXX X}.}. XXXXXXXXX}.}.}.}.|.}.}.}.}.}.}.}.}.}.{._._._._.{._._._.Q.Q.Q._._._._._.Q.Q.Q.!.!.!.!.!.!.Q.Q.Q.Q.Q.Q.!.!.!.!.!.Q.Q.Q.Q.Q.Q.Q.Q.Q.Q.W.W.!.T.!.W.!.W.!.W.W.T.T.W.W.W.W.Q.Q.Q.Q.Q.Q.Q.Q.Q.Q.Q.Q.Q.Q.Q.Q.Q.Q.Q.Q.Q.Q.Q.Q.Q.Q.Q.Q.Q.Q.Q.Q.Q.Q._._._._._._.{.{.{.{.{.}.}.}. X}. X X X X X XXX X X X X X X X X X X X X X X X}.}. X X X X X X|.|.|.|.}.}.}.}.}.}.`.`.`.`.`.`.`.`.`.`.`.`._._.`.`.`.{.{.`.`.'._.`.`._._._._._._._._._._.`._._._.'.'.Q.!.Q.Q.!.E.!.E.E.E.!.!.Q.Q.E.W.T.T.T.T.T.T.W.W.R.R.R.R.W.E.W.R.W.E.W.W.W.I.I.I.I.I.I.I.R.E.E.Q.E.Q.!.Q.!.Q.Q.Q.Q._._._._.Q.Q.Q.Q.Q.Q.E.E.E.E.E.E.E.Q.Q.W.W.W.E.W.W.W.W.E.E.E.E.E.E.W.E.E.E.E.E.E.E.E.Q.Q.E.E.E.E.E.E.E.T.T.R.K.I.R.R.R.I.R.K.K.I.R.R.R.K.K.K.K.G.H.K.K.K.K.J.K.K.K.G.J.J.J.J.L.L.J.L.&.J.J.J.=.=.=.J.J.J.",
"VXVXVXVXVXVXVXVXVXNXNXNXNXNXNXNXNXNXNXNXNXNXNXNXNXNXNXNXmXNXNXNXNXmXNXNXNXNXNXNXNXNXNXmXNXNXmXkXmXNXmXmXmXNXNXNXkXmXkXNXNXNXNXNXNXNXmXmXmXmXmXmXmXmXmXmXmXmXmXmXmXmXmXmXmXmXmXmXkXkXkXkXkXkXkXkXkXmXmXmXkXkXkXmXkXkXkXkXkXkXkXkXkXkXkXkXkXkXkXmXmXkXkXmXkXkXjXjXjXjXjXjXjXkXMXMXjXjXjXjXjXjXjXjXjXjXjXjXjXjXjXjXjXjXjXjXjXjXjXjXjXjXjXjXjXjXjXjXjXjXjXjXjXjXjXjXjXjXjXjXjXjXjXjXjXjXjXjXjXjXjXjXjXjXjXjXjXoXoXjXoXoXjXoXoXoXoXoXoXoXoXoXoX.X.X.XoXoXoXXXXXXX.X.X.X.X.X.XXXoXoXoXXX.X.XoX.X.X.XXX.X.X.X.X.X.X.XoX XXXXXXXXXXX.X XXXXXXXXXXXXXXXXXXXXXXXXXXXXXXXXXXXXXXXXXXXXXXXXXXXXXXXXXXXXX XXXXXXX X X X}.}.}.}.}.}.}.}.}.}.}.}.}.}.}.{.{.{.{._._.'._.'.'._._.Q.Q.Q._._.Q.Q.Q.Q.!.Q.!.Q.Q._.Q.Q.Q.Q.Q.Q.Q.Q.Q.Q.Q.Q.Q.Q.Q.Q.Q.Q.Q.Q.Q.Q.Q.Q.Q.Q.Q.Q.Q.Q.Q.Q.Q.Q.W.Q.Q.Q.Q.Q.Q.Q.Q.W.!.W.Q.Q.Q.Q.Q.Q.Q.Q.Q.Q.Q.Q.Q.Q.Q.Q.Q._._._.Q.Q.Q.Q._._._.Q.Q._._._._._._._._._.{.{.{.{.}.}.}. X X X X X X X X X XXXXXXX XXX X X X X X X X X X X X X X X|.}.}.}.}. X`.`.}.`.|.}.}.}.}.}.}.}.}.}.}.{.{.{.{.`.`.`.`.`.}.`._._.}.}.{.{.`._._.`._.`._._._._._._._._.`.`.`.`._._._._._.'._._._.Q.Q.Q.Q.E.E.Q.Q.Q.Q.W.W.W.E.W.W.W.W.W.W.W.W.E.W.Q.E.E.E.Q.W.E.W.W.T.R.W.W.W.E.W.Q.!._.Q._.Q._._._._._._._._._._._.Q.Q.Q.Q.E.!.!.E.E.E.E.E.E.E.T.T.W.W.T.W.R.W.W.R.R.W.W.W.W.R.T.E.E.E.R.R.T.T.T.T.T.E.E.T.R.T.T.R.K.K.K.I.I.I.K.I.K.K.K.K.K.K.K.K.G.G.G.G.G.G.G.J.J.J.J.J.J.L.J.J.J.L.L.J.L.J.J.J.J.J.=.=.&.&.=.",
"VXNXNXNXNXNXNXNXNXNXNXNXNXNXNXNXNXNXNXNXNXNXmXmXNXmXmXmXmXmXmXmXNXNXNXkXkXkXmXmXkXmXmXmXmXmXkXkXkXmXmXmXmXmXNXNXmXmXmXmXmXmXmXNXNXNXNXmXNXNXNXNXmXmXmXmXmXmXmXmXmXmXmXmXkXkXkXkXmXmXkXkXkXkXkXkXkXkXmXkXkXkXkXmXkXkXkXkXkXkXkXkXjXkXkXkXkXkXjXjXjXjXjXjXkXjXjXjXjXjXjXjXjXmXmXmXmXjXjXjXjXjXjXjXjXjXjXjXjXjXjXjXjXjXjXjXjXjXkXjXMXMXjXjXjXjXmXMXjXMXkXMXkXMXkXmXjXjXjXjXkXjXjXjXjXjXjXjXjXjXjXjXjXjXjXjXjXjXjXjXjXjXjXjXjXjXjXjXoXjXjXoXoXoXoXoXoXoXoXoXoXoXoX.X.XXXXXXXoXoXoXoXXXoX.X.X.X.X.X.XoXoXXXXX.X.X.X.XXX.XXXXXXXXXXXXXXXXXXXXXXXXXXXXXXXXXXXXXXXXXXXXXXXXX X X X X X}. X}.}.}.}.}.}.}.}.}.}.}.}.}.}.}.}.{.{.}.}.{._.'._.{._._.{.{._._._.Q.Q.Q.Q.Q.Q.!.Q.Q.Q.Q.Q.Q.Q.Q.Q.!.Q.Q.Q.Q.Q.Q.Q.Q.Q.!.Q.!.!.!.!.!.!.Q.Q.Q.Q.Q.Q.Q._.Q.Q.Q._.Q.Q.Q.Q.Q.Q.Q.Q.Q.Q.Q.Q.Q.Q.Q.Q.Q.Q.Q.Q._.Q._._._._._.Q.Q._._._._.Q._._._._._._._._.{._._._._._._._._._._._._.{.{.}.}.}.}.}.}.}.}.}. X X X X XXXXXXX X X X.X.X.X.X X X X X X X X X X X X X}.}. X X`.}.}.}.`.`.`.}.`.`.`.}.}.`.}.}.`.`.`.{.{.{.{.{._._.`.}.}.{.{.{.{.{.{.{.`._._._.`._._._._.`._._._._._._.`.`.`.`._._._._._._._._._._._.Q.Q.Q.Q.Q.Q.Q.Q.Q.E.Q.Q.Q.Q.Q.Q.Q.Q.Q.E.E.Q.Q.E.Q.Q.Q.E.Q.E.W.W.E.E.E.E.Q.Q.E.Q.Q.Q.!.Q.Q._._._._._._._._.Q.Q.Q.Q.E.E.E.E.T.E.E.E.E.E.E.T.R.W.W.W.W.W.W.W.R.R.R.R.R.R.R.T.R.R.R.R.T.T.T.T.T.T.W.W.T.T.R.R.I.Y.K.K.K.K.K.K.K.K.K.H.H.J.H.K.K.K.G.G.G.G.G.J.J.=.=.J.=.=.=.=.=.=.=.=.J.J.=.J.J.J.J.J.J.&.&.=.",
"NXNXNXNXNXNXNXNXNXNXNXNXNXNXNXNXNXNXNXNXmXNXmXmXNXNXNXNXNXNXNXmXNXNXkXkXkXkXmXmXkXkXmXmXmXmXmXkXmXmXmXmXmXmXmXmXmXmXmXmXmXmXmXmXmXmXmXmXNXNXNXNXmXmXmXmXmXmXmXmXmXmXmXmXmXkXkXkXmXkXkXkXkXkXkXkXkXkXmXkXkXkXkXmXkXjXjXkXkXkXkXkXjXjXkXkXkXkXjXjXjXjXjXjXkXjXjXjXjXjXjXmXjXmXmXjXjXjXjXjXjXjXjXjXjXjXjXjXjXjXjXjXjXjXjXjXjXjXjXjXjXjXjXjXjXmXmXmXmXmXmXmXmXmXmXmXjXjXmXmXmXjXjXjXjXjXjXjXjXjXjXjXjXjXjXjXjXjXjXjXjXjXjXjXjXjXjXjXjXjXjXoXoXoXoXoXoXoXoXoXoXoXoXoX.XXXoXXXoX.XoXoXXX.X.X.X.X.X.X.X.X.XXXXXXXXX XXX X XXXXXXX.X.X.XXX X X X XXX X XXX XXX X X X X X}.}.}.}.}.}.}.|.|.|.|.|.|.|.|.|.|.|.}.|.}._.'.'._._._._._._._.'._._._._._._._._._._.Q.Q.!.!.!.!.Q.Q.Q.Q.Q.Q.Q.Q.Q.Q.Q.Q.Q.Q.Q.Q.Q._._.Q.Q.Q.Q.!.Q.!.!.Q.Q.Q.Q.Q.Q._._.Q.Q._._._._._._.Q._.Q.Q.Q._._._._._._._._._._._._._._._._._._._.'._._._._._._._.{._._._._._._._.{._._._._._.`.}.`.}.}.}.}.}.}.}. X}.|.}. X}. X X X X XXXXX X.X.X X X.X.X.XXX X X X X X X X X X X}.}.}. X X`.`.}.`.`.`.`.`.`.`.`.`.`.`.`.`._._._.`.`.`._._._.'._._._._._._._._.{._._._._._._._._._._._._._._._._._._._._._._._._._._._._._.Q.Q._.Q.Q.Q.Q.Q.Q.Q.Q.Q.Q.E.!.E.Q.Q.Q.Q.Q.Q.E.E.E.E.E.E.E.E.E.Q.Q.Q.E.E.E.E.E.E.Q.Q._.Q.Q.!.Q.Q._.Q.Q._._._._._.Q.Q.Q.Q.Q.Q.Q.Q.E.E.E.E.E.E.E.E.W.W.W.W.W.W.W.W.R.R.R.R.R.R.R.T.R.R.R.R.R.R.R.R.R.R.R.R.T.T.R.R.K.K.K.K.K.K.K.K.K.K.H.H.J.J.G.G.K.G.G.G.G.G.J.J.=.=.=.=.=.J.=.=.=.J.=.=.J.J.=.=.=.J.J.J.J.&.&.&.",
"NXNXNXNXNXNXNXNXNXNXNXNXNXNXNXNXNXNXNXNXNXNXNXNXNXmXNXmXmXmXmXmXkXnXkXkXkXkXmXmXmXmXmXNXNXNXNXmXmXmXmXNXmXmXmXmXNXNXNXmXmXmXmXmXmXNXNXNXNXmXmXmXmXmXmXmXmXmXmXmXmXmXmXmXkXkXkXkXkXkXkXkXkXkXkXkXkXkXkXkXkXkXkXkXkXkXkXkXkXkXkXkXjXkXkXkXkXjXjXkXkXjXjXjXjXjXjXjXjXjXjXkXkXkXkXjXkXkXjXjXmXmXmXmXjXjXjXjXjXjXjXjXjXjXjXjXjXjXjXmXjXjXjXmXkXmXmXkXkXkXmXmXmXkXkXkXkXkXmXmXmXkXkXkXjXjXjXjXjXjXjXjXjXjXjXjXjXjXjXjXjXjXjXjXjXjXjXjXjXjXoXoXoXoXoXXX.X.X.XoX.X.XoX.X.XXXoXoXXXXXXXXXXXXXXX XXXXXXXXX X XXXXXXX X X X X X X XXXXX X X X X X X X}. X X X X}.}. X}.}.|.`.|.}.}.}.}.}.|.|.}.}.}.}.}.}.}.|.|._.'._._._._._._._._._._._._._._._._._._._._._._._.Q.Q.Q.Q.Q.Q.Q.Q.Q.Q.Q.Q.Q.Q._._._.Q.Q._._._._._._._._._.Q.Q.Q.Q._._._._._._.'.'.'.'._._.'._._._._._._._._._._._._._._._._._._._._._.}.}.}.}.{._.{._.'.`._.'.'._.{.}.{.{.{.}.}.`.}.`.`.}.}.`.}.}.}.}.}.}.}.}. XXX X X|.|. X X X X X X X.X.X X X X X X X X X X X X X X X X X X X X X}.}.`.`.`.`.{.`.`.`.`.`.`.`.`.`._._.`.`._._._._._._._._.'.'.'._._.'.Q.Q.Q._._._._._._._._._._._._._._.'._._._._._._._._._.!.Q.Q.E.E.Q.Q.E.E.E.Q.E.Q.Q.Q.E.E.Q.E.!.!.W.W.W.E.E.E.E.W.W.E.E.E.E.E.E.W.W.E.W.W.E.E.E.E.E.E.E.E.Q.Q.Q.E.Q.Q.Q.Q.Q.Q.Q.Q._.Q._.Q._._.Q.E.E.E.E.E.E.W.W.E.E.E.W.W.E.W.W.W.R.R.R.R.R.R.R.R.R.R.R.R.R.R.R.R.R.T.W.R.R.R.T.R.R.K.K.Y.K.K.H.H.G.K.H.K.J.J.K.K.K.J.J.J.J.J.J.J.J.J.J.J.=.=.J.J.J.J.J.J.J.J.J.J.J.J.L.L.L.L.J.J.&.&.",
"NXNXNXNXNXNXNXNXNXNXNXNXNXNXNXNXNXNXNXNXNXNXNXNXNXNXNXNXNXmXmXmXNXNXNXNXNXNXNXNXNXmXmXmXNXNXNXNXmXmXmXNXNXmXmXmXmXmXNXNXmXmXmXmXmXNXNXNXNXmXmXmXmXmXmXmXmXmXmXmXmXmXmXmXkXkXkXkXkXkXkXkXkXkXkXkXkXkXkXkXkXkXkXkXkXkXkXkXkXkXkXkXkXkXmXkXkXkXmXmXkXkXkXkXjXjXjXjXjXjXkXkXkXkXkXjXkXjXkXkXkXmXmXmXjXjXjXjXjXjXkXmXmXmXjXjXjXjXmXmXjXjXmXmXkXkXkXkXkXkXkXkXkXkXkXjXkXkXmXmXjXjXjXjXjXjXjXjXjXjXjXjXjXjXjXjXjXjXjXjXjXjXjXjXjXjXjXjXoXoXoX.X.X.X.X.X.X.X.X.X.X.X.X.X.XXXXX.X.X X X X X X X X X X X X X X X X|.|. X}. X}. X X X X X X X X X}.|.`.|.|.}.}.}.}.}.}.}.}.}.`.}.}.}.}.}.'.}.}.}.|.}.}.}.`.|.|.{.{._._.'.'._._._._._._._._.{.{.{.{._.{._._._._._.Q.Q.Q.Q.Q._._._._._._._._._._._._._._._._._.{.{._._._._._._.Q.'._._._._.{._._._._._._.{._.}._._._._._._._.`.`.`.`.`._.`.`.`.`.`.`.`.`.}.}.}.}.`.{.`._.'.'._._._.}.}.}.{.{.`.`.`.`.`.|.}.|.|.}.}. X X X X X X X X X X X X X X X X.X.X.X.X.X X X X X X XOXOX X X X X X X X X X X X`.`.`.`.`.`.`.`.`.`.`.`.`._._._._._.`.`.`.`.`._._._._._._.'.'.'.'.'.'.Q.Q.!.!.Q.Q.!.!.Q.Q.Q.Q.Q.Q.E.E.E.!.E.'._.'._.E.E._.Q.E.E.E.E.E.E.E.!.E.E.E.E.E.E.E.T.T.T.T.W.W.W.W.T.W.E.E.W.T.T.W.R.R.R.W.T.T.T.T.T.T.T.T.T.E.W.E.T.W.E.W.E.E.E.E.E.E.E.E.E.E.E.E.E.!.E.E.E.E.!.T.E.W.W.T.R.E.E.E.R.R.R.W.W.W.R.R.R.R.R.R.R.R.R.R.R.R.R.R.R.R.R.R.R.T.T.R.R.R.R.K.K.K.K.K.K.K.K.K.K.K.G.G.K.K.K.K.J.J.J.J.J.J.J.J.J.J.=.&.=.J.J.=.J.J.J.J.J.J.&.J.L.&.&.&.J.J.&.&.",
"NXNXNXNXNXNXNXNXNXNXNXNXNXNXNXNXNXNXNXNXNXNXNXNXNXNXNXNXNXNXNXNXNXNXNXNXNXNXNXNXNXNXmXmXmXNXmXmXNXmXmXNXNXNXmXNXmXmXmXmXmXmXmXmXmXmXNXNXmXmXkXkXmXmXmXmXmXmXmXmXkXkXkXkXkXkXkXkXkXkXkXkXkXkXkXkXkXkXkXkXkXkXkXkXkXkXkXkXkXkXkXkXkXmXmXmXkXkXkXmXkXmXkXkXkXmXMXMXkXkXkXkXkXkXkXkXkXkXkXjXkXkXkXkXjXjXjXkXkXkXkXkXkXkXkXkXkXkXkXkXkXkXjXjXjXjXkXkXkXkXkXkXkXkXjXjXjXjXjXjXjXjXjXjXjXjXjXjXjXjXjXjXoXoXoXoXjXoXoXoX.XoXoXoXoXoXoX.XOX.X.X.X.XXX X X X X X X XOXOXOX X X X X X X X X X X X X X X X X X X}.|.`.|.|.}.}.}.}. X X}.}. X}.}.}.|.`.`.}.}.}.}.`.}.}.}.}.}.}.}.}.}.}.}.}.}.}.}.}.}.}.}.{.}.|.|._.|.{.{.{.{.{.{._._._._.`.{.{.{.{.{.{.{.{._._.{._._._._._._._.{.{.{.{.{._._._._._.`.`.{.`._.`.{.`.{._._._._._._._._._._._._._.{.{.{.{.{.{.{.{.{.{.{.{.{.{.{.}.{.}._._.{.}._.}.|.}.}.}.}.}.}.}.}.}.}.}.}.}.`.}.}.}.}.`.`.}.}.`.`.}.}.}.}. X X X X X X X X X X X X X X X X.X.X.X.X.X.X.X.X.X.XXXXX X X X X X X X X.X X X X X X X X X X`.`.`.}.}.`.`.`.`.{.`.`.`.`.`.`.`.`.`.}.`.`._._._._._._._._._._._._.Q.Q.Q.Q.Q.Q.Q.Q.Q.Q.!.Q.Q.Q.!.!.!.E.Q.Q.'.E.'._._.Q.Q.E.E.Q.E.E.E.E.E.E.E.E.E.E.E.E.T.T.T.T.W.W.W.W.T.R.R.W.W.T.R.W.R.T.T.R.T.T.T.T.T.R.R.R.T.R.R.T.E.E.E.E.E.E.E.E.E.E.E.E.E.E.E.E.T.T.!.E.E.E.E.T.W.W.W.W.R.R.W.E.R.R.R.R.R.R.R.R.R.R.R.R.R.R.R.R.R.R.R.R.K.K.K.K.K.K.R.R.R.R.R.K.H.H.H.H.K.K.K.K.K.K.K.H.H.K.K.K.J.J.J.J.J.J.J.L.J.J.J.=.&.L.J.J.J.J.J.&.J.J.&.&.J.J.=.=.L.L.L.&.",
"NXNXNXNXNXNXNXNXNXNXNXNXNXNXNXNXNXNXNXNXNXNXNXNXNXNXNXNXNXNXNXNXnXNXNXNXNXNXNXNXNXmXkXmXmXNXmXkXmXkXmXNXNXNXNXNXNXNXNXmXmXkXmXmXkXkXmXmXkXmXkXkXkXmXmXmXmXmXmXkXkXkXkXkXkXkXkXkXkXkXkXkXkXkXkXkXkXkXkXkXkXkXkXkXmXmXkXkXkXkXkXkXkXmXmXmXkXkXkXmXkXmXmXmXmXmXMXmXkXkXkXkXkXkXkXkXkXkXkXjXjXkXkXkXkXjXjXmXkXkXjXkXkXkXkXjXkXmXmXmXkXkXjXjXjXjXkXkXjXjXkXkXkXjXjXjXjXjXjXjXjXjXjXjXjXoXoXoX.XoXoXoXoX.XoXoXoX.X.X.X.X.X.X.X.X.X.X.X X.X.X.X X X X XXX X X X XOX X X X X X X X X X X X X X X X X X X}. X X|.|.|.}.|.}.}.}.}.}.}.}.}.}.}.}.}.}.}.}.}.}.}.}.{.}.{.{.}.}.}.}.}.}.{.}.}.`.}.}.}.}.{.}.}.}.}.`.'.|._.{.{.{.{.{.{.}.}.`._._.{.{.{.{.{.{._._.{.}._.'._._._.{.}.{.}.{.}.{.}.}.}.`.}.}.}.}.`.`.{.`._.`.{.{.{._._._.{.{._._.{.{.{.{.{._._._._._._.{.}._.}.{.{.{.}.}.`.}.}.}.}.`.}.}.|.}.|.}.}. X X X X X X}.}.}.}.}.}.}.}. X X X X X X X X XXX X X XOX X.X.X.X.X.X X X.XXX.X.X.X.X.X.X.X.X.X.XXX X X X X X X X XXX.X X X X.X X X X X X}.}.}.}.}.}.`.`.}.}.}.`.`.`.`.`.`.`.`.`.`.`.`.`.'.'._.`.`._._._._._._._._._._._._._._.Q.Q.Q._.Q.E.!.!.Q.Q.E.E.E.'._._.Q.Q.E.E.Q.E.E.E.E.T.E.E.E.E.E.E.E.E.W.R.T.R.E.W.W.R.T.R.W.W.T.T.R.W.R.T.R.R.R.T.T.T.R.W.W.E.E.E.E.E.E.E.E.E.E.E.E.E.E.E.E.E.E.E.E.E.E.Q.Q.Q.E.E.E.T.R.W.W.R.R.R.R.R.R.R.R.R.R.R.R.R.R.R.R.R.R.R.R.R.R.R.R.K.K.K.K.R.K.K.I.K.K.K.K.H.H.H.H.K.K.K.H.K.K.K.K.K.K.K.K.J.K.K.K.H.J.J.L.J.J.J.J.L.L.J.J.J.J.J.L.J.J.J.J.J.J.J.J.L.L.L.&.",
"NXNXNXNXNXNXNXNXNXNXNXNXNXNXNXNXNXNXNXNXNXNXNXNXNXNXNXNXNXNXNXNXNXNXNXNXNXmXmXNXNXmXkXkXkXmXmXmXmXmXmXmXmXmXmXmXmXmXmXmXmXmXmXmXkXkXkXkXkXmXkXkXkXkXkXkXkXkXkXkXkXkXkXkXkXkXkXkXkXkXmXmXkXkXkXkXkXmXmXmXmXmXmXmXmXmXmXmXmXmXmXkXkXkXkXkXkXmXmXmXjXkXmXmXmXmXmXmXjXjXjXjXmXmXmXmXkXMXkXmXmXmXmXmXkXkXkXkXmXkXjXjXjXjXkXjXjXMXjXjXkXjXjXjXjXjXjXjXjXjXjXjXjXjXjXjXjXjXjXjXjXoXoXoX.XoXoX.X.X.X.XXX.X.X.X.X.X.X.X X.X X.XXX.X.X X.X X X X X X X X X X X X X X X X XXX X X X X X X X X X X X X X X X X}.}.}.}.|.}.}. X X X X}.}.}.}. X X}.}.}.}.}.}.}. X X}.}.}.}.}.}.}.}.}.}.}.}.}. X}.}.}.}.}.}.}.}.}.`.'.`.`.}.}.}.}.}.}.}.}.}.}.}.{.}.{.{.}.}.}.}.}.`.`.`.}.}.}.}.}.}.}.}.}.}.}.}.}.}.}.}. X}.}.}.}.`.}.}.}.{.}._._.}.{._._._._.{.{.{.}._._._.}._.`.{.}.}.`.`.}.}.}. X X X X X X X X X X X X XXX X X X X X X X X.X.X.X.X.X.XXXoXXX.X.X.X.X.X.X.X.X.X.XOX.X.XoX.XoXoX.X.X.XoX.X.X.X.XXXoXXX.X.X.X.XXXXX.X.X.X.X.X.X.X X X X X X XXX X X X X|.|. X X}. X X X}.}. X X X`.`.`.`.`.}.}. X X`.`.`.`.`.`.}.{._._._._.'._._._._._._._._._._._._._._._._._._._._._._._._.Q.Q.Q.W.T.W.E.Q.Q.E.E.E.Q.Q.Q.E.E.E.E.E.E.E.E.Q.E.E.E.!.E.!.E.E.E.Q.E.E.E.Q.E.W.E.E.Q.E.E.Q.Q.E._._._.'.'.'.'.'.E.E.E.E.E.E.E.E.E.E.Q.Q.E.E.E.R.T.W.R.R.R.T.T.R.T.T.R.R.R.R.R.R.R.R.R.T.T.T.T.T.K.K.I.I.I.K.K.K.R.K.K.K.K.K.K.K.K.H.G.G.H.H.H.G.H.H.K.K.K.K.H.H.G.K.K.K.K.K.J.J.J.L.L.J.J.L.J.J.J.J.J.J.J.J.L.L.J.J.J.J.J.J.J.J.",
"NXNXNXNXNXNXNXNXNXNXNXNXNXNXNXNXNXNXNXNXNXNXmXmXNXNXNXNXNXNXNXmXNXNXmXNXNXNXmXmXmXNXmXmXmXmXNXmXmXmXmXmXmXmXmXmXmXmXkXkXkXkXkXmXkXkXkXkXmXmXkXkXkXkXkXkXkXkXkXkXkXkXkXkXkXkXkXkXkXkXkXkXmXmXkXkXmXmXmXmXmXmXmXmXmXmXmXmXmXkXkXkXkXkXkXkXkXkXkXmXkXkXkXkXmXmXmXmXjXjXkXmXmXkXmXmXjXjXjXjXkXmXkXmXkXkXkXkXkXkXjXjXjXjXjXjXjXjXjXjXjXjXjXjXjXjXjXjXjXjXjXjXjXjXjXjXoXoXoXjXoX.X.XoXXXXXXXXXXX XXXXXXXXXXXXXXX X X XXXXX.X.X.X.XXXXXXXXXXX X X XXXXXXXXXXX X X X X XXXXXXXXXXXXX X X X X X X X X X X X}.}.|. X}. X|. X X X X X}. X X X X X}. X}.}.|.}.}. X}. X}.}.}. X}.`.`.}.}.}.|. X|.|.|.}.}. X}.}.|.}.|.}.|.}.}.}.}.}.}.}.}.}.}.}.}.}.}.}.}.}.}.}.}.}.|.}.}.}.}.}.}. X}.}. X X}.}.}. X}.}.}.}.}.}.}.}.}.}.}.}.}.`.}.}.}.}.}.}.}.`.}.}.}.}.}.}.}.}.}. X X X X X X X X XXXXXXXXXXXXXXXXXXX.X.X.XXX.X.X.X.X.X.X.X.X.X.X.X.X.X.XoXoXOXOX.X.X.X.X.X.X.X.X.X.X.X.X.X.XoX.X.X.XoXoX.X.X.XoXoXoXXXXX.X.XXX.X.X.X.X.X.X.X.X.X X XXXXXXXXX X X X X X X XXX X X X X X X X X X X X X X X X X X X X}. X}. X}.}.}.}.}.`.`.`._._._._._._._._.`._._._._._._._._._._._._._._._._._._.Q.Q.Q.Q.Q.Q._._.Q._._._._._.Q.Q.Q.Q.Q.Q._._._._._._._._._._._._._._._._._._._._._._._._._.'._._._.'.'._.'.'._._.E.E.E.E.E.E.E.E.Q.E.E.E.E.E.T.T.T.T.T.T.T.T.R.R.R.R.R.R.R.R.R.R.R.T.T.T.T.K.R.R.R.I.R.K.K.K.K.K.K.K.K.K.K.K.K.K.H.H.K.K.H.H.H.G.G.H.H.H.G.H.H.K.K.K.K.K.J.J.J.L.L.J.J.L.L.J.J.J.J.J.J.J.L.L.J.&.J.J.J.J.L.L.",
"NXNXNXNXNXNXNXNXmXmXmXmXmXkXkXkXkXkXmXmXNXkXkXkXmXmXmXmXmXmXNXNXmXmXmXmXmXmXmXmXkXkXkXkXkXkXkXkXkXkXkXkXkXkXkXkXkXkXkXkXkXkXkXkXkXkXkXkXkXkXkXkXkXkXkXkXkXkXkXkXkXkXkXkXkXkXkXkXkXkXkXkXkXkXkXkXmXmXkXkXkXkXkXkXkXkXkXkXkXkXjXjXkXkXkXkXkXkXkXkXkXkXjXkXmXmXmXjXkXkXmXmXkXkXmXmXjXjXjXjXjXjXkXkXkXkXkXkXkXkXjXjXjXjXjXjXjXjXjXjXjXjXjXjXjXjXjXjXoXjXjXoXoXoXoXoXoXoXoXoXoX.X.X.XoX.X.X.X.X.X.X.X.X.X.X.X.X.X.X.X.XXXXX.X X X X X.X X X X X X X.X X X X X X X X X X X.X.X X X X X X X X X X X X X X X X X X X X X X X X XXX X X X X X X X X X X X X X X X X X X X X X X X X X X X X X X X X X X X X X X X X X}.}. X}. X}.}.}.}.}. X}.}.}.}.}. X}.}. X X X X X X X X X X X X X X X X X X X X X X X X X X}.}.}.}.|.}.}.}.}.}.}.}.}.|.}. X}.}. X X X X XXXXX X XXX X.X.XoXoXoXoXoXoXoXoXoXoXoXoXoXoXoXoXoXoXoXjXjXjXoXjXjXoXoXoXoXoXoXoXoXoXjXoXoXoXoXoXjXjXoXoXoXoXoXoX.XoXoXoXoX.XoXoX.X.X.X.XXX.X.X.X.X.X.X.X.XXXoXXXXXXXXXXXXXXX.X X X X X X X XXX XXX XXX X XXX X X X X X X X X X X X X X}.}. X X X X X X}.`.`.`.`.`.`.`.`.`.`.`.{.`.`.`.`.`.`.`.`.`.`.`.`.`.`._._._._._._._._._._._._._._._._._._._._._._._._._._.`.`._._._.`.`.`.`.`.{.{.`._._._.`._.`.`.`._.`._._._._._._._._._._._.!.!.E._.Q.Q.Q.Q.E.E.E.E.E.E.E.E.E.E.R.W.T.T.T.T.T.T.T.T.R.W.R.T.T.T.T.R.R.R.R.R.R.T.T.T.T.T.T.R.R.R.R.R.K.K.K.K.K.K.K.K.K.K.H.H.K.K.K.K.H.H.K.K.K.K.K.J.J.J.J.J.J.J.J.J.K.K.K.K.J.J.J.J.J.L.J.J.J.J.L.L.",
"NXNXNXNXmXmXmXkXmXmXmXmXkXkXkXkXkXkXkXkXkXkXkXkXkXkXmXmXmXmXmXmXmXmXkXkXkXkXkXkXkXkXkXkXkXkXkXkXkXkXkXkXkXkXkXkXkXkXkXkXkXkXkXkXkXkXkXkXkXkXkXkXjXjXjXkXkXkXkXkXkXkXkXkXkXkXkXkXkXkXkXkXkXkXkXkXmXkXkXkXkXkXkXkXkXkXkXkXkXjXjXjXkXkXkXkXkXkXkXkXkXkXkXjXmXmXkXjXkXjXkXjXkXkXkXjXjXjXjXjXjXjXjXkXkXkXkXkXjXjXjXjXjXjXjXjXjXjXjXjXjXjXjXjXjXjXjXjXjXoXoXoXoXoXoXoXoXoXoXoXoX.X.X.XoX.X.X.X.X.X.X.X.X.XoX.X.X.X.X.X.XXXXXXX.XXX.X X.X X X X X X.XXX.X X.X XXXXX.X.X X.X.X X.X X X XXX X X X.X X X.X.X X XOX X X X.X X X X X X X X X.X.X.X.X.X.X XOX X X X X X.X.X.X X.X.X X.X X.X XXX.XXX.X.X X.X.X X XXX XXXXXXXXX X X X X X X X X X X X X X X X X X X X X X X X X X X X X X X X X X X X X X X X X X X X X}.}.}.}.}.}.}.}.}.}. X X X X X X X XXXXX X X XXX X XXX.X.XoXoXoXoXoXjXjXoXoXoXjXjXjXjXjXoXoXoXjXjXjXjXjXoXjXjXjXjXoXoXoXoXoXoXoXjXoXoXoXoXoXoXjXjXoXoXoXoXoXoXjXjXoXoX.XoXoX.X.X.X.X.XXX.X.XoXoXoX.X.XoX.X.X.X X X XXX X.X XXXXXXX X X XXXXXXXXXXXXX X X}.}. X X X X}.}.}.}.}.}.}.}.}. X X X X X X X}.`.}.`.}.}.}.}. X X}.}.}.`.`.`.`.`.{.{.`.`.`.`.`.`.`.`._._._._._._._._._._._._._._.`.`.`.`.`.`.`.`.`.`.`.`._._._.`.`.`.`.`.`.`.`.`.`.`.`.`.`.`.}.`.{.`._._._._._._._._._._.'.'._._._._._.Q.Q.Q.Q.Q.Q.Q.E.E.E.Q.E.Q.E.W.R.R.W.W.W.R.W.W.W.W.R.W.W.R.R.R.R.R.R.R.R.R.W.R.R.R.R.R.R.R.R.R.R.I.K.K.K.K.R.R.K.K.K.K.K.R.H.K.K.K.K.K.K.K.H.H.H.K.K.J.J.K.J.K.K.K.K.J.J.J.J.L.&.J.J.L.L.L.",
"NXmXmXNXNXmXkXkXmXmXmXmXkXkXmXmXkXmXkXkXkXkXkXlXkXkXkXkXkXkXmXmXkXkXkXkXkXkXkXkXkXkXkXkXkXkXkXkXjXjXkXkXkXkXkXkXkXkXkXkXjXjXkXkXkXkXkXkXkXkXjXjXjXjXjXkXkXkXkXkXkXkXkXkXkXkXkXkXkXkXkXkXkXkXkXkXkXkXkXkXkXkXkXkXjXkXkXkXkXkXkXkXkXkXkXkXkXkXkXkXkXkXjXkXkXkXjXjXmXkXjXjXjXjXjXjXmXmXkXkXjXjXjXjXkXkXjXkXjXjXjXjXjXjXjXjXjXjXjXjXjXjXjXoXoXoXjXjXoXoXjXoXoXoXoXoXoXoXoXoXoXoXoXoXoX.X.X.XoX.X.X.X.XoXoXoX.X.XOXOX.X.X.X.X.X.X.X.X.X.X.XXX.X.X.X.X.X.X.X.X.X.X.XXX.X.X.X.X.X.X.X.X.X.XXXXX.X.X.XoX.X.X.X.X.X.X.X.XXX.X.X.X.X.X.X.X.X.X.X.XoXoXoXoX.X.X.X.X.X.X.XoX.XXXoXXXoXoXoX.XoXoXoXoXoXoXoXoXoX.XXX.XXXXXXXXXXX XXXXX XXX X X XXX X X X X X X X X X X X X XOX X X X X X X X X X X X X X X X X X X X X X X X X X XXXXXXX X X XXX X X X XXXXXXXXXXXXXXX X X X X.X.XoXoXoXoXoXoXjXjXjXjXjXjXjXoXoXoXoXoXoXoXoXoXoXoXoXoXoXoXoXoXoXoXoXoXoXoXoXoXoXoXoXoXoXoXoXoXoXoXoXoXoXoXoXXXoXXXXXXXXXoXXX.X.X.X.XXXXX.X.XXX X XXX X X X X X X X X X X X X X X X X X X X X`.`.`.`.}.`.`.`.`.`.}.{.{.}.}.`.}.}.`.`.}.}.}.}.}.`.`.`.`.`.`.`.`.}.{.{.`.`.`.`.`._._._._._.`._._._.`._._._._._._._._._._._._._._._.`.`._._._._._._._._._._._._.`.`.`._._._._._._._._._._._._.`._.`._._._._._._.Q._._.Q.Q.Q.Q._._.Q.Q.Q.Q.Q.Q.Q.Q.Q.Q.E.E.Q.Q.E.E.Q.E.E.E.E.E.E.E.E.E.E.E.E.E.E.E.E.E.E.E.E.E.E.E.E.E.E.E.E.E.E.E.R.R.R.R.R.R.R.R.R.K.K.K.K.K.K.K.K.K.R.K.K.K.K.K.K.H.K.H.H.G.J.H.G.J.H.K.J.J.J.L.L.L.&.L.J.L.L.L.",
"mXkXmXmXmXmXkXkXmXmXmXmXkXkXkXkXmXmXmXkXkXkXkXkXkXkXkXkXkXkXmXmXkXkXkXkXkXkXkXkXkXkXkXkXkXkXkXkXjXjXkXkXkXkXkXkXkXkXkXkXkXjXjXjXkXkXkXkXkXjXjXjXkXjXkXkXkXkXkXkXkXkXkXkXkXkXkXkXkXkXkXkXkXjXjXkXkXkXkXkXkXkXkXkXjXkXkXkXkXkXkXkXkXkXkXkXkXkXkXkXkXkXkXkXkXkXjXjXkXjXjXjXjXjXjXjXjXkXkXmXjXjXjXjXkXkXkXkXjXjXjXjXjXjXjXjXjXjXjXjXjXjXoXjXoXoXjXjXoXoXoXoXoXoXoXoXoXoXoXoXoXoXoXoX.XoX.XoXoXoX.X.XoXoXoXoXoXoXoXoXoX.XXXoXoXoXoXoXXXoXoXoXoXoXoXoXoXoXoXoXoXoXoXoXjXoXoXoX.X.XoXoXoXXXoXoX.X.XoXjXjXoXoXoXoXjXoXjXjXjXoXoXoXoXoXoXoXoXoXoXjXjXjXjXjXjXoXoXoXoXjXjXXXoXjXjXjXjXjXoXoXoXoXoXoXoXoXoXjXoXoX.X.X.XXXoXXXXX X X X X X XXXXXXXXX X X X X X X X X X X X X X X XXX X X X X X X X X X X X}. X X X X X X X XXXXXXXXXXX X X XXXXXXX X XXXXXXXXXXXXXXXXXXX X X X.XXX.X.XXXoXXXoXoXoXoXoXoXoXoXoXoXXXoXXXXXoXXXXXXXoXoXXXXXXX.X.X.XoX.XoXoXoXoXoXoXoXXXoXoXoXXXoXXXXX.X.X.XXXXX.XXXXXXXXXXX.XXXXX X X X X X X X X X X}. X}.}.}.`.`.`.}.`.'.`.}.'.'._.`.`.`.`.'._._._._._._._._._._._._._._._._._._._._._._._._._._._._._._._._._._._._._._._._._._._.'.'._.'.'.'.'._._.E.!.Q.Q.Q.Q.E.E.E.E.Q.Q._.'.'.'.'.'.'.!._._._.Q.'.'._._.'.'.'.'._._._._._._._._._._._._._.Q.Q.Q.Q.Q.E.E.E.E.E.E.E.Q.Q.Q.E.E.E.E.Q.Q.Q.Q.Q.Q.E.E.Q.E.E.E.E.E.E.E.E.W.E.W.R.W.E.W.E.E.E.E.E.E.E.E.E.E.E.E.E.E.E.E.E.E.E.E.R.R.R.R.R.R.R.R.K.K.K.K.K.H.H.H.K.K.K.K.H.H.K.K.H.H.K.H.G.G.G.G.J.H.K.K.J.J.L.L.L.L.L.L.J.L.L.L.",
"kXkXkXkXmXmXmXmXmXmXmXkXkXkXkXkXmXmXkXkXmXkXkXkXkXkXkXkXkXkXkXkXkXkXkXkXkXkXkXjXkXkXjXjXjXjXkXkXjXjXkXkXkXkXkXkXkXkXkXkXkXjXjXjXkXkXkXkXjXjXjXjXkXjXjXjXkXkXkXkXjXjXkXkXkXkXkXkXkXkXkXkXkXkXkXjXkXkXkXkXkXkXkXkXjXjXkXkXkXkXkXkXkXkXkXkXkXkXkXkXkXkXkXkXjXjXjXjXjXjXjXjXjXkXjXjXjXjXkXjXjXjXjXjXjXjXjXjXjXjXjXjXjXjXjXjXjXjXjXjXjXjXjXjXoXoXjXjXjXjXjXjXjXoXjXjXoXoXoXoXjXoXoXoXoXoXoXjXoXoXoXoXjXjXjXjXoXjXjXoXoXoXoXjXjXjXjXjXoXjXjXjXjXjXjXjXjXjXjXjXjXjXjXjXjXjXjXoXoXoXjXjXoXoXjXjXjXoXjXjXjXjXjXjXjXjXjXjXjXjXjXjXjXjXjXjXjXjXoXjXjXjXjXjXjXjXjXjXjXjXjXjXjXjXjXjXjXjXjXoXoXoXoXoXoXoXoXoXjXoXoX.X.X.XoX.XXX.XXXXX X X X X X XXXXX X X X X X X X X X X X X X X X X X X X X X}.}.}.}.}.}.}.}.}. X X X X X X X X X X X|.|.|. X X X X X X X X}.}.}.}. X X X X}. X X XXX X X X X X X X X XXX XXXXX X X X XXXXXXXXXXXXX X X X X X X X X.X.X.XXX.X.XXX X X X X XXXXXXXXX X X X X X X X X X X X X X}.}.`.`.`.`.`.`.`.`.`.`.`._._._._._._.Q.!.!.Q.!.!.Q.E.Q.Q._.'._.'.'.!.!.Q.!.!.!.Q._.Q.E.Q.E.E.E.E.E.!.T.T.!.Q.Q.E.E.E.E.E.E.E.!.E.E.E.E.W.W.W.W.W.E.W.E.E.E.E.E.E.E.E.W.R.R.W.W.R.R.T.R.R.E.E.W.W.R.T.E.W.E.T.E.E.E.W.W.W.E.R.E.E.E.E.E.E.E.E.W.W.R.W.E.E.W.R.R.E.R.E.R.R.R.R.R.R.R.R.E.E.R.R.R.R.E.W.E.W.E.E.E.E.E.E.E.E.E.E.E.E.E.E.E.E.E.E.R.E.E.W.R.E.E.E.E.E.R.R.R.E.W.W.R.R.E.E.E.E.E.E.R.R.R.R.R.R.R.R.K.K.K.K.K.H.H.K.K.K.K.K.H.K.H.H.H.H.K.K.H.G.G.G.H.H.H.K.H.J.J.J.J.L.L.J.J.J.L.J.",
"kXkXkXkXNXNXNXNXmXmXmXkXkXkXkXkXmXmXkXmXmXmXkXkXkXkXkXkXkXkXkXkXkXkXkXkXkXkXjXjXkXkXkXjXjXjXkXkXjXjXjXkXkXkXkXkXkXkXkXkXkXkXjXjXjXjXkXkXjXjXjXjXkXkXjXjXjXjXjXkXkXkXkXkXkXkXkXkXkXjXjXjXkXkXkXjXkXkXkXkXkXkXkXkXjXkXkXkXkXkXkXkXkXkXkXkXkXkXkXkXkXkXkXkXjXjXjXjXjXjXjXjXjXjXjXjXjXjXkXkXkXjXjXjXjXjXjXjXjXjXjXjXjXjXjXjXjXjXjXjXjXjXjXjXjXjXjXjXjXjXjXjXjXjXjXjXoXoXoXoXjXjXoXoXjXjXjXjXjXoXjXjXjXjXjXjXjXjXjXjXjXjXjXjXjXjXjXjXjXjXjXjXjXjXjXjXjXjXjXjXjXjXjXjXjXjXjXjXjXjXjXoXoXjXjXjXjXjXjXjXjXjXjXjXjXjXjXjXoXjXjXjXoXoXoXjXjXjXoXoXoXjXjXjXjXjXjXjXjXoXoXoXjXoXjXoXoXoXoXoXjXjXoXoXoXoX.X.X.X.X.X.X.X.XoXXX.XXX X X X X X X X XXXXXXX X X X X X X}. X X X X|.|. X X X}.}.}.}.}.}.}.`.}.`.`.`.}.}.}.}.|.}.|. X}.}.}.}.|.|.|.`.}.}.}.`.}.`.{.{.}.{.`.`.`.`.`.}._.}.}.}.}.}._._._.`.`.`.`.`.`.}.}.`.`.`.`.}.}.}.}.}.}.`.`.`.`.`.`.`.`.`.`.`.`.|.`.|.`.`.`.`.`.`.`.`.`.`.`.`.`.`.`.`.`.`.`.`.`.`._._.`.`.`._._._._._._.`._._._.Q.Q.E.Q.E.!.!.T.T.E.E.E.E.E.Q.Q.!.!.!.!.!.!.Q.Q.E.Q.Q.E.E.E.E.E.W.W.R.T.T.T.T.W.W.W.W.W.W.W.W.W.R.E.E.Q.E.W.W.R.R.W.E.R.R.R.R.R.R.R.R.R.R.R.R.I.I.I.K.H.K.I.I.R.R.R.I.I.R.R.R.R.R.R.R.R.R.W.R.K.R.R.R.R.W.R.I.I.Y.H.K.K.K.I.I.K.R.R.R.K.K.K.K.K.R.K.R.R.R.R.R.R.K.R.R.R.R.K.R.R.R.E.E.R.R.R.R.R.R.W.R.R.R.R.R.R.R.R.R.R.R.E.R.R.R.R.R.R.R.R.R.R.R.R.R.W.E.E.E.R.R.R.R.R.R.R.K.K.K.K.K.K.H.G.H.K.K.K.K.H.K.K.H.G.G.G.K.K.H.G.J.G.H.J.G.G.J.J.J.J.L.L.L.L.L.L.L.J.",
"kXnXnXnXkXkXkXkXkXkXkXkXmXmXkXkXkXkXkXmXmXmXkXkXkXkXkXkXkXkXkXkXkXkXkXkXkXkXkXjXjXkXkXkXkXkXkXkXmXkXkXkXkXkXjXjXjXjXjXjXjXjXjXkXjXjXjXjXkXkXkXkXkXkXjXjXjXkXkXkXkXkXkXkXkXkXkXkXkXkXjXjXkXkXkXkXjXjXkXkXkXkXkXkXjXkXkXkXkXkXkXkXkXkXkXkXkXkXkXkXkXkXkXkXjXjXjXjXjXjXjXjXjXjXjXjXjXjXjXjXjXjXjXjXjXjXjXjXjXjXjXjXjXjXjXjXjXjXjXjXjXjXjXjXjXjXjXjXjXjXjXjXjXjXjXoXoXoXoXoXjXjXoXoXjXjXjXjXjXjXjXjXjXjXjXjXjXjXjXjXjXjXjXjXjXjXjXjXjXjXjXjXjXjXjXjXjXjXjXjXjXjXjXjXjXjXjXjXoXoXoXjXoXoXoXjXjXjXjXjXjXjXoXoXoXoXoX.XoXoXoX.X.XoXoXoX.XoXjXjXoXoXoXoXoX.X.X.XoXoX.X.XXXXXXX.X.X.X.X.X.X.XXXXX.X X X X.X.X.X X X XXXXX X X X X X}.}.}. X X X X X}.}.}.}.}. X X X}.}. X}. X X}.}.}.}.}.}.}.}.}.`.}.`.}.`.}.{._.'.|.}.}.}.}.}.'.'.|.}.`._._.`._.`._._._._._._._._._._._._._._.Q.Q.Q.Q.'.'._.'.'.'.'._._._.'.'.'.'.'.'.'.'.'.'.'.'.'.'.'.`.'.'.'.'.'.'.'.'.`.`.'.'.'.'.'.'.'.'._._._._._._._._.'._.'.'._._._._._._._._._._._._._._._._.E.E.Q.Q.T.W.Q.W.W.W.W.W.E.E.E.E.Q.E.!.E.E.E.E.E.E.E.T.E.W.E.E.E.R.W.W.R.R.R.R.R.W.R.W.R.T.R.W.E.W.R.R.E.W.R.I.I.I.K.I.I.I.I.R.R.R.R.R.R.R.R.I.I.I.Y.K.K.K.K.K.K.I.I.K.K.K.K.K.K.I.K.K.K.K.I.I.I.J.Y.Y.Y.K.K.K.K.Y.G.K.K.K.K.K.K.K.H.H.H.H.K.J.K.K.K.K.K.K.K.K.K.I.K.H.H.K.K.H.K.K.K.K.I.I.I.K.K.K.K.H.K.K.I.I.K.H.H.K.K.K.R.I.R.K.K.H.K.I.I.H.H.H.H.H.K.I.R.R.R.R.R.R.R.K.K.K.K.H.H.K.K.K.H.H.K.H.H.K.K.K.H.J.H.J.K.J.J.H.K.J.J.K.J.J.J.J.J.J.J.J.J.J.J.L.L.L.L.L.",
"nXnXnXnXkXkXkXkXkXkXkXkXkXkXkXkXkXkXkXkXkXkXkXkXkXkXkXkXkXkXkXkXkXkXkXkXkXkXkXkXjXjXkXkXkXkXjXjXkXjXjXjXjXkXjXjXjXjXjXjXjXjXjXjXjXjXjXjXkXkXkXkXjXjXjXjXjXjXjXjXjXjXjXkXkXkXkXkXkXkXjXjXkXkXkXkXjXjXkXkXkXkXkXkXjXjXkXkXkXkXkXkXkXkXkXkXkXkXkXkXkXkXkXkXjXjXjXjXjXjXjXjXjXjXjXjXjXjXjXjXjXjXjXjXjXjXjXjXjXjXjXjXjXjXjXjXjXjXjXjXjXjXjXjXjXjXjXjXjXjXoXjXjXjXjXoXjXoXoXoXjXjXjXjXjXjXjXjXjXjXjXjXjXjXjXjXjXjXjXjXjXjXjXjXoXoXoXoXoXjXjXjXjXjXjXjXjXjXjXjXjXjXjXjXjXjXjXjXoXoXoXoXjXoXoXoXoXoXoXoXoXoX.XoXoXoXoX.X.X.X.X.X.XoXoXoX.X.XoXoXoXoX.XoX.X.X.X.X.X.X.X.X.X.X.X.X.X.X.X.X.X.XXX.X X X X XXX.X X X X X X X X X X|.}.}.}.}.}.}.}.}.}.}.}.}.}.}.}.}.}.`.`.`.}.}.}.}.}.}.`.{.`.}.}._._._._._._._.}._._.}.}.}.{.}.}.'.'._.}._._._._._._._._.'._._._._._._._._.Q.Q.Q.Q.Q.Q.Q.Q.Q.Q.Q.Q.Q.Q._.Q.'.'.'.'.'.'._.'._._._.'._.'._.'.'.'.'.'._._._._._._._._._._._._.'.'._._._._._._._._._._._._._._._.Q._.Q._.Q.'.Q._.E._.E._._._.E.Q.Q.Q.W.Q.Q.Q.W.W.W.W.E.E.Q.E.Q.Q.Q.Q.Q.E.E.E.E.E.W.W.W.W.E.E.E.E.W.R.W.R.T.R.W.R.R.R.R.R.R.R.R.I.I.I.I.I.I.I.I.K.I.I.I.I.R.R.I.K.I.R.I.I.K.K.I.I.K.K.K.K.K.K.K.I.J.J.J.J.J.K.K.K.K.J.J.J.P.P.J.K.K.K.K.J.J.J.K.J.J.J.J.J.J.J.J.J.J.J.J.J.J.J.K.K.K.K.J.J.J.K.K.H.K.H.H.H.G.H.K.J.G.H.K.K.H.H.K.H.G.H.H.K.H.K.G.G.G.H.J.H.H.H.J.J.G.K.K.K.G.G.G.G.G.G.G.H.K.K.K.H.H.H.H.G.G.G.G.J.K.K.K.J.J.J.J.J.H.K.J.J.J.J.J.J.J.J.J.J.J.J.J.J.J.J.J.J.J.J.J.J.J.J.L.L.L.L.L.",
"kXkXkXnXkXkXkXkXkXkXkXkXkXkXkXkXkXkXkXkXkXkXkXkXkXkXkXkXkXjXjXjXjXjXjXjXkXkXkXjXjXjXjXjXjXjXjXjXjXjXjXjXjXjXjXjXjXjXjXjXjXjXjXjXjXjXjXjXkXkXjXjXjXjXjXjXjXjXjXjXjXjXjXjXjXjXjXjXkXkXjXjXjXjXkXkXjXjXjXjXkXkXjXjXjXjXjXjXjXjXjXjXjXjXjXjXjXjXkXkXkXkXmXjXjXjXjXjXjXjXjXjXjXjXjXjXjXjXjXjXjXjXjXjXjXjXjXjXjXjXjXjXjXjXjXjXjXjXjXjXjXlXlXlXjXjXjXjXjXjXjXoXjXjXjXoXjXoXoXoXjXjXjXjXjXjXoXoXoXoXjXjXjXjXjXjXjXoXoXoXoXoXoXoXoXoXoXoXoXoXjXjXoXoXoXjXoXoXoXoXoXoXjXjXoXoXoXoXoXoX.X.XoXoXoX.X.X.X.X.X.X.X.X.X.X.X.X.X X.X X.X.X.X.XXXXX.XXX.XXX.XXX.X X X.X X X X X X X X X X X X X X X XXX X X X X X X X X X X X X X}.}.}.`.}.`.}.}.}.}.}.}.}.}.`.`.{.}.{.}.{._.`._.}.}.{.{.{.`._._._._.{._._._._._._._._._._._._._._.{.{._._._._._._._.'.'._._.'.Q._._._._._._.Q.Q.Q.Q.Q.Q.Q.Q.Q.Q.Q.Q.Q.Q.Q._._._.Q.Q.'.Q._.'._._._._._._._._._._._.{._._._._._._._._._._._._._._._._._._._._._._._._._._._._._._._.Q.Q.Q.Q.Q.Q.Q.Q.E.Q.Q.Q.Q.E.E.Q.Q.Q.Q.Q.Q.Q.Q.Q.Q.Q.Q.Q.Q.E.Q.Q.Q.Q.Q.W.W.Q.Q.Q.Q.E.W.W.E.E.W.E.W.R.T.T.T.W.W.W.R.R.R.R.T.T.R.I.R.R.R.R.I.I.I.K.I.K.K.K.R.R.R.K.T.R.R.R.I.I.I.I.Y.K.K.H.G.J.J.K.J.G.J.K.K.K.K.G.K.K.K.K.G.K.K.H.J.K.J.G.G.G.J.J.J.J.J.J.J.J.J.G.G.J.J.K.J.G.J.K.K.G.G.G.G.G.G.J.G.J.G.J.G.J.K.J.G.J.G.J.G.J.G.J.G.J.G.J.G.J.G.L.G.J.J.G.G.G.G.L.G.J.J.G.=.G.G.=.=.L.G.G.G.G.G.G.G.G.G.L.L.L.G.J.J.J.J.J.J.J.J.J.J.J.J.J.J.J.L.L.J.J.J.J.&.&.J.&.&.&.&.L.L.L.L.L.L.J.&.&.&.&.L.",
"kXkXkXkXkXkXkXkXkXkXkXkXkXkXkXkXkXkXkXkXkXkXkXkXkXkXkXkXjXjXkXkXjXkXjXjXkXjXjXjXjXjXjXjXjXjXjXjXjXjXjXjXjXjXjXjXjXjXjXjXjXjXjXjXjXjXjXjXjXjXjXjXjXjXjXjXjXjXjXjXjXjXjXjXjXjXjXjXkXkXkXjXjXjXkXkXjXjXjXkXkXkXjXjXjXjXjXjXjXjXjXjXjXjXjXjXjXjXjXkXkXkXkXjXjXjXjXjXjXjXjXjXjXjXjXjXjXjXjXjXjXjXjXjXjXjXjXjXjXjXjXjXjXjXjXjXjXjXjXjXjXjXlXlXlXjXjXjXjXjXjXjXjXjXjXoXoXoXoXoXoXoXoXoXjXoXoXoXoXoXjXjX.XjXjXjXoXoXoXoXoXoXoXoX.X.X.X.X.XoXjXjXoXoXoXoXoX.X.X.X.XOXoXoXoXOX.X.XOX.X.X.X.X.X.X.X.X.X.X X X XOX X X.X X X X X X X X X X.X.X.X.X.X.X.X.X X X X X X X X X X X X X X X X X X X X X X X X X X X X}.|. X}.}.}.`.`.`.`.`.`.`.`.}.}.}.}.}.}.`.`.{.{.{.{.{._._.}._.`.`.{.`.`._._._._._.{._._._._._._._._._._._._._._._._._._._._._._.'.'._._._._.{._._._._.Q.Q.Q.Q.Q.Q.Q.Q.Q.Q.Q.Q._._._._._._._._._._._._._._._._._._._._._._._.{.{._._._._._._._._._._._._._._._._._._._._._._._._.Q._._._._.Q._.Q.Q.Q.Q.Q.Q.Q.Q.Q.Q.Q.Q.Q.E.E.E.Q.Q.Q.E.Q.Q.E.Q.Q.E.E.Q.E.E.E.E.E.E.W.W.W.W.W.E.E.E.W.W.R.R.R.W.R.T.T.T.T.T.W.W.T.R.W.W.T.T.R.R.R.R.R.R.R.I.I.I.K.K.K.K.R.R.R.T.T.R.R.R.K.I.I.K.K.K.H.K.H.K.K.H.J.J.J.K.K.K.K.J.K.K.K.K.G.J.K.H.J.K.J.G.G.J.J.G.J.J.J.J.G.G.J.G.G.G.J.J.J.J.J.G.G.G.G.G.G.G.G.J.G.G.J.J.J.J.J.K.J.J.J.K.J.J.J.J.J.J.J.G.G.J.J.G.J.J.J.L.J.J.J.G.G.G.G.=.=.=.=.&.&.J.G.J.G.G.L.J.G.L.G.G.&.&.J.J.J.J.J.L.J.J.J.J.L.L.L.L.L.L.&.J.&.L.L.L.&.L.J.&.&.&.&.L.L.L.L.L.L.&.&.&.&.&.&.",
"kXmXkXkXkXkXkXkXkXkXkXkXkXkXkXkXkXkXkXkXkXkXjXjXkXkXkXkXkXjXjXkXkXkXjXjXkXjXjXjXjXjXjXjXjXjXjXjXlXjXjXkXkXjXjXjXkXkXkXkXkXjXkXkXjXjXjXjXjXjXjXjXjXjXjXjXjXjXjXjXjXjXjXjXjXjXjXjXjXjXkXjXjXjXjXjXjXjXjXjXjXjXjXjXjXjXjXjXjXjXjXjXjXjXjXjXjXjXjXjXjXjXjXjXjXjXjXjXjXjXjXjXjXjXjXjXjXjXjXjXjXjXjXjXjXjXjXjXjXjXjXjXjXjXjXjXjXjXjXjXoXjXjXoXjXjXjXoXjXoXoXoXoXoXoXoXoXoXoX.X.XoXoXoXoXoXoXoXoXoXoXoXoX.X.X.XoXoXoX.XoXoX.X.X.X.X.X.X.X.X.XoX.X.X.X.X.X.X X X.X.X.X.X.X X X X.X.X XOX X X X.X.X X X X X X X X XXX X X X X X X X X XXX X X.X.X.XXX X X X X X X X X X X X X X X}.}. X X X X X X X X X X}.}.}.}.}.}.}.}.`.`.`.{._._.}.}.`.`.`.`.}.}.`._.}.`.`.}.`._._._._._._.`._.{._._._._._._._._._._.{._._._._._._._._._._._._._._._.'.Q.'.'._._._._._._.Q.Q.Q.Q.Q.Q.Q.Q._._._._._._.'._._._._._.'.Q._._.Q.Q.Q.Q._._._._._._._._._._._._.{.{._._._._._._._.Q.Q._._._._._._._._._.Q.Q._.Q.Q.Q.Q.Q.Q.Q.Q.!.!.!.!.!.E.W.Q.Q.Q.Q.E.E.E.E.E.E.E.E.E.E.T.T.T.T.!.!.!.!.E.E.W.W.W.W.T.T.R.R.R.R.W.R.R.W.R.R.R.R.T.T.T.T.T.R.R.T.R.R.R.T.T.T.R.R.T.T.R.R.R.R.R.K.K.K.R.R.R.R.T.T.T.T.T.Y.K.K.Y.Y.K.K.H.K.K.K.K.K.K.K.K.G.G.G.H.G.G.K.K.H.H.K.K.G.G.G.G.G.G.J.G.G.G.G.J.J.J.J.G.G.G.G.G.G.K.K.G.G.G.G.G.G.G.G.J.J.G.J.J.J.J.J.K.J.J.J.J.J.J.J.J.J.J.J.J.J.J.J.J.J.J.J.J.J.J.J.J.L.J.L.&.=.=.&.=.=.=.=.L.L.L.&.J.L.L.L.L.&.&.=.J.=.J.&.L.L.J.J.J.L.L.L.L.L.&.&.L.&.&.&.L.&.L.L.=.=.J.J.L.L.J.J.&.&.&.&.&.&.-.-.",
"kXkXkXkXkXkXkXkXkXkXkXkXkXkXkXkXkXkXkXkXkXkXkXkXkXkXkXkXkXkXjXkXkXkXkXjXkXjXjXjXjXjXjXjXjXjXjXjXjXjXjXjXjXjXjXjXkXkXkXkXkXkXkXkXjXjXjXjXkXjXjXjXkXkXkXkXjXjXjXjXjXjXjXjXjXjXjXjXjXjXjXmXkXjXjXjXjXjXjXjXjXjXjXjXjXjXjXjXjXjXjXjXjXjXjXjXjXjXjXjXjXjXjXjXjXjXjXjXjXjXjXjXjXjXjXjXjXjXjXjXjXjXjXoXjXjXjXjXjXjXjXjXoXoXoXoXjXjXjXjXoXjXoXoXjXjXoXoXoXoXoXjXoXoXoXoX.X.X.X.X.X.XoXoXoXoX.X.XoXoX.X.X.X.X.X.XoXoX.X.X.X.X.X.X.XOXOX.X.X X.X.X.X.X.XOX.X X XOX.XOX.X.XOXOX X X.X.X XOX X X X X X X X X X X X X XXX X XXX X X X X X X X X X.X XXX X X X X X X X X X X X X X X X X X}.}. X X X|. X X X X}.}.}.}.`.`.`.`.`.`.}.}._.}.}.}.`.`.`.`.}.}.`.`.`._.`.`._._._._._._._._._._._._._._._._._.{._._.{._._._._._._._._._._._._._._._.Q._._._._.Q._._._._.Q.Q.Q.Q.Q.Q.Q.Q.Q._.Q.Q._._._.'.'.'._.'.Q.Q._.Q.Q.Q.Q.Q.Q._._._._._.Q.Q.Q.Q.Q.Q.Q._._._._._._._.Q.Q.Q.Q.Q.Q.Q.Q._._.Q.Q.Q.Q.Q.Q.Q.Q.E.Q.E.E.E.E.!.T.W.T.T.W.W.W.W.W.W.W.W.W.W.R.R.R.R.T.T.T.T.T.T.T.T.W.W.W.W.W.R.T.T.T.R.R.R.R.W.R.R.R.R.R.R.R.R.R.R.R.R.R.R.R.R.R.R.R.K.K.K.K.K.K.R.I.R.R.R.R.R.R.R.I.R.R.R.T.R.R.R.I.Y.H.K.Y.K.K.K.K.K.K.K.K.K.K.K.H.G.G.H.H.G.H.K.H.H.H.G.G.G.G.G.K.K.K.G.G.G.J.J.J.J.J.J.J.J.G.J.G.K.K.J.G.G.G.G.G.K.K.K.J.J.J.J.J.G.J.J.J.J.J.J.J.J.J.J.J.J.J.J.J.J.J.J.J.J.J.J.J.J.L.J.J.L.L.J.J.=.J.J.J.=.=.&.&.L.L.L.L.L.L.J.J.=.J.J.=.&.&.L.L.L.J.J.L.L.L.L.L.&.&.L.&.&.&.L.L.L.&.-.-.&.&.&.L.&.&.&.&.&.&.&.&.-.-.",
"kXkXkXjXjXjXkXjXkXkXjXjXjXjXkXkXkXkXkXkXkXkXkXkXjXkXkXkXkXjXjXjXkXkXkXjXkXjXjXjXjXjXkXjXkXkXjXjXjXkXjXjXjXjXjXjXjXjXkXkXjXjXjXkXjXjXjXjXjXjXjXjXkXjXkXkXjXjXjXjXjXjXjXjXjXjXjXjXjXjXjXjXjXjXjXjXjXjXjXjXjXjXjXjXjXjXjXjXjXjXjXjXjXjXjXjXjXjXjXjXjXjXjXjXjXjXjXjXjXjXjXjXjXjXjXjXjXjXjXjXoXoXoXoXoXoXoXoXjXjXoXjX.X.X.X.X.XjX.X.XoXoXoXoXoXoXoXoXoXoXoXoXoXoX.X.XOXOXOXOXOXOX.X.X.X.X.X.X.X.X.X.X.X.X.X.X.X.X.X.X.X.X.X.X X X X X X X X X.X.X.X X X X X X X X X X X X X X.X X X.X X X X XXXXXXXXX X X X X XXXXX XXXXX X X XXX X X X XXXXX X X X X X X X X X X X X X X X X X X X}. X}.}.}. X X X X}.}.}.}.`.}.`.`.}.}.`.}.}.}.}.}.}.}.}.}.}.}.{.`.{.`.`.{.{.`.`.`._.`.{.{.`._._._.{.`._._.}.}.}._.`._._._._._._.{._._._._._._._._._._._._._._._.Q._._._._._._.Q.Q.Q.Q.Q.Q.Q.Q.Q.Q.Q.Q.Q.Q._.Q.Q.Q.Q.Q.Q.Q.Q.Q.Q.Q.Q.Q.Q.Q.Q.Q.Q.!.Q.Q.Q.Q.Q.Q.Q.Q._.Q.Q.Q.Q.Q.Q.Q.'.'.Q.!.Q.Q.Q.Q.Q.E.E.E.E.E.E.E.E.E.W.W.W.W.W.W.T.W.W.W.W.W.E.E.E.W.W.W.R.R.R.R.R.W.W.W.T.R.R.R.W.W.T.T.T.T.R.R.R.R.R.R.R.R.I.K.R.R.R.R.R.R.R.R.R.R.R.I.I.I.I.K.K.Y.K.K.I.I.I.I.R.I.I.R.I.K.K.I.R.I.I.I.I.I.Y.Y.K.K.K.K.K.Y.K.K.K.K.K.K.K.K.K.K.H.K.K.K.K.K.K.G.J.K.K.K.K.K.K.J.J.J.J.J.J.J.J.J.J.J.J.K.J.J.J.J.J.J.J.J.H.H.J.K.K.J.G.G.G.G.J.J.J.J.J.J.J.J.J.J.G.G.G.G.J.J.J.J.J.J.L.J.J.L.L.L.J.L.J.J.J.L.L.L.J.J.L.&.L.L.J.J.J.J.J.L.J.J.J.=.J.&.&.L.L.L.L.L.L.L.L.L.L.L.L.J.&.&.&.&.&.&.&.&.&.&.&.&.&.&.&.&.&.&.&.&.&.-.-.-.",
"kXkXjXjXjXjXjXjXkXkXjXjXjXkXjXkXjXkXkXkXjXkXjXjXjXjXjXjXkXkXjXjXjXkXjXjXkXjXjXjXjXjXkXkXkXkXkXjXjXkXjXjXjXjXjXkXjXjXkXkXjXjXjXjXjXjXjXjXkXjXjXjXjXjXkXjXjXjXjXjXjXjXjXjXjXjXkXkXkXjXjXjXjXjXjXjXjXjXjXjXjXjXjXjXjXjXjXjXjXjXjXjXjXjXjXjXjXjXjXjXjXjXjXjXjXjXjXjXjXjXjXoXjXjXoXjXjXoXoXoXjXoXoXoXoXoXoXoX.X.X.X.X.X.X.X.X.X.X.XoX.X.X.X.XoX.X.X.X.X.XoXoXoX.X.X.XOXOX.X.X.X.X.X.X.X.X.X.X.X.X.X.X.X.X.X.X.X.X.X.X.X.X.X X X X X X X X X X X.X X X X X X X X X X XOX X X.X.X.X.X.X.X X XXXXXXXXX X X X X X XXXXXXXXX.XXX X X.X.X X X.XXX X X X X X X X X X X X X X X X X X X X X X}.}.}.}. X X X X}.}.}.}.}.}.}.}.}.}.}.}.`.}.}.}.}.`.}.}.}.}.{.{.}.{.{.{.{.}.}.{._.{.{.{.{.`.`.{.`._._._.}.}.}.`.`.`.`.{.{.`.{.{._._._._._._._._._.Q.Q._._._.Q.Q._.Q.Q._._._.Q.Q.Q.Q.Q.Q.Q.Q.Q.Q._._._.Q._._.Q.Q.Q.Q.Q._._.Q.Q.Q.Q.Q.Q.Q.Q.!.!.!.!.!.Q.Q.Q.Q.Q.Q.Q.Q.Q.Q.Q.Q.Q.Q._._.Q.E.Q.!.!.E.E.E.E.E.E.E.W.W.E.W.W.W.W.W.W.T.R.R.R.R.R.R.R.W.R.R.R.R.R.R.R.R.R.R.W.R.R.R.R.R.W.T.T.T.Y.T.R.R.R.R.R.K.K.R.R.R.R.R.R.R.R.W.R.R.R.R.I.I.K.I.I.K.I.K.K.K.I.I.I.I.I.I.I.I.I.K.K.K.K.I.I.I.Y.K.K.Y.K.K.K.K.I.I.I.K.K.K.K.K.K.K.K.K.K.K.K.K.J.K.K.G.G.G.K.K.K.J.J.J.J.J.J.J.J.J.J.J.J.J.J.J.K.K.K.J.J.J.J.J.H.H.J.J.K.G.G.G.G.G.J.J.J.J.J.J.J.J.J.J.J.G.L.G.J.J.J.L.J.L.J.J.L.&.L.L.J.L.J.J.J.L.&.J.L.L.L.J.J.J.J.J.J.J.J.L.L.J.J.&.J.&.&.J.L.L.L.L.L.L.L.L.L.&.L.J.&.&.&.&.&.&.&.&.&.&.&.&.&.&.-.-.&.&.&.&.-.-.-.-.",
"jXjXkXkXkXkXkXkXkXjXjXjXkXkXjXjXjXkXjXkXjXkXjXjXjXjXkXkXkXkXjXjXjXjXjXjXjXjXjXjXjXjXkXkXkXjXjXjXjXjXjXjXjXjXjXjXjXjXjXjXjXjXjXjXjXjXjXjXjXjXjXjXjXjXjXjXjXjXjXjXjXjXjXjXjXjXjXjXkXkXjXjXjXjXjXjXjXjXjXjXjXjXjXjXjXjXjXjXjXjXjXjXjXjXjXjXjXjXjXjXjXjXjXoXjXjXjXjXoXoXoXoXoXoXoXoXoXoX.XoXoXjXoXoXoXoXoXoXoX.X.X.XoXoXoXoXoXoXjXoXoX.X.XoX.X.XoXoXoXoXoX.X.X.X.X.X.X.X.X.X.X.X.X.X X.X.X.X.X X X X X.X.XXXXX.X.X.X X X X X X X X X.X X X.X X X X X X X.X.X X X X X X X.X.X.X.X.X.X.X.X.X.X X XXX X X X X X X X.XXX.X.X.X X X X X.X.X X X X X X X X X XXX X X X X X X X X X X X X X}.}.}.}. X X X X}.}.}.}.}.}.}.`.`.`.`.`.|.|.`.}.`.`.`.`.`.`.`.`.`.`.}.}.}.`.`.`._.`.}.}.}._._.{._._._._._._.`.{.`.`._._._._._._._._._._._._._._._._._._._._.Q.Q.Q.Q.Q._._._.Q.Q.Q.Q.Q.E.E.Q.Q.Q.Q.Q.Q.Q.Q.Q.Q.Q.Q.Q.Q.Q.Q.Q.Q.Q.Q.Q.E.E.W.Q.Q.E.E.Q.Q.Q.E.Q.Q.E.E.E.E.E.E.E.Q.Q._._.Q.Q.Q.Q.Q.E.E.W.E.E.E.W.W.W.W.W.W.R.W.T.T.T.T.T.T.T.R.R.R.R.R.R.R.R.R.R.R.T.R.R.R.R.R.R.R.R.W.R.T.T.K.T.R.R.R.R.T.T.R.R.Y.R.R.R.R.R.I.R.R.R.R.R.K.K.I.I.R.I.I.I.R.R.R.R.R.R.R.R.I.I.R.I.K.K.R.R.R.I.I.I.K.K.H.K.K.K.K.K.K.K.K.K.K.Y.Y.K.K.K.K.K.K.K.K.J.J.J.K.K.K.K.K.J.J.J.J.J.J.J.J.J.J.J.J.J.J.K.K.K.K.K.K.K.H.K.J.J.J.K.J.J.J.J.J.K.J.J.J.J.J.J.J.J.=.J.J.J.J.J.J.J.J.J.J.L.J.J.J.J.J.J.L.L.L.L.L.&.J.J.&.J.J.J.J.J.J.J.J.J.J.J.L.L.J.J.J.J.&.&.&.&.&.&.&.L.L.L.&.&.L.L.L.&.&.L.L.&.&.&.&.&.&.&.-.-.-.-.-.-.-.&.&.-.-.-.",
"jXjXjXjXjXjXjXjXjXjXjXjXjXkXjXjXjXjXjXjXjXjXjXjXjXjXjXjXjXjXjXjXjXjXjXjXjXjXjXjXjXjXjXjXjXjXjXjXjXjXjXjXjXjXjXjXjXjXjXjXjXjXjXjXjXjXjXjXkXjXjXjXjXjXjXjXjXjXjXjXjXjXjXjXjXjXjXkXjXjXjXjXjXjXjXjXjXjXjXjXjXjXoXoXjXjXjXjXoXoXjXjXjXjXoXoXjXjXjXjXoXoXoXoXoXoXjXoXoXoXoXoXoXoXoXoXoX.X.XoXoXoXoXoXoXoXoXoXoXoXoX.XoXoXoXoXoXoXoXoXoXoXoXoXoXoXoXoXoXoXoXoX.X.X.X.XXXXXXXXXXXXX.X.X.X.X.X.X.X.X.X.X.X.XXXXXXX.X X X X X X X.X X.X.X X X X.X.X X X.X X X.X.X.X.X X X X.X.X.X.XoXoX.X.X.X.X.X X XXXXX.X X X X X.X.XXX.X.X.X.X.X X.X.X.X.X.X.X.X X X.X X X X X X X X X X X X XXX X X X}.}.`.}. X X X X}.}.}.}.}.}.}.`.`.`.`.}.|.|.}.}.`.`.`.`.`.`.`.`.}.}.}.}.}.`.`.`.`.`.}.}.}._.{.{._._._._._._.`.}.`.`.`._._._._._._._._._._._._._._._._._._._.Q.Q.Q.Q.Q._.Q.Q.Q.Q.Q.Q.Q.E.E.Q.Q.Q.Q.Q.Q.Q.Q.Q.Q.Q.Q.Q.Q.Q.Q.Q.Q.Q.E.E.W.W.W.W.Q.Q.E.Q.Q.Q.Q.Q.Q.Q.E.E.E.E.E.E.E.Q.Q.Q.E.E.Q.Q.Q.E.E.W.W.W.E.W.W.W.W.R.R.T.W.W.W.T.W.W.W.W.R.R.R.R.W.W.R.R.R.R.R.T.R.R.R.R.R.R.R.R.R.R.T.R.T.T.R.R.R.R.R.R.R.R.R.T.R.R.R.R.R.R.R.R.R.R.R.K.K.K.R.R.I.I.R.R.R.R.T.R.R.R.K.K.I.K.K.K.K.K.K.K.K.K.K.K.K.K.K.K.K.K.K.K.K.K.K.Y.Y.K.K.K.K.K.K.K.K.K.K.J.K.K.K.K.K.K.K.K.J.J.J.J.J.L.J.J.J.J.J.J.K.K.K.K.K.K.H.K.J.J.J.K.K.J.J.J.J.J.J.J.J.J.J.J.J.J.=.=.L.L.L.L.J.J.J.J.J.L.L.J.J.J.L.J.J.J.J.J.J.L.J.J.J.J.L.J.J.J.J.L.J.J.J.J.J.L.J.L.J.J.&.&.&.&.&.&.&.L.L.&.&.L.L.L.L.L.&.L.&.&.&.&.&.-.-.&.&.-.-.-.-.-.&.&.&.-.-.-.",
"jXjXjXjXjXjXjXjXjXjXjXjXkXjXjXjXjXjXjXjXjXjXjXjXjXjXjXjXjXjXjXjXjXjXjXjXjXjXjXjXjXjXjXjXjXjXjXjXjXjXjXjXjXjXjXjXjXjXjXjXjXjXjXjXjXjXjXjXjXjXjXjXjXjXjXjXjXjXjXjXjXjXjXjXjXjXjXjXjXjXjXjXjXjXjXjXoX.X.X.XjX.X.X.X.X.XjXlX.X.XjXjXjX.X.X.X.X.XjXjXjX.X.XlX.XoXlXoXoXoXoX.XlXlXlXjX.X.X.X.X.XjXjXjXjXjX.X.X.X.X.XjX.X.X.XjXlXlXjXjXoXoXoXoXoXoXoXoXoXoXoXoXoX.X.X.X.X.X.X.X.X.X.X.X.X.X.X.X.X.X.X.X.X.X.X.X.X.X.X.X.X.X.X.X.X.X.X.X.X.X.XXX.X X X.X.X.X.X.X.X.X.X.X.X.X.X.X.XoXoX.X.X.X.X.XXXXX.X.X.X.X.X.X.X.X.XXX.X.XXXXXXXXXXXXX.X.XXXXX.X X X.X X X X X X X X X X X XXXXXXX X X}.`.`.`. X X}.}. X X}.}.}.}.}.}.}.`.`.}.}.|.}.}.}.}.}.}.}.}.}.}.}.}.}.}.`.`.`.`.`.`.}.{.{.}._._.{._._.'._._.`.{._.`.`._._._.{.{._._._._._._._._.Q.Q._._.Q.Q.Q.Q.Q.Q.Q.Q.Q.Q.Q.Q.Q.Q.Q.Q.Q.Q.Q.Q.Q.Q.Q.Q.Q.Q.Q.Q.Q.Q.Q.Q.Q.Q.Q.Q.E.E.E.E.E.E.E.E.T.Q.Q.Q.Q.Q.Q.E.Q.E.W.Q.Q.Q.E.E.E.E.E.E.E.E.E.E.W.R.W.W.W.W.W.W.E.E.W.R.R.T.T.T.T.T.T.W.R.W.W.W.W.W.W.R.R.R.R.R.R.R.R.R.R.R.R.R.R.R.R.R.R.R.R.R.R.R.R.R.R.R.R.T.R.R.R.R.R.R.R.R.R.R.R.R.K.K.I.I.I.K.R.R.R.R.R.R.R.R.K.K.R.K.K.K.K.K.K.K.K.K.K.K.K.K.H.K.K.K.K.K.K.K.K.Y.Y.K.K.K.K.K.K.K.K.K.J.J.K.J.J.J.K.K.K.K.J.J.J.J.J.J.J.J.J.J.J.J.J.J.J.J.J.J.K.K.K.J.J.J.J.H.J.J.J.J.J.J.J.J.J.J.J.J.=.=.L.L.L.L.L.J.J.L.J.L.J.J.J.J.J.J.J.J.J.L.&.&.L.J.J.&.&.&.L.J.L.L.J.J.J.L.L.L.L.L.&.&.&.&.&.&.&.&.&.&.&.&.&.&.L.L.L.&.&.&.&.&.&.&.-.-.-.-.&.&.-.&.-.-.-.-.-.-.-.-.",
"jXjXjXjXjXjXjXjXjXjXjXjXjXjXjXjXjXjXjXjXjXjXjXjXjXjXjXjXjXjXjXjXjXjXjXjXjXjXjXjXjXjXjXjXjXjXjXjXjXjXjXjXjXjXjXjXjXjXjXjXjXjXjXjXjXjXjXjXjXjXjXjXjXjXjXjXjXjXjXjXjXjXjXjXjXjXjXjXjXjXlXjXjXjXjXjX.X.X.X.X.X.X.X.X.X.X.X.X.X.X.X.XjX.X.X.X.X.X.XoXjXjX.XlX.XoXlXlXoXoXoXoXlXjXjXjX.X.X.X.X.XjXjXjXlXjXlX.X.X.X.XjX.X.X.X.X.X.X.X.XoXoXoXoXoXoXoXoXoXoX.X.XoXoXoXoX.X.X.X.X.XoX.X.X.X.X.X.X.X.X.X.X.X.X.X.X.X.X.X.X.X.X.X.X.X.X.X.XXX.X.XXXXX.X.X.XXXXX.X.XXXXX.X.X.XXX.X.X.XoXoXoX.X.X.X.X.X X.X.X.X.X.X.X.X.X.X.X X.X.X.XXXXXXXXX.X.XXXXX.X X X X X X X X X X X X X X XXXXXXX X X X`.`.`. X X}.}.}.}.}.}.}.}.}.}.}.}.}.}.}.|.}.}.}.}.}.}.}.}.}.}.}.}.}.}.}.`.`.`.{.`._.}.{.}._._.}._._._._._.`.{._.`.`._._._._._._._._._._._._.Q.Q.Q.Q.Q.Q.Q.Q.Q.Q.Q.Q.Q.Q.Q._._.Q.Q.Q.Q.Q.Q.Q.Q.Q.Q.Q.Q.Q.Q.Q.Q.E.Q.Q.Q.Q.Q.Q.Q.Q.Q.Q.E.E.E.W.W.W.E.Q.E.E.Q.Q.E.Q.E.W.E.E.E.E.Q.E.E.E.E.E.E.E.T.R.T.R.R.W.W.W.W.E.E.W.R.T.T.T.T.Y.T.T.T.R.R.W.W.W.W.W.R.R.R.R.R.R.R.Y.R.R.R.R.R.R.R.R.R.R.R.T.R.R.R.R.R.R.R.R.T.R.R.R.R.I.I.R.R.R.R.R.R.K.K.I.I.I.K.K.R.R.R.R.R.R.R.K.K.R.K.K.I.K.K.K.K.K.K.K.K.K.H.G.H.K.K.K.G.G.G.G.K.K.H.K.K.H.K.H.H.J.J.J.J.J.J.J.J.J.J.J.J.J.J.J.J.J.J.J.J.L.J.J.J.J.J.G.J.J.J.J.J.J.J.J.J.J.J.J.J.J.G.L.L.J.J.J.J.=.=.=.=.J.L.L.L.L.J.L.L.J.L.L.L.J.J.J.J.L.L.L.L.&.&.&.L.J.&.&.&.L.L.L.&.L.L.L.L.L.L.&.&.&.&.&.&.&.&.&.&.&.&.&.&.&.&.L.&.&.&.&.&.&.&.&.&.-.-.-.&.&.-.-.-.-.%.%.%.-.-.%.%.",
"jXjXjXjXjXjXjXjXjXjXjXjXjXjXjXjXjXjXjXjXjXjXjXjXjXjXjXjXjXjXjXjXjXjXjXjXjXjXjXjXjXjXjXjXjXjXjXjXjXlXlXlXjXjXjXjXjXjXjXjXjXjXjXjXjXjXjXjXlXjXjXjXjXjXjXjXjXjXjXjXjXjXjXjXjXjXjXjXjXjXjXjXjXjXjXoXjXjXjXoX.X.X.X.X.X.X.X.X.X.X.X.XoX.X.X.X.XoXoXoXjXjXjXjXlXlXlXlXoXoXoXlXlXoXoXoXjXjXjXoXoX.XlXjXlXlX.XoX.X.XjXjX.X.X.X.X.X.X.X.X.X.X.X.X.X.XoXoXoXoX.X.X.X.XoXoX.X.XoXoXoXoX.X.X.X.X.X.X.X.X.XoX.X.X.X.X.X.X.X.X.X.X.X.X.X.X.X.X.X.X.X.X.X.X.X.X.X.X.X.X.X.X.X.X.XXX.X.X.X.XoXoX.X.X.X.X X XXXXX X X X.X.XXXXXXX.X.X.X.X.X.X.X.XXX.X.XXXXX.X X X X X X X X X X X X X X X X X X X X X`. X X X}.`.}.}.}.}.}.}.}.}.}.}.}.}.}.`.}.{.}.}.}.}.}.`.}.}.}.}.{.{.`.`.`.{.{.`._._.}.`._._.{._._._._._._.`._._.{._._._._._._._._._._._._.Q.Q.Q.Q.Q.Q.Q.Q.Q.Q.Q.Q.Q.Q.Q.Q._.Q.Q.Q.Q.Q.Q.Q.Q.Q.Q.Q.Q.Q.Q.E.E.E.E.Q.Q.Q.Q.E.E.E.E.Q.Q.E.W.W.W.E.E.Q.E.Q.Q.Q.Q.Q.E.W.W.W.W.E.Q.E.W.W.W.W.E.T.T.T.R.R.R.W.W.E.E.W.W.W.R.R.W.E.E.R.R.R.R.R.R.R.R.R.R.R.R.R.R.R.R.R.I.I.R.R.R.R.R.R.R.R.R.R.R.R.R.R.R.W.R.R.R.R.R.R.R.R.R.I.I.I.R.I.I.I.I.K.K.I.I.K.K.K.I.R.R.R.K.R.R.K.K.I.K.K.I.K.K.K.K.K.K.K.K.K.H.J.J.K.K.K.G.K.K.K.K.K.J.J.K.H.H.H.J.G.G.J.J.J.J.J.J.J.J.J.J.J.J.J.J.J.J.J.J.J.J.J.=.L.L.L.L.J.L.J.J.J.J.J.J.G.G.J.L.L.L.L.L.L.L.J.L.=.&.J.J.J.J.J.J.J.J.J.J.J.&.&.&.&.&.L.L.J.J.L.&.&.&.&.L.L.&.&.&.&.&.&.&.L.L.L.&.&.L.&.&.&.&.&.&.&.&.&.&.&.&.&.&.L.&.&.&.-.-.-.-.-.&.&.-.%.%.%.-.&.%.%.-.%.%.) %.%.%.%.%.",
"jXjXjXjXjXjXjXjXjXjXjXjXjXjXjXjXjXjXjXjXjXjXjXjXjXjXjXjXjXjXjXjXjXjXjXjXjXjXjXjXjXjXjXjXjXjXjXjXlXlXlXlXjXjXjXjXjXjXjXjXjXjXjXjXjXjXjXjXjXjXjXjXjXjXjXjXjXjXjXjXjXjXjXjXjXjXjXjXjXjXjXjXjXjXjXjXjXjXjXoXjX.X.X.X.X.XjX.X.X.X.X.XoX.X.X.XoXoXoXoXjXoXjXlXlXlXlXlXoXoXoXlXoXjXoXoXjXjXjXjXoX.XjXjXoXjX.X.X.X.XjXjX.X.XlXjXjXlX.XoX.XjXjXjX.XoXoXoXoXoX.X.XoX.XoXoX.X.XoXoXoXoX.X.X.X.XoXoXoXoXoX.X.XoXoXoX.X.X.X.X.X.X.X.X.X.X.X.XoX.X.X.XoX.X.X.X.X.X.X.X.X.X.X.X.XXXXX.X.X.XoXoX.X.X.X.X X XXXXX X X.X.XXXXXXXXXXXXX.X.X.X.X.X.XXX.X.XXXXX.X X X X X X X X X X X X X X X X X X X X X X X X X}.}.}.}.}.}. X}.}.}.}.}.}.}.}.`.}.{.}.}.}.`.`.`.}.}.}.}.{.`.`.`.`.`.`.`._._.`._._._.{._._._._._._._._._._._._._._._.Q.Q._._.Q._.Q.Q._.Q.Q.Q.Q.Q.Q.E.Q.Q.Q.Q.Q.Q.Q.Q.E.Q.E.E.Q.Q.!.!.Q.Q.Q.Q.Q.Q.E.E.E.E.Q.E.E.W.W.W.W.W.W.W.E.E.E.E.E.E.E.E.Q.Q.Q.E.Q.W.W.W.W.T.W.E.E.E.E.W.E.W.T.T.R.W.W.W.W.R.W.R.W.W.W.R.W.R.E.E.R.R.R.R.R.R.R.R.R.R.R.R.R.R.R.R.R.I.I.R.R.R.R.R.R.R.T.R.R.T.R.R.R.R.W.R.R.W.R.R.R.R.R.R.I.K.K.I.I.I.I.I.K.K.I.I.K.K.K.I.R.R.K.R.I.I.K.K.I.K.K.K.K.K.K.K.K.K.K.H.H.H.J.J.K.K.G.G.K.K.K.K.J.J.J.J.H.H.G.G.G.G.J.J.J.J.J.J.J.J.J.J.J.J.J.J.J.J.J.J.J.J.J.J.L.L.L.L.L.L.L.L.L.L.L.L.J.G.L.L.L.L.L.L.&.&.&.&.&.&.&.&.&.L.L.L.&.&.J.J.J.J.&.&.&.&.J.L.J.J.&.&.&.&.&.&.&.&.&.&.&.&.&.&.L.L.&.&.&.&.&.&.&.&.&.&.&.&.&.&.&.&.&.&.&.&.&.&.&.&.-.&.-.&.-.-.%.%.%.%.%.%.%.%.%.%.) %.%.%.%.) ",
"jXjXoXoXoXjXjXjXjXjXjXjXjXjXjXjXjXjXjXjXjXjXjXjXjXjXjXjXjXjXjXjXjXjXjXjXjXjXjXjXjXjXjXjXjXjXjXjXjXjXlXjXjXjXjXjXjXjXjXjXjXjXjXjXjXjXjXjXjXjXjXjXjXjXjXjXjXjXjXjXjXjXjXjXjXjXjXjXjXjXjXjXjXjXjXjXjXjXjXoXoXoXoXoX.XoXoX.X.X.XjXjXoXoXoXoXjXjXjXjXoXoXoXoXoXoXlXlX.X.X.XjXoXoXoXoXjXjXjXjXoX.XjXjXjXoXoX.X.XjXjXjX.XoXjXjXjXjX.XoXjXjXjX.X.X.XjX.XoXoXoXoX.X.X.X.X.X.XoXoXoXoXoXoXoXoXoXoXoXoXoX.X.X.XoX.X.X.X.X.X.X.X.X.X.X.X.X.XXX.X.X.XoX.X.X.X.X.X.X.X.X.X.X.X.XXXXX.X.X.XoX.X.X.X.X.X.X.XXXXXXXXX.X.X.X.X.X.X.X.X.X.X.X.X.X.X.XXXXX.X.X.X X X X X X X X X X X X X X X X X X X X X X X X}. X X X X}.}.}.}.`.`.}.`.}.`.}.`.}.}.}.}.}.`.`.`.{.{.{.`.`.`.`.`.`.`.`._.`.`.`._._._.`._._._._._._._._._._._._._._._.Q.Q.Q._.Q._.Q.Q.Q.Q.Q.Q.Q.Q.Q.Q.Q.Q.Q.Q.E.E.Q.Q.Q.Q.E.E.Q.Q.E.E.Q.Q.Q.Q.E.E.E.E.E.W.E.W.W.W.W.W.E.E.R.W.W.E.E.E.E.E.E.E.Q.Q.E.W.E.W.W.W.T.T.T.W.W.W.W.W.W.W.R.R.T.W.W.W.W.R.R.R.E.R.E.R.R.R.R.R.R.R.R.R.R.R.W.W.I.I.R.R.R.R.R.I.I.Y.I.I.R.R.R.R.R.R.I.R.R.R.R.R.R.R.R.I.R.R.R.I.K.K.R.R.R.K.K.K.I.I.I.K.K.K.K.K.K.K.K.I.I.I.I.I.K.K.K.K.K.K.K.K.K.K.K.K.K.K.K.H.K.K.K.K.K.K.G.G.J.J.J.J.J.K.J.J.H.H.G.G.J.J.J.J.J.J.L.J.J.J.J.J.J.J.J.J.J.J.J.=.&.&.J.L.J.L.J.J.J.J.J.=.L.L.L.L.L.J.L.L.L.L.J.J.&.&.&.&.&.&.&.&.&.&.&.&.&.&.=.=.=.=.&.&.&.J.J.=.&.&.&.&.&.&.&.&.&.&.&.&.&.&.&.&.L.&.&.&.&.&.&.&.&.&.&.&.&.&.&.&.-.&.&.&.-.-.-.-.-.&.-.-.-.&.-.-.%.%.%.%.%.%.%.%.%.%.%.%.%.%.%.) ",
"lXjX.XoX.XoX.XoX.XoXjXjXjXjX.XoXjXlXlXjXjXjXjXjXjXjXjXjXjXjXjXjXjXjXjXjXjXjXjXjXjXjXjXjXjXjXjXjXjXlXlXjXjXjXjXjXjXjXjXjXjXjXjXjXjXjXjXjXjXjXjXjXjXjXjXjXjXjXjXjXjXjXjXjXoXoXjXjXjXjX.XoXjXjXoXoXjXjXoXoXoXoXoXoX.X.XjX.XjXjXjXjXoXoXlXlXlXjXjXjXoXoXoXoXoXoXlXlX.X.XlXjXjXoXjXjXjXjXjXoX.X.XjXjXjXjXjX.X.XjXjXjX.X.XoXjXjXoXoXjXjXjXjX.X.X.XjXjXoXoXoXoX.X.X.X.XoXoXoXoXoXoXoXoXoXoXoX.X.X.X.X.X.X.X.X.X.X.X.X.X.X.X.X.X.X.X.X.XXX.X.X.XoX.X.X.X.X.X.X.X.X.X.X.X.XXXXX.X.X.X.X.X.X.X.X X X XXXXXXXXX.X.X.X.X.X.X.XXXXXXXXXXX.X.X.XXXXX.X.X X X X X X X X X X X X X X X X X X X X|. X X X X X X X X X X}.}.}.`.`.}.`.`.`.`.`.}.}.}.}.`.`.`.`.{.{.`.`.`.`.`.`.`.`.`._.`.`.`._._.`.{._._._._._._._._._._._._._._._.Q.Q.Q._.Q.Q.Q.Q.Q.Q.Q.Q.E.E.Q.Q.Q.Q.Q.Q.E.Q.Q.Q.Q.Q.Q.Q.Q.Q.E.E.Q.Q.E.E.E.E.E.W.W.W.W.W.E.W.E.E.E.E.W.W.W.W.E.E.E.E.E.E.Q.E.E.W.W.W.W.W.W.T.T.T.W.W.W.W.W.R.T.T.T.W.W.R.R.R.R.R.R.R.R.R.R.R.R.W.R.R.R.R.R.R.R.I.I.I.I.I.I.I.I.I.K.Y.I.I.I.R.R.R.R.I.I.R.R.R.R.R.R.R.I.K.K.R.I.K.K.K.R.R.R.K.K.K.K.K.K.K.K.H.H.H.K.K.K.K.K.K.K.K.K.K.K.K.K.K.K.K.K.K.K.K.K.K.H.G.K.K.K.K.K.K.G.G.G.J.J.J.J.J.G.G.H.G.G.G.J.J.J.L.J.J.L.J.J.J.J.=.J.J.=.=.J.J.=.&.&.&.&.L.L.L.J.J.J.J.J.&.L.J.J.L.L.L.L.L.L.L.J.J.L.L.&.&.&.&.&.&.&.&.&.&.&.&.=.=.&.&.&.-.&.&.&.&.&.&.&.&.&.&.&.&.&.&.&.&.&.&.&.&.L.&.&.-.-.-.&.-.&.&.&.&.&.&.&.&.-.-.-.-.-.) -.-.&.&.-.-.-.-.-.) %.%.%.%.%.%.%.%.) ) ) %.%.%.%.) ",
".X.XoX.X.X.X.XoXoXoXoXoX.X.X.X.XjX.XlX.XoXjXjXjXjXjXjXjXjXjXjXjXjXlXjXjXjXjXjXjX.X.X.XjXjXjXjXjXjXoXoXoXjXjXjXjXjXjXjXjXjXjXjXjXjXjXjXjXjXjXjXjXjXjXjXjXjXjXlXlXoX.XoXoX.XoXoXoXoXoXoXoXoXoXoXoXoXoXoXoXoXoXoXoXoXoXoXoXoXoX.X.XoXoXoXoXjXoXjXjXjXjXjX.XoXoXoXoXoX.XoXjXjXoXjXjXjXjXjXjXoXoXjXjXjXjXjX.XlXoXjXjX.X.XjXjXjXjXjXjXoX.X.XoXoX.XoXjXoXoXoXoX.X.X.X.XoXoXoXoX.X.X.XoX.X.X.X.X.X.X.X.X.X.X.X.X.X.X.X.X.X.X.X.X.X.XXX.XoXXX.X.X.X.X.X.X.X.X.X.X.X.X.X.X.X.X.XXXXXXX.X.X.X.X X X.X.X.X.XXX X X X.X.X.X.X X X XXX.X.X.X X.XXXXXXX X X X.X X X X X X X X X X X X X X X X X X X X X}.}. X X X X}.`.}.}.`.`.`.`.`.`.}.}.}.}.{.{.{.{.`.`.`.`.{.`.`.`.`.`.`.`.`.`.`._._._._._.`._._._._._._._._._._._._._._.Q.Q.Q.Q.Q.Q.Q._._.Q.Q.Q.Q.Q.Q.Q.Q.Q.E.E.Q.Q.Q.Q.Q._.'.Q.Q.Q.Q.E.E.Q.E.E.E.W.W.W.W.R.W.E.E.E.E.E.E.E.E.E.E.E.E.E.E.E.E.E.E.E.E.Q.E.W.W.W.W.W.T.W.W.W.T.R.W.W.T.T.T.T.T.R.R.W.W.W.W.R.R.R.R.R.R.R.R.R.R.I.R.R.R.R.I.I.I.I.I.I.I.I.I.H.Y.R.W.R.I.R.R.R.I.K.K.R.R.R.R.R.R.R.R.R.I.K.K.K.K.K.I.I.K.H.H.K.K.K.K.K.K.K.K.K.K.K.K.K.K.H.K.H.K.I.I.K.I.K.K.K.K.K.K.K.K.K.K.J.J.J.J.J.J.J.J.J.J.=.=.J.J.J.J.J.J.J.J.G.G.G.G.J.J.J.J.J.J.J.J.J.J.J.&.&.&.=.=.&.&.&.&.L.L.L.L.J.J.J.J.&.&.&.&.J.J.J.J.L.L.&.&.&.&.&.&.&.&.&.=.&.&.&.&.&.&.&.&.&.&.&.&.&.&.&.&.&.&.&.&.-.-.&.&.&.&.&.&.&.&.&.&.&.&.&.&.&.-.-.-.-.&.&.%.-.&.&.-.-.-.%.-.-.%.%.-.%.-.%.%.%.-.-.%.) %.%.%.%.%.%.%.%.%.) ) ) %.%.) ",
".X.X.X.X.X.X.X.XoXoXoXoX.X.XoXoXjXjXjXlX.X.X.X.XjXjX.XjXjXjXjXjX.X.X.X.XjXjX.X.XjXjX.X.XjXjXjXjXjXoXoXoX.XjXjXjXjXjXjXjXjXlXoXoX.X.XjXjXjXjXlXlXlXjXjX.XlX.X.X.X.X.X.X.X.X.XoX.X.X.X.X.XoXoXoXoXoX.X.XOXOXOXOXOXoXoXoXoXoX.X.X.XoX.X.XoX.XoXjXjXjXjXoXOXoXoXoXoXoXoX.XjXjXoXoXjXjXjXoXoXoXoXoXjXjXjXjX.X.X.XoXjXoX.XjXjXjXlX.X.XoX.X.X.XoX.XoXoXoXoX.X.X.X.X.X.XoXoX.X.X.X.X.X.X.XoXoX.X.X.X.X.X.X.X.X.X.X.X.X.X.X.X.X.X.X.X.X.X.X.X.X.X.X.X.X.X.X.X.X.X.X.X.X.X.X.X X X X X.X.X.X.X.X X.X.X.X XXXXX X.X.X.X.X.X X X X X.X X X X X X X X X X X X X X X X X X X X X X X X X X X X X X X X}.}. X X}.}.`.`.`.`.`.`.`.`.`.`.}.}.}.}.{.{.{.`.`._._.`.`.`._.`.`.`.`.`.`.`.`._._._._._.`._._._._._._._._._._._._._._._.Q.Q._.Q.Q.Q.Q.Q.Q.Q.Q.Q.Q.Q.Q.Q.Q.Q.Q.Q.Q.Q.Q.Q._.'.Q.Q.Q.Q.E.E.E.E.E.E.W.W.W.W.R.W.W.W.W.E.E.E.E.W.W.W.E.E.E.E.W.W.W.E.E.E.E.E.W.W.W.W.W.W.W.W.W.T.R.W.W.T.T.T.W.W.W.W.R.R.R.R.R.R.R.R.R.R.R.R.R.R.I.R.R.R.R.I.I.Y.I.I.I.I.I.K.H.Y.I.R.I.I.R.R.I.I.R.R.R.R.R.R.R.R.R.R.R.I.K.I.I.K.K.I.K.K.H.K.K.K.K.K.K.K.K.K.K.K.K.K.K.K.H.K.H.K.K.K.K.I.K.K.K.K.K.K.H.K.K.J.K.J.K.J.J.J.J.J.J.J.J.J.G.G.J.J.J.J.J.G.G.G.G.L.L.L.J.L.J.J.J.J.J.J.J.&.&.&.=.=.&.&.&.&.L.L.L.L.J.J.J.J.&.&.&.&.J.J.L.L.&.&.&.&.&.&.&.&.&.&.&.&.&.&.&.&.&.&.&.&.&.&.&.&.&.&.&.&.&.&.&.&.-.&.&.-.&.&.&.&.&.&.&.&.&.&.-.&.&.-.-.-.%.%.&.%.-.&.-.-.-.-.-.-.%.%.%.%.-.-.) ) ) %.%.%.) %.%.%.%.%.%.%.) %.) ) ) %.%.) ",
".X.X.X.X.X.X.X.X.X.XoXoXoXoXoXoXoXoXoX.XoX.X.X.XoXoX.XoXoXoXoXoXoX.X.X.XoXoXoXoXoXoX.X.X.XoXoXoXoXoXoX.X.X.X.XoX.X.X.X.X.X.X.X.X.X.X.X.X.X.X.X.XoXoXoX.X.X.X.X.X.X.X.X.X.X.X.X.X.X.X.X.X.XoX.X.X.X.X.X.X.X.XOXOXoXoXoXoX.X.X.X.X.X.X.X.X.XoX.XoX.X.X.X.X.XoX.XOXoXoX.XoXoXoXoXoX.X.X.X.X.X.X.X.X.XoXoXoXoXoXoXoXoXoXjXoX.X.X.X.X.X.XoXoXoX.X.X.XXX.X.X.X.XXXXXXX.X.X.X.X.X.X.X.X.X.X.X.X.X.X.X.X.X.X.X.XoX.X.X.X.X.X.X.X.X.X.X.X.X.X.X.X.X.X.X.X.X.X.X.X.X.X.X.X.X.X.X.X X X X.XXXXXXX.XXXXX X X X X.X.X.X.X.X.X XXXXX X X X X X X X X X X X X X X X X X X X X X X X X X X X X X X X X X}.}.}.}.}.`.`.`.`.`.`.`.`.`.`.`.`.}.{.{.{.{.{.`.`._.`.`.`._._._.`.`._._.`.`._._._._._._._._._._._._._._._._._._._._._._._._._.Q.Q.Q.Q.Q.Q.Q.Q.Q.Q.Q.Q.E.Q.Q.E.E.E.Q.Q.Q._._.Q.Q.Q.Q.Q.E.Q.Q.Q.W.W.W.W.W.R.R.W.W.W.W.E.E.W.W.W.W.W.W.E.R.W.R.W.W.W.W.W.W.W.R.W.R.W.T.T.W.W.T.R.W.W.T.R.R.R.W.W.W.R.R.R.R.R.R.R.R.R.R.R.R.R.R.R.R.R.R.R.K.K.K.I.I.I.K.K.H.H.K.I.I.I.I.K.I.K.K.R.R.R.R.R.R.K.K.K.K.I.I.K.I.I.K.K.K.K.H.K.K.K.K.K.K.H.H.K.Y.H.K.K.K.H.H.G.G.K.K.K.K.K.K.K.K.K.K.K.H.J.K.K.J.K.K.K.J.J.J.J.J.J.J.J.J.J.L.G.J.K.J.J.L.L.J.J.J.L.L.J.J.&.L.L.J.J.J.J.L.&.&.=.=.&.=.&.&.&.&.&.&.J.J.J.&.&.&.&.&.&.&.L.L.&.&.&.&.&.&.-.&.&.&.&.&.&.&.&.&.&.&.&.&.&.&.&.&.&.&.&.&.&.&.&.-.-.-.&.-.-.-.-.&.-.-.-.-.%.-.-.-.-.-.%.%.%.%.%.%.-.-.%.%.%.%.) ) %.%.%.%.%.%.%.%.) %.) ) ) ) ) ) ) ) %.%.) %.%.) ) ) ) ) ",
".X.X.X.X.X.X.X.X.X.X.X.X.X.X.X.XOX.XoX.XoXoX.X.X.X.X.X.X.X.X.X.X.X.X.X.XoXoX.X.X.X.X.X.X.X.X.X.X.X.X.X.X.X.X.X.X.X.X.X.X.X.X.X.X.X.X.X.X.X.X.X.X.X.X.X.X.X.XOXOXOXOX.X.X.X.X.X.X.X.X.X.X.X.X.X.X.X.X.X.X.X.X.XOX.XOX.X.X.X.X.X.X.XOX.XOX.X.X.XoX.X.X.X.X.X.X.X.XoXoXoXoX.X.X.X.X.X.X.XOX.X.X.XoX.X.XoXoXoXoXoXoXoXoXoXoX.X.X.X.X.X.X.X.X.X.X.X.X.X.X.X.X.X.X.X.X.X.X.X.X.X.X.X.X.X.X.X.X.X.X.X.X.X.X.X.X.X.X.X.X.X.X.X.X.X.X.X.X.X.X.X.X.X.X.X.X.X.X.X.X.X.X.X.X.X.X.X.X X X X.X X X X.X.XXX X X X X X.X.X X X X XXXXX X X X X X X X X X X X X X X X X X X X X X X X X X X X X X X X X}.}.}.}.`.}.`.}.`.`.`.`.}.`.`.`.`.`.`.{.{.{.{.{.`.`.`.`._.`._._.`.`.`._._._._._._._._._._._._._._._._._._._._._._._._._._._._._.Q.Q.Q.Q.Q.Q.Q.Q.Q.Q.Q.Q.E.Q.Q.E.E.E.E.Q.Q._._.Q.Q.Q.Q.E.E.Q.Q.W.E.W.W.W.W.R.R.W.W.W.W.W.E.W.W.W.W.W.W.E.E.W.W.W.W.R.R.R.W.T.T.T.R.W.T.T.T.T.T.W.W.W.W.R.R.T.R.R.R.R.R.R.R.R.R.R.R.R.R.R.Y.R.R.R.R.R.R.R.K.I.I.I.I.K.K.K.H.K.K.K.I.K.K.I.K.K.K.K.R.I.I.I.K.K.K.K.K.K.K.K.K.K.K.H.H.H.H.K.K.K.K.K.K.K.K.K.K.H.K.K.K.H.G.G.G.K.K.K.K.K.K.K.H.K.K.K.H.K.K.K.K.K.K.K.J.J.J.J.J.=.J.J.J.J.J.G.J.K.J.J.J.J.J.J.J.&.&.L.L.&.L.L.L.J.J.J.L.&.&.=.=.=.=.&.&.&.&.&.&.&.&.&.&.&.&.&.&.&.&.&.&.&.&.&.&.&.&.&.&.&.&.&.&.&.&.&.&.&.&.&.&.&.&.&.&.-.&.&.&.-.&.&.-.-.-.&.-.-.-.-.-.-.-.-.-.-.-.-.-.-.%.%.%.%.%.%.%.-.-.%.) %.%.) ) ) ) ) %.%.%.%.%.%.%.) ) ) ) ) ) ) ! ) ) ) ) %.) ) ) ) ) ",
".X X X X.X.XOX X.X.X.X.X.X X X X X XXX.X.X.X.X.X.X.X.X.X.X.X.X.X.X.X.X.X.X.X.X.X.X.X.X X X.X.X.X X.X.X.X.XOX X.X X X.X.XOXOX.X.X.X.X.X X X.X.XOX.XOX.X.X.X.X X X.X.X.X.X.X.X.X.X.X.X X X.X.X.X.X.X.X.X.X.X.X.X.X.X.X.X.X.X.X.X.X.X.X.X.X.X.X.XoX.X.XoXoXoXoX.X.X.X.X.X.X.X.X.X.X.X.X.X.X.X.X.X.X.X.X.X.XXXoX.X.X.X.X.X.X.X.X.X.X.X.X.X.X.X XXXXX X X X.X.X.XXXXX.X.X.X.X.X.XXXXX.X.XXXXXXXXX.X.X.X.X.X.X.X.X.X.X.X.X.X.X.X.X.X.XXXXXXXXX.X.X.X.X.X.X.X.XXXXX X X X X X X X X X X X XXXXX X X X X X X X X X X X X X X X X X X X X X X X X X X XXX X X X X X X X X X X X X X X X`. X}.`.}. X X}.`.`.}.}.}.`.`.`.}.`.`.`.`.`.`.`.`.`.`.`.`.`.`.`._.`.`.`.`._._._._.`._._._._._._._._._._._._._._._._._._._._._._.'._._._._._._._.Q._.Q.Q.Q.E.E.E.E.Q.E.E.E.E.Q.E.E.Q.Q.Q.Q.Q.E.E.E.Q.E.E.W.R.R.R.T.R.W.W.W.W.W.T.T.W.W.W.W.W.W.W.W.W.W.W.R.R.R.R.R.T.T.T.T.T.T.T.T.T.R.R.R.W.W.R.R.R.R.R.R.R.R.R.T.R.R.R.R.R.T.R.Y.Y.Y.R.R.R.R.R.R.K.I.I.I.K.K.K.K.K.K.K.K.K.K.K.K.K.K.K.K.K.K.K.K.K.K.K.K.K.K.K.K.K.K.K.K.K.K.K.K.K.K.K.K.K.K.K.K.K.K.K.K.K.K.K.K.K.K.K.H.K.K.K.H.K.K.H.G.J.K.K.J.K.K.J.J.J.J.J.J.L.L.L.J.J.J.L.J.J.L.J.J.J.=.&.=.&.=.&.&.&.&.&.L.L.L.L.L.&.&.&.&.=.=.&.&.&.&.&.&.&.&.&.&.&.&.&.&.&.&.&.&.&.&.&.&.&.&.&.&.&.&.&.&.&.&.&.&.-.-.&.&.&.&.&.&.&.&.&.&.-.%.&.&.-.-.&.&.-.-.%.-.-.-.-.-.-.-.%.%.%.%.%.%.%.%.%.%.-.-.-.) %.%.%.%.) ) ) %.) %.) %.%.%.) ) ) ) ) ) ) ) ) ) ) ) %.) ! ) ) ) ",
" X X X X X X X X X X X X X X X X X X X XOXOXOXOXOXOXOXOX X X.X X X X X X X X XOX X X X X X X.X.X X X.X.XOX X X X X XOXOX XOX X X X X.X X X XOXOXOXOX.XOXOX.X X X.X.X.X.X X X.X.X X X X X.X.X.X.X X.XOXOX X X.X.X.X.X.X.XOXOX.X.X.X.X.X.X.X.X.X.X.X.XoX.XoX.XoX.X.X.X.X.X.X.X.X.X.X.X.X.X.X.X.X.XOX.X.X.X.X.X.X.X.X.X.X.X.X.X.X.X.X.X X X X X X X X X X X X X X X.X XXXXX X X X X X X X X X X X X.X.X X X X X.X.X.X.X.X.X.X.X.X.XXXXX XXXXXXX.X X X X X X X X X X X X X X X X X X X X X X X X X X X X X X X X X X X X X X X X X X X X X X X X X X X X X X X X X X X X X X X X X X}.}.`.}. X X}.`.`.`.`.`.`.`.}.}.}.}.}.`.`.`.`.`.`.`.`.`.`.`.`._.`.`.`.`._._._._._._._._._._._._._._._._._._._._._._._._._._._._._._._._._._._.'._.Q.Q.Q.E.E.E.E.Q.E.E.E.E.Q.Q.E.Q.Q.Q.!.E.E.E.!.E.E.W.W.R.R.T.T.R.W.W.E.W.T.T.T.W.W.W.W.W.W.R.R.R.R.R.R.R.R.R.W.R.T.T.T.R.T.T.W.T.T.W.W.W.W.W.R.R.R.R.R.R.R.W.R.R.R.R.R.R.T.R.Y.K.Y.R.R.R.R.R.R.K.K.I.I.K.K.K.I.K.K.K.K.K.K.K.K.K.K.K.K.K.K.K.K.K.K.K.K.K.K.K.K.K.H.K.K.K.K.K.K.K.K.K.K.Y.Y.K.H.K.K.K.K.K.K.G.G.H.H.H.G.H.K.H.H.H.H.G.G.J.K.J.G.J.J.J.J.J.J.J.J.L.L.L.L.J.J.L.L.L.L.J.J.=.=.&.&.&.&.&.&.&.&.&.&.L.L.L.&.&.&.&.&.&.&.&.&.&.&.&.&.&.&.&.&.&.&.&.&.&.&.&.&.&.&.&.&.&.&.&.&.&.&.&.&.&.&.&.&.-.-.&.&.&.&.&.&.&.&.&.%.%.-.&.&.-.-.&.&.-.-.%.-.-.%.-.-.-.-.%.-.) %.%.%.%.%.%.%.%.%.-.) %.%.%.%.) ) %.%.) %.) %.%.) ) ) ) ) ) ) ) ) ) ) ) ) ) ) ) ) ) ! ",
" X X X X X X X X X X X X X X X X X X X X X X X X X X X X X X X X X X X X X X X X X X X X X X X X X X X X X X X X X X X X X X X X X X X X X X X X X X X X X X X X.X X.X.X X X X X X X X X X X X X X X X X X X.X.X.X.X.X.XOXOXOXOX.X.X.X.X X X.X.X.X.X.X.X.X.X.X.X.X.X X X X X.XXX X X X X X X X X X X XXX X X X X X X X X X X X X X X X X X X X X X X X X X X X X X X X X X X X X X X X X X X X X X X X X X X X X X X X X X X XXX X X X X X X X X X X X X X X X X X X X X X X X X X X X X X X X X X X X X X X X X X X X X X X X X X X X X X X X X X X X X X X X X X X X X`.`. X X}.}. X X X}.}.`.`.`.`.`.}.}.}.}.}.}.}.`.`.`.`.`.`.`.`.}.{.{.`.`._._._._._._._._.`._._._._._.`._.`._._._._._._._._._._._.'.'._._._._._._._._._.E._._._.Q.Q.Q.Q.E.Q.E.E.E.E.Q.Q.Q.E.E.E.E.E.E.E.E.E.E.E.E.E.R.R.R.W.W.W.W.T.T.T.T.T.T.W.W.R.R.R.R.R.R.R.R.R.R.R.W.W.T.T.R.T.T.T.R.T.R.R.R.W.W.W.R.R.R.R.R.R.W.W.W.R.R.R.R.R.R.R.T.T.T.R.R.R.Y.I.R.K.K.R.I.R.R.K.K.K.K.K.K.K.K.K.K.K.K.K.K.K.K.K.K.K.K.K.K.K.K.K.H.K.K.K.K.K.K.K.K.K.K.K.K.K.K.K.H.H.H.H.H.K.J.K.G.K.K.J.J.H.K.H.H.H.H.H.H.K.K.K.G.J.J.J.J.J.J.J.J.J.L.&.L.L.L.L.J.&.&.&.&.&.&.&.&.&.&.&.&.&.&.&.&.&.&.&.&.&.&.&.&.&.&.&.&.&.&.&.&.&.&.&.&.&.&.&.&.&.&.&.&.&.&.&.-.&.&.&.&.&.&.&.&.&.&.&.&.-.-.&.&.&.&.&.&.&.&.-.-.-.%.%.-.-.-.-.-.-.-.-.-.-.-.-.-.-.-.%.) ) %.%.) %.-.-.%.-.-.-.) %.%.%.%.) ) ) %.%.) %.%.%.) ) %.) ) ) ) ) ) ) ) ) ) ! ! ) ! ) ! ",
" X X X X X X X X X X X X X X X X X X X X X X X X X X X X X X X X X X X X X X X X X X X X X X X X X X X X X X X X X X X X X X X X X X X X X X X X X X X X X X X X X X X X X X X X X X X X X X X X X X X X X XOXOX X.X.X.XOX XOX X X X.X X X X X X.X.X.X X X X X X X X X X X X X X X X X X X X X X X X X X X X X X X X X X X X X X X X X X X X X X X X X X X X X X X X X X X X X X X X X X X X X X X X X X X X X X X X X X X X X X X X X X X X X X X X X X X X X X X X X X X X X X X`.`. X X X X X X X X X X X X X X X X X X X X X X X X X X X X X X X X X X X X X X X X X`.`. X X}.}. X X`.`.}.}.}.`.`.`.}.}.}.}.`.`.`.`.`.`.`.`.{.`.{.}.{.{.`.`._._.`._._._._._.`._._._._.`.`.`.`.`._._._._._._.'._._._.'.'.'._._._._.'.Q._._.E.'.'._.Q.Q.Q.E.E.E.Q.E.E.E.Q.Q.E.E.!.E.E.E.E.E.E.E.E.E.W.E.E.E.E.W.W.W.W.T.T.T.T.T.T.R.R.W.W.R.R.R.R.R.R.R.R.W.W.W.T.T.T.T.T.R.R.R.T.R.R.W.W.W.R.R.R.R.R.T.T.R.R.R.R.R.R.R.R.R.R.R.R.R.R.R.R.I.R.R.K.R.R.R.K.H.H.K.K.K.I.I.I.I.K.H.K.K.I.I.K.K.K.K.K.K.K.K.K.K.K.K.K.K.K.K.K.K.K.K.K.K.K.K.K.K.K.K.H.H.H.K.K.G.G.G.G.G.G.K.K.K.H.H.K.K.K.K.K.K.K.J.J.J.J.J.J.J.J.J.J.L.L.L.L.L.J.J.L.&.=.&.&.&.&.&.&.&.&.&.&.&.&.&.&.&.&.&.&.&.&.-.&.&.&.&.&.&.&.&.&.&.&.&.&.&.&.&.&.&.&.&.&.-.-.-.-.&.-.-.-.-.&.&.&.&.&.-.-.&.&.-.-.-.&.-.-.-.-.-.-.-.%.-.-.-.-.-.%.-.%.%.-.-.-.%.-.%.) ) %.%.) %.-.%.) %.) ) ) ) %.%.) ) ) ) ) %.) ) ) ) ) ) ) ) ) ) ) ) ) ) ) ) ) ! ! ! ! ! ! ",
"`. X`.`.`.`. X X XOX`.`. X X X X X X X X X X X X X X`.`. X X X X X X X X X X`.`. X X`. X X X X X X X X X X X X X X X X X X X X X X X X X X X X X X X X X X X X X X X X X X X X X X X X X X X X X X X X X X X X X X X X X X X X X X X X X X X X X X X X X X X X X X X X X X X X X X X X X X X X X X X X X X X X X X X X X X X`. X X X X X X X X X X X X X|.|.|.|.`.}.}. X X X}.}. X`.`. X X}.}.}.`. X X X X X X X X X X X X X X X X X X X X X X X X X X X X X X X X X X X X X X X X X X X X X X X`. X X X X X X X X X`.`. X X X X`. X}.}.}. X X X}.}. X X X X}.}.}.}.}. X X}.`.}.`.`.}.`.`.`.`.`.`.`.`.`.`.}.}.`.}.`.`.{.`.`.`.`._.`.{.{.`.`.`.`.`._._._._.`._._._._.`.`.`.`._._._._._._._._._._._._._._._._._._._._._._._._._._.Q._.E.E.E.E.E.!.E.E.E.E.W.W.W.W.E.E.E.E.E.E.W.W.E.W.W.W.W.W.W.W.E.R.R.W.W.R.T.T.W.W.R.T.T.T.W.W.T.R.R.Y.T.R.R.R.R.R.R.R.R.R.R.R.R.R.R.R.W.W.R.R.R.R.R.I.I.I.R.R.R.R.R.R.I.I.I.K.R.R.R.R.R.K.K.R.R.K.R.K.H.K.K.I.H.Y.Y.K.K.K.K.K.Y.Y.Y.K.K.K.K.Y.K.K.K.K.K.K.K.K.K.K.K.K.K.H.H.K.H.K.K.K.H.H.K.K.K.K.K.K.K.K.K.G.G.J.K.G.G.G.J.G.K.K.J.H.H.H.J.J.J.&.&.J.J.=.J.J.=.=.=.J.L.&.L.L.L.L.=.&.&.&.&.&.&.&.&.&.&.&.&.&.&.&.&.&.&.&.&.&.&.&.&.&.-.&.&.&.&.&.&.&.&.&.&.&.&.&.&.-.&.&.&.&.&.&.&.&.&.&.&.&.&.&.&.&.&.-.&.&.-.-.-.-.-.-.-.-.-.-.-.-.%.%.-.&.) -.-.%.%.%.%.%.%.%.%.%.%.%.%.%.%.%.%.%.%.) ) ) ) ) ) ) ) ) ) ) ! ) ) ! ! ) ) ) ) ) ) ) ) ) ) ) ! ! ) ) ) ! / ! ",
" X X X`.`. X X X X X`.`.`. X X X X X X X X X X X X X`. X X X X X X X X X X X`.`. X X X X X X X X X X X X X X X X X X X X X X X X X X X X X X X X X X X X X X X X X X X X X X X X X X X X X X X X X X X X X X X X X X X X X X X X X X X X X X X X X X X X X X X X X X X X X X X X X X X X X X X X}. X X X X|. X X X X|.|.}.}. X`.}.}.}.|.}. X}.|.}. X X|.}.|.}.}.`.`.`.`.}.}.}.}.}.`.`. X}.}.}.}.`.`. X X X X X X X X|.|.|.|. X X X X X X X X X X X X X X X X X X X X X X X X`.`.`.`. X X X`. X X`.`. X`. X`. X X X X`.`.`.`.`.`.`.`.}.}.}.`.`.}.}.}.`.}. X X}.}.`.`.`.}.}.`.`. X`.`.`.`.`.`.`.`.`.`.`.`.`.`.`.`.}.`.`.{.`.`.`.`._.`.`.`.`.`.`.`.`.`._._.`.`.`._._._.`.`.`.`._._._._._._._._._._._._._._._._._._.E._._._._._._._.Q.Q.Q.E.Q.Q.E.E.E.E.E.E.W.W.W.W.E.E.E.E.E.E.W.W.E.W.T.T.W.W.W.W.E.R.R.E.W.R.T.R.R.R.R.R.T.T.T.R.R.R.R.R.R.R.R.R.R.R.R.R.R.R.R.R.R.R.R.R.R.R.R.R.R.R.R.I.I.I.R.R.R.R.R.R.I.I.R.R.I.R.I.R.R.R.R.R.R.K.R.K.H.K.H.K.H.Y.Y.Y.K.K.K.K.Y.Y.K.K.K.K.K.K.K.K.K.K.K.K.K.K.H.K.K.K.K.K.K.K.H.K.K.K.K.K.K.H.K.K.K.K.K.K.G.G.G.G.G.G.J.J.J.J.G.G.G.G.J.H.J.K.J.&.&.=.=.=.&.&.&.=.=.=.L.L.L.&.&.&.&.&.&.&.&.&.&.&.&.&.&.&.&.&.&.&.&.&.&.&.&.&.&.&.&.&.&.&.&.&.&.&.-.-.-.-.&.&.-.-.&.&.&.&.&.&.&.&.&.&.&.&.&.&.&.&.&.&.&.-.-.-.-.-.-.-.%.-.%.%.-.-.-.%.%.%.%.%.-.-.-.-.) ) ) ) %.%.%.%.%.) ) ) %.%.%.%.%.%.) ) ) ) ) ) ) ) ) ) ! ) ! ! ! ) ) ) ) ) ) ) ) ) ) ) ! ! ) ! ! / / ! ",
" X X X`.`.`. X X X X X`.`.`.`. X`.`. X X X X X X X X X X X X X X X X X X X X X X X X X X X X X X X X X X X X X X X`.`.`.`. X X X`. X`.`. X`. X X X X`.`.`.`. X X`.`.`. X X X X X X`.`.`.`.`. X`. X X X X`.`.`.`. X X X X X X X X`.`. X X X X X X X X X X X X X X`. X}.}.}.}.}.}.}.}.}.}. X X}.}.`.`. X`.}.`.|. X}.}.}.`.`.`.`.`.`.`.`.`.`.`.`.`.`.}.`.`.`.}.`.`.`.`.`.`.}.}.}.}.`.`.`.}.}.`.}.}.}.}.}.}.}.}.}.}.}.}.`.`.`.|.|.|.}. X`.`. X X X X}.}.}.}.}.}. X X X`.`.`.`.`.`.`.`.`. X`.`.`.`.}.`.}.}.`.}.`.}.}. X}.`.`.`.`.`.`.`. X}.`.`.`.`.`.`.`.`.`.`.`.`.`.`.`.`.`.`.`.`.`.`.`.`.}.`.`.`.`.`.`.`.`.`.`.`.`.{.`.`.{.`.`._._._.`.`.`.`.`.`.`.`.`.`._.`.`._._._._._._.`._._._._._._._._._._._._._._._.'.'.'._.E._._._._._._._.Q.Q.Q.E.E.Q.E.E.Q.E.Q.E.E.E.E.E.E.E.!.!.E.E.W.W.E.E.T.T.R.W.W.W.E.R.R.E.W.R.R.R.R.R.W.W.W.R.T.R.R.R.R.R.R.R.R.R.R.R.R.R.R.R.R.R.R.R.R.R.R.R.R.R.R.R.R.R.R.R.R.R.R.R.R.R.K.K.R.R.K.R.I.I.R.K.K.R.R.K.I.K.K.K.G.H.K.K.K.Y.K.K.K.K.Y.K.K.H.K.K.K.J.J.J.J.J.K.K.H.H.K.K.K.K.K.K.K.K.K.K.K.K.K.K.K.H.K.K.K.J.K.J.J.J.J.J.J.J.J.J.J.J.J.J.J.J.J.J.J.J.J.J.=.=.=.&.-.-.-.-.&.&.L.L.&.&.&.&.&.&.&.&.&.&.&.&.&.&.&.&.&.&.&.&.&.&.&.-.-.-.&.&.&.&.&.&.&.-.-.&.-.-.-.-.-.-.-.-.-.-.-.-.-.-.&.&.&.&.-.-.-.&.&.&.&.&.&.&.-.-.-.-.%.%.) %.%.%.) ) %.%.%.%.%.%.%.%.%.%.) ) ) ) ) %.%.%.%.) ) ) ) %.%.%.) ) ) ) ) ) ) ) ) ) ) ) ! ! ! ! ! ! ) ) ) ) ) ) ) ) ! ! ! ! ! ! / / / ) ",
"`. X`.`.`.`.`. X X X`.`.`.`.`. X`.`.`.`. X X X X X X X X X X X X X X X X X X X X X X X`. X X X X X X X X`.`. X X`.`.`.`.`.`.`.`.`.`.`.`.`.`.`.`.`.`.`.`.`.`. X X`.`.`.`. X X X`.`.`.`.`.`.`.`.`. X`.`.`.`.`.`.`. X X X X X X X X`.`.`.`.`.`. X X X X X X X X X|.`.`.`.`.}.`.`.`. X}.`.`.`.`.}.}.`.`.`.}.}.`.}.|.}.`.`.`.`.`.`.`.`.`.`.`.`.`.`.`.`.`.`.`.`.`.`.`.`.`.`.`.`.`.`.`.`.`.`.`.`.`.|.}.}.}.`.`.`.`.}.}.`.`.`.`.`.`.|.`.`.`.`.`.}.}. X X`.`.`.`.`.`.`.}.`.`.`.`.`.`.`.`.`.`. X}.`.`.`.}.`.`.`.`.`.`.`.}.}.`.`.`.`.`.`.`.`.`.`.`.`.`.`.`.`.`.`.`.`.`.`.`.`.`.`.`.`.`.`.`.`.`.`.`.`.`.`.`.`.`.`.`.`.`.`.`.`.`.`.`.`._._._._._.`.`.`.`.`.`.`.`.`._._.`._._._._._._._._._._._._._._._._._._.'._._._.E.E.'._._._._._._._._.Q.Q.Q.E.E.E.E.E.E.Q.Q.E.E.E.E.E.E.E.!.!.E.E.E.W.E.E.T.T.T.R.R.W.W.E.R.R.E.W.R.T.R.R.R.R.R.R.R.R.R.R.R.R.R.R.R.R.R.R.R.R.R.R.R.I.I.R.R.R.R.R.W.R.R.T.T.R.R.R.R.R.R.R.R.R.K.K.K.K.K.K.R.K.K.Y.K.K.K.K.K.I.K.K.K.H.K.K.K.K.K.K.K.K.H.K.K.K.H.K.K.H.J.J.J.G.J.J.J.J.J.K.K.K.K.K.K.K.K.H.H.K.K.K.K.K.H.K.K.J.J.J.J.J.G.G.J.J.J.J.J.J.J.J.J.J.J.L.L.J.J.J.J.=.=.&.&.-.-.-.-.&.&.&.&.&.&.&.&.&.&.&.&.%.%.&.&.&.&.&.&.&.&.&.&.&.&.-.-.-.-.-.&.&.&.&.&.&.-.&.&.-.&.-.-.-.-.-.-.-.-.-.-.-.-.&.&.&.&.-.-.-.&.&.&.&.&.&.-.-.-.-.-.%.%.) ) ) ) ) ) %.%.%.%.%.%.%.%.%.%.) ) ) ) %.%.%.%.%.) ) ) ! ) ) ) ) ) ) ) ! ! ) ) ) ) ) ) ! ! ! ! ! ) ) ) ) ) ) ) ) ) ! ! ! ! ! ! / / / / ",
" X X`.`.`.`.}.}. X X`.`.`.`.`.}.`.`. X}.}.}.`.`.}.}.}. X`.}.`.`.}.}.}.}.}.}.}. X`.`.}. X}.}.`.`.`.}.`.`.}.}.}.}.`.`.`.`.`.`.}.}.`.`.`.`.`.`.`.}.`.`.`.`.}.}.}.}.`.`.}.}.}.}.`.`.}.`.`.`.`. X X}.}.}.}.}.}.}.}.}.`.`. X X X}.`.`.`.`.`.`.`.`.}.}.`. X X X X}.`.`.`.`.`.`.`.`.`.`.`.`.`.`.`.`.`.}.`.`.}.`.`.`.`.`.}.}.}.`.`.`.`.`.`.`.`.`.`.`.`.`.`.`.`.`.`.`.`.`.`.`.`.`.`.`.`.`.`.`.`.`.`.`.`.`.`.`.`.`.}.}.}.`.`.`.`.`.}.}.}.`.`.`.`.`.`.}.}. X`.`.`.`.`.`.`.`.`.`.`.`.`.`.`.`.`.`.`.`.`.`.`.`.`.`.`.`.`.`.`.`.`.`.`.`.`.`.`.`.`.`.`.`.`.`.`.`.`.`._._._.`.`.`._.`.`.`.`.`.`.`.`.`.`.`.`.`._._._._.`.`._.`.`.`.`.`._._._._._._._._.`._.`._._._._._._._._._._._._._._._._._._._._._._._._._._._.Q.Q.Q.Q.Q.Q.Q.Q.Q.Q.Q.Q.Q.E.E.E.E.E.E.E.E.E.E.E.E.E.E.E.E.E.E.E.E.E.E.E.E.E.W.E.E.R.W.T.R.R.W.W.W.W.W.W.W.T.R.R.R.R.R.R.R.R.R.R.R.R.R.R.R.R.R.R.R.R.R.R.R.R.R.R.I.I.R.R.R.R.R.R.R.R.R.R.R.R.R.R.R.R.R.K.K.K.K.K.K.I.K.K.I.K.K.I.I.K.K.K.K.K.K.Y.K.H.H.K.H.K.K.H.H.K.K.K.H.H.H.H.J.J.H.H.H.H.J.J.K.K.H.K.K.K.H.H.H.H.K.K.K.K.K.K.H.J.J.J.J.J.J.J.J.J.J.J.J.J.J.J.J.J.J.J.L.J.J.J.&.&.&.&.&.-.-.&.&.&.&.&.&.-.&.&.&.&.&.&.&.&.&.%.&.&.&.-.-.-.&.&.&.&.&.-.-.-.-.-.-.&.&.&.-.&.-.-.-.-.-.-.-.-.-.-.-.-.-.-.-.-.-.-.-.-.-.-.-.-.-.-.-.-.-.-.-.-.-.%.%.%.-.-.%.%.%.%.%.%.%.%.%.%.) ) ) %.%.%.%.%.) ) %.%.) ) ) ) ) ) ! ! ) ) ) ! ! ! / ! ) ) ) ) ) ) ! ! ! ! / / ) ) ) ) ! ! ! ! ! ! ! ! ! ! ! / / / ",
" X`.`.`.`.`.}.}.`.`.`.`.`.}.`.`.`.`. X X}.}.`.`.}.}.}.}.`.`.`.`.`.`.`.`.`.`.`.}.`.`.}. X`.`.`.`.}.`.`.`.}.}.}.}.`.`.`.`.`.`.`.`.`.`.`.`.`.`.`.`.`.`.`.`.`.`.}.}.}.}. X X}.`.`.`.`.`.`.`.`.`.}.}.`.`.`.`.`.`.}.}.`.`.`.}. X}.`.`.`.`.`.`.`.`.`.}.`.`.`.`.}.`.`.`.`.`.`.`.`.`.`.`.`.`.`.`.`.`.`.`.`.`.`.`.`.`.`.`.`.`.`.`.`.`.`.`.`.`.`.`.`.`.`.`._._.`.`.`.`.`.`.`.`.`.`.`.`._._._.`.`.`.`.`.`.`.`.`.`.`.`.`.`.`.`.`.`.`.`.`.`.`.`.`.`.`.`.`.`.}.`.`.`.`.`.`.`.`.`.`.`.`.`.`.`.`.`.`.`.`.`.`.`.`.`.`.`.`.`.`.`.`.`.`.`.`.`.`.`.`.`.`.`.`.`._.`._._.`.`._._._._.`._._.`._._._.`._._._._._.`.`._._._._._._._._._._._._._._._._._._._._._._._._._._._._._._._._._._._._._._._._._._._.'.'.'._._._.Q.Q.Q.Q.Q.Q.Q.Q.Q.E.E.E.E.E.E.E.E.E.E.!.!.E.!.E.E.Q.E.E.E.E.E.E.E.E.T.E.E.E.E.W.W.E.R.W.T.R.R.T.W.T.R.W.W.R.T.R.R.R.R.R.R.R.R.R.R.R.R.R.R.R.R.T.R.R.R.R.R.K.K.K.R.Y.I.R.R.R.R.R.R.K.K.R.R.R.R.R.R.R.R.R.I.K.K.K.K.K.K.K.H.K.I.I.R.I.K.K.H.H.K.K.K.K.G.H.H.G.H.K.H.J.K.K.K.J.H.H.H.J.J.H.H.K.H.J.J.K.K.K.K.K.K.H.H.K.K.K.K.H.K.K.K.J.J.J.J.J.J.J.J.J.J.J.J.L.L.J.J.J.J.L.L.&.&.&.J.&.&.&.&.&.&.-.-.-.&.&.&.&.-.&.&.-.-.-.&.&.&.&.%.&.&.&.-.-.-.-.&.&.&.&.-.-.-.-.-.-.-.&.-.-.-.-.-.-.-.-.-.-.-.-.-.-.-.-.-.-.-.-.-.-.-.-.-.-.-.-.-.-.-.-.-.-.-.%.%.-.-.-.) ) ) %.%.%.) ) ) ) ) ) ) ) ) ) ) %.%.) %.%.) ) ) ) ) ) ) ! ! ! ! ! ! ! ! / / / / ) ) ) ) ! / / ! / ! / / ) ) / / / / / / ! ! ! ! ! ! / / ",
"`.`.`.`.`.`.`.`.`.`.`.`.`.`.`.`.`.`.`.`.`.`.`.`.`.`.`.`.}.`.`.`.`.`.`.`.`.`.`.`.`.`.`.`.`.`.`.`.`.`.`.`.`.`.`.`.`.`.`.`.`.`.`.`.`.`.`.`.`.`.`.`.`.`.`.`.`.`.`.`.`.`.`.`.`.`.`.`.`.`.`.`.`.`.`.`.`.`.`.`.`.`.`.`.`.`.`.`.}.`.`.`.`.`.`.`.`.`.`.`.`.`.`.`.`.`.`.`.`.`.`.`.`.`.`.`.`.`.`.`.`.`.`.`.`.`.`.`.`.`.`.`.`.`.`.`.`.`.`.`.`.`.`._._._.`._._._._._._._._._._._._._._._._._._._.'._.`.`._.`.`.`.`.`.`.`.`._.`.`._._.`.`.`.`.`.`.`.`.`.`.`.`.`.`.`.`.`.`.`.`.`.`.`.`.`.`.`.`.`.`.`.`.`.`.`.`.`.`.`.`._.`.`.`.`.`._._._._._._.`.`.`.`.`._._._._._._._._._._._._._._._._._._._._._._._._._._._._._._._._._._._._._._._._._._._._._._._._._._._.'._._._._._._._._._._._._._._._._.Q.E.!.Q.Q.Q.E.E.E.E.E.Q.Q.Q.E.E.E.E.E.E.E.E.E.E.W.E.W.W.E.W.E.E.E.E.E.E.E.E.E.E.E.E.E.E.R.R.W.W.R.R.R.R.W.W.R.R.T.W.W.R.R.T.R.R.R.R.I.I.I.K.R.R.R.K.R.R.R.R.R.R.R.R.R.R.K.K.K.K.Y.K.K.K.I.I.I.K.K.K.K.I.K.R.R.R.K.K.K.K.K.K.K.K.K.K.H.K.K.I.I.K.K.K.H.K.K.J.K.K.G.K.K.G.G.K.G.J.K.K.J.J.J.J.J.J.H.H.H.K.K.J.J.K.K.K.K.K.K.K.K.K.K.J.J.J.K.K.J.J.J.J.J.J.J.J.J.J.J.L.L.J.J.J.J.L.L.&.&.&.&.&.&.&.&.&.&.&.&.&.-.&.&.&.&.-.-.-.-.-.-.&.&.&.&.&.&.-.-.-.-.-.-.-.-.&.&.-.-.-.-.-.-.-.&.-.-.-.-.-.-.-.-.-.-.-.-.-.-.-.-.-.-.-.-.-.%.%.-.-.-.-.-.-.-.-.%.%.%.%.%.%.%.%.%.%.) ) ) ) %.) ) ) ) ) ) ) ) ) ) ) ) ) %.%.) ) ) ) ) ) ) ) / ! ! ! ! ! ! ! ! ! ! / / ) ) ) ) / / / ! / / / / / / / / / / / / / / / / / / / / ",
"`.`.`.`.`.`.`.`.`.`.`.`.`.`.`.`.`.`.`.`.`.`.`.`.`.`.`.`.`.`.`.`.`.`.`.`.`.`.`.`.`.`.`.`.`.`.`.`.`.`.`.`.`.`.`.`.`.`.`.`.`.`.`.`.`.`.`.`.`.`.`.`.`.`.`.`.`.`.`.`.`.`.`.`.`.`.`.`.`.`.`.`.`.`.`.`.`.`.`.`.`.`.`.`.`.`.`.`.`.`.`.`.`.`.`.'.].`.`.`.`.`.`.`.`.`.`.`._.`.`.`.`.`.`.`.`.`.`.`.`.`.`.`.`.`.`.`.`.`.`.`.`.`.`.`.`.`.`.`.`.`.`._._._.`.`._.`._._._._._._._._._._._._._._._._._._.`._._._.'.'.`.`.`.`._.'.`.`.'.'._.`.`._.`.`.`.`.`.`.`.`.`.`.`.`.`.`.`.`.`.`.`._._._.`.`._._.`.`._._._._._.`.`.`._.`._._.`._._._._._._._._._._._._._._._._._._._._._._._._._._._._._._._._._._._._._._._._._._._._._._._._._._._._._._._._._._._._._._._.'._._._.'._._._.'.'.'.!.E.E.E.E.Q.Q.!.E.E.Q.E.E.E.E.E.E.Q.Q.Q.E.E.E.E.E.E.E.E.E.E.E.W.W.W.W.E.E.E.E.E.E.E.E.E.E.E.E.E.E.E.R.R.W.W.R.R.R.R.R.R.R.R.T.W.T.R.T.R.R.K.K.I.I.R.I.K.K.R.R.K.R.R.R.R.R.R.R.R.R.K.K.K.K.K.Y.K.K.K.K.K.I.K.K.K.K.K.K.K.K.K.K.K.K.K.K.K.K.K.K.H.H.H.K.K.K.K.H.K.K.K.K.J.K.K.G.K.K.G.G.K.G.J.J.J.J.J.J.J.J.J.J.J.H.H.K.J.J.K.K.K.J.J.J.K.K.K.J.G.G.J.J.J.L.J.L.J.J.L.L.J.L.J.&.&.&.&.&.&.&.J.&.&.&.&.&.&.&.&.&.&.-.&.&.-.-.&.-.-.-.-.-.-.&.-.-.&.&.-.-.-.-.-.-.-.-.-.-.-.-.&.&.-.-.-.-.-.-.-.&.-.-.-.-.-.-.%.-.-.%.-.-.-.-.%.%.-.-.-.-.%.%.) ) %.%.%.%.%.%.%.) ) ) ) ) ) ) %.%.) ) ) ) %.%.%.) ) ) ) ) ) ) ) ) ) ) ) ) ) %.) ) ) ) ) ) ) / ! ! ! ! ! ! ! ! ! ! ) ) ) ) ) ) ! / / / / / / / ! ! ! / / / / / / / / / / ( ( ( ",
"`.`.`.`.`.`.`.`.`.`.`.`.`.`.`.`.`.`.`.`.`.`.`.`.`.`.`.`.`.`.`.`.`.`.`.`.`.`.`.{._.`.`.`.`.`.`.`.`.`.`._.`.`.`.`.`.`.`.`.`.`.`.`.`.`.`._._._.`.`.`.`.`.`.`.`.`.`.`.`.`.`.`.`.`.`.`.`.`.`.`.`.`.`.`.`.`.`.`.`.`.`._.`.`.`.`._._._.`._._._._._._._._._.`.`.`.`._._.`._._._.`.`.`.`.`._.`.`.`.`.`._.`._._._.`.`.`.`.`.`.`.`.`._.`.`._._._._._._._._._._._._._._._._._._._._._._._._._._._._._._._._.`.`._._._.`._._._._._._._._._._.`.`.`.`.`.`.`.`._._._.`.`.`.`.`.`.`.`._._._._._._._._._._._._._._._._._._._._._._._._._._._._._._._._._._._._._._._._._._._._._._._._._._._._._._._._._._._._._._._._._._._._._._._._._._.Q.Q.E.E._._._._._._._._._._._._.Q.E.E.E.E.E.Q.Q.Q.E.Q.E.E.Q.Q.E.E.E.E.E.E.E.W.W.E.E.E.W.W.W.E.E.E.W.R.R.W.W.W.W.E.W.R.W.W.E.E.E.W.E.E.E.W.R.R.R.R.R.W.W.R.R.R.R.R.R.R.T.R.R.T.R.R.R.K.K.K.K.R.R.K.K.K.R.K.K.R.R.R.R.R.R.R.R.R.K.K.K.K.K.K.K.K.K.K.I.I.I.I.R.K.K.K.K.K.K.K.K.K.K.K.H.K.K.K.K.K.K.K.K.K.K.J.J.H.H.H.J.J.J.J.J.J.G.J.H.H.H.J.J.J.J.J.H.H.H.H.H.J.J.J.J.J.J.J.J.J.K.K.H.J.J.J.J.J.J.J.J.J.J.L.L.L.J.J.J.J.J.J.&.&.&.&.&.&.=.&.&.&.&.&.&.&.&.&.&.&.&.&.&.&.-.%.%.-.%.%.-.%.) %.%.%.%.%.-.-.-.-.-.-.%.%.-.%.-.-.-.-.-.-.-.-.-.%.%.%.) ) %.%.-.%.%.%.%.%.) ) ) ) ) %.-.-.%.) %.%.%.%.%.%.%.%.%.) ) ) %.%.%.%.%.%.) ) ) ) ) ) ) ) ) ) ) ) %.%.) ! ! ) ) ) ) ) ) ) ) ) ) ) / / / / ! / / / / ! ! / / / ! ) ) ) / / / / / / / / / / / / / / / / / / / / ( / / ( ",
"`.`.`.`.`.`.`.`.`.`.`.`.`.`.`.`.`.`.`.`.`.`.`.`.`.`.`.`.`.`.`.`._._._.`.`._.`.`._._.`.`.`.`.`.`.`.`.`._.`.`.`._._._.`._._._.`.`._.`.`.`._._._._.`.`.`.`.`.`._._.`.`.`.`.`.`.`.`.`.`.`.`.`.`.`.`._._._._.`._._._._.`.`.`._.'._.'._._._._._._._._._._._._._._.`._._._._._._._._._._._._._.`.`.`._.`._._._.`.`.`._.`.`._.`._._.`.`._._._._._._._._._._._._._._._._._._._._._._._._._._._._._._._._._._._._._.`._._._._._._._._._._.`.`.`.`._._.`.`.`._._._.`._._._.`._._._._._._.`._._._._._._._._._._._._._._._._._._._._._._._._._._._._._._._._._._._._.'.'.'._._._._._._._._._._._._._._._._._._._._._._._._._._._._._.Q.Q.E.E.Q._._._._._._._.'.E.E.E.E.E.E.!.E.E.E.E.Q.Q.E.Q.E.E.E.E.E.E.E.E.E.E.W.W.R.W.E.E.W.W.W.W.E.E.W.W.R.R.R.R.R.W.W.W.W.W.W.W.R.W.R.R.W.R.R.R.R.R.R.W.R.R.R.R.R.R.R.R.R.R.R.R.R.R.R.I.K.K.K.K.R.K.K.R.R.R.K.R.R.R.R.R.R.R.R.R.K.K.K.K.K.K.K.K.K.K.K.I.K.K.K.K.K.K.K.K.K.K.K.K.K.K.K.K.K.K.K.K.K.H.K.K.H.J.J.H.K.H.J.J.J.J.J.J.G.J.H.H.J.J.J.J.J.J.H.H.J.J.J.J.J.J.J.J.J.K.J.J.H.K.H.J.J.J.J.J.J.L.L.L.L.L.L.L.L.J.J.L.&.&.&.&.&.&.&.&.&.&.&.&.&.&.&.&.&.&.&.&.&.-.-.-.-.%.%.%.-.%.-.%.%.%.%.%.%.%.%.%.-.-.-.-.%.%.%.-.) ) ) -.-.-.-.-.-.%.%.%.) ) %.%.%.-.-.-.%.) %.) %.%.%.%.-.%.%.%.%.) %.) %.%.%.) ) ) ) ) %.%.%.%.%.%.) ) ) ) ) ) ) ) ) ) ) ) %.%.! ! ! ! ) ) ) ) ) ) ) ) ) ) ! / / / / ! ! ! ! ! / / / / ) ) ) / / / / / / / / ( / / / / / / / / / / / / / / / / ",
"`.`.`.`._._._._.`._.`.`._._._.`._._._.`.`.`.`._.`.`.`.`.`.`._._._._.`.`._._._.`._._._._._._._._.`.`._._._.`.`._._._.`.`._._._.`._.`.`._._._._._._._._._._._._._.`.`._._._._._._._._._._._._._._._._._._._._._._._._._._._._._._._._._._._._._._._._._._._._._._._._._._._._._._._._._._._._._._._._._._._._._._.`.`.`._._._._.`._._._._._._._._._._._._._._._._._._._._._._._._._._._._._._._._._._._._._._._._._._._._._._._._._._._._._._._._._._._._._._._._._._._._._._._._._._._._._._._._._._._._._._._._._._._._._._._._._._._._._._._._._._.Q.Q.Q.Q.Q.Q._._._._._._.Q.Q._._.Q.Q.Q.Q.Q.Q.Q.Q.Q.Q.Q.Q.Q.Q.Q.Q.Q.Q.E.E.E.E.Q.Q.E.E.E.E.E.Q.E.E.E.E.E.E.E.E.E.E.E.E.E.E.E.Q.E.E.E.W.W.W.R.R.W.W.R.R.R.R.W.W.E.W.W.W.E.E.E.E.R.R.R.R.R.R.W.R.W.W.W.R.W.W.R.R.R.R.R.R.R.R.R.R.R.R.R.R.R.R.I.I.R.W.W.R.I.I.R.I.K.K.K.K.K.K.R.R.R.K.K.K.R.R.R.R.R.K.K.K.K.K.K.K.K.K.K.K.K.K.K.Y.K.K.K.H.K.K.K.K.K.K.K.K.K.H.K.K.K.K.K.K.J.J.J.J.J.J.H.K.K.H.J.J.J.J.J.J.L.J.J.J.J.J.J.J.J.J.J.J.J.J.J.J.J.J.J.J.J.J.J.J.J.J.J.J.J.J.J.J.L.L.&.&.L.L.L.L.L.&.L.L.&.&.&.&.&.&.&.&.&.-.-.-.&.&.&.&.&.&.%.%.%.%.-.-.-.-.%.%.) ) %.-.%.%.%.%.%.%.%.%.%.%.-.%.) %.%.) ) ) ) %.%.%.%.) -.-.-.%.) ) %.%.%.%.%.%.%.%.%.%.%.%.%.%.%.%.%.%.%.) ) ) ) ) ) ) ) ) ) ) ) ) ) %.) ) ) ) ) ) ) ) ) ) ) ) ) ) ) ) ! ! ! ! ) ) ) ) ) ) ) ) ) ) / / / / / / ) ) / / / / / / ) ) / / / / / / / / / ( / / / / / / / / / / / / ( ^ / ( ",
"_.`.`._._._._._.`.`._.`._._._.`._._._.`.`._._._._.`.`.`._._._._._._._._._._._._._._._._._._._._._._._._._._._._._._.`.`._._._.`._.`.`._._._._._._._._._._._._._._._._._._._._._._._._._._._._._._._._._._._._._._._._._._._._.'._._._._._._._._._._._._._._._._._._._._._._._._._._._._._._._._._._._._._._._._.`._._._._._._.`._._._._._._._._._._._._._._._._._._._._._._._._._._._._._._._._._._._._._._._._._._._._._._._._._._._._._._._._._._._._._._._._._._._._._._._._._._._._._._._._._._._._._._._._._._._._._._._._._._._._._.'._._._.'.Q.Q.Q.Q.Q.Q.Q.Q.Q.Q.Q.Q.Q.Q.E.E.E.E.Q.Q.Q.Q.E.E.E.E.E.E.E.E.E.E.Q.Q.E.E.E.E.E.E.E.E.E.E.E.E.E.E.E.E.E.E.E.E.E.E.E.E.E.E.E.E.E.E.W.W.R.R.R.R.T.T.T.T.T.R.R.R.R.R.R.R.R.W.W.W.R.R.R.R.T.T.R.R.R.R.R.R.R.R.R.R.R.R.R.T.R.R.R.R.R.I.R.R.R.R.I.I.I.W.W.I.I.I.R.K.K.R.K.K.R.K.R.R.R.K.K.K.R.R.R.R.K.K.K.K.K.K.H.H.K.K.H.K.K.K.K.K.H.K.H.H.H.H.H.K.K.H.H.H.K.K.K.K.H.H.J.J.J.J.J.J.J.J.H.K.K.H.J.J.J.J.J.J.L.L.J.L.J.J.J.J.J.J.J.J.J.J.J.J.J.J.J.J.J.J.J.J.J.J.J.J.G.G.L.J.L.L.J.J.L.L.L.L.&.&.&.L.&.&.&.&.&.&.&.&.&.&.-.-.&.&.&.&.-.-.-.-.-.-.-.&.-.-.-.%.%.%.%.-.%.%.%.%.) ) ) ) ) %.-.) ) %.%.) ) ) ) ) %.%.) ) -.%.%.%.) ) %.) %.%.%.%.%.%.%.%.) ) ) ) %.%.%.%.) ) ) ) ) %.%.%.) ) ) ) ) ) ) ) ) ) ) ) ) ) ) ) ) ) ) ) ) ) ) ) ! ! ! ! ) ) ) ) ) ) ) ) ) ) / / / / / / / / / / / / / / ) ) / / / / / / / / / ( / ( ( / / ( / / / / / / ( ( ^ ( ",
"_._.`.`._._._._._._._.`.`.`._.`._._._._._._._._._._._._._._._._.`.`.`._._._._._._._._._._._._._._._._._._._._._.`.`.`.`._._._.`._._._._._._._._._._._._._._._._._._._._._._._._._._._._._._._._._._._._._._._._._._._._._._._.'._._._._._._._._._._._._._._._._._._._._._._._._._._._._._._._._._._._._._._._._._._._._._._._._._._._._._._._._._._._._._._._._._._._._._._._._._._._._._._._._._._._._._._._._._._._._._._._._._._._._._._._._._._._._._._._._._._._._._._._._._._._._._._._._._._._._._._._._._._._._._._._._._._._._._._.Q.Q.Q.Q.!.E.Q.Q.Q.Q.E.Q.Q.Q.Q.Q.Q.Q.Q.E.E.E.Q.Q.Q.Q.E.E.E.E.E.E.E.E.E.E.E.E.E.E.E.E.E.E.E.E.E.E.E.E.E.E.E.R.W.W.W.W.E.E.E.E.W.R.R.E.E.W.W.W.W.W.W.R.R.T.Y.Y.K.T.R.R.R.R.R.R.R.R.R.R.R.R.R.R.K.R.R.R.R.R.R.R.R.R.R.R.R.R.R.R.I.I.R.R.I.K.K.K.I.I.I.I.K.I.I.I.I.I.K.K.K.I.R.R.R.R.K.R.R.K.K.K.K.R.R.R.K.K.K.K.K.K.K.K.K.J.J.K.K.K.K.K.K.K.K.G.G.J.J.H.K.K.K.K.K.K.J.J.J.J.J.J.J.J.J.K.J.J.J.K.K.J.J.J.J.J.J.J.L.J.J.L.J.J.J.J.J.J.J.J.J.J.L.J.J.J.J.J.J.J.J.J.J.G.J.J.J.J.J.J.J.J.L.L.&.&.L.L.&.&.&.&.&.&.&.&.&.&.&.&.-.-.&.&.&.&.&.&.-.-.%.%.-.%.%.%.%.%.%.%.%.%.%.%.%.%.%.%.) ) ) ) ) %.%.) %.%.%.) %.%.%.%.) ) ) ) %.%.) ) ) ) ) ) ) ) ) ) %.%.%.%.) ) ) ) ) ) ) ) ) ) ) ) ) ) %.%.%.) ) ) ) ) ) ) ) ) ) ) ) ) ) ) ) ) ) ) ! ! ! ! ! ! ! ! ! ! ) ) ) ) ) / / ) / / / / / / / / ) ) / / / / / / / ( / / / / ( ( ( ( ( ( ( ^ / / / / / ( ( ( ( ( / ( ",
"_._._._._._._._._._._.`.`.`._._._._._._._._._._.`._._._._._._._.`.`.`._._._._._._._._._._._._._._._._._._._._.`._.`.`._._._._._._._._._._._._._._._._._._._._._._._._._._._._._._._._._._._._._._._._._._._._._._._._._._._._.'._._._._._._._._._._._._._._._._._._._._._._._._._._._._._._._._._._._._._._._._._._._._._._._._._._._._._._._._._._._._._._._._.'._._._._._._._._._._._._._._._.'.'._._._._._._._._._._._._._._._._._._._._._._._.'.'._._._._._._._._._._._._._._._._._._._._._._._.'.'._._._._.E.E.'.'.E.E.E.'._._._._._._.Q.Q.E.!.!.!.E.Q.Q.!.E.E.Q.Q.Q.Q.Q.Q.E.E.E.E.E.E.Q.Q.E.E.E.E.E.E.E.E.Q.Q.E.E.E.E.E.E.E.E.E.E.E.E.E.E.E.E.R.R.R.R.W.R.E.E.E.E.W.R.E.E.W.W.W.W.W.W.R.R.R.T.T.T.T.T.R.R.R.R.R.R.R.R.R.R.K.R.R.K.K.R.R.R.I.R.R.R.R.R.R.R.T.R.R.R.I.R.R.I.K.K.K.K.Y.K.K.I.K.K.K.K.K.K.K.K.K.K.K.K.K.R.K.K.R.K.K.K.K.K.R.R.K.K.K.K.K.K.K.K.K.G.G.K.K.K.K.K.K.K.J.G.G.J.H.J.K.K.K.J.K.K.K.K.K.K.J.J.J.J.J.J.J.J.J.J.J.J.J.J.J.J.J.J.L.J.J.J.L.J.J.J.L.L.L.L.L.L.L.L.J.J.J.J.J.J.J.L.J.J.J.J.J.J.J.J.J.J.L.L.&.&.&.&.&.&.&.&.&.&.&.&.&.&.&.&.&.-.&.&.&.-.-.-.-.-.%.%.%.%.%.%.) %.%.%.%.%.%.%.%.%.%.%.%.) ) ) ) %.%.) %.%.%.) ) ) ) ) ) ) ) ) ) ) ) ) ) ) ) ) ) ) ) ) ) ) ) ) ) ) ) ) ) ) ) ) ) ) ! ! ) ! ! ! %.) ) ) ) ) ) ) ) ) ) ) ) ) ) ) / ) ) ) ! ! ! ! ! ! ! / ! ! ) ) ) ) ) / / / / / / / / / / / ) / / / / / / / / / / / / / ( ( ( ( ( ( ( ( / / ( ( ( ( ( ( ( ( / ( ",
"`._._._._._._.`._._._._.`._._._._._._._._._._._._._._._._._._._._._._._._._._._._._._._._._._.'._.'._._._._._.`._._._._._._._._._._._._._._._._._._._._._._._._._._._._._._._._._._._._._._._._._._._._._._._._._._._._.'.'._._._.'.'._._._._._._._._._._._._._.'.'.'._._._._._._._._._._._._._._._._._._._._._._._._._._._._._._._._._._._._._._._._._._._.'.'.'._._._._._._._._._._._._._.'._.'.'._._._._._._._._._._._._.'.'._._._._._._._._._.'.'.'._._._._.'.'.'.'.'.'._._._.'._._.'.'.'._.Q.Q.E.E.Q.Q.Q.Q.E.E.E.E.E.E.E.E.E.E._.E.'._._.E.E.E.!.E.E.E.E.E.E.E.E.E.E.E.Q.Q.E.E.E.E.E.E.E.E.E.E.E.E.E.E.E.E.E.E.E.E.E.E.W.W.E.E.W.W.R.R.R.R.R.W.R.R.T.R.W.W.R.R.R.R.R.R.R.E.W.W.W.W.R.R.R.R.R.K.I.R.R.R.K.K.R.R.K.R.R.R.R.I.K.I.I.K.K.R.K.K.I.I.I.I.I.I.I.I.K.K.R.K.I.I.I.K.K.K.K.K.Y.Y.Y.Y.K.K.K.K.K.K.K.K.K.K.K.K.K.K.K.K.K.K.K.K.K.K.K.K.K.K.K.K.K.K.H.H.J.G.G.K.K.K.H.K.K.K.J.G.G.J.H.J.K.K.J.G.J.K.K.J.K.J.J.J.J.J.J.J.L.J.J.J.L.L.L.J.J.L.J.J.J.J.J.J.L.L.L.L.L.L.L.L.L.L.L.J.J.J.J.J.J.J.L.L.L.J.J.L.J.J.J.&.L.L.L.&.=.&.&.&.&.&.&.&.&.&.&.&.&.&.&.&.-.-.-.-.-.-.-.-.%.%.%.%.%.%.%.%.%.-.-.-.%.%.) ) %.%.) ) ) ) ) ) ) ) ) ) %.%.) ) ) ) ) ) ) ) ) ) ) ) ) ) ) ) ) ) ) ) ) ) ) ) ) ) ) ) ) ) ) ) ) ) ) ! ! ! ! ! ! ! ) ) ) ) ) ) ) ) ) ) ) ) ) ) ) ) / / ) ) ! / / / / / / / / ! ! ! / / / / / / / / / / / / ) ) / / / / / / / / / / / / / / ( ( ( ( ( ( ( ( ( ( ( ( ( ( ( ( ( ( ( ( ",
"`.`._._._.`.`.`._._._._._._._.`._._._._._._._._._._._._._._._._._._._._._._._._._._._._._._._.'._.'._._._._._.`._._._._._._._._._._._._._._._._._._._._._._._._._._._._._._._._._._._._._._._._._._._._._._._._._._._._.'.'.'._._.'.'._._._._._._._._._._._._._.'.'.'._._._._._.'.'.'._._._._._._._._._._._._._._._._._._._._._._._._._._._._._._._._._._.Q.E.'._._._._.'._._._.'.'._._._.'.'.'.'.'._._._._._.'.'._.'._.'._.'.E._.'.'.'.E.'.E.'.'.'.E.E.'.'.'.E._._.'.E.E.E.E._.'._.E.E.E.E.'.E.Q.Q.E.E.E.E.E.E.E.E.E.Q.Q.E.E.E.E.E.E.E.E.Q.E.E.E.E.!.!.!.!.E.E.E.E.E.!.E.E.E.E.E.E.E.E.E.E.E.E.E.E.E.E.E.E.E.E.E.E.E.E.E.R.W.E.W.W.R.T.R.R.R.R.T.T.T.T.T.T.T.R.R.R.R.R.R.T.R.R.R.R.R.W.R.R.R.K.K.K.K.R.R.K.K.K.I.K.K.K.R.R.I.I.K.I.K.K.K.K.K.H.I.K.K.K.K.K.K.K.K.K.R.K.I.I.K.K.H.H.H.K.K.H.K.K.K.I.K.K.K.K.H.H.K.K.K.K.K.K.K.K.K.K.K.K.K.K.K.K.K.K.K.K.K.K.K.H.J.G.J.K.K.K.K.K.K.J.G.G.G.J.J.J.J.K.J.G.J.J.K.J.J.J.J.G.J.J.J.J.J.J.J.J.L.L.J.J.J.L.J.J.J.J.J.L.L.L.L.L.L.&.L.L.&.&.L.L.L.J.J.J.J.L.L.L.L.J.L.L.J.J.&.&.&.&.&.&.&.&.&.&.&.&.&.&.&.&.-.-.&.-.&.-.-.-.&.&.-.-.%.) %.-.%.%.%.%.%.%.%.%.) ) ) %.%.) ) ) ) ) ) ) ) ) ! ) ) ) ) ) ) ) ) ) ) ) ) ) ) ) ) ) ) ) ) ) ) ) ) ) ) ) ) ) ) ) ) ) ) ) ) ) ) ) ! ! ! ! ! ) ) ) ) ) ) ) ) ! ) ! ) ) ) ) ) ) ) ) / / ) ! ! / / / / / / / / ! ! ! / ) ) / / / / / / / / / / / / ( / / / / / / / ( / / ( / ( / ( ( ( ( ( ( ( ( ( ( ( ~ ( ( ( ( ( ( ",
"_._._._._._._._._._._._._._._._._._._._._._._._._._._._._._._._._._._._._._._._.'._._._._._._._._._._._._._._._._._._._._._._._._._._._._._._._._._._.'.'.'._._._._._._._._._._._._._._._._._._._._._._._._._._._._._._._._.'.'.'.'._._.'.'.'.'.'.'._._.'.'.'.'.'.'.'.'._._._.'._.'.'._._._._._._.'._._._._._._._._._._.'.'.'.'.E._._._._._._._.Q.Q.Q.Q.Q.Q._._.Q._._._.'.Q._._.'.Q._.Q.'.Q._.Q._.Q._._._.E.'.'._._._.Q._.Q.Q.Q.Q.Q.Q.Q.Q.Q.Q.Q.E.E.E.Q.Q._.Q.Q.Q.Q._.Q.E.E.E.E.E.E.E.E.E.E.E.E.E.E.E.E.E.E.E.E.Q.E.E.E.E.E.E.E.E.E.E.E.E.E.E.E.Q.E.E.E.E.Q.E.W.W.E.W.W.R.W.E.W.E.E.E.W.W.E.W.R.T.T.W.R.W.R.R.R.R.W.W.R.R.R.R.W.R.R.R.R.R.R.W.R.W.R.R.R.R.R.R.R.R.W.R.R.R.R.R.R.R.R.R.R.R.I.K.K.K.I.I.I.K.K.I.I.I.K.K.K.K.K.I.I.I.I.I.I.K.Y.K.K.I.K.H.K.Y.I.I.Y.K.K.K.I.I.I.I.K.H.H.G.H.K.H.K.K.K.K.K.K.K.K.K.K.K.K.H.H.K.K.K.K.K.K.K.J.G.J.K.K.H.K.H.H.J.J.H.H.G.G.G.J.K.K.K.K.J.H.J.J.J.J.J.J.J.J.J.J.J.J.K.K.J.J.J.J.L.L.J.J.J.J.L.&.L.J.J.J.L.J.J.J.J.&.L.J.J.&.&.L.L.J.&.&.&.L.L.L.&.J.J.J.J.L.&.&.J.J.J.=.J.&.&.&.&.&.&.&.-.&.&.-.-.%.-.-.-.-.-.-.-.%.-.&.%.%.-.-.%.%.%.%.%.%.%.) ) ) %.) %.%.%.) ) %.%.%.) ) ) ) ) ) ) ) ! ) ) ) ) ) ) ) ) ) ) ) / ! ) ) ! ! ) ! ) ) ) ! ! ) ) ! / / ! ! ) ) ) ) ) ) ) ) ! ! ! ! ! ! ! ! / ! / ! / / / / / / / / / / / / / / / / / / / / / / / / / / / / / / / / / / / / / / ( ^ / / ( ( ( / ( ( / / / ( ( ( ( ( ( ( ( ( ( ( ( ( ( ( ( ( ( ( ( ( ( ( ( ( ",
"_._._._._._._._._._._._._._._._.'.'.'._._._._._._._._._._._._._._._._._._._._._.'.'._._._._._._._._._._._._._._._._._._._._._._._._._._._.'._._.'.'._._._._.'.'.'._._._._.'._._._._._._._._._._._._._._._._._._._._._._.'.'.'.'.'.'.'.'.'.E.'.'.'.'.'.'.'.'.'.'.'.'.'.'._._._.'._.E.E.'.'.'.'.'.E.E.'._._._.'.E.'._._._.'.'.'.'.E._._._._.'.E.Q.E.Q.E.E.E.E.'.'.Q.Q.Q.Q.Q.Q.Q.Q.Q.Q.Q.Q.E.Q.Q.Q.E.Q.Q.Q.E.E.E.E.'.'.E.E.Q.E.E.Q.Q.Q.E.E.E.Q.E.E.E.E.E.E.Q.Q.Q.Q.E.E.E.E.E.E.E.E.E.E.E.E.E.E.E.E.E.E.E.E.E.E.E.E.E.E.E.E.E.E.E.E.E.E.E.E.E.E.E.E.T.W.T.W.E.E.E.W.W.W.W.R.R.R.W.W.R.W.E.R.W.E.W.R.T.T.R.R.R.R.R.R.T.R.R.R.R.R.R.R.R.R.R.R.R.R.R.R.W.R.R.R.R.R.R.R.R.R.R.R.R.R.R.R.R.R.R.R.I.K.K.K.K.K.K.K.K.K.I.I.I.K.K.K.K.K.I.I.I.K.K.K.Y.K.K.G.Y.K.H.K.K.I.K.K.K.K.K.K.K.K.K.K.K.K.K.K.K.K.K.K.K.K.K.K.K.J.J.J.K.J.H.H.H.K.K.K.K.J.H.J.J.J.J.J.H.H.H.H.L.J.H.H.G.G.J.J.J.K.K.K.J.H.J.J.J.J.J.J.J.J.J.J.J.J.J.J.J.J.J.J.L.L.J.J.J.J.L.&.&.J.J.J.L.L.J.J.J.&.&.&.J.J.&.&.&.L.&.&.&.L.L.L.&.&.&.&.L.&.&.&.&.J.&.&.&.&.&.-.&.&.&.&.-.-.-.-.-.-.%.&.-.-.%.%.%.%.&.&.%.%.%.%.%.%.%.) %.%.) ) ) ) ) ) %.%.) ) ) ) ) ) ) ) ) ) ) ) ) ) ! ! ) ! ) ) ) ) / / ) / / ! ) ) ! ! ! ! ! ! ! ! ! ! ! ! / / / ! ) ) ) ) ) ) ! ! ! ! ! ! / / / / / / / / / / / / / / / / / / / / / / / / / / / / / / / / / / / / / / / / / / / / / / ^ ^ / / ( ( ( / ( ( / ( ( ( ( ( ( ( ( ( ( ( ( ( ( ( ( ( ( ( ( ( ( ( ( ( ( ( ",
"_._._._._.'._._._._._._._._._._.'.'.'.'._._._._._._.'.'._._._._._._._._.'.'._._.'.'._._._._._._._._._._._._._._._._._.'.'.'.'.'._._._._._.'._._._._._._._._._._.'.'.'.'._._.'._.'.'._.E.'.E._._._._._._._._._._._._._._.'.'.E.E.'.'._._.E.E.E._._.E._._.'.E._._.E.E.E.E._._.'._._.E.E.'.E.'.E.E.E.E.E.E.Q.E.E.E.E.Q._._.'.'._._.E.E.E._.E.E.E.E.E.E.E.E.E.E.E.Q.Q.Q.Q.Q._._.Q.Q.E.E.E.E.E.E.E.E.!.E.E.E.E.E.E.E.E.E.E.E.Q.E.E.E.E.E.E.E.E.E.E.E.E.E.E.E.E.Q.Q.E.E.E.E.E.E.E.E.E.E.E.E.E.E.E.E.E.E.E.E.E.R.E.W.E.W.W.E.E.E.E.E.E.E.E.E.E.E.E.W.W.T.R.R.R.W.E.W.R.R.W.W.T.T.R.R.R.R.R.E.R.R.R.R.R.T.T.T.T.T.T.T.T.R.R.R.R.R.R.R.R.R.R.T.T.T.T.T.R.R.R.R.R.R.R.R.R.R.R.R.R.R.R.R.R.R.R.R.R.I.K.K.K.K.K.K.K.K.K.K.K.I.I.K.K.K.K.K.K.K.K.K.K.K.K.G.G.K.K.K.K.K.K.K.K.K.K.K.K.K.K.K.K.K.K.K.K.K.K.K.K.K.J.K.K.K.K.J.J.H.H.J.J.J.J.J.K.J.G.G.G.K.K.J.G.J.J.J.J.L.L.H.H.H.H.J.J.J.J.J.J.J.J.J.J.J.J.J.J.L.L.L.L.J.J.J.J.L.L.J.L.L.L.J.J.L.L.&.&.&.L.&.L.&.&.&.&.&.&.&.&.L.&.&.&.&.&.&.&.&.&.&.&.&.&.&.&.&.&.&.&.&.&.&.&.&.&.-.&.&.&.&.&.&.&.&.&.-.-.&.&.%.%.%.%.%.%.%.%.%.%.%.%.%.%.) ) ) ) ) ) ) ) ) ) %.) ) ) ) ) ) ) ) ) ) ) ) ) ) ) ! ! ! ! ! / ) ) / / / / / / / / / / / / / / / / / / / / / / / / ) ) ) ) ) ) ! ! ! ! / / / / / ! / / / / / / / / / / / / / / / / / / / / / / / / / / / / / / / / / / / / ^ ( ( ( / ^ ^ ^ ( ( ( ( ( ( ( ( ( ( ( ( ( ( ( ( ( ( ( ( / ( ( ~ ~ ( ( ( ~ ~ ( ( ( ~ ~ ~ ",
"_._._._.'.'._._._._._.'.'._._._.'.'.'.'._._._._._._._._._._._._._._._._._.'._._.'.'.'._._._._._._._._._._._._._._._.'.'.'.'.'.'._._._._.'.'.'.'._._.'.E.'.'._._.'.'.'.'.E.E.E.E.E.E.E.E.E.E.'.'.'.'.'.E._._._._._._._.'.'.E.E.E.'._._._.E.E.E._._.E.E.E.E.E.'._.E.E.E.E.E.E.E.E.'.E.E.'.E.E.E.E.E.E.E.E.Q.E.E.E.E.Q.'.E.E._.'._.E.E.E.E.E.E.E.E.E.E.E.E.E.E.Q.Q.E.E.E.E.E.Q.E.E.E.E.E.E.E.E.E.E.E.!.E.E.!.!.!.!.E.E.E.E.E.E.E.E.E.E.E.E.E.E.E.E.E.E.E.E.E.E.E.E.E.E.E.W.E.W.E.E.E.W.E.W.E.W.E.E.E.E.E.R.R.R.R.W.E.W.E.R.R.E.E.E.E.E.E.E.E.E.W.W.T.R.R.R.W.E.W.R.T.T.T.T.T.T.R.R.R.R.R.R.R.R.R.R.R.T.T.T.T.T.T.T.R.R.R.R.W.W.R.R.R.R.T.T.T.T.T.T.R.R.R.R.R.R.R.R.R.R.R.R.R.R.R.R.R.R.R.R.I.K.K.H.K.H.H.H.K.K.K.H.I.K.K.K.K.K.K.K.K.K.G.G.K.K.G.G.K.K.K.K.K.K.K.K.K.K.K.K.K.K.K.K.H.H.K.K.K.K.K.K.J.J.K.K.K.K.J.J.J.J.J.J.J.J.J.J.J.G.G.G.J.K.J.G.J.J.J.L.L.L.J.H.H.H.J.J.J.J.J.J.J.J.J.J.J.J.J.J.J.L.L.J.J.J.L.L.L.L.L.L.L.L.L.&.&.L.&.&.&.&.&.&.&.&.&.&.&.&.&.&.&.&.&.&.&.&.&.&.&.&.&.&.&.&.&.&.&.-.-.-.&.&.&.&.-.-.-.&.-.-.&.&.&.&.&.&.-.-.-.-.%.%.%.-.-.-.-.-.%.%.%.%.%.) ) ) ! ! ! ! ! ! ! ) ) ) ) ) ) ) ) ) ) ) ) ) ) ) ) ! ! ! ! ! / / ) ) / / / / / / / / / / / / / / / / / / / / / / / / ) ) ) ) / / / / / / / / / / / ! / / / / / / / / / / / / / / / / ( / / / / / / / / / / / / / / / / / / / ( ( ( ( ( / ^ ( ( ( ( ( ( ( ( ( ( ( ( ( ( ( ( ( ( ( ( ( ~ ~ ( ( ( ( ~ ~ ~ ~ ~ ~ ~ ~ ~ ~ ",
"'.'.'.'._._._._._._.'.'.'.'._._._._._._.'.'.'.'.'.'.'._._._._._.'.'._._._.'.'.'.'.'.'._._._.'.'.'.'.'.E.'.'._._.'._.'.'.'.'.'.'._._.'._._._._.E._._._.E.E.E.E._._._._._.E.'.'.E.'.'.Q.E.Q.Q.E.Q.E.E.E.'.'._._.E._._._.'.E.E.E.E.E.E.'.'.E.E.E.E._._.E.E.E.E.'.'.E.E.E.'.'.'.E.E.E.E.E.E.E.E.E.E.E.E.E.E.E.E.E.E.E.E.E.E.E.E.E.E.E.E.E.E.E.E.E.E.E.E.E.E.E.E.E.Q.E.E.E.E.E.E.E.E.E.E.E.E.E.E.E.E.E.E.E.E.E.E.E.E.E.E.E.E.E.R.R.R.E.E.E.E.E.E.E.E.R.R.E.E.E.E.E.E.W.W.R.R.T.W.R.W.R.R.R.W.R.R.R.R.T.T.T.T.T.T.R.W.W.W.R.R.R.R.R.R.W.W.R.R.W.W.R.R.R.R.W.W.W.W.W.R.T.R.R.R.R.R.R.W.R.R.R.W.W.R.R.W.R.R.R.R.R.R.R.R.R.R.R.R.R.R.R.R.I.R.R.R.R.K.K.K.K.K.R.K.I.I.I.I.R.R.R.R.R.K.K.I.R.I.I.K.K.K.H.H.K.K.K.K.K.K.K.K.K.K.K.K.K.K.K.K.K.K.K.K.K.K.K.J.K.K.J.J.J.J.J.J.K.K.K.K.K.K.K.K.K.H.H.K.K.K.J.J.J.J.J.J.J.J.J.J.J.J.J.J.J.J.J.K.K.J.J.J.J.J.J.J.J.J.J.L.L.J.J.J.J.J.J.J.J.J.J.J.J.J.J.J.J.J.J.J.J.J.J.J.J.L.L.L.L.L.L.L.&.&.&.&.&.&.&.&.&.&.&.&.&.&.&.-.-.&.&.&.&.&.&.&.&.&.&.&.&.&.&.&.&.&.&.&.-.-.&.-.-.-.&.&.&.&.&.-.-.-.-.-.-.%.%.%.%.-.%.) %.%.%.%.%.) ) ) ) %.%.%.%.+.! ! ! ! ! ! ! ! ! ! ! ! ) ) ) ! ! ! ! ! ! ! ! ! ! ! ! ! / / / / / / / / / / / / / / / / / / / / / / / / / / / / / / / ! / / / / / / / / / / / / / / ( / / / / / / ( / / / / / / / / ( ( / / / / / / / / ( ( / / / ( ( ( ( ( ( ( ( ( ( ( ^ ( ( ( ( ( ( ( ( ( ( ( ( ( ( ( ~ ~ ~ ~ ~ ( ~ ~ ~ ~ ( ~ ~ ~ ~ ~ ~ ~ ~ ~ ~ ~ ",
"'.'.'.'.'._.'.'.'.'.'.'.'.'.'.'.'.'.'.'.'.'.'.'.'.'.'.'._._._._.'.'.'.'.'.'.'.'.'.'.'.'._.'.'.'.'.'.'.'.'.'.'.'.'.'.'.'.'.'.'.E.'.E.E.E._._.E.E.E.E.'.'._.'.E.E.E.E.E.E.E.E.E.E.'.'.E.E.E.E.E.E.E.E.E.E.'.'.E.E.E.'.E.E.E.E.'.E.E.E.E.E.E.E.E.E.E.E.E.E.E.E.E.E.E.E.E.E.'.'.E.E.E.E.E.E.E.E.E.E.E.E.E.E.E.E.E.E.E.E.E.E.E.E.E.E.E.E.E.E.E.E.E.E.E.E.E.E.E.E.E.E.E.E.E.E.E.E.E.E.E.E.E.E.E.E.E.E.E.E.E.E.E.E.E.E.E.E.E.E.R.R.R.T.T.T.R.R.T.T.T.T.T.R.R.E.E.E.R.R.R.W.R.T.T.T.T.W.W.W.R.W.R.R.R.R.R.T.T.T.T.T.T.W.W.W.R.R.T.R.T.W.W.R.R.R.R.T.T.T.T.T.R.R.R.W.W.R.R.T.R.R.R.R.R.W.R.R.R.R.R.R.R.R.R.R.R.R.R.R.R.R.R.R.R.R.R.R.R.R.K.R.R.R.R.R.K.K.K.K.K.I.I.I.I.I.R.R.R.R.R.K.K.I.K.K.K.K.K.K.K.H.K.K.K.K.K.K.K.K.G.K.K.K.K.K.H.H.K.K.K.K.K.K.K.K.K.K.J.J.K.K.J.J.H.H.H.H.K.K.K.K.K.H.H.H.K.J.J.J.J.J.J.J.J.J.J.J.J.J.J.J.J.J.J.J.J.J.J.J.G.G.G.J.J.G.L.L.L.L.J.J.J.J.J.J.J.G.J.J.L.L.L.J.J.J.J.L.J.J.J.J.L.L.L.L.L.&.L.L.&.&.&.&.&.&.&.&.&.&.&.&.&.&.-.-.-.&.&.&.&.&.&.&.&.&.&.&.&.&.&.&.&.&.&.&.-.-.-.-.-.-.-.-.-.&.&.-.-.-.%.%.%.%.%.%.%.%.-.-.%.%.%.%.%.%.) ) ) ) %.+.%.! ! ! ! ! ! ! ! ! ! ! ! ! ! ) ! ! ! ! ! ! ! ! ! ! / / / / / / / / / / / / / / / / / / / / / / / / / / / / / / / / / / / / / / / / / / / / / / / / ( / ( / / / / / ( ( / / / / / / / / ( ( / / / / / / / / ( ( / / / ( ( ( ( ( ( ( ( ( ( ( ( ( ( ( ( ( ~ ~ ~ ( ( ( ( ( ( ~ ~ ~ ~ ~ ~ ~ ~ ~ ~ ~ ~ ~ ~ ~ ~ ~ ~ ~ ~ ~ ~ ~ ",
"'.'.'.'._._._._._._._._._.'.'.'._._._._.'.'.'.E.E.E.E.'.'._._.E.'.'.'.'.'.'.'.'.'.'.'.'.'.'.'._.'.'.E.!.E.E.'.'.'.'._.E.E.E.E.E.E.E.E.E.E.E.E.E.E.E.E.E.E.E.E.E.E.E.E.E.E.E.E.E.E.E.E.E.E.E.E.E.E.E.E.E.E.E.E.E.E.E.E.E.E.E.E.E.E.E.E.E.E.E.E.E.E.E.E.E.E.E.E.E.E.E.E.E.E.E.E.E.E.E.E.E.Q.E.E.E.E.E.E.E.R.R.R.R.R.E.E.E.E.E.E.E.E.E.E.E.E.E.W.W.W.W.W.W.W.W.E.E.E.E.E.E.E.W.W.W.R.R.E.E.E.W.W.W.W.W.R.R.R.R.E.E.W.E.W.W.R.R.R.R.R.R.R.R.R.R.R.R.R.R.R.R.R.R.R.R.R.R.R.R.R.R.R.R.R.R.R.R.R.R.R.R.R.R.R.R.R.R.R.W.R.R.R.R.R.R.W.W.W.W.R.R.R.R.R.R.R.R.R.R.R.R.R.R.R.R.R.R.R.R.R.R.R.R.R.R.R.R.R.R.R.R.R.R.R.R.R.R.K.I.I.K.R.R.K.K.K.K.I.I.I.K.K.K.K.K.K.I.Y.Y.Y.K.I.I.R.R.K.K.K.K.K.K.K.K.K.K.K.K.K.K.K.K.K.K.K.K.J.K.K.K.K.K.K.K.J.K.K.K.K.J.K.K.K.J.J.J.K.K.K.K.J.J.J.J.H.K.K.K.J.J.J.J.J.J.J.J.J.J.J.J.J.J.J.J.J.J.J.J.J.J.J.J.J.J.J.J.J.L.J.J.=.J.L.L.J.L.L.L.L.L.L.L.L.L.L.J.L.J.L.J.J.J.J.J.&.&.&.&.&.&.&.&.&.&.L.&.&.&.&.&.&.&.&.&.&.&.&.&.&.&.&.-.-.&.&.&.&.&.&.&.&.&.&.&.&.&.&.&.&.&.&.&.-.-.-.-.-.-.-.-.%.%.%.%.%.%.%.%.%.%.%.%.%.%.%.%.) ) %.%.+.+.! ! ! ! +.! ! ! ! ! ! ! ! ! ! ! ! ! ! ! ! ! ! ! ! ! ! / / / / / / / ! / / / ^ ^ ^ / / / / / ^ ^ ( / / / / / / / / / / / / / / / / / / / / / / / / / ( ( / / / / ( / ( ( / / ( ( ( / ( ( ( / ( ^ ^ ( ( ( ( ( / / / ( ( ( ( ( ( / ( ( ( ( ( ( ( ( ( ( ( ( ( ( ( ( ( ( ( ( ( ( ( ( ~ ~ ~ ~ ~ ~ ~ ~ ~ ~ ~ ~ ~ ~ ~ ~ ~ ~ ~ ~ T T ~ ~ ~ ~ ",
"'.'.'.'._._._._._._._._.'.'.'.'._._._._.'.'.'.'.E.E.E.E.'.'._.E._.'.E.E.E.'._._.'.'.'.'.'.E.'.'._.'.E.E.!.E.E.E.E.'.E.E.E.E.E.E.E.E.Q.E.E.E.E.E.E.E.E.E.E.E.E.E.E.E.E.E.E.E.E.E.E.E.E.E.E.E.E.E.E.E.E.E.E.E.E.E.E.E.E.E.E.E.E.E.E.E.E.E.E.E.E.E.E.E.E.E.E.E.E.E.E.E.E.E.E.E.E.E.E.E.E.E.E.E.T.T.E.E.E.W.R.R.R.T.T.R.E.E.E.E.E.E.E.E.E.E.E.W.W.W.R.R.R.T.R.R.R.R.E.E.E.W.W.R.R.R.T.R.R.R.W.R.R.R.R.W.W.R.R.R.E.E.W.R.R.R.R.R.R.R.R.R.R.R.R.R.R.R.R.R.R.R.R.R.R.R.T.T.R.R.R.R.R.R.R.R.R.R.R.R.R.R.T.R.R.R.T.T.R.R.R.R.R.R.R.R.R.R.R.R.R.R.R.R.R.T.R.R.R.R.T.R.R.T.R.R.R.R.R.T.R.R.R.R.R.R.R.R.R.R.R.R.I.R.R.R.I.K.K.K.I.I.K.K.K.K.K.K.I.K.K.H.K.K.H.K.I.I.Y.Y.K.K.K.K.K.K.K.K.K.K.I.K.K.K.K.K.K.H.G.K.K.K.K.K.K.K.K.K.K.K.K.K.K.K.J.K.K.K.J.J.K.K.K.J.J.K.K.K.K.K.K.J.J.J.H.K.K.K.J.J.J.J.J.J.J.J.J.J.J.J.J.J.J.J.J.J.J.J.J.J.J.L.&.&.J.J.J.&.=.=.=.=.J.J.J.J.J.L.L.L.L.L.L.L.&.&.L.J.J.L.&.&.&.&.&.&.&.&.&.&.&.&.&.&.&.&.&.&.&.&.&.&.&.&.&.&.&.-.-.&.-.-.-.&.&.&.&.&.&.&.&.&.&.&.&.&.&.&.&.&.&.&.-.-.-.-.-.-.%.%.%.%.%.%.%.%.%.%.%.%.! ! ) %.) ! ) ) +.+.! ! ! ! ) ) ) ! ! ! ! ! ! ! ! ! ! ! ! ! / ! ! ! ! / / / / / / / / / / / / / / ^ ^ ^ / / / / / ^ ^ ( ( ( / / / / / / / / / / / / / / / / / / / / / / / / / / / / ( ( ( / ( ( ( ( ( ( ( / ( ( ( ( ( ( ( ( ( ( ( ( / / ( ( ( ( ( ( ( ( ( ( ( ( ( ( ( ( ( ( ( ( ( ( ( ( ( ( ( ( ( ( ( ( ~ ~ ~ ~ ~ ~ ~ ~ ~ ~ ~ ~ ~ ~ ~ ~ ~ T T T T ~ ~ ~ ~ ~ ",
"_.E.'._.'.E.E._._._._.E.E._._._._._._.E.E.E.E.E.E.E.E.E.E.E.E.E.E.E.E.E._._._._.E.E.'.'.'.E.E.'._.Q.Q.E.E.E.E.E.E.E.Q.E.E.Q.Q.Q.E.E.E.E.E.E.E.E.E.E.E.E.E.E.E.E.E.E.E.E.E.E.E.E.E.E.E.E.E.E.E.E.E.E.E.E.E.E.E.E.E.E.R.R.E.E.E.E.E.E.E.E.E.E.E.E.E.E.E.E.E.E.E.E.E.E.E.E.E.E.E.E.E.W.R.T.T.R.E.E.E.R.R.R.R.R.R.W.W.W.R.R.R.E.E.E.E.E.E.E.W.W.R.W.W.R.R.W.W.W.W.E.W.W.W.W.R.R.R.W.T.T.W.W.W.R.R.R.R.R.R.R.R.R.R.R.E.R.R.R.R.R.R.R.R.R.R.R.R.R.R.R.R.R.R.R.R.R.R.R.R.R.R.R.R.R.R.R.R.R.R.R.R.R.R.R.R.R.R.R.R.R.I.I.R.I.R.R.R.R.I.R.R.R.R.R.R.R.R.R.R.R.R.R.R.R.R.R.R.R.R.R.R.R.R.R.R.R.K.R.K.I.I.R.R.I.I.R.R.R.K.K.K.K.K.K.K.K.K.K.K.I.I.Y.K.K.K.K.K.K.K.K.K.K.K.K.K.K.K.K.K.K.K.K.K.K.K.K.K.K.K.K.K.K.K.K.J.J.J.J.J.K.J.J.J.J.K.K.K.K.K.K.K.K.K.K.J.J.J.J.J.J.J.J.J.J.J.H.K.K.J.J.J.J.J.J.J.J.J.J.J.J.J.J.J.J.J.=.J.J.J.J.J.J.=.J.J.J.=.=.&.=.=.=.&.=.=.=.=.=.J.J.J.J.&.&.&.L.L.&.&.&.&.&.&.&.&.&.&.&.&.&.&.&.&.&.&.&.&.&.&.&.&.&.&.&.&.&.&.&.&.&.-.-.-.-.%.-.-.-.-.%.&.&.&.&.%.%.%.%.%.%.%.%.%.%.%.%.%.%.%.%.%.%.%.%.%.%.%.%.%.%.%.) ) ) %.%.+.%.! ! ! ! ! ! ! ! ! ! ! ! ! ! ! ! ! ! ! ! / / / ! / / / / / / / / / / / / / / / / ( / / / ( ( ( ( / ^ ^ ^ ( ( ( ( / / / ( ^ ^ ^ ^ ^ ^ / ^ ( ( ( ( / / ( ( ( ( / / / / / ( ( ( / ( / ( ( ( ( ( ( ( ( ( ( ( ( ( / ^ ^ ( ( ( ( ( ( ( ( ( ~ ~ ( ( ( ( ( ( ~ ~ ~ ~ ~ ~ ~ ~ ~ ~ ~ ~ ~ ~ ~ ~ ~ ~ ~ ~ ~ ~ ~ ~ T T ~ ~ ~ T T ~ ~ ~ ~ ~ T T T T T ~ ~ ~ ~ ~ ",
"_.E.E.'.E.E.E.E.E.E.E.E.E.'.E.E.E.E.E.E.E.E.E.E.E.E.E.E.E.E.E.E.E.E.E.E.E.E._._.E.E.E.'.'.E.'.'.E.E.E.Q.Q.Q.E.E.E.E.Q.E.Q.E.E.E.E.E.E.E.E.E.E.E.E.E.E.E.E.E.E.E.E.E.E.E.E.E.E.E.E.E.E.E.E.E.E.T.E.E.E.R.E.E.E.E.R.R.T.T.R.E.E.E.E.E.E.E.E.E.E.E.E.E.E.E.E.E.E.R.E.E.E.R.E.E.E.E.W.W.R.R.R.R.R.R.R.R.R.R.R.R.R.W.R.R.R.R.R.R.E.E.E.E.R.R.R.R.R.R.W.T.R.R.R.R.R.E.W.W.W.R.R.R.R.T.T.T.W.W.W.T.R.R.R.R.R.R.R.R.R.R.R.R.R.R.R.R.R.R.R.R.R.R.R.R.R.R.R.K.R.R.R.R.R.R.R.R.R.R.R.R.R.R.R.R.R.R.R.R.R.R.K.R.R.R.K.K.I.I.I.I.R.T.K.K.K.K.R.R.R.R.R.R.R.R.R.R.I.R.R.R.R.R.R.R.R.K.R.R.R.R.R.R.K.K.I.K.K.R.I.I.I.I.K.K.K.K.I.K.K.K.K.K.K.K.K.K.K.K.K.G.G.G.G.K.K.K.G.G.K.K.H.H.K.K.K.G.H.K.K.K.K.K.K.J.J.K.K.K.J.K.J.G.J.J.J.J.J.J.J.J.J.J.J.J.J.J.J.J.J.J.J.J.J.J.J.J.J.J.J.J.J.J.J.J.J.J.G.G.J.J.J.J.J.J.J.=.J.J.J.J.J.J.J.J.J.J.J.J.=.=.J.J.=.=.=.=.J.J.=.=.=.&.&.=.J.J.J.L.&.&.&.&.&.&.&.&.&.&.&.&.&.&.&.&.&.&.&.-.&.&.&.&.&.&.&.&.&.&.-.-.-.-.-.-.-.-.%.) %.-.%.%.-.-.%.%.%.%.%.%.%.%.%.%.%.%.%.%.%.-.%.%.%.%.%.%.%.%.%.%.%.%.%.%.%.%.%.) ) ) %.) +.+.! ! ! ! ! ! ! ! ! ) ! ! ! ! ! / / / ! / / / / / / / / / / / / / / / / / / / / / ( ( / / ( ( ( ( ( / / / ( ( ( ( ( ( / ( / / ^ ^ / ( ^ ( ( ( ( / / ( ( ( ( ( ( ( / / ( ( ( ( ( ( ( ( ( ( ( ( ( ( ( ( ( ( ( ( ( ( ( ( ( ( ( ( ( ( ( ( ~ ~ ( ( ( ( ~ ~ ~ ~ ~ ~ ~ ~ ~ ~ ~ ~ ~ ~ ~ ~ ~ ~ ~ ~ ~ ~ ~ ~ ~ T T T ~ T T T ~ T ~ ~ T ~ T T T T T T ~ ~ ~ ~ ",
"E.E.E.E.E.E.E.E.E.E.E.E.E.E.E.E.E.E.E.E.E.E.E.E.E.E.E.E.E.E.E.E.E.E.E.E.E.E.E.E.E.E.E.E.E.E.E.E.E.E.Q.Q.Q.Q.E.E.E.E.E.E.E.E.E.E.E.E.E.E.E.E.E.E.E.E.E.E.E.E.E.R.E.E.E.E.E.E.E.E.R.W.W.W.W.W.W.R.R.R.R.R.W.W.R.R.R.R.R.R.R.R.W.W.W.R.T.T.R.R.R.R.R.R.R.R.W.R.R.T.R.R.R.R.R.R.R.R.R.W.W.W.W.R.R.R.R.R.R.R.R.R.R.R.R.R.R.R.R.R.R.R.E.W.R.R.R.R.R.R.R.R.R.R.R.R.R.E.R.R.T.R.R.R.R.R.R.R.R.W.R.R.R.R.R.R.R.R.R.R.R.R.R.R.R.R.R.R.R.R.R.R.R.R.R.I.I.I.K.K.K.R.R.R.R.R.R.R.R.R.R.R.K.K.K.R.R.R.R.R.R.R.R.R.R.R.K.K.K.K.I.I.I.K.K.K.K.I.I.K.I.K.I.I.I.I.K.K.K.K.R.R.R.R.R.R.K.K.R.R.I.K.R.I.K.K.K.K.K.K.K.K.K.K.K.K.K.K.Y.Y.K.K.K.K.K.K.K.K.K.K.J.J.K.K.G.K.K.K.K.K.K.K.J.J.H.K.K.J.J.K.K.K.J.K.J.J.J.K.K.J.J.J.J.J.J.J.J.J.J.J.J.J.J.J.J.J.J.J.J.J.J.J.J.J.J.J.J.J.J.J.J.J.J.J.J.J.J.J.L.L.J.J.J.J.J.J.=.=.=.=.=.=.=.=.=.=.=.=.=.=.=.=.&.&.&.=.&.&.=.=.=.=.=.=.&.&.&.&.=.=.&.&.&.&.&.&.&.&.&.&.&.&.&.&.&.&.&.&.&.&.&.%.%.%.%.%.&.&.-.-.%.%.%.%.%.%.%.%.-.-.%.%.%.%.-.%.%.%.%.%.%.%.%.%.%.%.%.%.%.-.-.-.%.%.%.%.%.%.%.%.%.%.%.%.%.%.%.%.%.) ) ) +.! ! ! ! ! ! ! ! ! / ! ! ) ! ! ! ! ! ! / / / / / / / / / ( ( ( ( ( ( ( ( ( ( ( ( ( ( ( ( ( ( ( ^ ~ ~ ~ ( ( ( ( ( ( ( ( ( ( / / / ( ( ( ( ( ( ( ( ( ( ( ( ( ~ ~ ~ ( ( ( ( ( ( ( ( ( ( ( ( ( ( ( ~ ~ ~ ~ ~ ~ ( ~ ( ~ ~ ~ ( ~ ( ( ( ( ( ~ ~ ~ ~ ~ ~ ~ ~ ~ ~ ~ ~ ~ ~ ~ ~ T ~ ~ ~ ~ ~ T T T ~ ~ ~ T ~ ~ T T T T T T T T T ~ T T T T T T T T T T T T T T T T ",
"E.E.E.E.E.E.E.E.E.E.E.E.E.E.E.E.E.E.E.E.E.E.E.E.T.E.E.E.E.E.E.E.E.E.E.E.E.E.E.E.E.E.E.E.E.E.E.E.E.E.Q.Q.Q.E.E.E.E.E.E.E.E.E.E.E.E.E.E.E.E.E.E.E.E.E.E.E.E.E.E.E.E.E.E.E.E.E.W.E.W.W.W.W.W.W.W.R.R.R.R.R.R.R.R.R.R.E.E.E.R.R.W.E.W.R.T.T.R.R.R.T.T.R.R.R.R.R.R.T.R.R.R.R.R.R.R.R.R.R.R.R.R.R.R.R.R.R.R.R.R.R.R.R.R.R.R.R.R.R.R.R.W.R.R.R.R.R.R.R.R.R.R.R.R.R.R.R.R.R.W.W.W.R.R.R.R.R.R.R.R.T.T.R.R.R.R.R.R.R.R.R.R.R.R.R.R.R.R.R.R.R.R.R.R.I.I.I.R.K.R.R.R.I.I.R.K.K.R.R.R.R.K.K.K.K.R.R.K.K.K.K.K.R.R.R.K.K.I.K.K.I.I.K.K.K.K.I.K.K.K.K.K.K.I.I.K.K.K.K.R.R.R.K.R.I.K.K.K.R.I.K.K.K.K.K.K.H.K.K.K.K.K.K.K.K.K.K.K.K.K.K.K.K.K.K.K.K.K.K.J.J.K.K.G.G.K.K.K.K.K.K.G.J.J.H.J.G.G.K.K.K.J.K.H.J.J.K.J.J.J.J.J.J.G.G.J.J.J.J.J.J.J.J.J.J.J.J.J.J.J.J.J.J.J.J.J.J.J.J.J.J.J.J.J.J.J.J.L.J.J.J.J.J.J.=.=.&.&.&.&.&.&.&.&.&.=.=.=.&.&.=.&.&.&.&.&.&.&.&.=.=.=.&.&.&.&.&.&.&.&.&.&.&.&.&.&.&.&.&.&.&.&.&.&.&.&.&.&.%.%.%.%.%.%.%.%.%.%.%.&.&.%.%.%.%.%.%.%.-.%.%.%.%.%.%.%.%.%.%.%.%.%.%.%.%.%.%.-.-.%.%.) ) ) %.%.%.%.%.%.) %.%.) ) ) ) ! ! ! ) +.! ! ! ! ! ! ! / ! ! ! ! ! ! ! ! ! / ! / / / / / / ( ( ( ( ( ( ( ( ( ( ~ ^ ^ ( ~ ~ ( ( ( ( ~ ~ ~ ~ ~ ~ ( ( ( ( ( ( ( ( ( ( / / ( ( ( ( ( ( ( ( ( ( ( ( ~ ~ ~ ~ ~ ~ ~ ~ ( ( ( ( ( ( ( ~ ~ ( ( ( ~ ~ ~ ~ ~ ~ ~ ( ( ( ~ ( ~ ( ( ( ~ ~ ( ~ ~ ~ ~ ~ ~ ~ ~ ~ ~ ~ ~ ~ ~ ~ ~ T T T T T T T T T T T T T T T T T T T T T T T T T T T T T T T T T T T T T T T T T ",
"E.E.E.E.E.E.E.E.E.E.E.E.E.E.E.E.E.E.E.E.E.E.E.E.T.E.E.E.E.E.E.E.E.E.E.E.E.E.E.E.E.E.E.E.E.E.E.E.E.E.E.E.E.E.E.E.E.E.E.E.E.E.E.E.E.E.E.E.E.E.E.E.E.E.E.E.E.E.E.E.W.W.W.R.R.R.E.E.E.E.W.R.W.T.R.R.R.R.R.R.R.R.R.R.R.W.W.W.R.R.R.R.W.W.R.R.R.W.W.W.R.R.R.R.W.W.R.R.R.R.R.R.R.R.R.R.R.R.R.R.R.R.W.W.R.R.R.R.R.R.R.R.R.R.R.R.R.R.R.R.R.R.R.R.R.R.R.R.R.R.R.R.R.R.R.R.R.R.R.R.R.R.R.R.R.R.R.R.R.R.R.R.R.R.R.R.R.R.R.R.R.R.R.R.R.R.R.K.K.K.I.I.I.I.K.K.K.K.K.K.K.K.K.K.K.K.K.K.K.K.K.K.K.K.K.K.K.K.K.K.K.K.I.I.K.K.K.K.K.K.K.K.H.K.K.K.K.K.K.K.K.K.K.K.K.K.K.K.K.K.K.K.K.K.K.K.K.K.K.K.K.K.K.K.K.K.K.K.K.K.K.K.K.H.K.K.K.K.K.K.K.K.J.J.K.K.K.K.K.K.K.K.J.J.K.K.K.K.K.K.J.J.K.K.K.J.J.K.K.K.K.K.K.J.J.K.J.J.J.J.J.J.J.J.J.J.J.J.J.J.J.J.J.J.J.J.J.J.J.J.J.J.J.J.J.J.J.J.J.J.J.L.J.J.J.J.J.J.J.=.=.=.J.=.=.=.=.&.&.=.&.&.&.&.=.&.&.&.&.&.&.&.&.&.&.&.&.&.=.=.&.&.&.&.&.&.&.&.&.&.&.&.&.&.&.&.&.&.&.&.&.&.-.-.%.%.%.%.%.%.%.%.%.%.%.%.%.%.%.%.%.%.%.%.%.%.%.%.%.%.%.%.%.%.%.%.%.%.%.%.%.%.%.%.%.%.%.) ) ) ) ) %.%.%.%.%.%.%.! ! ! ! ! ! ) ! ! ! ! ! ! ! ! ! ! ! ! / / / ! ! / / / / / / / / ( ( ( ( ( ( ( ( ( ( ( ( ( ( ( ~ ~ ( ( ( ( ( ( ~ ~ ~ ~ ~ ~ ~ ~ ~ ~ ~ ~ ( ~ ~ ~ ~ ~ ( ( ~ ~ ~ ( ( ( ( ( ( ( ( ( ~ ~ ~ ~ ~ ~ ~ ~ ~ ~ ~ ~ ~ ~ ~ ~ ~ ~ ~ ~ ~ ~ ~ ~ ~ ~ ~ ~ ~ ~ ~ ~ ~ ~ ~ ~ ~ ~ ~ ~ ~ ~ T ~ ~ ~ ~ ~ ~ ~ ~ ~ ~ T T T T T T T T T T T T T T T T T T T T T T J J J J J T J J J T T T T T T T T J J J T ",
"E.E.E.E.E.E.E.E.E.E.E.E.E.E.E.E.E.E.E.E.E.E.E.E.E.E.E.E.E.E.E.E.E.E.E.E.E.E.E.E.E.E.E.E.E.E.E.E.E.E.Q.Q.Q.Q.E.E.E.E.E.E.E.E.E.E.E.E.E.E.E.E.E.E.E.E.E.E.E.E.E.E.W.W.R.R.R.R.R.W.W.R.R.R.T.T.T.R.R.R.R.R.R.R.R.R.R.R.R.W.R.R.R.R.R.R.W.R.R.R.R.W.R.W.R.R.W.W.R.R.R.R.R.R.R.R.R.R.R.R.R.R.R.R.R.T.R.R.R.R.R.R.R.R.R.R.R.R.R.R.R.R.R.R.R.R.R.R.R.R.R.R.R.R.R.R.R.R.R.R.R.R.R.R.R.R.R.R.R.R.R.R.R.R.R.R.R.R.R.R.R.R.R.R.R.R.R.R.R.K.K.K.K.K.K.K.K.K.K.H.H.K.K.K.K.K.K.K.K.K.K.K.K.K.I.K.K.K.K.K.K.K.K.I.I.I.K.K.H.H.K.K.K.K.H.K.K.K.K.K.K.K.K.K.K.K.K.K.K.R.K.K.K.K.K.K.K.K.K.K.K.K.K.K.K.K.K.H.H.K.K.K.K.K.H.H.K.K.G.J.K.K.K.K.J.G.H.H.K.K.K.K.G.G.J.J.K.K.J.J.K.J.J.J.J.K.J.J.J.K.K.J.J.J.J.J.J.J.J.J.J.J.J.J.J.J.J.J.J.J.J.J.J.J.J.J.J.J.J.J.J.L.J.J.J.J.=.=.=.=.J.J.&.L.J.J.L.J.L.L.=.=.=.=.&.&.=.=.&.&.&.&.&.&.&.&.=.&.&.&.&.&.&.&.&.&.&.&.&.&.&.&.&.&.&.&.&.&.&.&.&.&.&.&.&.&.&.&.&.&.&.&.&.&.%.%.%.%.%.%.%.%.%.%.%.%.%.%.%.%.%.%.%.) ) %.%.%.%.%.%.%.%.%.%.%.%.%.%.%.%.%.%.%.) ) ) ) ) ) ) ) ! ) ) ) ) ) ) ! ! ! ! ! ! ! ! ! ! ! ! ! ! ! ! ! ! ! ! / / / / / ! ! / / / / / ( ( ( ( ( ( ( ( ( ( ( ( ( ( ( ~ ~ ~ ~ ~ ~ ~ ~ ~ ~ ~ ~ ~ ~ ~ ~ ~ ~ ~ ~ ~ ~ ~ ~ ~ ~ ~ ~ ~ ~ ~ ~ ( ( ( ( ( ( ( ( ( ~ ~ ~ ~ ~ ~ ~ ~ ~ ~ ~ ~ ~ ~ ~ ~ ~ ~ ~ ~ ~ ~ ~ ~ ~ ~ ~ ~ ~ ~ ~ ~ ~ ~ ~ ~ ~ ~ ~ ~ ~ ~ ~ T ~ ~ ~ ~ ~ ~ ~ T T T T T T T T T T T T T T T T T T T T T T T T J J J J J J J J J J J J T T T T T T J J J J ",
"E.E.E.E.E.E.E.E.E.E.E.E.E.E.E.E.E.E.E.E.E.E.E.E.E.E.T.E.E.E.E.E.W.R.R.W.E.W.E.E.E.E.E.E.E.E.E.E.E.E.Q.Q.Q.Q.E.E.E.E.E.E.E.E.E.T.W.W.W.T.T.E.W.W.W.W.W.T.T.T.T.T.R.R.R.T.T.R.R.W.T.T.T.T.T.T.R.W.R.R.R.R.R.R.R.R.R.R.W.W.R.R.R.R.R.R.W.R.R.R.R.W.R.R.R.R.R.W.R.R.R.R.R.R.R.R.R.R.R.R.R.R.R.R.R.R.R.R.R.R.R.R.R.R.R.R.R.R.R.R.R.R.R.R.R.R.R.R.R.R.R.R.R.R.R.R.R.R.R.R.R.R.R.R.R.R.R.K.K.R.R.K.R.R.R.R.R.R.R.R.R.R.R.R.R.R.R.R.K.K.K.K.K.K.K.K.K.K.K.K.K.K.K.K.K.K.K.K.K.K.K.K.K.K.K.Y.K.H.H.H.H.H.K.K.I.I.K.K.K.K.K.K.K.K.K.K.K.K.K.K.K.H.K.K.K.K.K.K.K.K.K.K.K.K.K.K.K.K.K.K.K.K.K.K.H.K.H.H.H.K.K.H.H.G.G.G.J.J.G.G.K.K.K.K.J.J.J.J.J.J.J.J.J.J.J.J.J.J.J.J.J.K.J.J.J.K.J.G.J.K.J.J.J.J.J.J.J.J.J.J.J.J.J.J.J.J.J.J.J.J.J.=.=.J.J.J.=.=.J.J.J.J.&.=.=.=.=.=.=.=.=.&.=.=.J.J.J.L.&.&.&.&.-.-.&.&.=.*.-.-.-.-.-.-.&.&.&.&.&.&.-.-.&.&.&.&.&.&.&.&.&.&.&.&.&.&.&.&.-.&.&.&.&.&.&.&.&.&.-.-.-.-.-.-.%.-.%.%.%.%.%.%.%.%.%.%.%.%.%.%.%.%.%.) ) ) %.%.%.) ) %.) %.%.%.) ) ) ) %.%.%.%.) ) ) ) ) ) ) ) ) ! ! ! ! ! ! ! ! ! ! ! ! ! ! ! ! ! ! ) ! ! ! ! ! ! / / / / / / / / / / / ( ( ( ( ( ^ ^ ( ( ( ( ^ ^ ~ ^ ^ ~ ~ ~ ~ ~ ~ ~ ~ ~ ~ ~ ~ ~ ~ ~ ~ ~ T T ~ ~ ~ ~ ~ ~ ~ ~ ~ ~ ~ ~ ~ ~ ( ~ ~ ~ ~ ~ ( ( ~ ~ ~ T T ~ ~ ~ ~ ~ ~ T ~ ~ T ~ T ~ ~ ~ ~ ~ ~ T ~ ~ ~ ~ ~ ~ ~ ~ ~ ~ ~ ~ ~ ~ ~ ~ T T ~ T T T ~ ~ ~ ~ T T T ~ T T T T T T T T T J J T T T T T T T J J J J J J J J J J J J J J J T J J J J J J J J J J ",
"E.E.E.E.E.E.E.R.R.E.E.E.E.E.E.E.E.E.E.E.E.E.E.E.E.T.T.T.E.E.E.R.R.R.R.R.W.W.E.E.E.E.E.E.E.E.E.E.E.E.E.E.E.E.E.E.E.E.E.E.E.E.T.T.W.W.W.W.W.E.W.T.W.W.T.T.T.T.R.R.T.T.T.T.T.T.T.R.R.T.T.R.T.T.R.R.W.W.R.R.R.R.R.R.R.R.R.R.R.R.R.R.R.R.R.R.R.R.R.R.R.R.R.R.R.W.R.T.R.R.R.R.R.R.R.K.I.I.R.R.R.R.R.R.R.R.R.R.R.R.R.R.R.R.R.R.R.R.R.R.R.R.R.R.R.R.R.R.R.R.R.R.R.R.R.K.R.R.R.R.R.R.K.K.K.K.K.K.K.K.R.R.R.K.R.R.R.K.K.K.R.R.R.R.R.K.K.K.K.K.K.K.K.K.K.K.K.K.K.K.K.H.H.H.H.H.K.K.K.K.H.H.H.H.K.K.K.H.K.K.H.K.K.K.K.K.K.H.H.H.H.H.H.H.K.K.K.K.H.H.H.K.K.K.K.K.K.K.K.K.K.K.H.K.K.K.H.H.K.K.K.K.H.K.H.H.H.K.K.H.J.G.J.J.J.G.G.G.G.G.G.J.J.K.J.J.J.J.J.J.J.J.J.J.J.J.J.J.J.K.J.J.J.K.J.G.J.J.J.J.J.J.J.J.J.J.J.J.J.J.J.J.J.J.J.J.J.J.J.&.&.=.=.=.=.=.=.J.L.&.&.&.=.=.=.=.=.=.&.&.&.&.=.=.&.&.&.&.&.&.-.-.-.&.=.%.-.-.-.-.-.-.-.-.-.-.-.-.-.-.&.&.-.-.-.-.&.&.&.&.%.%.%.&.&.&.-.-.&.&.&.-.-.-.&.%.-.-.-.%.-.%.%.%.%.%.%.%.%.%.%.%.%.) %.%.%.%.%.%.%.%.) ) ) %.%.%.%.%.) ) %.) ) +.! ! ) ) ) ) ! ! ! ) ! ! ! ! ) +.! ! ! ! ! ! ! ! ! ! ! ! ! ! ! ! ! ! ! ! ! ! ! / / / / / / / / / / / ( ( ( ( ( ^ ( ( ( ( ( ( ~ ~ ~ ^ ^ ~ ~ ~ ~ ~ ~ ~ ~ ~ ~ ~ ~ ~ ~ ~ ~ ~ ~ T ~ ~ ~ ~ ~ ~ ~ ~ ~ ~ ~ ~ ~ ~ ~ ~ ~ ~ ~ ~ ~ ~ ~ ~ T T T T T T T T ~ ~ ~ ~ ~ ~ T ~ ~ ~ ~ ~ T T T ~ T T ~ ~ ~ T T ~ ~ ~ T ~ ~ ~ T T T T T T T T T T T T ~ T T T T T T T T T J J J T T T T T T T J J J J J J J J J J J J J J J J J J J J J J J J J J ",
"W.W.R.R.R.R.W.W.R.R.R.R.W.W.E.E.E.E.E.E.E.E.E.!.W.W.W.W.W.W.T.T.R.R.R.R.R.R.R.W.E.E.E.E.R.R.E.E.W.W.W.R.R.R.R.R.R.R.E.E.W.T.T.T.W.R.R.W.W.R.E.E.E.E.E.T.T.R.R.E.R.R.R.R.R.R.R.R.R.R.R.R.R.T.R.R.R.R.R.R.R.R.R.R.R.R.R.R.R.R.R.R.R.R.R.R.R.R.R.R.R.R.R.R.R.R.R.R.R.R.R.R.I.K.I.R.R.I.R.R.R.R.R.R.R.R.R.R.I.I.K.K.R.R.R.R.I.I.R.R.R.R.R.R.R.R.R.R.R.R.R.R.R.R.R.R.R.R.K.K.I.K.K.K.K.K.K.I.I.I.K.K.K.I.I.K.K.K.K.K.R.I.I.K.K.K.K.K.K.K.H.H.G.G.G.H.H.H.H.H.G.G.H.G.H.H.K.K.K.K.K.K.H.K.K.K.K.K.K.H.K.K.K.K.J.K.K.K.K.K.K.J.J.J.J.J.J.K.K.K.K.K.K.K.K.K.K.K.K.K.K.K.K.K.K.K.K.K.K.K.J.J.K.K.K.K.K.K.K.K.K.G.J.J.J.J.J.J.J.J.J.J.J.J.J.J.J.J.L.L.J.J.J.J.J.J.J.J.J.J.J.J.J.J.J.L.J.J.J.J.J.J.J.J.J.J.=.=.=.=.=.=.=.=.J.=.J.J.J.=.=.&.=.=.=.&.&.&.&.&.&.&.&.&.&.&.&.&.&.&.&.&.&.&.&.&.&.&.&.&.&.&.&.&.&.%.%.%.-.-.-.-.-.-.%.%.%.&.&.&.&.&.&.&.&.&.%.%.-.&.&.&.-.-.-.-.&.&.&.&.%.%.%.%.%.%.&.&.%.%.%.%.%.%.%.%.-.-.%.%.) ! ) %.%.%.%.) %.%.%.%.%.%.%.%.+.%.%.%.%.%.! +.! ! +.+.+.+.+.%.! ! ! ! ! ! ! ! ! ! ! ! +.! ! ! / / / / / / / ! / ! ! ! / / / / / / / / / / / / / ( ( ( ( ( ^ ^ ^ ^ T T E E E E ~ ~ T T T T ~ ~ ~ ~ ~ ~ ~ ~ ~ ~ ~ ~ ~ T T T T T T T T T T T ~ ~ ~ ~ T T T ~ ~ T T ~ ~ ~ ~ ~ ~ ~ T T T ~ ~ T T T T ~ ~ T T ~ T T T T T T T T T T ~ T T ~ ~ T T T T T T T T T ~ ~ T T T T T T T T T T T T T T T T T T T T J J J T T T J J J T T T J J J J J J J J J J J T J Y J J J J J J J J J J ",
"W.W.R.R.R.R.R.R.R.R.R.R.W.R.E.E.E.E.E.E.E.E.T.T.T.T.T.W.T.T.T.T.R.T.T.R.R.R.R.R.E.E.E.E.R.R.R.E.W.W.R.R.R.R.R.R.R.R.W.W.R.T.R.R.W.R.R.R.R.R.E.E.E.E.R.R.R.R.R.R.R.R.R.R.R.R.R.R.R.R.R.R.R.R.R.R.R.R.R.R.R.R.R.R.R.R.R.R.R.R.R.R.R.R.R.R.R.R.R.R.R.R.R.Y.I.R.R.R.R.R.R.R.K.K.I.R.I.I.I.R.K.I.K.K.R.R.R.R.I.I.K.K.I.I.I.I.I.I.R.R.R.R.R.K.R.R.R.R.R.K.R.R.R.R.K.R.R.R.K.K.K.K.K.K.K.K.K.Y.K.I.K.K.K.K.K.K.H.H.H.K.I.I.K.K.K.K.K.H.K.K.H.H.G.G.G.H.G.H.H.H.G.G.G.G.G.G.H.H.H.H.H.H.H.H.H.K.K.K.G.G.K.K.K.K.J.K.K.K.K.K.K.K.K.K.K.K.K.J.J.J.K.K.K.K.K.K.K.K.K.K.K.J.K.K.K.K.K.H.J.J.G.G.H.H.K.K.J.J.J.J.J.J.J.J.J.J.J.J.G.G.J.J.J.J.J.J.J.J.J.L.L.J.=.J.J.J.L.L.J.J.J.L.J.J.J.J.J.J.J.J.J.J.J.J.J.=.=.=.=.=.=.=.=.=.=.=.&.&.&.=.&.&.=.=.&.&.&.&.&.-.&.&.&.&.&.&.&.&.-.-.-.&.&.-.&.&.&.&.-.-.-.&.&.&.&.%.&.&.%.%.-.-.-.-.%.%.%.%.%.%.%.&.&.&.%.%.%.-.-.-.-.-.-.-.-.-.-.&.&.-.-.-.%.%.%.%.%.%.%.%.%.%.%.%.%.%.-.-.%.%.! ! ) ) %.%.%.%.%.%.) ) %.%.%.%.+.+.+.+.) %.! ! ! ! ! +.+.! ! ! ! ! ! ! ! ! ! ! ! ! ! ! ! / / / / / / / / / / / / / / ! / / / / ( / / / / / / / ( ( ( ( ( ~ ( ( ^ ^ T T E T E E T T T T T T ~ ~ ~ T ~ ~ ~ ~ ~ ~ ~ ~ T T T T T T T T T T T T ~ ~ ~ ~ T T T T T T T T ~ ~ ~ ~ ~ T T T T T T T T T T T T T T ~ T T T T T T T T ~ ~ T T T T T T T T T T T T T T T ~ J T T T T T T T T T T T T T T T T T T T T T T T J J J J J T J J J J J J J J J J J J J J J J J J J J J J G G J J ",
"R.R.R.R.R.R.R.R.R.R.R.R.E.E.E.E.R.R.R.R.E.E.T.T.T.R.R.R.R.T.R.T.R.R.R.R.R.R.R.R.R.R.E.R.R.R.R.R.R.R.R.R.T.T.T.T.R.R.R.R.R.R.R.R.R.R.R.R.R.R.R.W.R.R.R.R.T.T.R.R.R.R.R.R.R.R.R.R.R.R.R.R.R.R.R.R.R.R.R.R.K.K.R.R.R.R.R.R.R.K.K.K.R.R.R.R.R.R.R.K.R.R.R.K.K.K.K.K.R.R.R.R.I.K.K.K.I.I.K.K.K.K.K.K.R.R.R.R.K.K.K.K.K.K.K.K.K.K.K.K.K.K.K.K.K.K.K.K.R.K.K.K.I.K.K.R.R.K.K.K.K.K.K.K.K.K.K.K.K.Y.K.K.K.K.K.G.H.H.K.K.K.K.K.K.K.K.K.H.K.K.K.K.K.K.K.K.K.K.K.K.K.G.K.K.G.G.G.G.G.J.J.J.J.J.H.H.K.K.K.J.K.J.J.J.J.J.J.J.J.J.K.K.K.K.K.K.K.K.J.J.J.K.K.K.J.J.K.K.H.H.J.J.K.K.K.K.H.J.G.G.G.G.G.G.G.G.G.G.J.J.J.J.J.J.J.J.J.J.J.J.J.J.J.J.J.J.J.J.J.J.J.J.J.J.J.J.L.L.J.J.J.J.L.&.J.L.=.J.J.J.=.=.=.=.=.=.&.&.&.&.=.&.&.&.=.&.&.&.&.&.&.&.=.=.=.=.&.&.&.&.&.&.&.&.&.&.&.&.%.%.%.&.&.&.&.&.&.&.&.&.%.&.&.&.&.&.&.&.%.%.%.-.%.*.*.*.%.%.%.%.%.%.%.%.%.%.%.%.%.%.%.%.%.%.%.%.-.-.%.%.-.-.%.%.%.%.%.%.%.%.%.%.%.%.%.%.%.%.%.%.) ! ! ) %.%.%.%.! ! +.%.+.+.%.%.+.+.! ! ! ! ! ! ! ! ! ! ! ! ! ! ! ! ! ! / ! ! / / / / / / / / / / / / / / / / / / / / / / / / / ( / ( ( ( ( ( ( ( ( ( ( ~ ~ ~ ~ T T T T T T T T T T T T T T T T T ~ T ~ ~ ~ ~ ~ ~ ~ T T T T T T T T T T T T ~ ~ T T T T T T T T T T T ~ ~ ~ ~ T T T T T T T T T T T T T T T T T T T T T T T T T T T T T T T T T T T T T T T T T T T T T T T T T T T T T J T T T J J T T T T T T J J J J J J J J J Y T J J J J J J J J J J J J J J J J J J J J J ",
"R.R.R.R.R.R.R.R.R.R.R.R.E.E.E.E.R.R.R.R.R.T.T.T.T.R.R.R.R.R.T.T.R.R.R.R.R.R.R.R.R.R.E.E.R.R.R.R.R.R.R.R.T.T.T.T.R.R.R.R.R.R.R.R.T.T.T.R.R.T.R.R.R.R.R.R.T.T.T.T.R.R.R.R.R.R.R.R.R.R.R.R.R.R.R.R.R.R.R.R.K.K.R.R.R.R.R.R.K.K.K.K.R.R.R.R.R.R.R.K.R.R.R.K.K.K.K.K.I.R.R.K.K.K.K.K.K.K.K.K.K.K.K.K.R.R.K.K.K.K.K.K.H.H.H.H.K.K.K.K.K.K.K.K.K.K.K.K.K.K.K.K.K.K.K.R.K.K.K.K.K.K.K.K.H.H.H.K.K.K.K.K.K.H.K.H.H.K.K.K.K.K.K.K.K.K.H.G.K.G.G.G.G.G.G.G.G.K.K.K.G.G.G.J.G.G.G.G.G.G.J.J.J.J.H.H.K.K.K.J.J.J.J.J.J.J.J.J.J.J.J.J.J.J.J.J.K.K.J.J.J.J.J.K.J.J.K.K.H.H.J.J.K.K.G.G.J.G.G.G.J.G.G.G.K.J.G.G.J.G.J.J.J.J.J.J.J.J.J.J.J.J.J.J.J.J.J.J.J.J.J.J.J.J.J.J.L.L.J.J.J.J.&.L.J.J.=.=.=.=.&.&.&.&.=.=.&.&.&.&.&.&.&.-.&.&.&.&.&.&.&.&.=.=.&.&.&.&.&.&.-.-.&.&.&.&.&.&.%.-.%.%.%.%.&.&.&.&.&.&.%.%.&.&.-.%.%.%.%.%.%.%.%.%.*.*.%.%.%.%.%.%.%.%.%.%.%.%.%.-.%.-.%.%.%.-.%.-.%.%.%.%.%.%.%.%.%.%.%.%.%.%.%.%.%.%.) %.%.%.) ! ! ! ) ) %.%.! ! ! ! ! ! ! ! +.! ! ! ! ! ! ! ! ! ! ! ! ! ! ! ! / ! / / / / / / / / / / / / / / / / / / / / ( / / / / / / / / ( ( ( ( ( ~ ^ ( ( ( ~ ( ~ ~ ~ ~ T T T T T T T T T T T T T T T T T T T ~ ~ ~ ~ ~ ~ ~ T T T T T T T T T T T T T T T T T T T T T T T T T T ~ ~ ~ ~ T T T T T T T T T T T T T T T T T T T T T T T T T T T T T T T T T T T T T T T T T T J T T T T T T T T J J J T T J J J J T T T T T J J J J J J J Y Y T J J J J J J J J J J J J J J J J J J J J J ",
"R.R.R.R.R.R.R.R.R.R.R.R.T.T.R.E.R.R.R.R.R.R.R.R.R.R.R.R.R.R.R.R.R.R.R.R.R.R.R.R.R.R.R.R.R.R.R.R.R.R.R.R.R.R.R.R.R.R.R.R.R.R.R.R.R.R.R.R.R.R.R.R.R.R.R.R.R.R.R.R.R.R.R.R.R.R.R.R.R.R.R.R.R.R.R.R.R.R.R.R.K.K.K.K.R.K.R.R.R.R.K.K.R.R.R.R.R.R.R.K.I.I.I.K.K.K.K.K.H.K.K.K.K.H.H.H.K.K.K.K.K.K.K.K.K.K.K.K.K.K.H.H.H.H.H.H.H.H.K.K.K.K.K.H.K.K.K.K.K.K.K.K.K.K.K.K.K.K.K.K.K.H.H.K.G.G.K.K.K.K.K.K.K.G.K.G.J.J.H.K.H.H.K.K.K.K.K.K.K.J.J.J.J.J.J.J.J.J.J.J.J.J.J.K.J.J.J.J.J.J.J.K.J.J.J.K.K.K.J.J.J.J.J.J.J.J.J.J.J.J.J.J.J.J.J.J.J.J.J.J.J.G.G.G.J.J.J.J.K.K.J.J.J.J.J.J.J.J.J.J.J.J.J.J.J.J.J.J.J.J.J.J.J.J.J.J.J.J.J.=.=.=.G.G.=.=.=.J.J.J.J.=.=.=.=.=.=.=.J.=.=.&.&.&.=.J.=.=.=.=.&.&.&.=.&.&.&.&.&.&.&.&.&.&.&.&.&.&.&.-.-.&.&.&.&.&.&.&.&.%.&.&.&.&.&.%.%.%.-.%.%.%.%.%.%.%.%.%.%.%.&.%.-.&.%.%.*.%.%.*.%.%.%.%.%.%.%.%.%.%.%.%.%.%.%.%.%.%.%.%.) %.%.%.%.%.%.%.%.%.%.+.%.%.%.%.%.%.%.%.) ) ) ) %.%.%.%.%.%.+.+.+.! ! ! %.%.! +.! ! / ! ! ! ! ! ! ! ! ! / / / / / / ! ! ! ! / / / / / / / / / / / ^ ( ( ( ( ( ( ( ( / ( ( ( ( ( ( ( ( ( ( ( ( ( ( ( ~ ^ ^ ^ ^ ^ ~ ( T T T T T T ~ T T T T T T T T T T T T T T T T T ~ ~ T ~ ~ ~ T T T T T T T T T T T T T T T T T T T T T J T T T T ~ ~ ~ ~ T T T T T T T T T T T T T T T J T T T T T T T T T T T T T J T T T T J J J T T T T J J J J T T J J J T J J J J J J J J J J J J J J J J J J J Y Y Y Y Y J J J J J J J J J J J J J J J J J J J J J ",
"T.T.T.T.R.R.R.R.R.R.T.R.T.T.R.E.R.R.R.R.R.R.R.R.T.R.R.R.R.R.R.R.R.R.R.R.T.T.R.R.R.R.R.R.R.R.R.R.R.R.R.R.R.R.R.R.R.R.R.T.T.T.R.R.R.R.R.R.R.R.R.R.R.T.R.R.R.R.R.R.R.R.R.R.R.R.R.R.R.R.R.R.R.R.R.R.R.R.R.R.K.K.K.K.K.K.R.R.R.R.K.K.R.R.R.R.R.R.R.K.K.K.K.K.K.K.K.K.K.K.K.K.K.H.H.H.H.H.K.K.K.K.K.K.K.K.K.K.K.K.H.H.H.H.H.H.H.H.H.K.K.K.K.K.H.K.K.K.H.K.K.K.K.K.K.K.K.K.H.H.H.H.H.H.G.G.K.K.K.K.K.J.K.K.K.K.G.J.H.H.H.H.J.K.K.K.K.K.K.J.J.J.J.J.G.J.J.J.J.J.J.J.J.J.J.J.J.G.G.J.J.J.J.J.J.J.J.J.J.J.J.J.J.J.J.J.J.J.J.J.J.J.J.J.J.J.J.J.J.J.J.J.G.G.J.J.J.J.J.J.J.J.J.J.J.J.J.J.J.J.J.G.G.J.J.J.J.G.J.J.J.J.J.J.J.J.=.=.&.=.&.&.=.G.=.=.&.=.=.=.=.=.&.&.&.=.&.=.J.=.&.&.&.&.&.&.&.=.=.&.&.&.&.&.&.&.&.&.&.&.&.&.&.&.&.&.&.-.-.-.&.&.-.-.-.-.-.-.-.%.&.%.%.%.%.&.%.%.-.-.-.-.%.%.%.%.-.%.%.&.&.%.-.-.%.%.%.%.*.*.%.%.%.%.%.%.%.%.%.%.%.%.%.%.%.%.%.%.%.%.%.) %.%.) %.%.%.%.+.%.! ! ! %.%.%.%.%.%.) ) %.) %.%.%.%.+.+.+.+.%.! ! ! ! ! ! ! ! ! ! ! ! ! ! ! ! ! ! ! ! ! / / / / ! ! ! ! / / / ^ / ( ( ( / ^ ^ ( ( ( ( ( ( ( ( ( / ( ( ( ( ( ( ( ( ( ( ( ( ( ( ^ ~ ~ ~ ^ ( ( E T T T T T T T T T T T T T T T T T T T T T T T T T ~ ~ T T ~ T T T T T T T T T T T T T T T T T T T T T T J T T T T T T ~ T T T T T T T T T T T T T T T J T T T T T T T T T T T T T T T T T J T J J J J J T J J J J J J J J J J T J J J J J J J J J J J J J J J J J J J Y Y Y Y J J J J J J J J J J J J J J G G J J J J J G ",
"R.R.R.R.R.R.R.R.R.R.R.R.R.R.R.R.R.R.R.R.R.R.R.R.R.R.R.R.R.R.R.R.R.R.R.R.R.R.R.R.R.R.R.R.R.R.R.R.R.T.R.R.R.R.R.R.R.R.R.R.R.R.R.R.R.R.R.R.R.R.R.R.R.R.R.R.R.R.R.R.R.R.R.R.R.R.K.K.R.K.K.K.I.R.I.I.K.K.R.R.R.K.K.K.K.K.R.R.R.R.K.H.K.K.K.K.R.R.K.K.K.K.K.K.K.K.K.K.K.K.K.K.K.H.H.H.K.K.K.K.K.K.K.K.K.K.K.K.K.K.K.H.H.H.H.H.H.H.H.K.K.K.K.K.H.H.H.H.K.K.K.K.K.K.K.K.K.K.K.H.H.J.H.H.K.K.K.K.K.K.K.G.K.K.K.K.K.K.J.K.J.J.J.J.K.K.K.J.J.J.J.J.J.J.J.J.J.J.J.J.J.J.J.J.J.L.J.J.J.J.J.J.J.J.J.J.J.J.J.J.J.J.J.J.J.J.J.J.J.J.J.J.J.J.J.J.J.J.J.J.J.J.J.J.=.J.J.J.J.J.J.J.J.J.J.J.L.J.J.J.J.J.J.J.J.J.J.=.=.=.J.=.=.=.=.=.=.=.&.&.&.&.=.=.&.&.&.&.=.=.=.&.&.=.&.&.=.=.=.=.&.&.&.&.&.&.&.&.&.&.&.&.&.&.&.&.-.-.-.-.&.&.&.&.&.&.&.&.&.&.&.&.&.&.&.&.&.&.%.%.%.%.%.%.%.%.%.%.%.%.%.%.%.%.%.%.%.%.%.%.%.%.%.%.%.%.%.%.%.%.%.%.%.%.%.%.%.%.%.%.%.%.%.%.%.%.%.%.) ) %.) %.%.%.%.%.+.! ! ! +.+.! +.+.+.+.+.! ! ! ! ! +.+.+.+.! ! ! ! ! ! ! ! ! ! / / / / / / / / / / / / / / / / / / / / / / / / / / ^ ( ( ( ( ( ( ( ( ( ( ( ( ( ( ( ( ( ( ( ( ( ( ( ( ^ ^ ^ ^ ^ ~ ~ ~ ~ T T T T T T T T T T T T T T T T T T T T T T T W T T T T T T T T T T T T T T T T T T T T T T T T T T T T T T T T J Y Y Y T T T T T T ~ T T T T T J T T T T T J T J J J T T T T T J T T T T T T J T T T T J J J J J J T T J J T T T T J T T T T T J J J J J J J J J J J J J J J J Y Y J J J J J J J J J J J J J J J J J J J J J J G G J G ",
"R.R.R.R.R.R.R.R.R.R.R.R.R.R.R.R.R.T.R.R.R.R.R.R.R.R.R.R.R.R.R.R.R.R.R.R.R.R.R.R.R.R.R.R.R.R.R.R.R.R.R.R.R.R.R.R.R.R.R.R.R.R.R.R.R.R.R.R.R.R.R.R.R.R.R.R.R.K.K.R.K.R.R.R.R.K.K.K.K.K.K.K.I.I.I.K.K.K.R.R.R.K.K.K.K.K.K.K.R.R.K.H.K.K.K.K.K.K.K.K.I.I.K.K.K.K.H.G.K.K.K.K.H.H.H.H.K.K.K.K.H.K.H.H.K.K.K.K.K.K.H.H.G.G.G.G.G.G.H.H.K.K.K.K.H.H.H.G.H.K.K.H.H.H.H.H.K.K.K.H.G.G.J.K.K.K.K.K.K.K.G.G.J.J.K.J.J.J.J.J.J.J.J.J.J.J.J.J.J.J.J.J.J.J.J.J.J.J.J.J.J.J.J.J.L.L.J.J.J.J.J.J.J.J.J.J.J.J.J.L.J.J.J.J.J.J.J.J.J.J.J.J.J.J.J.J.=.=.=.J.J.J.=.=.=.=.J.J.J.J.J.J.J.J.J.J.L.L.J.J.J.J.=.J.J.J.J.=.=.=.=.=.=.&.&.&.=.=.=.=.&.&.=.=.=.&.&.&.&.&.&.&.-.&.&.&.&.&.&.&.&.&.&.&.&.&.&.&.%.%.&.&.&.&.%.%.&.-.-.-.&.&.&.&.&.&.%.%.%.%.&.&.-.-.-.-.%.%.-.-.%.%.%.%.%.%.%.%.%.%.%.%.%.%.%.%.%.%.%.%.%.%.%.%.%.%.%.%.%.%.%.%.%.%.%.%.%.%.%.%.%.%.+.+.+.%.%.%.) ) %.) ) ) ) %.%.+.! ! ! %.+.! ! ! ! ! / / ! ! ! ! ! ! ! ! ! / ! ! ! ! ! ! ! / / / / / ( ( ( / / / / / / / / / / / / / / / / / / / ( ( ( ( ( ( ~ ( ( ( ( ( ( ( ( ( ( ( ( ( ( ( ( ( ^ ^ ~ ~ ^ ^ ~ ~ ~ T T T T T T T T T T T T T T T W T T T T T T W W W T T T T T T T T T T T T T T T T T T T T T T T T J T T T T T T T Y Y Y Y J T J T T T T T T T J J J J T J T T J J J J J J J J J J J J T T J J J J J J T T J J J J J J T T J J J J J J J J J T T T J J J J J J J J T T J J J J J J J J J J J J J J J J J J J J J J J J J J J J G L L L J G ",
"R.R.R.R.R.R.R.R.R.R.R.R.R.R.R.R.R.R.R.R.R.R.R.R.R.R.R.R.R.R.R.R.R.R.R.R.R.R.R.R.K.R.R.R.R.R.R.R.R.R.R.R.R.R.R.R.K.K.K.R.R.R.R.R.R.R.R.R.R.I.K.I.R.R.K.K.K.K.K.K.K.K.I.K.K.I.K.K.K.K.I.I.K.K.I.I.K.K.K.K.K.K.H.H.K.K.K.K.K.K.K.K.K.K.K.K.K.K.K.K.K.K.K.K.G.G.G.G.J.K.K.K.K.K.K.K.K.K.K.K.K.K.K.K.K.K.K.K.K.H.H.G.G.G.G.G.G.G.H.H.H.H.K.K.J.J.J.K.G.G.G.G.G.G.G.G.K.K.J.J.J.J.K.K.K.K.K.J.J.J.J.J.J.J.J.J.J.J.J.J.J.J.J.J.J.J.J.J.J.J.J.L.L.L.J.J.J.J.L.L.J.J.J.J.J.J.J.J.J.J.J.J.L.L.J.J.J.J.J.J.J.J.J.J.J.J.J.J.J.J.J.J.J.J.J.J.J.J.J.J.J.J.=.&.=.=.J.J.J.J.=.=.=.=.J.J.J.J.J.J.J.J.L.=.=.J.J.J.=.=.=.=.=.-.=.=.&.&.=.=.=.=.=.=.&.&.&.&.=.=.&.-.-.-.&.&.&.&.%.%.%.%.&.&.&.&.%.&.%.%.%.%.%.%.%.-.-.%.%.-.%.%.%.%.%.%.%.%.%.%.%.%.-.%.%.%.%.%.%.%.%.%.%.%.%.%.%.%.%.%.+.+.%.%.%.%.%.%.%.%.%.%.%.%.%.%.+.+.%.%.%.%.+.+.%.%.%.) ) %.! ! +.+.+.+.+.! +.+.%.%.%.%.+.%.%.+.+.+./ / / / / / $.$.+.! ! ! ! ! ! ! ! ! / / ! / / / / / / / / ^ ^ ^ ( ( ( ^ / / ( ( ( / ( ( ( ( ( ( ( ( ( ^ ^ ^ ^ ^ ( ( ^ ^ ^ ^ ^ ~ ~ ~ ^ ( ( ^ ( ^ ( ^ ^ ~ ^ ^ ~ ^ ^ T T T T T T T T T T T T W W W T T T T T T T T T T T T T T T T Y Y T T T T T T T T T T T T T T T T T T T Y J J J J T T T T Y Y Y Y J J Y Y T T T T T T T T T J J J T T T J J T T J J J J J J J T T T T T J J J J T J J T J J J J J J J T J J J J J J J J T T T J J J J J J Y Y J J J J J J J J J J J J J J J J G G G G G G G G G G G G J J G G G G G G ",
"R.R.R.R.R.R.R.R.R.R.R.R.R.R.R.R.R.R.R.R.R.R.R.R.R.R.R.R.R.K.R.R.R.R.R.K.R.R.R.R.R.R.R.R.R.R.R.R.R.R.K.K.R.R.R.R.K.K.K.K.R.R.I.K.R.I.I.I.K.K.K.K.R.K.K.K.K.K.K.K.K.K.K.K.K.K.K.K.K.K.K.K.K.K.K.K.K.K.K.K.K.K.K.K.K.K.K.K.K.K.K.H.K.K.K.K.K.K.K.K.K.K.K.K.K.K.K.K.J.K.K.K.K.K.G.G.K.K.K.K.K.K.K.K.K.K.K.H.H.H.G.G.G.G.G.G.G.G.G.G.G.J.J.J.J.G.J.J.G.G.G.G.G.G.G.G.J.J.J.J.J.J.J.J.K.K.J.J.J.J.J.J.J.J.J.J.J.J.J.&.J.J.J.J.J.J.J.J.J.J.L.L.L.L.J.J.J.L.L.L.L.L.L.J.J.J.J.J.L.L.L.L.&.L.L.L.J.J.L.J.J.J.=.=.J.J.J.J.J.J.=.=.=.=.=.&.=.=.=.J.J.=.=.=.&.=.=.=.=.=.&.&.=.=.=.=.J.&.&.=.J.J.=.=.=.&.&.=.=.=.=.=.-.-.&.&.-.-.-.-.-.-.=.&.&.-.-.-.-.-.-.-.=.-.&.&.&.&.%.%.%.%.%.&.&.%.%.%.%.%.%.%.%.%.%.%.-.%.%.-.%.%.%.%.%.%.%.%.%.%.%.%.%.-.-.%.%.%.%.%.%.%.%.%.%.%.%.%.%.%.%.%.%.%.%.%.%.%.%.%.%.%.+.+.+.+.+.! %.%.%.+.+.+.%.%.) ! ! ! +.+.! ! ! ! ! ! ! +.+.%.%.%.+.+.+.+.! ! ! ! ! ! / / $.$.! ! ! ! / ! / / / / / / / / / ^ / / / / ^ ^ ^ ^ ( ( ( ( ( ( ( ( ( ( ( ( ( ( ( ( ( ( ( ( ^ ^ ^ ^ ^ ^ ^ ^ ^ ^ ^ ^ ~ ~ ^ ^ ( ^ ^ ~ ^ ^ ~ T ~ ~ T ~ T T T T T T T T T T W W T T T T T T T T T T T T T T T Y T T Y Y Y Y T T T T T T T T T T T T T T T T T T Y Y J J J T T T T T T Y Y Y J J J Y J J T J J J T J J J J J J J J J J J J J J J J J J J T T T T T J J J J J J J J J J J J J J J J J J J J J J J J J J J J J J J J J J J J J J J J J J G J J J J J J J J G G G G G G G J G G G G G G G G G G G G ",
"K.K.K.K.I.I.R.R.R.K.K.K.R.R.R.R.R.K.R.R.R.R.K.K.K.K.K.K.K.K.K.K.R.R.K.K.K.K.R.R.K.K.K.K.K.K.K.K.R.K.K.K.K.K.I.I.K.K.K.K.K.K.K.K.K.K.K.K.K.K.K.K.K.K.K.K.K.K.K.K.K.K.K.K.H.K.K.K.K.K.K.K.K.K.K.K.K.K.K.K.K.K.K.K.K.K.K.K.K.K.J.J.K.K.K.K.K.K.K.K.K.K.K.K.K.K.K.K.J.K.K.K.K.J.J.J.K.K.J.K.H.H.K.K.K.K.K.K.H.H.J.J.G.G.G.G.G.G.G.G.J.J.J.J.J.J.J.J.J.J.J.J.J.J.J.J.J.J.J.K.K.J.J.J.J.J.J.J.J.=.=.J.J.J.J.J.J.&.=.=.=.=.&.=.=.J.=.J.J.J.L.L.L.L.J.J.L.L.L.L.L.L.L.J.J.J.=.=.=.=.=.=.&.&.=.=.=.=.=.=.=.=.=.=.=.=.=.=.&.&.&.&.&.=.=.=.=.=.&.&.=.=.=.=.=.=.=.=.=.=.&.&.=.&.&.&.&.&.&.=.=.=.=.&.=.&.&.&.&.=.=.=.-.-.-.&.&.&.&.&.%.&.&.&.&.&.&.&.%.&.%.%.%.%.%.%.%.%.%.%.%.%.%.%.%.%.%.%.%.%.%.%.%.%.%.%.%.%.%.%.%.%.%.%.%.%.%.%.%.%.%.%.%.%.%.%.%.%.%.%.%.%.%.%.%.%.%.%.%.%.%.%.%.%.+.+.+.+.+.+.! ! ! ! ! ! ! ! ! +.+.+.+.+.+.+.+.! ! ! +.$.$.! ! ! ! ! ! ! ! ! +.! +.+.+.! +./ / / / / / / / / / / / / / / / / / / ( ( / / ^ ^ ^ ^ ^ ( ( ^ ^ ^ ^ ^ ^ ^ ^ ^ ^ ^ ( ( ( ^ ^ ( ( ( ( ( ( ( ( ( ^ ^ ^ ^ E E ^ ^ ~ ~ T T ~ ^ ^ ~ T T T ~ T T T T E E T E T T T T T Y Y T T T Y Y T T T T Y T T T T Y Y T Y Y Y Y Y Y Y Y Y Y Y T Y Y J J J T T T T T Y Y Y J J J Y Y T T T T T T Y Y Y Y Y Y Y Y J J Y J J J J J J J J J J J J J J J J J J J J J J J J J J J J J J J J J J J J J J J J J J J J J J J J J J J J J J J J J J J J J J J J J J J J J J J G J J J L L J J J G G G J J J J G G G J G G G L J J J G ",
"K.K.K.K.K.K.R.R.R.K.R.R.R.R.R.R.R.K.K.R.R.K.K.K.K.K.K.K.K.K.K.K.K.K.K.K.K.R.R.R.K.K.H.K.K.K.K.K.K.K.K.K.K.K.K.K.K.K.K.K.K.K.K.K.K.H.H.K.K.K.K.K.K.K.K.K.K.K.H.K.H.K.K.K.H.H.K.K.K.K.H.H.K.K.K.H.K.K.K.K.K.K.K.K.K.K.H.K.J.J.J.J.K.H.H.K.K.K.K.K.K.K.K.K.K.K.K.K.K.K.K.J.J.J.J.J.J.K.J.J.H.H.K.K.K.H.H.H.J.J.J.K.G.G.G.G.G.G.G.G.J.J.J.J.J.J.J.K.J.J.G.G.G.G.J.J.G.J.J.J.J.J.J.J.J.J.J.J.J.=.=.=.J.J.J.J.J.J.=.=.=.J.&.&.&.&.=.=.J.J.L.L.J.J.L.J.L.J.L.J.L.&.L.J.J.=.=.=.=.=.&.&.&.&.&.=.=.=.=.J.=.=.&.=.=.=.=.=.&.&.&.&.=.=.=.=.=.&.&.&.&.&.=.=.=.=.=.=.=.&.&.&.=.&.&.&.&.&.&.=.&.&.&.&.&.&.&.&.&.&.&.&.-.-.-.-.&.&.&.%.%.%.%.&.&.&.&.&.&.&.%.%.%.%.-.-.-.-.*.*.%.%.%.%.%.%.%.%.%.%.%.%.%.%.%.%.%.%.%.%.%.%.%.%.%.%.%.%.%.%.%.%.%.%.) %.%.%.%.%.+.+.+.%.%.%.+.+.%.+.+.+.! ! ! ! +.+.+.+.! ! ! ! ! ! ! ! ! ! +.+.+.+.+.+.+.! ! ! $.! / ! ! ! ! ! ! ! ! ! ! ! +.+.! ! / / / / / / / ^ / ( ( / ( ( ^ ^ ^ / / ( ^ ^ / / ^ ^ ^ ^ ^ ( ^ ^ ^ ^ ( ( ^ ^ ( ( ( ^ ( ( ( ^ ^ ^ ^ ( ( ( ( ^ ( ~ ~ T ~ T E T ^ ~ ~ T T T T ~ ~ ~ ~ T T T T T T T T T E E T T T T T T T T T T T T T T T T T T Y Y T Y Y Y Y Y Y Y Y Y Y Y Y Y Y Y Y Y J J J J J T T J Y Y J J J J J J Y Y T J J J J J Y Y Y Y J Y Y J Y Y J J J J J J J J J J J J J J J J J J J J J J J J J J J J J J J J J J J J J J J J J J J J Y Y J J J J J J J J J J J J J J J J J J J J J J J J G J J G L L J J G G G J G G G G G G G G L L L L J J J G ",
"K.K.K.K.K.K.K.K.K.K.K.K.K.K.K.K.K.K.K.K.K.K.K.K.K.K.K.K.K.K.K.K.K.K.R.R.K.K.K.K.R.K.K.K.K.K.K.K.K.K.K.K.K.K.K.K.K.K.K.K.K.K.K.K.H.H.H.K.K.K.K.K.K.K.K.K.K.K.K.H.H.K.K.K.H.H.K.K.K.K.K.K.K.K.H.J.K.K.K.K.G.G.K.K.K.K.K.K.K.K.J.J.K.K.K.K.K.K.K.K.K.K.K.K.H.J.K.J.J.J.J.J.J.J.K.K.J.J.J.J.K.K.K.K.J.J.J.J.J.J.J.J.K.K.J.J.J.J.G.G.J.J.J.J.J.J.J.J.J.L.L.L.L.J.L.J.J.J.J.J.J.J.J.L.J.J.J.J.=.=.=.=.J.J.J.J.J.J.J.J.=.=.&.&.&.&.=.=.&.&.&.&.L.&.&.&.&.&.&.&.&.&.&.&.&.&.&.&.&.&.-.-.&.&.&.&.=.=.J.J.&.&.&.&.&.&.&.&.=.=.&.&.&.&.&.&.=.&.&.&.&.&.-.-.-.-.&.&.&.&.&.&.&.&.&.&.&.&.&.&.&.&.&.&.&.&.&.&.&.&.&.%.&.&.%.%.%.%.%.%.%.%.%.%.%.%.&.&.%.%.%.%.%.%.%.%.%.%.%.%.%.*.%.%.%.%.%.%.%.%.%.%.%.%.%.%.%.%.*.%.+.%.%.%.%.%.%.%.%.%.%.%.%.%.%.%.%.%.%.%.! ! ! ! +.+.+.! +.+.+.+.! +.+.+.! +.! $.$.$.$.$.+.+.! ! ! +.+.! +.+.+.+.$.$./ / ! ! / ! / ! / / +./ / / / / / / / / / / / / / / +./ / / / / / / ( ^ ^ ^ ^ ^ ^ ( / ^ ^ ^ ^ ( ( ( ^ ^ ^ ^ ^ ^ ^ ^ ^ ^ ^ ^ ^ ^ ^ ~ E T ^ ( ( ( ~ ~ ^ ^ T T ~ ^ E T ^ ^ ~ T T T T ~ T ~ T ~ T T T T T T T T T T T T T T T T Y Y Y Y T T T T Y Y T T Y Y Y Y Y Y Y J J J Y Y Y Y Y Y Y Y Y Y Y Y Y Y J J T T Y Y J J J J J J Y Y Y Y J J Y Y Y J J Y J J J J J J J J J J J J J J J J J J J J J J J J J J J J J J J J J J J J J J J J J J J J J J J J J J J J J J J J J J J J J J J J G J J J J J J J J J J J G L G G G J J G G G J J G G G G G G G G G G G G G G G G ",
"K.K.K.K.K.K.K.K.K.K.K.K.K.K.K.K.K.H.K.K.K.K.K.K.K.K.K.K.K.K.K.K.K.K.R.R.K.K.K.K.K.K.H.H.K.K.K.K.K.K.K.K.K.K.K.H.K.K.K.K.K.K.H.H.H.G.H.J.K.H.K.K.K.K.K.K.K.K.K.H.H.K.K.H.H.H.K.K.K.K.J.J.J.J.J.J.J.K.K.G.G.G.K.K.K.K.K.K.K.K.J.J.J.J.J.J.H.K.H.H.K.K.H.H.K.K.K.K.J.J.K.J.J.J.J.J.J.J.G.J.J.J.J.J.J.J.G.G.G.J.G.G.G.J.G.G.L.G.G.G.L.J.J.J.J.J.J.J.L.J.L.L.L.L.L.L.J.J.J.J.J.L.L.L.J.J.J.J.=.=.-.&.&.&.&.J.J.J.=.=.=.=.&.&.&.&.&.&.&.&.&.&.=.=.&.&.&.&.&.&.&.&.&.&.&.&.&.&.&.&.-.-.&.&.&.&.&.&.&.&.-.-.&.&.&.&.&.&.&.&.&.&.&.&.&.&.=.&.&.&.&.&.-.-.-.-.-.-.-.-.-.-.&.&.&.&.&.&.&.&.-.-.-.-.-.-.-.-.&.&.&.&.%.%.%.%.%.%.%.%.%.%.%.%.-.%.%.&.%.%.%.%.%.%.%.%.%.%.%.%.*.%.%.%.%.%.%.%.*.%.%.%.%.%.%.%.%.%.%.%.+.%.%.%.%.%.%.+.%.%.%.%.%.%.%.+.%.%.%.! ! ! ! ! %.) ! ! ! +.+.+.! ! ! ! ! ! ! ! ! $.$.$.+./ ! ! ! ! ! ! / ! ! ! / ! / / / / / / / / / / / / / / / / / / / / / / / / / / / ^ / / ^ ^ ^ ^ ( ( ^ ^ ( ^ ( ( ( ( ( ( ( ( ( ^ ( ^ ^ ^ E E ~ ^ ^ ^ ^ ^ ~ ~ ~ ~ T T ^ ^ ( ( ~ ~ ^ ^ T T ~ ^ E T T ~ T T T T T T T T T T T T T T W W T T T T T T T T Y Y Y Y Y Y Y Y Y J Y Y Y Y J J Y Y Y J J J J J J Y Y Y J J J J Y Y Y Y Y Y J J T T Y Y J J J J J J J J Y Y J J Y Y J J J J J J J J J J J J J J J J J J J J J J J J J J J J J J J J J J J J J J J J J J J J J J G G J J J J J J J J J J J J J J J J J G J J G J J J J J J J J J J G G G G G G G G G G G J J G G G G G G H G H H G G G G G G ",
"K.K.K.K.K.K.K.K.H.K.H.H.H.H.K.K.K.H.H.H.H.H.H.K.K.K.K.K.K.K.K.K.K.K.K.K.K.K.K.H.H.H.G.G.H.H.K.K.H.H.H.H.K.K.K.K.H.H.K.H.K.K.K.K.K.J.G.J.J.J.K.K.K.K.K.K.K.K.H.K.H.H.H.G.J.K.K.K.J.J.H.H.G.G.G.G.G.J.G.G.G.G.G.G.G.G.G.K.K.K.G.G.G.J.J.J.H.H.H.H.J.J.J.J.J.K.K.K.J.J.J.J.J.J.J.J.J.J.=.J.J.J.J.J.J.J.L.L.J.J.J.L.J.J.J.J.&.&.L.J.&.L.J.J.J.J.J.J.J.J.J.J.G.J.L.L.L.L.J.J.L.L.L.L.&.&.J.J.&.&.&.-.&.&.&.L.L.L.=.=.&.&.&.&.&.&.&.&.&.&.&.=.=.=.&.&.&.&.=.&.&.&.&.&.&.&.&.&.&.&.&.-.-.-.-.&.&.&.&.-.-.&.&.&.-.&.&.&.&.&.-.&.&.&.&.&.&.&.-.-.-.-.-.-.-.-.-.-.-.-.-.-.&.&.&.&.&.&.&.=.&.&.&.&.%.%.%.%.%.%.-.&.%.%.%.%.&.%.%.%.%.%.%.%.%.%.&.&.%.%.%.%.%.%.%.%.%.%.%.%.%.%.%.%.%.%.%.%.%.%.%.%.%.%.%.) +.%.%.%.+.%.%.%.%.%.+.+.+.+.%.%.+.+.! ! +.+.+.+.! ! ! +.) ) ) ! ! +.+.+.! ! / / / ! ! ! ! ! / / / / ! ! ! ! ! ! ! ! / / / / / / ^ ^ ^ ^ ^ ^ ^ ^ / / / / / / ( ( / / / / / / ^ ^ ( ( ^ ( ( ( ( ( ( ( ( ( ( ( ( ( ^ ^ ^ ^ ^ ^ ^ ( E E E E ( E E E ^ ^ ^ ^ ~ ~ ~ ~ T E E E ( ( ( ^ T T T T ~ ~ T T T T T T T T T T T T T T T T T T W W W T T W Y Y T T Y Y Y Y Y Y Y Y Y Y Y Y Y Y Y J Y Y Y J J Y J J J Y J J J J J J J J Y J Y Y J J J J J J J Y Y Y Y Y J J J Y J J Y Y J J J J G J J J J J J J J J J J J J J J J J J J J J J J J J J J J J J J J J J J J J J J J J J G J J J J J J J J J J J J J J J J G G G G J J G G J J J J J J J G G G G G G G G G G G G G G G H H H H H H H H H H H H H G ",
"K.H.K.H.K.H.K.H.H.H.H.G.G.H.H.H.H.H.H.H.H.H.H.K.K.H.H.K.K.H.K.K.K.K.H.K.K.K.K.K.K.H.H.H.H.H.H.H.H.H.H.H.H.K.K.K.H.J.H.H.H.H.H.J.K.J.J.G.G.G.J.K.K.K.K.K.K.H.H.H.K.H.K.J.K.K.K.K.J.H.K.J.J.G.J.K.J.J.J.G.G.J.J.J.J.J.J.J.J.J.J.J.J.G.J.J.H.H.J.J.J.J.J.J.J.J.J.J.G.G.G.G.G.G.G.G.J.=.=.=.J.J.J.L.J.J.L.L.J.J.J.L.&.J.J.=.&.&.&.L.&.&.J.=.J.J.J.J.J.J.J.J.J.&.&.&.&.&.J.J.J.L.&.&.&.&.&.&.&.&.&.&.&.&.&.&.L.=.=.&.&.&.&.&.&.&.&.&.&.-.&.&.&.&.&.-.-.&.&.&.-.-.-.&.&.&.&.&.&.-.-.-.-.-.-.&.&.&.&.&.&.&.&.&.-.&.&.&.&.&.&.&.&.-.&.%.-.-.-.-.-.-.%.-.%.-.%.*.%.%.&.&.&.&.&.&.&.&.&.&.&.&.&.%.%.-.-.-.&.&.&.%.&.%.&.-.%.%.%.%.%.%.%.%.-.%.%.%.%.%.%.%.%.%.%.%.%.%.%.%.+.+.%.%.%.%.%.%.%.%.%.%.%.%.! ! +.%.+.+.+.%.%.%.%.%.+.+.! +.+.%.+.+.! ! ! +.+.! ! ! ! +.) ) ) ! ! +.+.+.! / / / / ! ! ! / ! / ! / ! ! ! / ! / / ! / / / / / / ^ ^ ^ ^ ^ / ^ ^ ^ ^ ^ ^ ^ ^ ^ ^ ( ( ( ( ^ ( ^ ^ ^ ( ( ( ^ ^ ( ( ( ( ( ( ( ( ^ ^ ^ ^ ^ ^ ^ ^ ^ ^ ^ E E E E ( T T E ^ ^ ~ ~ T T T T T T T T T T T T T T ~ ~ ~ T T T T T T T T T T T T T T W T T T Y Y W Y W Y Y Y Y Y Y Y Y Y Y Y Y Y Y Y Y Y Y Y Y Y Y Y Y Y Y J Y Y Y J Y J J J J J J J J J J J Y J J J J J J J J J Y Y Y J J J Y J J J J J J J G G J J G L L J J J J J J J J J J G J J J J J J J J J J J J J J J J J J G G G G J J G G G G J J G J J J J J J J J J J J J G G G G J G G G G J J G J J J G G G G G G G G G G G G G G G H H H H H H G G G H G H H H ",
"H.H.H.H.J.J.J.J.J.G.J.G.J.J.J.G.K.G.J.J.K.K.H.H.H.H.H.H.H.H.J.H.H.H.H.H.K.K.K.K.K.K.K.H.K.K.G.G.J.H.H.H.H.J.H.K.J.J.J.J.J.J.J.J.J.J.J.J.J.J.J.K.K.K.K.K.K.J.J.J.H.J.H.H.H.H.J.J.J.J.J.J.J.J.J.J.J.J.J.L.J.J.J.J.L.J.J.J.J.J.J.J.J.J.J.J.J.J.J.J.J.J.J.J.J.J.J.L.J.J.L.J.J.J.J.J.J.J.&.J.J.J.J.J.J.J.L.J.J.J.=.J.&.&.&.&.=.=.=.=.&.&.=.=.=.=.=.=.=.=.&.=.L.L.&.&.L.L.L.L.&.&.&.&.&.-.-.-.-.-.-.-.&.&.&.&.&.=.&.-.-.-.&.&.-.-.-.&.-.-.-.-.&.&.-.-.-.-.&.&.-.-.-.&.%.%.%.&.%.-.-.%.%.%.&.&.&.%.&.-.&.&.&.&.-.-.&.-.&.&.&.&.-.-.%.%.%.-.-.-.%.%.-.-.%.-.*.*.*.%.%.-.-.-.-.-.&.%.%.%.%.%.%.%.%.%.-.-.%.%.%.%.%.-.%.%.%.%.%.%.%.%.%.%.%.%.%.%.%.%.-.-.%.%.%.%.%.%.%.%.+.+.+.+.%.+.%.%.%.%.+.+.+.+.+.+.+.+.%.%.%.%.%.%.! %.%.! ! +.%.+.+.! ! ! ! ! ! ! ! ! ! ! ! ! ! ! ! / / / / / / / / / / ^ / / / ^ ^ ^ O.^ / / / / / / / / / / ^ ^ ^ ^ ^ ^ ^ ^ ( ^ ^ ^ ^ ^ ^ ^ ^ ^ ( ( ( ^ ^ ^ ^ ^ ^ ^ ^ ^ ( ^ ( ^ ^ ^ ^ ^ ^ ^ ^ E ^ ^ ^ ^ ^ E ^ ^ E T E T T T T T T T T T T T T T T T T T T T T T E T T T T T T T T T W T T T T W T T W Y T Y T Y Y J Y Y Y Y Y Y Y Y Y Y Y J J J Y Y Y Y J Y Y J J J J J Y J J J J J J J Y J Y J J J J J Y J Y J J J J J J J J J J J J J J J J J J Y J G J J J G H G G G G G G H G L L L L L J L G L J L J L G G G J J J J J J J J J J J J J J J J G G G G G J J J G G G G J J G G G G G G G G G G H G G L G H H G G G H G G G G G G G G G G G G G G G G H H H H H H H H G G G G ",
"H.H.H.H.J.J.J.J.J.J.J.J.J.J.J.J.H.J.G.J.H.H.G.G.H.H.H.H.H.J.J.J.G.G.H.H.G.G.H.H.K.K.H.H.G.G.G.G.J.H.H.H.K.J.J.J.K.J.J.J.J.J.J.J.J.J.J.J.J.K.J.K.K.K.K.K.J.J.J.J.J.J.H.J.J.J.J.J.J.J.J.J.J.J.J.J.J.J.J.J.L.J.J.J.L.J.J.J.J.J.J.J.J.J.J.J.J.J.J.J.=.=.=.J.J.J.J.L.J.J.J.J.J.J.J.J.J.&.&.&.J.J.&.&.J.=.&.=.=.=.&.&.&.J.=.=.=.=.=.=.=.=.=.=.=.=.&.&.&.&.&.&.&.&.&.&.&.&.&.&.&.&.&.&.&.&.-.-.-.&.&.-.&.&.&.-.&.&.&.-.&.-.&.-.-.-.-.-.%.-.%.-.&.&.%.%.%.%.%.-.-.&.%.%.%.%.%.&.&.%.%.&.-.-.%.%.%.%.%.%.&.&.&.&.&.-.-.-.&.%.%.&.-.-.%.%.%.-.%.%.%.%.-.-.-.%.*.*.*.%.%.-.-.-.-.%.%.%.%.%.%.%.%.%.%.%.%.%.%.%.%.%.%.%.%.%.%.%.%.%.%.%.+.+.%.%.%.%.) ) %.%.%.%.%.%.%.+.+.+.+.+.+.+.+.+.+.%.%.%.+.! +.! +.+.! ! ! ! ! ! +.+.! +.! ! ! +.+.+.! / ! ! ! ! / ! / / / / / / / / / ^ ^ ^ / ^ ^ ^ / O.^ ^ ^ ^ ^ ^ ^ ^ ^ ^ ^ ^ ^ ^ ( ^ / ^ ^ ^ ^ ^ ( ^ ^ ^ ^ ^ ^ ^ ^ ^ ^ ^ ^ ^ ^ ^ ^ ^ ^ ^ ^ ^ ^ ^ ^ ^ ^ ^ ^ ^ ^ ^ ^ ^ ^ ^ ^ ^ ^ E ^ ^ E E E E T W E E E E T T T T E E E E T T T T W W W W W W W W W W T T T T T T T W W W T T T T T T Y Y Y Y Y J J J Y J Y J Y J Y Y J Y J J Y Y Y Y Y J J Y Y J J J J J J J J J J J J J J J J J J J J J J J J J J J J J J J J J J J J J J J J J J J J G G J J H L L G G G H G H G G G G G G G G G G G G G G G G G G G G G G G G G G G G J G J G J G H H H G G G G G G H G G G G G G G G G G G G G H H G G G H H G G G H G G G G G G G H G G G G G G G G H H H H H H H H G G G G ",
"J.G.H.H.H.H.H.H.G.G.G.G.G.G.G.G.J.G.G.G.G.G.G.G.H.H.H.H.G.G.G.G.G.H.H.G.J.G.J.H.H.H.H.G.J.G.J.G.G.G.G.H.K.J.G.G.K.J.J.J.H.G.J.J.J.J.J.G.G.G.G.G.H.G.G.G.H.J.G.G.G.G.H.H.L.L.J.J.J.J.J.J.J.J.G.G.G.G.J.G.&.=.J.J.J.J.J.J.J.J.J.J.J.L.J.L.J.J.&.&.=.=.J.J.J.J.L.L.J.J.=.=.&.&.&.&.&.&.&.&.=.&.&.&.&.&.&.&.&.&.&.&.=.=.&.&.=.=.=.=.&.&.&.&.&.&.=.&.&.&.&.&.&.&.&.&.&.&.&.&.-.-.-.&.&.&.&.%.&.&.&.&.&.&.&.%.%.&.%.%.%.%.&.%.%.-.%.-.%.-.%.-.%.%.%.%.&.%.%.%.%.%.%.%.%.%.%.%.-.%.%.&.-.-.-.-.-.-.%.%.-.%.%.%.%.-.-.-.%.%.%.%.-.%.%.%.%.%.%.%.%.%.-.-.-.%.%.*.%.-.-.-.-.%.%.%.%.%.%.%.%.%.%.%.%.%.%.%.%.%.%.%.%.+.+.+.+.+.+.+.+.+.+.+.%.%.%.%.! +.%.%.%.%.%.%.%.+.+.+.+.! ! ! +.+.! ! ! ! ! ! ! ! ! +.$.$.$.$./ $.$.$./ / / ! / $./ / / ^ ^ ^ ^ ^ ^ ^ O.O.^ ^ ^ ^ O.O.^ ^ ^ ^ ^ O.^ ^ ^ ^ ^ ^ ( ^ ( ^ ^ ^ ^ ^ ( ( / / ( ( ^ ^ ^ ^ ^ ( ( ^ ^ ^ ^ ^ ^ ^ ^ ^ ^ ^ ( ( ( ^ ^ ^ ^ ^ E ^ ^ ^ T ^ ^ ^ ^ ^ ^ ^ ~ ~ ( ^ ^ ^ E E T T E E E E W T E E E E T T T T T E E T T T T T T T W W T T T T T Y Y T T T T T Y T T T Y Y Y Y Y Y Y Y Y Y Y L Y Y Y Y Y Y Y Y Y J J J Y Y Y Y J J J J J J J J J J J J J J J J J J J J J J J J J J J J J J J J J J J J J J J J J J J J J J J J J J J J J J J G J G G G G G G G G G G G J G G G G G G G G G G G H H G G G G H H H H G H G H G G G G G G G G G G G G G G G G G G G G G G G G G G G H G G G G G G G G H H G G G G G G H H H H G G H H H H H H H H H H H H G H H H ",
"J.G.J.G.H.J.H.J.L.G.J.G.G.G.J.G.J.G.L.G.J.G.G.G.J.J.H.G.J.G.J.J.J.J.J.J.J.J.J.K.J.J.J.J.J.J.J.J.G.G.J.G.J.K.K.K.K.K.J.J.J.J.J.J.J.J.H.J.G.G.G.G.G.G.G.G.G.J.G.G.L.G.L.J.J.J.J.J.J.J.J.J.L.J.J.J.J.G.L.=.&.=.J.G.J.G.G.G.L.J.J.J.J.J.L.&.&.&.&.=.=.&.&.J.L.J.L.L.L.=.=.&.&.&.&.&.&.&.&.&.=.&.&.&.&.&.&.&.&.&.&.&.&.&.&.&.&.&.&.&.&.-.&.&.&.&.&.&.&.&.&.&.&.&.&.&.&.&.&.&.-.-.-.&.&.&.&.&.&.&.&.&.-.-.%.%.%.%.%.%.%.%.%.%.%.%.%.%.%.%.%.%.%.%.%.%.%.%.%.%.%.%.%.%.%.%.%.%.-.-.-.%.-.-.-.-.-.-.-.-.-.%.%.%.%.-.-.%.%.%.%.*.%.%.%.%.%.%.%.%.%.%.%.-.%.%.%.*.*.%.-.%.-.%.%.%.%.%.%.%.%.%.%.%.%.%.%.%.%.%.%.+.+.+.+.+.+.+.+.+.+.+.+.+.+.+.+.+.! ! +.+.! ! $.$.+.+./ / / / ! ! ! / ! ! ! ! ! ! ! ! ! ! +.+.$.$./ / / / / / / ^ / $./ / ^ ^ ^ ^ ^ ^ ^ ^ O.^ ^ ^ ^ ^ ^ ^ ^ ^ ^ ^ ^ ^ ^ ^ ^ ^ ^ ^ ( ( ^ ^ ^ ^ ^ ^ ^ ( ( ( ( ( ^ ( ^ ^ ^ ( ( ^ ^ ^ ^ ^ ^ ^ ^ ^ ^ ( ^ ( ^ ^ ^ ^ E ^ E ^ ^ ^ T T E E E E E E ~ T ( ( T T T T T T T T E E E E T T E E T T T T T T T T T T T T T T T T T T Y Y T T T T T Y Y Y Y Y T Y Y Y Y Y J J Y Y Y Y Y Y Y Y Y Y J J J Y J J J J J J J J J J J J J J J J J J J J J J J J J J J J J J J J J J J J J J J J J J J G G G G J L L J J J J J J J J J J J J J G J J L G G G G G G G G G G J G G G G G G G G G G H H H H G G G H H H G H G H G G G G G G G G G G G G G G G G J G G G G G J G G G G H G G G G G G G H H H G G G G H H H H H G H H H H H H H H H H H H H H H H H H ",
"J.J.J.J.J.J.J.J.J.J.J.G.J.G.J.J.J.L.L.G.J.G.G.J.J.J.J.J.J.J.J.J.J.J.J.J.L.J.J.J.L.L.J.J.J.J.J.J.J.J.J.J.J.J.J.J.J.J.J.J.J.J.J.J.J.J.J.J.J.G.J.J.J.L.G.G.G.J.L.L.L.L.J.J.J.J.J.J.J.J.J.J.J.J.J.J.L.L.L.L.L.L.J.J.L.L.L.L.L.L.L.L.L.L.&.&.&.&.&.&.&.&.&.&.&.&.&.&.&.&.&.&.&.&.&.&.&.&.&.&.&.&.&.&.&.&.&.&.&.&.&.&.&.&.&.&.&.&.&.&.&.&.&.&.&.&.&.-.&.&.&.&.&.&.-.-.&.&.&.&.-.-.-.&.&.&.-.-.&.&.%.&.-.-.-.-.-.%.%.%.-.-.-.-.-.-.-.-.%.%.%.%.%.%.%.-.%.-.-.%.%.%.%.) -.-.-.-.-.-.%.-.%.%.-.-.-.-.-.-.%.%.%.%.%.%.%.%.%.%.%.%.%.%.%.%.%.%.%.+.+.%.%.%.%.%.%.%.%.%.%.%.%.%.%.%.%.%.%.%.%.%.%.%.%.) %.%.%.) %.%.+.+.! ! ! ! ! ! ! ! ! ) +.+.! ! ! ! ! ! ! / ! +.! ! ! / ! / / ! ! ! ! ! ! ! ! ! ! ! ! ! ! / / / ! ! ( ( / / / / ! / ! / / / ( ( ( ( / / / ( ( / / / ( ( ( ( ( ( ( ( ( ( ( ( ( ( ( ( ( ( ( ( ( ( ( / / / ( ( ( ( ( ( ( ( ( ( ^ ^ ^ ^ ( ( ( ^ ^ ~ ~ ~ ~ E ~ ~ ~ ~ E E E ^ ~ ^ ^ ^ ^ T ( ( E E E E T T T T T T T T T W T W W W W W T W W T W W T T T T T T T T T T T T T T T T T T T T J J Y T T Y Y Y Y Y J J J J J J J J J J J J J J G J Y Y J J J J J J J J J J J J J J J J J J J J J J J J J J J J G G G G G G G J J J G G G G G G G G L G J J G G G J G G G G G G G G J G G G G G G G G G J G J J J J J J J G G G G G G H G G G G G G G G G G G G G G G G G G G G G G G G G G G G J J G G G G J G G G G G G G G G G G G G G G G G H G G G G G G G H H H H H H H H H H H H H H H H H H ",
"L.L.L.L.J.J.J.J.L.J.J.J.J.J.J.J.=.&.&.=.J.J.J.J.J.J.J.J.J.J.=.=.J.=.=.=.&.=.L.L.J.J.J.J.J.J.J.J.&.&.=.J.J.J.J.=.=.J.J.J.J.J.J.J.L.L.J.J.J.J.J.J.G.G.=.J.J.J.&.&.J.L.L.L.J.J.L.&.L.L.=.&.&.&.=.&.&.&.L.&.&.&.L.J.&.L.J.J.&.&.&.&.&.&.&.&.&.&.&.&.&.&.&.&.&.&.&.&.&.&.&.&.&.&.&.&.&.-.&.&.&.&.&.&.-.&.&.-.-.-.&.-.&.-.&.&.&.&.&.-.-.-.-.-.-.-.&.-.&.-.&.%.-.%.-.%.%.%.%.%.%.-.%.%.%.%.%.%.%.%.*.*.%.-.-.-.%.%.%.%.-.%.%.%.%.%.%.%.%.%.) %.%.%.%.%.) ) %.%.%.%.%.%.%.%.%.%.) ) ) %.) %.) %.-.%.%.%.%.%.%.%.%.%.%.%.%.%.+.+.+.+.) %.%.+.+.+.+.+.+.%.! ! ! +.+.+.+.+.+.+.%.%.%.+.%.+.+.+.! ! ! ) ! ! ) ! ! ! ! ! ! ! ! ! / / ! ! ! ! +.+./ / $.$./ ! / / / / +.+./ / / / ^ / / / / ! / / / ! ! ! ! ! / / ( / / / / ( ^ ( ( / / / / / / / ^ ^ ( ( / / ( ( ( ^ ( ( ( ( ( ( ( ( ( ( ( ( ( ( ( ( ( ( ( ( ( ( ( ( ( ( ( ( ( ^ ~ ^ ( ^ ^ ^ ^ ^ ^ E ~ ^ ^ ^ ~ E ^ E T E T E E E T T E T E E T T T T T T T T T T T E T T T T T T T T T T T T T T T T T T T Y T T T T T T T T T T T T T T T T T T T T T J T T Y Y Y Y Y Y Y Y J Y J J J J J J J J J J J L G G L L G L L L L L G L J J J J J G G G J J J J G G J L J L L L L L J L G G G L J J G G G G G G G G L G J J G G J G G G G G G J J G G G G G G G G G G G G G G G G G G G G G G G G G G G G G G G G G G G G G G G G H H G G G H G G G G G G G G G G G G G G G G G H G H H H G G H H G G G G G G G H H H G G G G G H H H H H H H H H H H H H H H H H H ",
"L.L.L.L.L.L.L.L.L.L.J.L.L.L.=.=.J.&.&.L.J.J.J.J.J.J.J.L.L.&.&.&.=.=.=.=.&.&.&.&.&.J.L.J.J.J.J.J.&.&.&.&.J.J.&.&.&.&.&.L.J.J.J.J.&.L.L.L.L.L.J.J.&.&.&.L.L.&.&.&.L.L.&.&.&.&.&.&.&.&.&.&.&.&.&.&.&.&.&.&.&.&.&.&.=.=.=.=.&.&.&.-.&.&.&.&.-.-.-.-.&.-.-.-.&.&.&.&.&.&.&.&.&.&.&.&.&.&.%.%.%.%.%.%.%.%.%.%.%.%.%.-.%.-.%.%.%.%.%.%.%.%.%.%.%.%.*.%.%.%.%.%.%.%.%.*.*.*.*.+.%.%.+.+.+.%.%.%.%.+.+.+.%.%.+.%.%.%.+.%.+.+.+.+.+.+.+.+.+.$.+.+.+.+.+.$.! +.+.%.%.! +.+.+./ +.+./ +.! +.+.+.+.+.! +.+.+.+.%.) ) ) ) ) %.! +.+.+.$.! ! ) ! +.+.$.$.$.! ! ! ! ! ! +.+.+./ $.$.$.$./ $.$./ $.$./ / / / / / ! ! ! / ! ! / / $./ / / / / / / $.O.O.O./ / / / ^ ^ ^ ^ / / ^ ^ O.^ ^ ^ ^ ^ O.O.^ ^ ^ ^ ^ ^ ^ ^ ^ ^ ^ ^ ^ ^ ^ ^ ^ ^ ^ ^ ^ ^ ^ ^ ^ ^ ^ ^ ( ( ( ^ ^ ^ ^ ^ ^ ^ ^ ^ ^ ^ ^ ^ ^ ^ ^ ^ ^ ^ ^ ^ ^ ^ ^ ^ ^ E E E E E ^ E ^ E E E E E E E E E E E E E E E E E E E W E E W E E E W E E W Y W W T T W W Y T Y T T T T T T T Y Y Y Y T T Y Y Y Y Y Y Y T Y Y Y Y Y Y Y Y T T Y Y Y Y Y Y Y Y Y Y Y Y J Y Y Y J Y J J Y J Y Y Y Y Y L L L L L L L L L L L L L H H L L L L H H L L L L L L L H H H H H U H H H G G G H H H H L L L G H G L L L L G G G G G G G G G G G G G G G H H H H G G L L H H H H H H H H H H H H H H H H H H H H H H H H H H H H G G G H G H G H G H H H H H H H H H H H H H H H H H H H H H H H H H H H H H H H H H H H H H H H G H H H H H H G G G G G H H H H H H H H H H H H H H H H ",
"L.L.L.L.L.L.L.&.L.L.L.&.&.&.&.&.&.&.&.J.&.&.&.=.J.=.&.&.&.&.&.=.&.&.=.&.&.&.&.&.&.&.&.J.L.J.L.&.J.J.&.&.&.=.&.&.&.=.&.&.&.&.L.L.&.&.&.&.&.&.&.&.&.&.&.&.&.&.&.&.&.&.&.&.&.&.&.&.&.&.&.&.&.&.&.&.&.&.&.&.&.&.&.=.=.&.=.=.&.&.-.-.-.&.&.&.-.-.-.-.-.-.-.-.&.&.&.&.&.%.%.%.%.%.%.%.%.%.%.%.%.*.%.%.%.%.%.*.%.*.*.%.%.%.%.%.%.%.%.%.%.*.*.*.*.*.*.*.*.*.+.+.+.+.+.%.#.#.+.+.+.+.+.+.+.+.+.+.+.+.+.+.%.+.+.+.+.+.+.+.+.+.+.+.$.$.+.+.$.$.$.$.+.+.+.+.$.$.+.+.! ! $.$.+.+./ +.+.+.+.+.+.+.+.$.$./ $.$.+.+.) ) ) ) / +.+.+.+.$.+./ / ! ! +.+.$./ / / ! +.! ! ! / / / ^ O.$.O.O.^ O.O.O.$.$.+.+.+.O.O.O.^ ^ O.O.O.O.O.O.O.O.^ ^ ^ ^ ^ ^ ^ ^ ^ ^ ^ ^ ^ ^ ^ ^ ^ ^ ^ ^ ^ ^ ^ E E E E E ^ O.O.^ ^ ^ ^ ^ ^ ^ ^ ^ E E E E E E E E E ^ ^ E E ^ ^ E E E E E E E E E E E E E ^ E E E E E E E E E E E E E E E E E E E E E E E E E E E E T T E E E W W W W W R R R E E E E W R W W E E E R R R Y Y Y Y Y Y Y Y Y R Y Y Y T T Y Y Y Y Y Y Y Y Y Y Y Y Y Y Y Y Y Y Y Y Y Y Y Y Y Y Y Y Y Y Y Y Y Y Y Y Y Y L J Y Y J Y J J J Y Y J L L L L L L L L L L L L L L L L H L L L H H H H H H U U L L L H H H H H H U H H H G G H H H H H H H H H H H H L L H H H H G H G G G H G H G H G H H H H H H H H H H H H H H H H H H H H H H H H H H H H H H H H H H H H H G G H H H H H H H H H H H H H H H H H H H H H H H H H H H H H H H H H H H H H H H H H H H H H H H H H H H H H H H H G H H H H H H H H H H H H H H H H H ",
"L.&.L.L.L.L.L.=.&.&.L.&.&.&.&.&.&.&.&.&.&.&.&.=.=.=.&.=.&.=.&.&.-.-.&.&.&.&.&.-.&.&.=.=.&.&.&.=.&.=.&.&.&.&.&.&.&.&.&.&.&.=.&.&.&.&.&.&.&.&.&.=.=.&.&.&.&.&.-.&.&.&.&.&.%.-.&.=.&.&.&.%.%.%.-.%.&.&.&.&.&.&.&.&.&.&.&.&.&.&.&.&.&.&.&.-.-.%.%.%.%.%.%.%.%.%.-.%.-.-.-.-.-.%.%.-.%.-.-.%.%.%.-.%.%.%.%.%.%.%.%.%.%.%.%.%.%.%.%.%.+.+.+.%.%.%.+.+.+.%.+.! ! +.+.+.+.$.$.+./ ! / / ! $.+.! +.+.+.! +.+.+.! ! ! ! ! $.+.! ! / / +.! / / $.+.$.$.^ ^ / ! / / / / / $.^ ^ ^ ^ / ^ / / / / ^ / +./ / ^ / / ! / / / / / / / $./ ^ ^ ( / / ( +./ / ^ ^ / / ! ! / / / / ^ ^ ^ ^ O.^ O.^ ^ ^ ^ O.^ ^ ^ ^ ^ ^ ^ ^ ^ ^ ^ ^ ^ ^ ^ ^ ^ ^ ^ ^ O.^ ^ ^ ^ E ^ ( ^ ^ ^ ^ ^ ^ ^ ^ ^ E W E E E E O.O.^ O.O.E E E E E E E E E E W W E E E E E T E E E E E E E E E E W E E E E E E W W W W E E E E T T E E E E T T T T E E E E T T T T T T T E R Y R R W R R W W Y Y Y W W W W W W W W Y Y Y Y Y Y T T W Y W Y Y Y Y Y J Y Y Y Y J J J Y Y Y Y Y J L G L Y Y Y Y Y Y Y Y Y Y Y Y J J J J L J J J L J J Y Y L G L L G G L G G G L L L L H H H H L L L L L H H H L L L H H H H H H H H H L L L L H H H H H H H H H H H H H H H H H H H H H H H H G H G G G G H G G G H H G H H H H H G H H H H H H H H H H H H H H H H H H H H H H H H H H H H H H H H H H H H H H H H H H H H G H H H H H H H H H H H H H H H H H H H H H H G H H H H H H H H H H H H H H H H H H H H H H H H H H H H H H H H H H H H H H H H H H H H H ",
"&.&.&.&.&.&.&.&.&.&.&.&.&.&.&.&.&.&.&.&.&.&.-.%.%.&.&.&.&.%.-.-.-.-.-.-.%.%.%.-.&.&.&.&.&.&.&.&.&.&.&.&.&.&.&.&.%.%.&.&.&.&.&.&.%.%.%.%.%.%.%.%.%.%.%.%.%.%.%.%.%.%.%.%.%.*.%.%.%.%.%.%.%.%.%.%.%.%.%.%.%.%.%.%.%.%.%.%.%.%.%.%.%.%.%.%.%.%.%.%.%.%.%.%.%.%.*.*.%.%.%.%.%.%.%.%.+.+.%.%.%.%.%.%.%.*.%.%.%.%.+.+.%.+.%.+.+.+.+.+.+.+.+.+.+.$.+.+.! $.+./ +.+.+./ $.O./ $./ / ^ / / $.+.$.+.$.+./ / +./ / / / / ! ^ $./ / / / +.O.O.O.O.O.O.O.O.O.O.O.^ ^ ^ ^ O.O.^ ^ O.^ O.+.+./ +.+.^ ^ ^ ^ O.O.O.O.^ / ^ ^ ^ ^ / ( @.^  .@.^ ^ ^ +.^ ^ ^ +.^ @.O.^ / / ^ ^ ^ ^ O.^ E ^ O.^ O.O.^ +.^ O.^ ^ ^ ^ ^ E E E O.O.O.E O.E E E O.E E E E W ^ E ^ E E ^ ^ E ^ E ^ ^ E E E W E E W E W W E E E E E O.E E E E E E E E E E E E E E E E E E E E E E E E E W E W E E E E E E R R R R R R R R Y R R R Y Y Y Y R R T T T Y Y Y Y Y Y Y Y Y Y Y Y Y R R Y Y Y Y Y Y Y Y Y Y R R Y Y Y Y Y Y J J Y Y Y J Y Y Y Y L L Y Y Y Y L L L U U U L L L L L L Y Y Y Y Y L L G L L L L L L J L L L J L L L Y L L L L L G G L L L L L L L L H H H H L H H H L H H H H H H H H H H H H H H H H H H H H H H H H H H H H H H H H G H H H H H H H G G G H H H H H H H H H H H H H H H H H H H H H H H H H H H H H H H H H H H H H H H H H H H H H H H H H H H H H H H H H H H H H H H H H H H H H H H H H H H H H H H H H H H H H H H H H H H H H H H H H H H H H H H H H H H H H H H H H H H H H H H H H k k k k j H H H H H H ",
"&.&.&.&.&.&.&.=.&.&.-.-.&.%.&.&.&.&.&.&.&.&.=.=.%.%.%.%.%.%.%.%.%.%.%.%.%.%.%.%.&.&.&.&.&.&.&.%.%.%.%.%.%.*.%.%.%.%.%.%.%.%.%.%.%.%.%.%.%.%.%.%.%.%.%.%.%.%.%.%.%.%.*.%.*.*.*.%.%.%.*.*.*.%.%.%.*.+.*.+.*.+.%.+.*.+.%.+.+.+.+.+.%.%.%.%.%.%.+.+.%.%.%.%.%.%.%.+.#.+.+.+.+.+.+.+.+.+.#.+.+.+.+.+.+.+.+.+.+.+.+.+.+.O.^ O.+.+.+.@.+.@.@.@.+.O.O.O.+.O.O.O.+.@.+.O.O.O.O.O.^ O.^ ^ ^ O.O.O.^ O.^ ^ ^ O.^ ^ ^ ^ ^ O.^ O.^ O.^ ^ O.O.^ ^ O.O.O.O.O.O.O.O.^ ^ ^ E ^ O.O. .E E E O.O.^ ^ O.^ O.O.^ O.E E  .E ^ E  . .O.@.^ E  . .R O.E  . .O.E ^ ^  . . . .E O.O. . . .E ^ O.^ E O.E E E O.E O.^ O.E E E E E E E E E E E E E E E E E E E E E E E E E R E R E E  .R E  .E R R E E E  .E R E E E R R R E R R R R R R R R R R R R Y E E R E R E R E R Y R R R R R E R E E R R Y Y Y Y Y Y Y Y R R Y R Y Y R Y Y Y Y Y Y Y Y Y Y R Y Y Y Y Y Y Y Y Y Y Y Y Y L L L Y Y Y L Y Y Y Y Y Y Y Y Y Y Y L L Y Y L L P U U U P U U L L P P U U U U L L Y Y Y R Y L L L L L L L L L L L L L L U L L L L U U L U L L L L L U L L L L H L L L H H H H L L L H H H H H H H H H H H H H H H H H H H H H H H H H H H H H H H H H H H H H H H H H H H H H H H H H H H H H H H H H H H H H H H H H H H H H H H H H H H H H H H H H H H H H H H H H H H H H H H H H H k H H H H H H H H H H H H H H H H H H H H H H H H H H H H H H H H H H H H H H H H H H H H H H H H H H H H H H H H H H H H H H j k j j j j j j H H H H ",
"*.*.*.*.*.*.*.*.*.*.*.*.*.*.*.*.*.*.*.*.*.*.*.*.#.#.#.#.#.#.#.#.#.#.*.#.*.#.#.#.#.#.#.#.#.#.#.#.#.#.#.#.#.#.#.#.@.@.#.#.#.#.#.#.@.@.@.#.#.#.#.#.#.#.#.#.#.#.@.#.#.#.#.#.#.#.#.#.#.#.#.#.@.@.@.@.#.@.@.@.@.#.#.#.#.#.#.@.@.@.@.@.@.@.@.@.@.@.@.@.@.@.@.@.O.O.O.@.@.O.O.O.O. . .O. . .O. .E E E E  . . .E E  . . .E E E E E E E E E E E R R R R R R R Y Y R R R Y Y R R R Y Y R R Y R R R R R R R Y R R R R R R R R R R Y Y Y R R R R R L L L I R L L L L L L L L I U U L U Y L Y Y Y L L Y R R I I I L L L P I I Q W Q U U I I I P L L H Y L I I I U U U U U P I L L H L L H Y Y L L R U L L L L L L L L L U L L L P U H H H H H H H K U H K H K H K H P H K P H K H H H H H H H K K H H K K K H H K L H H H H H H H L H L L U U U L U U U U H H U H H H H H H H K H H H H H H H H H K K K K H K K H H H H K K H H H K K K K K H H H H j j H H H H H H H K K H H H H H H H H H H H H H H H H H H j k k k k j j j H H H H j H K K H H H K L P K K L L L L L L U U L L L L L L L L L K L P L L L L L K L L L K L L H H H H K H K H H K K H H H H K K K K K K K K H H H H j j j j j j j H H H H H H j j j H H j j k j j j H j j j j K H H K K H j j H H H K H H j j j j j k k k k k j j j j j j j j j j j j j j k k j j j j H H H H j j j j j j j j j j j j j j k j k k k k k k k k k k j j j j j H H H H H j H H j j j j j j j j k j j j j j j j j j H j k k j j j H j j H j j j j j j j j j j H H ",
"k 4 4 4 4 4 4 4 4 , , , , 4 4 4 , 4 4 , , , , , , , , , , , , , , , , , , , , , , , , , , , , , , , , , > > > , , , , , , , , , , , , , , > , , , > > > > > > > > > > > > > > > > > > > > > > > > > > > > > > > , , , , , > > , > , , , , , , , > > , > > > > > > > > > > > > > , > , > > > , > > > > > > > > > > > > > > > > > > > > > > > > > > > > > > > % > > > > > > > > > > > > > > > > > ; ; ; ; ; > > ; > > > > ; > > > > > > > > > > > > > > > > > > > > > > , > > > > > > > > > > , > , > , > , > > > > E , > > > > > > > > , % > > > > > > > > > > > > > > > > % > > > > > > > > > > % % % % % > > > > > % % > > > > > > > % % % > > ; > ; ; ; ; ; ; ; > ; > % > % > % % % > ; ; ; ; % > > > % > > > > > > > > > > > > > > > > > > > > > > % % > > > > > > > > > > > > > > > > > > > > > > > > > > > > > > > > > % % ; ; > ; > ; ; ; ; ; > ; ; ; ; ; > > > > ; ; > > ; > > > > > > > > > ; ; > > > > > > > > > > % > > > > > > > > > > > > > > > > > > > > > > > > > > > > > > > > > > > > > > > > > > > > > > > > > > > > > > > > > > > > > > > > > > > > > > > > > > > > > > > > > > > > , > > > > > > > , , > , > > > > t > > > > > > > > > > > > > > > > > > > > > > > > > > > > > > > > > > > > > > > > > > > > > > > > > > > > > > > > > > > > > > > > > > > > > > > > > > > > > > > > > > t t , , , t t t t , , , , , , , , , t t t t t t t t t t t t t t t t , , , , , , , , ",
"; $ $ $ $ $ $ $ ; $ $ $ $ ; $ ; ; ; ; ; ; ; $ ; ; ; ; ; ; ; ; $ $ ; ; ; ; ; $ $ ; ; $ $ ; ; ; $ ; ; ; ; ; ; ; ; ; ; ; ; ; ; ; ; ; ; ; ; ; $ $ ; ; ; ; ; ; ; ; ; ; ; ; ; ; ; ; ; ; ; ; ; ; ; ; ; ; ; ; $ ; ; ; ; $ $ $ $ $ $ $ $ $ ; ; ; $ $ $ $ $ ; ; ; $ ; ; ; ; ; ; ; ; ; ; ; $ $ $ $ $ ; ; $ ; ; ; ; $ ; $ $ $ ; $ ; ; ; ; ; ; ; ; ; ; ; ; $ ; ; ; ; ; ; $ $ ; ; ; ; ; ; ; ; ; ; ; ; $ ; ; ; ; ; ; ; ; ; ; ; ; ; ; ; ; > ; ; ; ; ; ; ; ; ; ; ; ; ; ; ; ; ; ; ; ; ; ; $ ; $ ; $ $ $ $ $ $ ; $ % $ % $ $ $ ; O Q +X;.@ ; ; ; $ ; $ ; % @ $ O $ $ ; ; % % % % % ; ; $ $ $ $ $ $ $ > $ ; ; ; ; $ ; > > > % % ; ; ; ; ; $ ; ; ; $ > % % % % > % ; ; ; > ; ; ; $ ; ; ; $ $ ; $ ; ; $ % ; ; $ ; ; ; $ ; $ $ $ ; ; $ $ % $ $ $ $ % ; $ $ $ $ $ $ $ $ $ $ $ $ $ $ $ $ $ $ $ $ $ $ ; $ % % % % $ $ $ $ $ $ $ $ $ $ $ $ $ $ $ ; $ ; % ; ; ; ; ; ; ; ; ; ; ; ; ; ; ; ; ; $ $ $ $ $ $ $ ; ; ; ; ; ; ; ; $ $ $ $ $ ; ; $ $ $ $ $ $ $ $ $ $ $ $ $ $ $ $ $ $ $ ; ; ; ; ; ; ; $ $ $ $ $ ; $ $ $ ; ; ; $ $ $ ; ; ; $ $ $ $ % ; $ ; ; ; $ $ $ $ $ $ $ $ $ $ $ $ $ $ $ ; $ ; $ $ $ ; ; ; $ $ ; ; ; ; ; ; ; ; $ $ $ $ $ $ $ $ $ ; ; ; % ; % ; ; ; > ; > % > > % % % % ; ; ; % % $ $ $ ; ; ; ; ; ; ; ; ; ; ; ; ; ; ; ; ; ; ; ; ; ; $ ; ; ; ; ; ; ; ; ; ; ; ; ; ; ; ; ; ; ; > ; ; ; ; ; ; ; ; ; ; ; ; ; ; ; ; ; ; ; ; ; ; ; ; ; ; ; $ $ ; ; ; ; ; $ $ % % % % % $ $ $ $ $ $ $ $ $ $ $ $ $ $ $ $ $ % $ $ % % $ $ $ $ ",
"O O $ O $ O $ $ $ O O O O O $ $ $ ; ; ; ; ; ; ; ; ; ; ; ; ; ; ; ; ; ; ; ; ; ; ; ; ; ; ; ; ; ; ; $ ; ; ; ; ; ; ; ; ; ; ; ; ; ; ; ; ; ; ; ; ; ; ; ; ; ; ; ; ; ; ; ; ; ; ; ; ; ; > ; ; ; ; ; ; ; ; ; ; ; ; ; ; ; ; ; ; ; ; ; ; ; ; ; ; ; ; ; ; ; ; ; ; ; ; ; ; ; ; ; ; ; ; ; ; ; ; ; ; ; ; ; ; ; ; ; ; ; ; ; ; ; ; ; ; ; ; ; ; ; ; ; ; ; ; ; ; ; ; ; ; ; ; ; ; ; ; ; ; ; ; ; ; ; ; ; ; ; ; ; ; ; ; > ; ; ; ; > > ; ; ; > > ; ; ; > > > > ; ; ; ; ; ; ; ; ; ; ; ; ; ; ; $ $ O $ $ $ ; ; $ $ $ $ ; ; ; $ % > $ $ ; O #.P.4 + O ; ; ; ; ; o @ ;.*.X + $ $ % % % % % $ ; ; $ $ $ $ $ ; $ $ ; ; $ $ $ $ $ $ ; $ $ $ O $ O O O O $ ; ; $ O > $ > % + % $ $ $ $ O $ O O O ; $ O O ; $ $ $ ; $ $ $ $ $ ; ; $ $ $ $ $ $ $ $ $ $ $ $ $ $ $ $ $ $ $ $ $ $ $ $ $ $ $ $ $ $ $ $ $ $ O O $ $ $ $ $ $ O O O O O O O $ $ $ O O O O $ O O O $ $ $ $ $ $ $ O O O $ $ ; $ $ $ $ $ ; ; $ $ $ $ $ $ $ ; ; ; $ ; ; ; ; $ $ $ $ $ $ $ $ $ $ $ $ $ $ $ $ $ ; ; $ $ ; ; ; $ $ $ $ ; ; ; $ $ $ $ $ $ $ $ $ $ $ $ $ $ $ $ $ $ $ $ $ ; ; ; $ $ $ ; $ ; ; O $ $ $ $ $ $ $ $ $ $ $ $ $ $ $ ; $ $ O $ $ $ $ $ $ $ $ $ $ $ $ $ $ $ ; ; ; $ $ $ $ $ $ $ $ $ $ $ $ $ ; ; $ $ $ $ $ ; $ $ $ $ $ $ $ $ $ $ $ $ $ $ $ ; ; $ $ $ $ $ ; ; ; ; $ $ $ $ $ $ $ $ $ $ $ $ $ $ $ $ $ $ $ $ $ $ $ $ $ $ $ $ $ $ $ $ $ $ ; ; ; $ $ $ $ $ $ $ $ $ ; ; ; ; ; ; $ ; $ $ ; $ $ $ $ $ $ $ $ $ $ $ $ $ $ $ $ ; ; $ $ $ $ $ $ $ $ $ $ $ $ $ $ $ $ $ $ $ ",
"$ $ ; $ $ $ $ ; ; ; $ $ ; ; ; ; ; ; > > > ; ; ; ; ; ; ; ; ; ; ; ; ; ; ; ; ; ; ; ; ; ; ; ; ; > > > ; ; ; ; ; > > > > > > ; ; > > > > > ; ; ; > > ; > > ; ; ; ; ; ; ; ; ; ; ; ; > ; ; > > > ; > > > ; ; ; ; ; ; ; ; ; ; ; ; ; ; ; ; ; ; ; ; ; ; ; ; > > > > < > > > > > ; ; ; ; ; ; > ; ; ; ; ; ; ; ; ; ; ; ; ; ; ; ; ; ; ; ; ; ; ; ; ; ; ; ; ; ; ; ; ; ; ; ; ; ; ; ; ; ; ; ; ; ; ; ; ; ; ; ; ; ; ; ; ; & ; ; ; ; ; ; > ; ; ; & ; & ; ; ; ; ; ; & & & & & ; ; ; ; ; ; ; ; ; > ; $ $ $ $ $ > > ; O $ $ $ > $ ; ; O @ # @ O ; $ ; ; ; & & @ [.[.. + ; ; $ $ $ $ $ $ + $ P $ O ; O O $ O , $ ; $ O ; ; $ o o O O & O & & ; O o O O O O >  .O O O O + + > + + O + & o O O O o + , + O O O $ $ $ $ $ ; $ O O O $ O O $ O O $ $ ; $ $ O O O O O $ $ $ O O O $ $ $ $ $ ; O O O O O O O o O O O O O O O O O O O O O O O O O O O O O O O O O O $ $ $ $ O o O O $ $ $ $ $ O O O O o O O O $ $ $ O $ ; ; ; $ O O o o O O O O O O O $ $ $ $ $ ; $ $ O O O O O $ $ $ $ ; $ $ $ $ $ O O O O O O O o o O O O O o o o O O O O O O o O O O o o o o o o + o o o O o O O O O $ O O O O $ $ $ O O $ $ $ $ $ O O O $ $ $ O $ $ $ $ $ O O O O O $ $ $ $ $ O $ O $ O O O O O o o o o o o O O O O + o O O $ O O O O O $ $ $ $ O O O $ $ O O O $ $ $ $ $ $ $ $ $ $ $ $ $ $ $ $ $ $ $ O + + O $ $ $ $ $ $ $ $ $ $ $ $ $ $ $ $ $ $ $ $ $ $ $ $ $ $ $ O O $ $ $ $ $ $ $ $ $ $ $ $ $ $ $ $ $ $ O $ $ $ $ $ $ $ $ $ $ $ $ $ $ $ ",
"O O O O & O O & & & O O O ; ; ; O O $ ; $ O ; & ; ; ; & ; ; ; & & & ; & ; ; ; ; ; & & ; ; ; ; ; ; ; ; ; ; ; ; ; ; ; ; ; ; ; ; ; ; ; ; ; ; ; ; ; ; ; ; ; & & ; ; ; & ; ; ; ; ; ; ; ; ; ; ; ; ; ; ; ; ; ; ; ; ; ; ; ; ; ; ; ; ; ; ; ; ; ; ; ; ; ; ; ; : ; & & & ; ; ; ; & & & & & O & & & & ; & & ; & & & ; ; ; ; ; ; ; ; ; ; ; ; ; ; ; ; ; ; ; ; ; ; ; ; ; ; ; ; ; ; ; ; ; ; ; ; ; ; ; ; ; & ; ; ; & ; ; ; ; & ; ; ; ; ; ; ; > ; ; ; ; ; ; ; ; ; ; ; ; ; & ; ; ; ; O ; ; & ; > O 6 & c g ; ; & > > O O  ., O ; ; ; O $ $ ; ; ; ; ; & & } , , @ O O ; 5 o O O O & & ; > O > > O & & o ; ; t $ o O o o O o O o ; O O O O & O & O O + , R X O & o > [.[.@ + o o + o + + + ; O ; & O O o o O o O O O O O O o O O O O O O O O ; ; O O O O O O O O O O O O O o O O $ O O O O O O O O O $ O O o o o o o o O O O O O O O O O O o o O O o O O O O O O O & O O o O o O o o O O O o & O O & O O O o $ ; $ o O o o o O O O O O $ O O O O O O O o o o + + o O o O O O O $ $ O O O O o o O o o O o o o o O + O + + + + o O O + + + O O + O o + + + + + + + + + + o o + + + o o + + + + + + + + O + + O + + + + + + + + + + + + X + + + + + X X + + + + + + + + + X X X X X X X + + X X X + + + + + + + + + + + + + + + + + X X + + + X X X @ + + + + + @ @ @ @ @ + + + + + + + X X X X X X X X + + + + + + + + + + + X X + + + + + + + + + + X X X X + + + + + X + + + + + + + + + + + + + + + + + + + X X + + ",
"& & O O & & & & & & ; & O O & ; & & ; ; ; ; ; & ; ; ; ; ; ; ; & & & ; & ; & & & & & ; & ; & ; ; ; & ; ; & & ; ; ; & ; ; ; ; & ; ; & & & ; ; ; ; & & ; ; ; ; ; ; ; & ; ; ; ; ; ; ; ; ; ; ; ; ; ; ; ; ; ; ; & ; & & & & & ; ; ; ; ; & ; ; ; ; & & ; ; ; ; ; ; ; & ; ; ; ; ; ; ; ; & ; ; & ; ; ; ; ; ; ; & & & ; ; ; ; ; : : ; ; ; ; ; ; ; ; ; ; ; ; ; ; ; ; ; ; ; ; ; ; ; ; ; ; ; ; ; ; ; : ; ; & ; ; : : ; ; ; : ; ; ; : ; ; > ; ; ; ; ; ; ; ; ; ; ; ; ; ; ; ; > ; ; & & : ; ; > 3 O $ ; ; ; & * * > > o , > ; ; ; ; ; ; ; ; ; & & & ; ; O ; ; x & ; : : : * & & O & >  .; ; ; & X * o & O ; ; ; & O & o & o + + + o O o ; & O O & + o ; o o o , 8 = @ O & O X * ; O & O O ; O & O O O O o o o + o o o o O & O O O o o o o O O o o o O O O O o o o O O O o o O O O O O O & & O O O O O O O o O O o o o + o o O O O O O O o O O O $ o o o O o O & & O O o o o O O + o + O & o O O o o o o o O O O O O O O O O O o O O O $ ; O $ O ; & O O O O O O O O O o O o O O + + + O O O o o + o + + + + + + O + + + + + + + + + + + + + + + + + + + + + + + o o O O O o o o O O + + + + + + + + + + X . X X + + + + + + + + + + + + X . . X X X X X X X X + X X X X . . . . X X X X X X X X . X X X X X X + X + + + X X X X . . . . . @ @ @ . . . . . . . . . . . . . . . . . . . . . . . . . . . . . . . @ @ @ @ . @ @ + + X @ + + + + + X . . . . X X @ @ X X . . . . . @ . . . . . . . . . . . . . . X . ",
"; ; ; ; ; ; ; ; ; ; ; ; ; & & & & & ; ; ; ; ; ; ; ; ; ; ; ; ; & & & ; ; ; ; ; : ; ; ; > > > ; & ; & & ; ; ; > ; ; & & & ; & & & ; & & & & & & & & O & ; ; ; ; > ; ; ; ; ; ; ; ; ; ; ; ; ; ; ; ; ; ; ; ; ; & ; ; ; ; ; ; ; ; & ; ; ; ; ; : ; ; ; ; ; ; ; ; > > : ; ; ; ; ; > > > ; ; ; ; ; ; ; ; ; ; ; ; & & ; ; ; ; ; ; ; ; ; ; : : ; : ; ; ; ; & & ; ; ; : ; ; ; ; ; ; ; ; ; ; ; ; : ; ; ; > > ; ; > > 1 3 1 ; & & & ; & ; ; & & & ; ; ; & & & o & & & O ; ; ; > 3 : * & , > | @ > > > & & * o 4 > > > & & & & o > ; ; ; ; ; & ; & & & * & & @ o & * * & & & , * @ ,.P.X ; & & * & * 6 O & ; , + 3 o } & * * 8 o o ; & $ $ $ ; O o O o & & & X * @ o o * , 3 o o o O O ; + & o o O & & O O O O O o o o & & O o o o o o o o o o o O O & O O O O O O O O O o o o o o o o o O & & o o O O O o o o o O + + + + o o O O O O O O O O + o O O O o o o O O O O O + O o X X o o o o O o O O o O o o o o o o o o o o + + + + X O O + X + + o o o o o o o + o + + + + + O @ + + + + o + + O o + + + + + + + + + + + + + + X X + + + + + + X X X X + + + + O + + + + + + + + + + X + + + + + + + + + + + + + + @ @ X X X + + + + + X X @ @ + + + + X + @ X @ @ X X X X . . . X X X X . . . . . . . . . . . @ @ + @ . . . X . . . . . . . . . . . . . . . . . . . # . . . . . . . # # # # . . . . . . . . . . . . . . . . . . . . . . . . . . . . . . . . . . . . . . . . . . . . . . . . . . . . . . . . . ",
"& ; ; & & & & & & & & & & & & & ; ; & & & & & & & & & & & & & & & & & & & & & & & & & & & & & & o & & & O O & & & & O & & & & O o o o & & o o & & o & & O o & & & ; & & & & O & & & o & & & ; & & & & & & & & & & & & & & & & & & & & & ; & & & & & ; ; & & & & & & & & & & & & & ; ; ; ; ; ; & & & ; & & & ; ; ; ; & & & & ; ; : ; ; ; & & & & & & ; ; ; ; & & ; ; ; & ; ; ; & & ; : ; & & ; > > O o & & & & & ; ; & & o O & O & & ; & & ; ; & o & & & & & O & & 1 & & * * @ o O o O > * , = @ @ * & & & o o o , o & & ; ; O ; & & & & * X @ 4 Q * @ * & ; ; O o X Q 4 @ + & & o X , , o & o O & , & & & o o ,.X o X & o ; O O & & & & o o X X X X o o + x } o & * O & o o o o o O o o o + + + o X X X o o o o X o O & o o o o + + + + + + + o + + + + o o o o O O o + + o O O o o o o o o o + + + + + + + + + + + + + + + + + + X + + o + + + + + + + + + + X . + , o X X o o o o + o o o o o + + + + X X X X X O + + X X . X . X X X X X X X X . . . X X X X X . . . . X X X . X + + + . . . . . . . . . . . X X . . . . . . . . . . . . . X X . . X . . . . . . X X + + + X X X + + + + + X . . . . . . . . . . . . . X @ + X X @ X @ X . . @ @ X . . . . . . . . . . . . . . . . . . . . . . . . . . . . . . # # # # # # . #           #                 #                                 #               # . . # # # # # #                   # # # # #                       #       . . ",
"& & ; ; ; ; & & ; ; > > ; & & & o & & & & & & o & & & & & & & & ; ; ; & & & & & ; ; & ; & ; ; ; & & & & & & & & & & ; ; & ; & & & & & ; ; ; ; & ; & ; ; & & ; & & ; ; & & & & & ; & & ; ; > > ; ; & & & & & ; & & & : ; ; > > < 1 < > ; ; ; ; & & & & & & > > > ; ; ; O O O & & O & ; ; ; ; ; ; ; ; ; ; & ; ; ; & & & & & & & & & & & & & & & & & & & & & & & & & & & O o o o o o & & & O O o o o o O O O O & & ; ; ; & O & & & ; & & & & & & ; & & & & ; & O & & ; ; * * 4 * * > ; * @ = +X+Xo.* o p o * > * D , * o & ; & ; ; & & 3 6 X * @ # n 8 X & & o & o > 8 8 , 4 o > O & & X & & , + & & & & ; O @ & X * o & & ; & O o X * & & & O & o + @ O o O + X o X o o 6 o ; o ; O O o o O O O O o o + o + o + X + o o o + o + o o + + + + + o o O o o o + + + + . X X X X + + X + + + + + + + + X X X + + + + + + + + + + + + + . ; > + . + + . + + + + + + . . . X > . . X X X X X . X X X X . . . X X X X X X . . + + X X + . + + + + + + + + + + + + + + + + + + X X X X X . + + X X X X . X X X . X X @ X X X X @ @ @ . @ @ . . . . @ X . . . . . . . . . . . . . . . . . . . . . . . . . . . . . . . . . . . . . . . . . . @ X . . . . . . . . . . . . . . . . . . . . . . . . . . . . . . . . . . . . . . . . . . . . . . . .     . . . . . . . # # # # . . #                 # . . . . .                   # # # # # # # #                                                           # # ",
"; & ; ; & & & & > > > > ; & & & ; ; & & & & ; ; & & & & & & & & o O O O O O & & & & & O ; & & O & & o & ; ; ; & O & & O O O O O & & O & & & & O & O o o O & & & & & & & O O o o o o O & O & & O & & & & & & & & O & & & & & & ; ; & & & & & & & O o O O O O o + o o O o o o + + o o O o O & & & o o o o o o O o o o o & O O O O O o o o o o o o & & & & & & & & & & & & & & & O & & O & & & O o & o O & & O O & & & & O O O O O O & & & & & & & & & & & ; O & & ; & ; & o @.> X X @ = G.A T.U.= , O X & > D * :.;.@ , * & ; O O > o , D @ @ ;.+X$.@ , , & ; ; & o & o , , & * o X * o o o * X X o o ; O X  .* * , & o & o ; & & & * & & O O ; * @ o o o O + , * @ X @ X o & o o & & o o O O O O O O O O o o o o o o o o o o + + + o o O O o + X + + + + + + + o + X X + o O o + + + + + + + + + + X X X X X . X X . X X X X X + + . X . X + + + + + + + + + X . . . . . . + + X X . X . X X X X . X X + X X X . . . + . , X + O + + + + + + + + + + + + + @ + + . . . . + + + + X X X X X @ X @ X X . X X . . . . . @ @ @ . . . . . . . . . . . . . . . . . @ @ . . . . . . . . . . . . @ @ . . . . . . . . . . . . . . . . . . . . . . . . . . . . . . . . . X X X X X @ X X . . . . . . . . . . . . X X . . . . . . . . . . . . . . . . . . . . . . # # # . . .               # # # # . # # # # #               # . . # # # # # #                                                             ",
"O O o o o o o o o o o o o & O O o O O & O o o o o o o o O O & & & ; ; ; & O O O O & & O o O & & o & & & & & & ; & O O O O o o O O O O O O O O & & O o + o o + o O O O O o o o o O O & & O O o o o & & O O o O o O O & o o o o o o o o o o o o + o o o o + X + + o o + + + + + + o o o o + o o o o + + + + o + + o o o o o o o o O O O O O O O O O O O O o o o o O O O O O O O o + o o o o O o o + o O o o O O o O O o O O O & ; ; O O O O & ; O O O ; ; ; O O o & & o } * * * 3 Q # +X+XS = = = . O & o > & & , 8 * & * o o o o @ , U > * X :.[.F 8 4 X * & ; o & o & X & & o * 3 p & & & ,...@ * ; ; ; ; o 4 v = +X* X & X & & X > @ @ @ . Q [.# @ ,.& o & > * @ @ :.@ @ X * o o o o o O O O O o o o o O O O O o O O O O O O O O O O & & O o o o o O o o O O O & o o o o o + + + o o o o o o o o o o o + + X X X X X X X X X o + . + + @ @ o @ @ + X . . X X X . @ . + @ . X o + X & + o o o & o o o o o o + + X X X O X + + . + + + X X X + + + + + + + X + + + X + @ X . . . . . . . . . . . @ @ @ @ X . . . . . . . . . @ @ @ @ @ . . . . . . . . . . . . . . . . . . . . . . . . . @ @ X . . . . . X X X X . . . . X X X X X X . . . . . . X X . . . X @ @ X . . . . . . . . . . . . . . . . . . . . . . . . . X X . . . . . . . . . . . . # # . . . . . . . # # # # # . . . . . . .                                                           # # #                               # # # . ",
"& & & & & & & & & ; ; O o o o o o o o O & & ; & & o o o o O & ; & ; ; & O o o o o o o X + o o + o o o o & o o ; ; o o O O o o & & & ; ; ; & O O O & o O ; & o & o + o o o O & o O & O O & O O O O & o o & & O O & O O o o o o o o o & & & & O o & o o & o o o O o o o o o @ o o o o o o o o o o o o o o o o + + + + + + + + + + + + o o o o o o o o & & & & & O O o o o O O o + + o + o X o X + o o O O O O O O & & O & & o o O O O & & O o o o O o O O O o ; ; o o o o X & > o @ = b Q.A # , ,.X O & ; ; > > X & * * & 3 D X & @ 4 Q X * & @ = * * * , @ , > O & & & & & : & o o * ; > & D 4 @ o * * * & * O.# = = @ X , & o & * @ . [., @ = = @ F # @ & X @ = @ @ E . ..Q @ o o & o o O @ + O o o o o o + + + + o o + + o O ; & & o o o o o & o o o X o * & o o o o & o X X o o o o X X X o o X o o o o o o o o o X X X X X o o X o X X X X X o X o + o X + + X X @ X X X X o o + > o o X X X o X X X X X X X X o o X o X o o o & & o X X X X o X X X X X X X X X X X . . . X X X o & & o X . . . . . . . . . @ X X X X . . . . . . . . . . . . . # # # # # . . . . . . . . . . . . . # # . . . . . X X X X X X X X X X X + + X X + + X X X X X X . . . X . . . . . . . . . X X X @ @ + X . . . X X X . . . . . . . X X X X X X X X . . . . . . . . X @ X . . . . . . . . . X . . . . . . . . . . . . . . . . . . . #         # # . . . . . . . . . . . . . . . . . # # # # # # # # . X X X o ",
"o & & o o o o o o o X o o o X X o o o o X o & o O o + X + + + X o o o o X X X X X o X X o X X X X X X o o o o X X X o X X o X X X X + o o O & o o o o O & O o & o O * ; & o o & o o & o & O o & & & O & & o O o O o o o & & & O o o o o o o X X o X X X o & o o o & * & & O & o & o o o & & & o o & & o & & o + o o & & O o o o o o X o o o o O o o o o o o o o o O o o o & & & o o o X X o o o o + o O o o o o O o & ; & & & o & & & & o ; > o & & o X o X X o 3 o o o o X , @ * # # Y.= @ X . o & & > ; * o * * > , > 8 8 , D , 4 , 8 = m m F 4 8 m :.8 o * * & X & * * * * * * o o 3 , X @ @ Q @ X o & X & 8 = @ , * p U > > * 8 8 8 * :.= @ @ X X & @ * @ @ @ # :.@ E D . X X X X o X o o X o o o o X X X X X X X X X & * > > * * * * * > < , , < , 4 p D p p 4 8 , , , 8 7 D D Q 4 4 8 8 , > > > > , 8 3 4 4 4 4 4 p p p 6 6 6 p p p 6 3 3 , , > * * * * * * * > * o & * & & & & * , 3 , , , , 3 3 3 4 4 6 3 3 3 3 p 6 3 4 p p p 4 4 6 4 p p 6 4 3 3 3 , < > > , , , 8 4 4 4 p p p p 4 3 , , , > > * * * * > > , , , , , , , , , , , , , , , , > * * * * * * & o o o o X X X X X X X & ; > , > ; & o X o X X X X X X X X X X X X o o & o X X X o o o o o & * * * & & * ; ; : : : ; & & ; ; : : : : > > : > : : : : : : : : : : : : : : : * * * * & & & * * : : > > > > > < > > ; ; ; > > > > > > > ; * * > > ; * * * * * * * : : * * : > > < < < > > > > < < > > < > > > > > ; > , 3 , < < ",
"* * > < , , , , , , , , > > , 3 4 p 3 > > > , 3 4 6 , , , , > > > * * * , , > * > * o & X X X @ X X X o & > , , > * > > ; * > 3 p 4 , * & * * & * > > > * & ; , , , 3 , > & & & & o & & * & o X o & & & & * & o o o & & & & & & & & X X X X X & > * * * : : : & & * ; * & X o * * & o X o o & o o & * * : > > > > ; > > ; * * > > > > > ; * > , 3 6 p p 6 , ; & * * ; > > * & * > > , * * * * * * & & & o o & * * & > * ; ; * * * * : > ; & > , 3 6 4 , 3 4 6 4 D 3 D D 4 Q 4 4 v ` b [.= v 4 4 8 7 4 , p 4 D 4 7 D ....| ..p X.X.D X.D @.....B [.{ F m m m m ..m 4 4 D X.D m ..D 7 8 , 8 8 V = :., 8 8 4 m ..m v 8 m 4 D D U D m X.7 X.D m m 4 8 8 4 4 4 ..[.4 8 8 ,.$.v 8 7 8 4 4 p 4 4 4 p 3 4 p 6 p 6 6 6 6 4 6 7 D D D D X.D D D D p p p p p p p p p p p 7 p D D D D D D D D D D D D D D D p p p p p p D D p D D 7 p p p 6 p p p p 6 6 6 p p p p p p p p p p p p p p p D p p p p p p p p p 4 p p p p p p p p p p p 5 p p 6 6 6 p p p p p p p p p p p p p p p p p 6 6 6 6 6 6 6 6 6 5 5 5 6 6 6 6 6 6 p 6 6 6 6 p p p 6 p p p 7 Q 7 p p p 6 6 6 6 6 6 6 p p p 6 3 3 4 6 4 4 3 3 3 3 3 3 3 3 3 3 3 5 5 5 3 3 3 3 , , < < , , , , 3 3 3 3 3 3 , 3 , 3 3 3 3 3 6 5 3 3 3 3 1 1 1 1 1 1 1 1 1 1 < < < 1 1 1 1 1 1 1 1 1 1 1 1 1 1 1 1 1 1 1 < < < < 1 1 1 1 1 1 1 1 1 1 < < < 1 1 < < 1 1 1 1 < < < < 1 1 < < < 1 1 1 < < < < < 1 1 < 2 2 : 2 2 : : : : : 2 2 < < > : < < < < < < < < 2 2 : : : ",
"6 6 p p p p p 6 p 6 4 6 p D p 6 4 D D p p D D 7 D p D D D D D X.D D D D D X.X.D } X.D D D 7 D D ,.X.7 D D p p D X.p p p p p p p p p p p p p X.X.p X.D D D D D X.D D D p p p p p p p p p p p 6 4 6 p p p p p p 6 6 6 4 4 4 4 p D X.D D D D D D p p p <.p p p p p 5 5 6 4 p P X.p p 4 6 5 3 3 6 3 p p p p p p p p p p p p p p D D D D D D p p D X.D p p p p p D D D D D D D D X.} | X.D D D D D p D p D p p p p D p X. .D D X.D X.D X.D p D D D X.X.D D X.D D D X.D X.X...X.X.D D B [.+X[ M ] { { :.m m ..D D m @.,.Q D D D D D X...D m *.o.M [.o.$.B m m { V { >.:.N $.m [.{ #.F m m v M >.:.N #.$.:.F F F >.+X>.W.b M V m m D Q F ' [.v m F m m { { m { m D o.F m m 4 m 4 D m m D D 7 D D D D D p p 7 p p p 7 7 7 7 7 p 7 7 7 7 p p D p p p 6 p 6 6 7 7 6 6 4 4 6 6 6 4 6 7 7 p p 7 6 7 7 7 6 6 6 6 6 6 7 7 4 4 7 m D 7 6 6 6 6 4 6 6 6 6 6 6 6 6 6 7 7 p 6 6 6 6 6 6 6 6 6 7 6 3 3 5 5 5 5 5 6 6 6 6 6 4 6 5 6 p 3 5 6 6 5 3 6 3 5 6 6 5 5 5 p p 5 p 6 5 5 5 5 p p 6 6 6 p 6 5 3 3 5 5 5 3 3 3 3 3 3 3 3 5 3 3 5 3 5 5 5 3 4 6 4 4 4 4 4 6 6 3 3 3 3 3 3 3 3 6 6 5 3 3 3 3 3 5 6 6 5 5 3 3 3 3 1 1 1 1 1 1 1 3 3 3 5 5 5 3 3 3 3 3 3 6 6 5 6 5 3 3 3 3 3 3 3 3 3 3 3 3 3 3 3 3 3 3 3 1 1 1 1 1 1 1 1 1 1 1 1 1 1 1 1 1 1 1 < < 1 1 < 1 1 1 1 1 < < 1 1 1 1 < 1 1 1 1 1 1 1 1 1 1 < < 1 1 1 1 1 < < < < 1 1 1 < 1 1 1 1 1 < < < < 2 2 2 2 2 2 2 2 : < : 2 < 2 < < < < < < < < 2 2 < 2 2 : 2 2 2 ",
"6 6 6 7 p p p p 7 7 7 7 7 D p 7 p p p 7 6 6 p D D 7 p D p m D m m D D D 7 7 7 7 6 7 7 7 m 7 m m 7 7 7 4 3 6 6 4 4 6 6 3 3 6 6 6 6 6 6 p 6 6 6 6 6 6 6 6 6 6 p p p p 6 5 6 6 5 5 <.p 6 p p p p 7 p p 6 6 6 6 p 6 6 p p p p p p p p p p p D p 6 6 5 5 5 5 5 5 5 5 5 6 p X.p p 6 p p p p p p p p p p p p 6 6 6 p p 6 p 6 6 6 D D D D D D D D D p p 7 6 6 6 p p p p 6 6 6 7 7 p p 6 7 D D D D D 7 p D D D D p p D D D D D D D 7 D D D p D D 7 X.m D m D m m D D m m D m D m 7 7 7 m v +X+X- b [.B { #.' X.7 m m m X.{ m m D D 7 7 X.m X.m ,.{ B M V B V ' m V M [.>.M U.o.B M V N V B ] +XW.b [ n _ N N V M B B [.S +XZ b M v v F m V B P.v M v ' U.>.N m { 7 m 4 m 7 7 7 7 D m m 4 7 4 7 7 m D Q 4 7 7 7 7 6 7 6 7 7 7 7 7 D 7 7 7 6 6 6 6 5 5 5 5 5 5 6 6 6 6 6 6 4 6 7 p p 7 6 6 6 6 6 7 p 7 6 p 6 4 6 6 7 7 7 7 4 7 7 4 7 6 6 6 6 6 6 6 6 6 6 6 6 6 6 6 6 5 6 6 5 5 5 6 6 6 4 3 5 3 3 5 5 5 5 5 5 5 5 5 3 5 3 3 3 6 p 5 5 5 3 3 5 5 5 3 3 3 3 3 3 3 3 3 5 5 3 5 5 6 6 6 5 5 6 p 6 5 5 5 5 5 5 3 3 3 5 3 5 3 5 3 3 3 3 5 5 3 5 6 6 3 3 3 3 5 5 3 3 5 3 3 3 3 3 3 3 3 3 3 3 3 3 3 5 3 3 3 3 3 1 1 1 1 1 1 1 1 1 1 < < 1 1 1 1 3 3 1 1 1 3 3 3 1 1 3 3 3 3 3 3 1 1 3 3 3 1 3 3 1 1 1 1 1 1 1 < 1 2 1 1 1 1 1 1 1 1 1 1 1 1 1 1 1 1 1 1 1 1 < < 1 1 1 1 1 1 1 1 1 1 < 1 1 1 1 1 1 1 1 < < < < 1 1 1 1 1 1 < 1 1 1 < < < < < < < < < < < < < 2 2 2 2 2 : < : : 2 : 2 2 < : < < 2 2 < : < 2 2 2 2 : : ",
"6 6 6 6 6 6 6 4 6 7 7 6 6 7 7 7 7 7 6 6 6 6 6 5 3 7 7 6 7 m D D D 7 7 6 7 7 7 7 6 7 7 6 7 7 m 7 7 6 6 6 6 5 3 3 6 6 p p 6 5 5 6 7 6 6 6 3 6 6 6 3 6 7 6 4 3 6 6 6 p 6 3 5 5 5 5 6 6 3 6 7 7 7 6 6 6 6 p p 5 5 6 p 6 6 6 6 6 6 6 6 6 7 7 7 6 6 5 5 5 5 3 1 5 5 5 5 5 5 5 3 p 6 3 5 5 5 5 3 5 6 5 p p 6 5 6 6 6 6 6 7 6 6 6 D D p 7 7 6 7 7 7 6 5 6 6 6 5 6 6 6 6 p 7 6 6 7 6 6 p p D p p 6 6 6 p p p p p p D D D D 7 7 D D 7 m m m D m 7 m 7 7 m 7 m m D m 4 m m X.@.m m m 7 7 m V ;.+Xb o.B M V v [.B m m m m 7 4 7 7 m D 7 7 4 7 m m m 4 m m V V m m o.' v { M ] ] [.>.v v >.+Xb [.+X'.k.MX'.b C ` v v v v b v >.|.~.- [.+Xo.v m m 4 v v ` o.Y.[ +XM 4 4 p D m 4 4 7 4 8 [.@.m 4 7 7 4 m m D D 7 6 6 p 4 p 4 p 6 6 6 7 7 7 6 6 6 6 6 6 6 5 5 5 5 5 5 5 5 5 6 4 6 6 6 p 4 4 4 7 4 6 6 6 4 4 5 5 5 5 3 6 4 4 4 4 7 7 6 4 6 6 5 5 6 6 6 6 6 6 6 5 6 5 5 5 3 3 3 5 3 5 5 5 6 5 5 5 3 3 3 3 5 3 3 3 3 5 5 5 5 5 5 3 5 3 8 3 3 5 8 5 3 3 3 3 3 3 3 3 3 3 3 1 1 1 3 3 3 3 3 3 3 3 3 5 5 5 3 5 5 5 5 5 3 1 1 1 3 3 3 3 3 3 3 3 5 5 5 5 3 3 5 3 3 3 3 1 1 3 1 1 3 3 3 5 p 5 3 3 1 1 1 1 1 3 3 3 3 1 1 < 1 1 1 1 1 1 1 1 1 1 1 1 < 1 1 < 1 1 1 1 1 1 1 1 1 1 1 1 1 1 1 1 1 3 1 1 1 1 < < 1 1 1 1 2 2 2 1 1 1 1 1 1 1 1 1 1 1 1 1 2 2 2 2 2 2 2 2 2 2 2 2 1 < < < < < 1 1 1 1 1 1 1 1 1 1 1 1 1 < < 1 1 1 < < < 2 < 2 2 2 < < 2 2 < 1 1 < < < 2 : : : : : : : : : : : : : : < : < < : 2 < : : < < : : : : ",
"3 3 3 3 4 6 6 6 7 6 6 7 7 7 7 6 6 5 3 8 3 3 5 5 3 8 6 7 p 7 6 6 6 6 6 6 6 6 7 6 6 6 6 p 7 6 4 7 6 7 6 5 3 3 5 6 6 5 3 3 3 3 5 6 6 6 6 6 6 6 6 3 6 6 6 6 6 6 6 3 p p p 5 5 5 5 5 5 6 6 6 p p p 6 3 6 5 6 5 5 5 5 6 6 6 6 6 6 7 6 6 6 6 6 p 6 5 3 1 5 5 1 1 1 1 3 3 3 5 p p p 6 6 5 5 5 5 3 3 5 5 6 6 6 6 6 6 p p p 6 5 6 6 6 p p 7 p 7 6 7 6 6 6 5 5 5 5 5 5 5 5 3 6 6 5 5 5 6 6 6 p p D X.p 6 5 6 6 6 7 7 7 7 7 4 D ..7 7 7 7 m m 6 D 7 7 m @.7 4 D D v { [.v m m m m m 4 7 m 7 m B Z _ Z o.V N b V M V 8 X.m 7 X.X.6 X.7 ,.8 :.m X.m X.7 X.m { m m [.[.4 M V >.+X] [.>.B M n Z M.S k.NXVXOXNX}.~.~.[ Z [.>.V v b +X{.S MX|.` M 4 4 4 v o.+Xb b +X+X` v 4 p 8 7 7 4 8 4 7 8 m m m m 7 4 7 X.4 4 7 4 6 4 p p 6 6 7 7 6 6 6 6 6 6 6 5 5 5 5 5 3 3 3 5 3 5 5 3 p 4 4 5 4 p p 4 4 4 4 4 6 6 4 6 6 6 3 5 5 5 4 4 4 4 6 6 6 4 5 3 3 3 5 3 3 3 3 5 5 6 6 5 5 3 3 3 3 3 1 3 3 3 5 5 5 5 5 p 5 3 5 3 3 3 3 3 3 3 3 3 3 3 3 3 3 8 5 3 3 3 3 3 1 1 3 1 1 1 1 3 3 3 3 3 3 3 3 3 3 1 3 3 3 1 1 1 1 1 1 1 1 1 3 1 1 1 1 1 1 3 3 3 3 3 3 3 3 3 3 3 3 3 1 1 1 1 1 1 1 1 1 1 1 1 1 1 1 1 1 1 1 1 < < 1 1 1 1 1 1 1 1 2 2 2 2 2 2 2 2 2 1 1 1 1 2 1 < < 1 1 1 1 1 1 1 1 < 1 1 1 1 < 1 1 1 < < < < < < < < 2 < 2 2 2 2 2 2 < 1 1 1 1 1 1 2 2 2 2 2 2 2 2 2 2 2 2 2 2 2 2 2 2 2 2 2 < < 1 < 2 2 < < < < < < 2 2 2 : 2 2 : : 2 2 2 2 2 2 : : 2 2 2 : 2 : : : : : : 2 : : 2 2 : : : : : : : : : : : : : : : : : : : : ",
"5 5 6 5 6 6 6 6 6 6 6 6 6 6 6 6 5 5 3 3 5 1 5 ..} 6 3 6 6 6 7 6 6 6 6 5 5 5 6 6 5 6 6 p p p 4 6 6 6 6 6 6 5 5 6 6 6 p 6 6 6 6 6 5 3 4 p p 6 6 p 6 6 6 p 5 3 6 p 6 6 5 5 5 5 5 5 6 5 6 6 p p 6 6 6 6 5 3 3 3 5 5 p 6 6 6 6 6 6 6 6 6 6 6 5 5 5 5 5 5 1 1 5 5 5 1 3 5 5 5 5 6 6 5 6 6 p 6 6 6 6 6 6 5 5 5 5 5 5 5 5 5 3 3 5 5 5 6 7 p p 6 6 6 6 6 6 5 5 5 6 p 6 5 5 p <.5 3 5 6 5 5 p 5 5 5 3 3 6 6 6 6 6 6 6 7 7 p p X.7 7 7 7 7 D D D 7 7 7 ..m ..,.D v m :.m m m 4 X.Q Q 7 m 4 m N Z Z ~.M.M.G.[.B v m #.X.m v { m 7 4 7 4 X.#.{ $.m m 4 m m m 4 m 4 4 m v v b +Xb b o.o.b Y.+XA - OXHXbXaXmXmXMXMXMXMX+X>.N 8 v Z }.~.MXM.[.] v 4 #.v V N ` ` +X+X` v 4 4 ,.7 4 8 X.7 4 m B v 4 8 8 7 8 ,.7 4 4 4 p 4 p 4 6 6 3 4 6 6 6 6 6 3 6 3 3 3 3 3 3 3 3 5 3 5 5 3 6 3 6 3 6 6 6 6 6 4 4 6 6 4 5 5 5 3 3 3 3 5 5 5 4 4 3 3 5 3 3 3 1 3 3 3 5 3 3 5 3 3 3 3 1 1 1 1 1 1 1 5 3 3 3 3 5 3 3 3 3 3 3 3 3 3 3 3 1 3 3 3 3 3 3 3 p 3 4 8 8 8 3 3 1 1 1 1 1 1 1 1 1 1 3 3 3 3 3 3 5 3 3 1 1 1 1 1 1 1 1 1 1 3 1 1 1 1 1 1 1 3 1 3 3 3 3 1 1 1 1 1 1 1 1 1 1 1 1 1 1 1 1 1 2 2 1 2 2 1 1 2 2 2 1 2 2 2 2 2 1 1 1 2 2 1 1 1 2 2 2 2 2 2 2 1 1 1 1 1 1 1 1 1 1 1 1 1 1 < < < < < < 2 < 1 2 2 2 2 2 2 2 2 2 2 2 2 2 2 2 2 2 2 2 2 2 2 2 : : : : : : : : : : : : : 2 2 : : : : : : : : : : : : : : : : 2 2 : : : : : : : : : : : : : : : : : : : : : : : : : : : : : : : : : : : : : : : : : : : : : : : : * & & : ",
"3 3 3 3 3 4 4 4 4 4 4 4 4 4 4 3 5 5 5 3 1 1 5 3 5 6 6 3 3 3 3 5 5 6 6 5 5 5 6 6 3 6 p 5 4 5 5 5 5 3 3 3 6 6 5 6 6 6 6 4 4 4 4 4 3 5 6 6 4 6 6 6 p 6 6 p 6 5 6 5 5 5 5 5 3 5 5 5 5 3 6 4 6 4 4 6 6 5 3 3 3 3 5 5 6 6 4 4 6 6 6 6 6 5 5 5 5 5 5 1 1 3 1 1 1 1 1 3 3 3 3 3 3 3 6 5 6 6 6 6 3 3 3 5 6 5 5 5 5 5 5 3 5 5 3 3 3 3 3 3 6 7 6 6 6 6 6 4 6 6 6 6 5 5 5 5 5 5 5 5 3 3 3 3 3 5 3 3 5 1 1 1 1 3 5 6 6 6 6 6 p 4 4 6 4 6 p 6 4 D 4 8 7 7 4 m m D @.4 8 4 m 4 7 4 D 7 Q 4 m m V B b A +XMX~.` G.[.v v v ,.m v V 4 v ..m m 4 m V B :.@.7 4 m m m m m X.m B n B Z b ;.B C Z S M.M.k.mXmXVXVXkXVXNXVX].M.!.b o.>.v b ~.M.+XM.+X] v 8 m v v [.I.` [ U.M v $.8 F 7 4 @.4 4 8 v B C o.v v 4 8 8 7 4 4 6 8 p 3 6 4 4 3 4 6 6 5 6 6 3 5 3 3 3 3 3 1 3 3 5 3 5 5 3 6 3 5 3 6 7 4 4 4 4 8 4 6 3 3 5 3 3 3 3 3 3 3 3 3 3 3 3 3 3 3 3 1 1 3 3 3 3 1 1 3 3 3 5 1 1 1 1 1 1 1 3 3 3 3 3 3 3 3 3 3 1 1 3 3 1 1 3 1 1 3 3 3 3 8 3 8 8 4 ,.@.8 3 3 < < 1 < 1 1 1 3 1 3 3 8 8 3 3 3 3 3 3 3 3 1 1 1 1 1 1 1 1 1 1 1 1 2 < 1 1 < < 1 1 1 3 1 < < < < 1 1 2 1 2 2 2 2 2 2 2 1 1 2 1 2 2 2 2 2 2 1 2 2 2 2 1 1 1 < 1 1 < < < < < < < < 1 1 1 1 2 2 < 1 1 1 1 1 1 1 2 1 1 < < < < 2 1 2 1 1 2 1 1 2 2 2 2 2 2 2 2 2 2 2 2 2 2 2 : : : : : : : : : : : : : : : : : : : : : : : : : : : : : : : : : : : : : 2 : : : : & : : : : : : : : : : : : : : : : : : : : : : : : : : : * : : : & & & & & & & * & & & : * & & & ",
"3 3 3 5 5 4 6 7 7 7 D p 7 6 6 6 6 5 3 1 1 1 1 1 3 5 3 3 5 3 3 5 3 3 3 3 5 3 5 5 3 3 5 6 5 5 5 6 5 5 5 5 6 6 6 6 7 7 7 7 7 p 7 p 6 6 6 7 7 7 m m 7 p 6 6 5 3 5 5 3 5 5 3 3 5 5 6 6 5 6 6 6 p 6 p p 6 4 6 6 5 3 3 3 5 5 4 6 6 6 6 6 6 3 3 5 5 3 3 1 3 1 5 3 5 3 5 3 5 5 3 3 3 5 5 5 3 6 3 3 3 4 3 3 5 5 5 3 3 3 3 3 3 3 3 3 3 3 3 4 4 7 4 4 6 4 4 4 4 6 6 4 3 3 3 3 3 5 3 1 3 5 3 3 3 5 3 3 3 5 <.p 5 3 3 3 6 6 5 3 7 7 7 D 4 4 4 p 6 6 X.7 m m X.X.m m m Q m m m F m 7 4 4 4 { m V B B N ] A S Z N F n #.V v F v v m 8 #.m 8 4 m v 4 { 8 m Q 4 D @.4 m @.{ F _ N B M U.o.Z [ S MXM.M.kXkXVX.Xk.M.|.~.>.Z b b [.o.` ` ` b S Z +Xb V [.v ` >.[.>.` v v v 4 o.>.v v D 6 4 8 8 o.>.{.MX+X[.v 4 4 6 3 3 6 6 3 5 3 3 3 3 6 6 5 6 5 5 5 5 5 3 3 3 5 3 3 1 3 3 3 5 3 6 6 6 4 4 6 6 4 3 3 3 3 6 6 8 3 5 3 3 5 5 5 3 8 3 8 6 5 3 5 3 3 3 3 3 3 3 3 3 3 3 3 3 3 1 3 1 1 1 1 1 3 1 1 3 1 1 3 3 3 3 3 3 3 3 1 3 3 3 3 3 3 3 3 3 8 8 8 { +XU.= 8 < < 1 1 1 1 1 1 1 5 3 3 6 6 8 3 5 3 3 < 1 3 3 < 1 1 1 1 1 1 1 1 1 1 1 1 1 1 1 1 1 1 1 1 1 < < < 1 1 1 1 2 2 2 2 2 2 2 2 2 2 2 2 2 1 < 2 < < < < < < < < < , 8 3 8 3 8 8 8 8 8 8 8 < < 3 < < 5 1 < < < 1 2 2 1 2 2 2 2 2 2 2 2 1 2 1 1 1 2 2 1 5 1 2 2 2 2 2 2 2 2 2 2 2 2 2 2 2 2 2 : : : : : : : : : : : : : : : : : : : : : : : : : : : : : : : : : : : : : * : * : : : : : : : : : : : : : : : : : : : : : : : : * : : : & : & : : & * : : * * * * * * & & ",
"5 3 3 5 5 4 6 7 4 7 4 7 4 6 7 6 5 3 3 3 3 1 1 1 5 5 3 3 5 3 5 5 5 3 3 3 3 3 3 5 5 6 6 p 6 6 5 5 5 5 5 5 6 6 6 6 6 7 D D p p 6 6 6 6 6 7 4 7 7 7 7 7 4 3 3 3 3 3 3 5 3 3 3 6 6 6 6 6 p 7 7 p 7 7 6 6 6 6 6 6 p p 6 6 6 6 6 6 4 4 6 4 5 5 5 5 5 3 3 3 3 3 5 5 5 3 3 5 5 5 5 5 5 5 5 6 6 6 6 6 7 6 7 6 4 3 3 3 3 3 3 3 3 3 3 3 3 3 6 7 D 7 7 7 p 7 Q 7 4 4 6 6 6 3 3 3 5 3 5 3 3 3 6 5 5 3 3 5 3 3 3 3 3 p 3 5 5 6 7 3 6 4 4 4 3 6 X.8 3 4 4 V v 8 4 m { 4 4 8 F v m m m m m 4 { F M B v _ C b [.W.v v v *.v M v P.V B F v m m v m v v V 4 D m 4 4 m 4 m V 8 M B v v n A b Z ~.{.MXk.M.VXjXk.- M.~.` b n M n b A +X` >.W.S Q.Z Z v v [.b [.[.S S >.M V ' 8 V +XP.8 p 6 m v F M S M.VX].MXb 4 8 6 8 8 3 8 3 6 3 3 3 p p 3 6 3 6 3 3 3 3 3 3 3 3 1 1 < 5 3 3 3 3 6 3 6 6 6 6 6 6 4 4 4 4 4 4 8 4 4 8 8 8 8 8 8 7 7 8 8 8 8 4 4 4 8 4 3 3 3 3 3 3 3 3 8 3 3 3 1 1 1 1 1 3 3 3 5 3 3 5 3 8 3 8 8 3 3 8 8 8 8 8 , , 8 8 8 8 8 8 V B ` N X.7 3 3 8 3 3 3 8 8 8 8 8 8 8 8 8 8 8 6 8 8 8 8 8 8 < < < 1 6 <.3 1 1 1 1 1 < < < < 1 < < < , < < < < < 1 < < 2 2 < < < < < < < < < 1 < 1 1 8 8 3 6 7 p D D D D D D D D D D D D 7 7 8 8 8 8 3 p 8 < < 1 1 1 < 1 1 < 1 1 1 1 1 1 < < < < < 1 < < 1 < < < 2 2 1 2 2 < < 1 < < 1 2 : 2 2 : : : : : : : : : : : : : : : : : : : : : : : : : : : : : : : : : : : : : : : : : : * : : : : : : : : : : : : : : : : : : : : : 2 2 : : : : : 2 2 : : : : : : : : * * * : ",
"3 3 5 6 4 6 4 4 4 7 4 7 4 7 6 5 3 1 1 3 3 1 1 3 5 6 5 4 4 8 8 3 3 3 3 3 3 3 3 3 3 3 3 6 6 5 3 3 3 3 3 5 6 6 6 6 6 6 6 3 3 3 3 3 3 5 4 4 6 4 6 4 4 4 6 6 5 3 3 3 5 6 6 6 6 7 7 7 7 7 m m m m m m 7 6 6 4 4 6 6 6 6 6 6 4 6 6 7 4 4 4 5 5 5 5 3 3 3 5 3 3 6 p p p 5 5 5 3 5 5 5 5 6 7 6 7 6 6 6 4 7 4 4 4 6 6 6 6 p 6 6 4 4 4 6 7 7 4 m m 7 m D m Q m Q 7 4 4 4 6 6 6 5 3 8 3 5 3 5 5 7 7 6 6 4 6 3 3 5 p 5 3 8 6 7 p 6 7 7 4 8 D D 8 ..#.v v M v B V v B B N o.M V m m m v m v m M v V V n _ I.Z C v C Z H.{.G.S b b B M M B n >.C B I.N F V m m v 8 o.N o.+Xo.v ` ~.}.~.S ~.MXk.S ].VXF.].].M.+XS b C b b S {.XX+X+X{.+X+XZ v v ` [ ` +XM.M.MX+X[.] [.= v [.$.8 7 8 v :.[.` ` |..X].+X` 4 8 8 8 7 8 6 8 6 8 4 8 8 7 8 3 8 4 4 8 8 8 8 3 3 1 3 3 3 6 6 8 8 8 6 4 6 4 4 6 7 6 6 6 4 4 4 8 4 6 4 4 4 4 m X.D X.X.D m m 7 7 7 4 4 4 4 8 8 8 8 8 4 4 6 4 8 8 6 5 5 3 8 4 8 8 8 8 4 6 6 7 7 4 m m m m D 7 6 4 6 7 7 7 7 7 m v M B o.>.o.{ X.X.X.X.....X.{ { { { { { { #...{ #.{ { X...X.m 7 m m m m m X.m m m X.X.D m 7 m X.X.X.D D D X.7 4 8 8 3 3 8 8 8 8 3 3 3 3 3 8 8 3 6 7 7 7 m D D X.X.D D m m D m m m D m m m D D D D D m 4 4 7 8 8 4 4 6 8 8 8 8 8 8 8 8 8 8 3 3 8 8 3 3 5 5 5 5 3 3 3 3 3 3 1 1 1 3 3 1 1 1 1 1 1 < < 1 < 2 2 2 2 2 2 2 2 2 2 2 2 : : : : : : : : : : : : : : : : : : : : : : : : : : : : : : : : : : : : : : : : : : : : : : : : : : : : : : : 2 2 : : : : : : : : : : : : ",
"3 3 3 3 3 4 7 7 4 4 7 7 6 6 6 3 1 1 2 1 1 1 1 3 5 6 6 6 7 7 7 4 5 3 3 3 3 1 3 3 3 3 3 6 5 5 3 3 3 3 3 5 5 5 3 3 3 3 5 3 8 3 3 3 3 3 6 6 p p p p p 6 5 6 3 3 3 5 3 4 6 7 6 4 4 4 4 4 4 4 4 m m m 7 6 4 4 4 4 4 4 4 4 4 4 4 6 6 4 4 3 5 5 3 3 3 3 3 p 6 5 5 6 p 6 6 6 5 3 5 3 3 3 8 6 8 7 7 7 m 7 m m m m 7 7 6 6 7 m D D Q m 7 7 4 4 7 m 7 m m m Q m m m m m 7 7 p 6 6 6 8 8 6 3 7 6 7 7 7 D m 7 3 8 8 8 8 8 6 7 m D 7 m 7 m m 4 4 7 4 v V C Z +X[.` b P.>.>.>.] o.M M *.v _ v v v V F V V U.G.b Z Z ` ~.~.~.}.A M.[ ` n b b A U.Z A S Z Z b b V N M B V n C v >.` {.XX].M.A M.].F.).).VXVXM.S ~.~.[.Z Z A S Q.+X!.- S ~.{.b v B M U.A {.A |.+X|.S ` V 8 8 8 v m 7 8 B v U.v C +XM.MXZ n m 4 8 :.[.8 4 X.m 4 4 4 4 8 7 7 7 7 8 4 7 4 4 6 7 7 7 7 6 7 m m m 7 4 4 7 7 m m m m m m m m m m m m m m F { #.U.,.:.$.#.@.o.{ { { { F F X.X.X.X.X.X.m m m m m 7 m 7 X.m m X.X.X.X.m X.m X...{ X.{ { { { ..{ X.X.X.X.X.X.{ m { { { o.o.o.' { { { { { { { { { ' o.o.o.o.o.>.o.o.o.{ o.o.>.o.o.{ { { { { { o.o.o.o.{ { { { { { { { o.{ { { { { { X.X.D m m m m m m m m m m D D D D m m D X.X.F m m m m m B B B N N N N N N { { F F F F F F { X.X.D X.X.X.m m m m m m m m m 7 7 4 4 4 4 6 7 7 7 6 4 8 4 6 6 5 5 5 6 6 5 5 5 3 3 5 3 3 3 3 3 1 3 1 1 < 2 < < 2 2 < < < 2 2 2 < < < < < < < < : : : : : : : 2 2 2 : : : 2 2 : : : : : : : : : : : : : : : : : : : : : : : : : : : : : : : : : : * : : : : : : ",
"3 3 3 3 4 6 4 4 4 6 4 6 8 5 3 < 1 1 1 1 1 5 5 5 5 6 4 4 4 4 4 8 3 1 3 3 3 3 3 3 3 3 3 5 3 3 3 3 3 3 3 5 5 5 3 3 3 3 5 3 3 1 1 3 3 5 6 6 6 7 7 4 6 6 4 6 5 3 5 6 7 7 p 7 7 7 m m m 4 4 4 m m 4 4 m 4 4 4 4 4 4 4 4 6 6 4 6 6 6 3 3 3 3 3 3 8 8 8 8 3 4 3 6 3 6 6 7 6 6 6 6 6 6 6 4 7 4 7 4 m m m m D D D 7 m m D m m Q Q Q m m m m 4 m m m m m m m M m m D D Q m D 7 7 4 X.4 4 m 7 m D D m D D m D 7 7 7 7 D D m m m m m m D m D m ..v :.W.~.MXoXM.!.A A Z n n C C o.o.V C n C b Z B C >.C _ W.A S Q.A '.M.~.S ].jXMXn.~.+X- Y.W.+X+X'.!._.S {.G.Z V ] C b n _ Z A MX].VXM.M.].MXk.lXGXVXNX!.- S [ ~.A +XA ~.` [ Z n n ` n Z v v N ` b b A ~.- ` B v V V V V N v V B V v V V N n b Z _ o.m 4 v v B 4 4 4 m 7 m D m F m m m m { F F D D D D D D D D X.{ { { { { { F { { { { { { { { $.{ { $.$.$.o.o.o.o.o.o.' o.{ { { { { { { { { { { { { { { o.o.{ { o.{ { { ..{ { { { { { { { { ' ' { { B ' { B ' ' ' ' { ' { ' X.X.{ ' N { B N { { F F { N N ' ' ] N ] N _ o._ ] ] o.] o.o.o.{ { o.{ { { { o.o.{ o.o.o.{ ' { { o.{ { ' { { ' N N ' { { { { { { F F F F F F N B F F F F B B B N B B B N ' ' ' N B B B B B B B B B B B B N N N N B B B B ' { ' m ' X.{ { { { ' F F X.X.m m m m m m m m m m m m m 7 7 7 7 7 4 4 4 6 6 6 4 4 4 8 8 3 3 8 8 < < < < 3 3 3 3 3 3 3 3 3 3 3 8 1 < < < < < < < < < : : : : < < : : < : : : : < < : : < : : : : : : : : : : : : : : : : : : * : * * : : : : * * * : * * ",
"< < 3 3 3 3 3 8 4 8 ..6 5 8 < 1 1 1 1 1 3 5 5 5 5 5 4 6 6 6 p p p 5 5 5 5 3 3 3 3 3 3 5 3 3 3 3 5 5 3 3 3 5 6 6 3 3 3 1 1 1 3 5 3 6 6 6 4 4 4 4 7 p 6 7 6 6 5 3 6 7 7 6 4 4 7 m X.D m 4 4 7 7 m m 7 7 7 7 7 4 7 7 6 6 6 6 6 6 5 6 6 6 6 6 6 6 6 6 6 p 7 D 4 4 4 7 4 6 4 7 6 7 7 7 m 7 m m m D m m D D m D D D D D D D m m m m m Q m m m m m m D m m B B D D D D F m m m X.D D m D m D F m D { @...X.X.m D D D m m D D m D m m F m m B C >.~.M.F.oXVXXXS A Q.Q.A n Z >.I.W.+X{.{.S Z G.P.U.Z ~.XXXX`.oXS M.OXmXOXlX].`.oX~.S A A ~.~.`.M.NXoX!.S [ [ Z B b Z [.H.A XXF.mX Xk.].].c.NX1.1.].M.A A {.M.Z ~.Z [ [ G.B >.Z _ n U.;.:.>.>.C o.>.C o.C C o.F $.o.B >.P.o.o.{ { $.F o.C Z Z Z _ F B { B B { { { { { { F { { { { { { N B { { { { { { { { { { { { F { o.{ F ' { { o.o.o.{ F { { { o.o.o.{ o.o.o.B { N { B B N ' ' N N F { N ' ' ' { { { o.o.o.o.{ o.{ { ' { { o.o.{ { { ' ' N { ' N { { ' B ' N ' { { { { { ' { { { M { N N N o.{ N F _ N M N C C N N C N N B N N ' B B B N N N N N N N B N ' N N ' ' { { N N N ' { { N N N N N B N N N N C N F F F F N B B B N N N N B N B B N N N ' N N ' N N B B B B B N B N N B B N N B B B B B ' B m N N N ' N N N B B N N N N N N B B B B B B m m m D m m m m m m m m 7 m 7 7 7 7 7 7 7 7 7 7 7 7 7 7 4 4 4 7 7 7 7 4 7 7 7 7 7 7 7 6 4 8 8 4 8 8 8 8 8 8 8 < < < * = < 8 8 < < < 8 < < < : : < < < < < : : : : : < < < < < < < 1 3 < 1 < < 1 1 < < ",
"1 1 1 1 3 5 6 6 6 6 6 p 5 5 3 1 1 1 1 1 1 1 3 3 5 6 6 p 6 6 p 4 5 5 5 p <.p p 5 5 5 5 6 5 5 5 6 5 6 p p p 6 3 3 5 3 3 3 3 5 3 5 5 5 6 6 5 6 6 4 p p 6 5 6 6 6 5 6 7 p D D m 7 7 m 7 7 m m D 7 7 m 7 7 7 D p 7 p 7 7 6 6 5 5 5 6 6 6 6 6 6 6 6 6 7 D D D D D D m D D D m D D D X.X.D m m m m m m m m m m m m m m m m m D D D D m D D D m m m m D F F F F F D F { { F D D m { { F F B F { { F D { X.X.X.D D D D D D D D D X.o.:.{ V ' +X>.>.S M.NXMX].MXXX'.oXMXM.[.~.[.Q.+X|.+X+X{.S A A S A M.!. XoXk.mXVXlXkXkXlXmXk.k.}.M.M.[ S S '.S  X}.S S ~.S A S b [ ~.S [ }.M.1.k.k.].k.).GX9XVXk.M.W.[ ~.|.S >.S ~.~.[ ~.W.G.A A [.;.] o.o.o.>.C >.o.>._ _ o.o.N >.[.>.C >.] >.N o.o.[ !.+X+XZ ] o.>.o.{ o.{ ' { F { o._ F o.N { >.:.{ { { { { { { o.$.o.o.o.o.o.o.o.N { o.o.{ o.o.{ N F N { { F o.{ N F F N B { B B ' N ' ' { F N F F { N B B N { >.:.{ o.{ { ' ' ' ' ' { ' ' ' N ' N B ' { B N { B { B N B N N N { N N N { N N { B o.{ F o.F F _ B B ] B C _ o.F N F N N N ' { ' { { N { ' ' B B N ' N N N N N N N N F N N N N N N N B B N N _ _ N N _ _ F F F F N N o.{ F F F N B N B B B B B N { { N N N B B B B B B B B B N B B B N N N N N B B B B B B B B B B B N B B N { ' { o.{ ' N N N N N B B m m m m m m m m m m m m m m m m m m m m m m B m m m m m m m m F F B B m m m m m m m m m m m X.,.@.X.m m X.X.X.m m m m m m m m 7 4 4 4 4 4 4 7 4 7 4 4 4 4 4 4 4 4 4 4 4 4 7 7 4 7 7 m m m m m ",
"< < < < < < 8 8 8 < 8 < < < 1 1 3 3 1 3 3 3 5 5 6 6 6 6 6 6 p 6 5 3 3 3 3 3 3 1 3 1 1 3 1 3 3 3 6 4 3 8 3 4 6 6 6 5 5 3 5 5 5 5 3 5 5 5 3 3 5 5 3 5 3 5 5 5 5 3 3 3 3 6 7 p D D D D m m p 7 6 7 6 6 7 7 7 p p p D 7 6 5 5 3 5 6 6 6 6 6 6 5 6 7 p D D D X.m D D 7 m m m m m m m m 7 m m m m m F F F m m m m m m m m D D m D D m D D D D D D D D F F F F D D D D D m m D m m { { B F { F D F D D m 7 m D D D X.D D m X.m B m B { V B :.] >.[ XXMXF.S MXA !.MXVX].+XS ~.[ S - M.MXM.MXn.S {.A A M.F.OX/.).hXhX).eXF.k.M.k.'.+Xn.M.S ~._.-  XMXXX+XM.S M.|.A A M.M.M.~.M.NXoXM.M.k.nXVXGXjXk.[ ~.A A ~.~.Z [ +XM.k.+X~.~.A A [ C Z o.>.N N [.N { B { >.F B C >.A Z >.Z >.N o.] ] ] [ {.+XZ ] ] +X' { { o.{ F F F o.o._ [.o.' o.N N o.o.{ o.o.{ { o.o.{ o.o.o.o.{ N ' ' ' N N N N N o.N { N N F { B _ o.N F o.' B B ' { { { { { { { { F N N N B F { N o.N { o.o.o.{ B ' B B ' ' { { ' ' o.N B F M N F N B B N N N N N B B M F B F F F F F F F N B I.Y.Z C N o.F N F N { { { N { F F { { N o.o.{ { F F F N N F F N B N N N N F N N B N N N N N C C N N N N F F F _ o.F N N N F N N N B B B B B B N N N N B B B B N N B B B N N N B N B M B B B B B B B B B B B B B B B N N B B B N N N N N N N N N N ' N N N B B B B B M M M M B M B B M M B B V V M M M M M M M M M M M M M M M M M M M V V B B V M B ' M M B B ' { ' { { B V m V V m m m m m V V V m m m m m m m v v v v V m V V v V M M m V m V V ",
"m m 7 7 m X.X.X.X...X.X.7 4 8 8 8 8 8 3 6 6 6 4 6 4 6 4 3 3 3 1 1 1 1 3 3 5 3 1 1 3 1 1 1 1 1 3 8 4 7 7 6 6 6 6 6 6 6 5 5 5 5 5 5 5 5 5 3 5 6 5 5 5 3 1 1 3 1 3 3 3 3 5 6 7 p 7 D 7 6 6 7 6 6 6 6 7 7 7 6 p 6 p <.p 5 5 3 3 3 5 5 6 6 6 6 6 5 7 D D D X.D m m 7 D m m m 7 7 7 6 D ..D m m m D m m m D m m F D { m { D ..X.X.m m D 7 m m m m D D X.D D D D D X.X.D m X.m @...m m F F ,.m D m m X.X.7 7 7 7 D X.X.m m D X.{ B o.v o.M ' ] N ] A MXOXk.S >.Y.Y.A ~.{.b Z S Y.W.|.M.].XX`.oXMX].k.k.jX).).hXBXzXnXzXnXc.M.M.`.XX!.!.S ~.MXM.OX].M.- M.XXoX+X!.M.+XM.A ~.k.MXM..XM.kXHXbXVX.Xk.M.|.S S M.!.S [ |.oXOXoX|.M.[ Z Z M ] V N B ;.[.B ' { ' N o.N o.C S [.+X[ ] ] o.o.o.C N Z C >.Z C >.B o.o.o.B { { N N C o.[.o.B M N N >.o.B N o.o.N N { o.o.N N ' { { N N N N ' { ' N { { F F N N F _ _ o.N o.o.o.F F { { F F B o.N o.F F F F N N F o.F o.>.o.o.o.>.>.#.#.{ { { B B B m { N { N { F F F F N F N N N N N N N { o.F { N { { { ' N C Z Z S Z C o.F N N N M N B N N N M { N B N N { N N N B N N N N N N N N N N N F N B { N B { B N N _ N N B F F F N F F N N N N N N _ B B N N _ C N C N N C N B B N N B B N B B B B B N B B B B N B B B B B N N B B B B M M B B B B B N B B B M M M B B N B M B B B B B B B B B M M M B B B B B B B B B M M M M M B B M M M M B B B B B B B M M M M B B B B M M V V V V V V V M M V V V V M V V M M M M V M V V m m V V V V V V V V V V M V V V V V V V ",
"{ { { { { { { { { :.' { { ' { { ..X.X.X.X.D D m 7 7 6 4 8 4 6 5 3 3 1 1 1 1 1 1 1 3 3 3 3 1 1 3 7 7 7 m m D m 7 7 4 6 8 5 5 3 3 3 3 1 1 3 3 5 1 3 3 3 3 3 3 1 3 3 3 5 6 4 4 6 4 4 4 6 6 8 4 5 3 5 3 3 3 6 6 6 6 p 6 6 5 5 5 5 5 6 6 5 6 6 6 7 7 7 m 7 X.X.D m 7 7 p p D 7 p 7 7 X...X.7 7 m X.7 m m D m m { D m m D 7 7 7 m m D D D D D m m D m 7 7 7 7 7 7 D m m m m D m m { [.B m m m m m 7 7 7 6 7 7 7 7 7 X.X.m m m M V ' o.' V U.o.N ] S MXoXA [ >.B b ~.}.~.Z Z Z >.[ S !.k.M.].MXmXlX1.).kXeX(.bXzXzXrX9XVXlXk.k.- XXMXk.k.M.F.1.NXNXNXNXOX].~.k.M.M.MXXX~.S k.M.k.M.F.VXhXlXmXM.'.M.oXjX X}.+XS M.k.].].+X+X[.>.C B N M :.>.B B M B B { N N N N B >.G.[.G.[.B P.B F { F >.:.N N C ;.U.F B N #.{ ' { N o.C N o.B { { o.N N N { o.o.F C o.] o.o.o.o.o.{ ' N N N { o.o.o.{ N F o.o.o.{ F N _ C N o.o.o.B N F B N o.F N o._ N { F F N F _ _ o.o.N N o.o.o.F o.o.o.N N { { { { M { { N B >.{ { { F F F N _ N N B N o._ N o.o.' ' B B N Z G.+X+XZ C o.B N _ C C M N N N B { B N N N N N B B B N B B N o.o.o.N N ' N N N { N B B N N N N B F N B N B F B N N { o.N B N N B N o.C N o.C N C C C C C C C C C C N N N B B N N N C C N N N N N B B B M N N N N N B B B B B B B B B B B B B B M B B B M M M M M M M M B M M M M B B M M B B B B B B B N N N B N N B N B N N N N N B B B B B B M V V B M M M M M M M B M M V V V V M M M M M M M M M M M M V V V M M V M M M M M M M M M V V V V V V ",
"{ { { { { { { { N N { { { { m m X.X.X.X.D m m B m m m m X.X.X.X.m 7 7 7 7 6 7 7 7 6 4 8 8 6 7 m 7 m m D m m m m m D X.m 7 7 4 4 7 7 7 7 7 7 7 6 7 7 7 7 7 7 7 <.X.X.X.X.X.m m D @.D m X.m m 7 6 7 7 6 5 5 7 5 7 6 6 6 3 5 5 <.<.<.p 5 6 5 6 p 7 D D X.D 7 7 7 7 7 4 7 7 X.7 7 7 <.7 6 p <.8 6 7 7 D m m m m m D D D 6 7 7 7 7 7 7 6 7 7 7 7 7 7 6 6 6 7 7 7 7 7 m 7 m m 4 m 4 #.m m m m 7 7 7 7 <.<.7 7 D D 7 7 m m m V o.B B ' M >.o.C M U.- +XMXM.A Z [ [ MX|.n.S Z n [.Z S +XM.M.oX.X].kXkXkXeXbXzXGXzXrXBXaXsXnXVXVX1.].k.M.F.M.).hXbXDXbXVXk.- k.M.S M.}.'.M.k.M.M.M.- lXNXsXsXM.k.'.M.NXkXXXA !.~.Y.[ b ~.[ Z ] B M { M M Z +XZ Z Z N N B _ N *.N { N >.>.o.M B B B { B F { { B B N B B M o.B N B >.U.C N >.>.N { { { N N N N N N N _ o.o.o._ N N N N N { N N N N N F N N N N N N N C _ _ N _ o.C o.B N N N N N _ N _ N N N N { F N _ C N o.o.o.] o.N B N N { o.N B { B B B N B M B o.o.o.B B N { N B N N N N o.B o.C o.B { B B ' M Z Y.+X+Xb ] B C N Z B C N C N B N N N N N N B B B B B B B B B N N N N ' B B N B B N N N B B B B B B B B B B M B N { N B B B B N B B C C C N C C C C Z C C C C C C N N N N N N N N N C C C C C N B B N B B B B N N B B B B B B B B B B B B B B M M M B B B B B B M M M M M M M M M M B M M M M M M M B B B B B B B B B B B B B N B B B M M M M B B B B M M M M M M M M M M M M B B M M M M M M M M M M M M M M V V M V V V V V V V V V V V V V V V V V ",
"N F N N N N F { o.F N { B { { { ' m B ' ' N B B B B m m ' { { { X.X.X.X.X.m m X.X.m m m m X.{ { X.{ { o.{ X.X.{ { { ..X.X.X.X.X.X.X.X.X.X.X.X.X.X.X.X.X.X.X.X...X.X.{ X.{ X.X.{ ' m m ..X.X.m X.X.<.7 6 7 7 7 6 7 6 6 3 6 5 5 5 5 6 6 <.6 7 7 7 7 7 X.7 7 7 7 4 6 5 7 6 6 7 8 6 5 6 6 5 5 5 6 6 3 ,.7 7 m 7 m m D 7 6 6 7 6 6 6 6 7 p p 7 6 6 6 6 6 6 6 7 7 7 7 7 7 m 7 m 7 m 4 m m 7 7 7 7 5 5 5 6 6 7 p X.7 7 7 m m [.M N B N C [.>.B o.>.{.MXMXk.Z >.n S '.XXXX}.[ Z [.] b Z !.].].- c.jXkXnXbXzXzXHX9X7XaXHXnXhXeX).).F./.1.F.nXbXnXAXHXDXnXkX].].M.S k.- S S F.k. XkX/.GXOXkXOXk.k.k.k.sXVXk.- S Z b [.] b b o.U.B N o.o.N B Z Z Z [.;.B N _ B o.N B { ,.V o.V U.>.V M B m B B ' ' N M N o.M N { M ' >.N Z Z C C o.{ { F F F N N F _ N N N N B B ' { { { ' { ' N N N N N B { N N N N N N N o.>.P.B N o.o.B B o.B N B _ N N N N N o.o.N N C ] N N o.o.] B N N B M N B B N B B ' N N { N B B B B { o.N B N C N N o.C C ] o.n N M B N M Z A [ Z [ C N o.] C ] Z B C N B M { N B B B B B B B M B B M B B N B M N B B ' N B N N N N o.o.N N N N N B N B N M B B N B N B N N N B B B B N C C C C C C Z C B B N N B B B B N B N N C C C N B B B B B M B B B B B M M M B B N N B B M B B B B M M M M M M M M M V V M M M M M n n n M M M M M M M B B B B B M M M B B M B M M M M M B M M M M M B B M M M M M M M M B B B M B n n M M M M M M M M V M M V V V V V V V V V V V V V V M M V M M M M M ",
"N N N N N N N N N N N N { ' N { { { { o.{ N B B N B B m ' ' B B N B B B B M m ' ' m ' { ' ' { ' { { { { { { { { { m N B { { D { { { { { X.{ { { X.X.{ { { ' ' { X.m { { { { { { ' o.X.m m X.m X.m X.7 7 7 X.<.7 7 p <.6 5 3 5 6 6 5 5 6 7 p 7 7 7 4 7 7 7 7 6 5 5 5 5 5 6 X.7 7 <.6 5 6 5 5 5 5 p <.7 p 7 7 7 D D 7 7 6 6 5 5 6 6 6 6 p 6 6 6 6 6 5 5 5 6 6 7 7 7 6 @.,.4 7 m m D m m 6 7 <.6 5 6 7 6 7 7 7 m m m m m [.o.B N B B o.M M b Z S M.MX~.A [.n [ !.'.MXS S Z b Z b M.M.MXM.- ).hXnXcXDXbXS.zX9Xl.dXnX7XrXrXeXkXkXkXeXHXzXzXbXbXDXzXqXeXkXNXkX1.k.k.OX).).kXNXNXnXNXF.k.M.k.S M.OXOXF.1.oXM.S [.C o.v ] v M >.o.B B F o.Z G.[ B N M N b >.>.n B M M M B I.[.Z :.M B B F M B B B >.N V B B m B ' B Z >.C n B ' B N B B { N N { { N o.:.o.o.{ { { { { { ' ' ' ' ' ' ' N N N N N { { N N N o.B C N B N B o.B N N N N N N N B N C C N C C C C C C N B N C C N C N C M { N o.N o.o.] ;.P.B N B B N N N B B B N ] >.B C B B B B B B N B n Z Z >.C M >.] S >.Z C C C N C M M B B N B B B M M M B B B M M B N M M B B N { o.B M N N N M M o.N B N B B M B B M >.B B B B M B B M M C M B C C B B N B B B N B B M B B M B B M B B B B B B B M M M M B B M M B B B B B N C C B n M M B B B M M M M M M M M M M M M M M M M B n n M M B B B B B B M M M M M M M M B M M M M M V M M M M M B M V V M M V V V V V M M M M M M M B B M M M M B B M M B M M M V V V V V V V V V V V V M M M M M M M V ",
"C N N { N N N N N B F B B { B { N N N N N N B B B B B B ' ' B B ' N N N N N ' ' ' B B B B B N N B N { { N N N N ' ' { { F { { N B ' ' ' B B ' ' ' ' { ' ' ' B ' m { { { { { { { ' { { { { { m m m m X.m 7 7 4 7 X.7 6 5 5 5 5 6 6 6 p 7 4 7 7 X.7 X.4 7 6 7 <.5 6 5 6 6 7 7 7 4 6 6 5 5 5 5 5 5 3 5 5 7 7 7 D 7 m 7 7 7 6 5 5 5 5 5 6 6 7 7 6 6 p 6 6 5 6 7 6 7 7 7 7 X.7 7 m m 7 7 7 D 7 4 <.5 5 5 5 7 6 7 m m m v m ' U.o.] o.] ] >.;.[ A {.k. X X~.Z b Z A jXoXk.M.{.[.~.{.- k.NXMXlXeX7XrXdXzXzXbXzXzXbX(.S.hXhX9XrXiX(.nXrXAXzXbXzXzXrXhXhXnXhXhXNX).b.kXNXBXBXVXOX).kXkXk.).].M.A XXMXNX].MXMX}.~.[.M V o.o.B ] o.>.;.o.V G.[ M.` [.] m o.N n [.n o.V M M Z I.;.Z B M N #.M N M M U.+XN M M m m B V B n +X>.Z B B M F F { B B { o.o.N o.#.#.o.{ ' B ' { { { { { { o.$.$.o.{ { { { { o.{ { { o.N N B o.N N _ o._ _ F { N F N C _ C N C _ C o.C C C C ] C B _ _ _ _ C o.F N ' o.] ] o.o.C o.o.N ' ' N N C o.N N ] o.B Z B Z N N B B N C C C n C C >.M Z S +X+Xb Z B C N M { M B B B B B M M B M V M B N B M N B B M M M B M M B _ V N o.V M B M B M B M M B o.M M M M M B M B N M N N C C C B B B B B B B M M B B M B M M B B B M M M B M M M M M M M M M M M M B N C C N B B M M M B M M V M M M V M M M M M M M n n B B B M B B M M M M B M M n M M M M M V V V V V V V V M V V M M M M V V V V V M M V M M M M M B M n M M M M M B M B M B M M V V V M M V V V V V V V V M M M M M M M M ",
"o.] { ' ' ' ' o.' { N o.' N o.B ' ' ' N ' N N N { { { B { { N N N N N N F F F F { { { { { { { { { { { o.{ o.{ { ' N N ' B o.o.N ' ' N { { ' { m N m { { N N B N B o.{ { N ' { { { B { { F m F X.X.m ,.7 m m m 7 7 4 6 6 7 7 6 6 7 7 6 p X.X.X.6 7 4 <.6 6 X.5 5 5 6 6 7 4 4 4 4 8 6 6 5 5 5 6 5 5 3 6 p 7 7 m m m 7 7 7 8 7 6 6 7 6 p p p 7 7 6 6 6 5 6 7 7 7 m 7 D m 7 7 X.7 7 X.7 7 7 8 7 7 <.7 7 7 X.7 X.m m { [.o.B o.] Z Z [ +XA A ~.A ~.+XNX.XXX!.A Q.M.].1.F.MX|.A S S M.XXOXjXlXbXC.AXvXbXnX(.bXsXGXeXC./.hXiXhXnXDXrX9XwXdXcXnXhXhXeX).eXsXhXeXnXHXHXBXnXnXlX- k.VX- ].M.XXn.S M.A n.- ~.MXk.~.G.P.o.M M M b [.[ W.|.- oXNXMXS Z N F V B N o.F V F _ b P.] Z n >.Z [.o.Z Z +Xb >.V B F { M M B M C Z [.Z Y.C N B F F F { N N N N B B N B N N N N { { ' ' ' { { o.o.o.o.>.>.o.o.o.o.o.{ N N F F F B o._ N ;.B o.o.F o.N C _ _ C _ o.o.C N o.>.o.C C _ C C _ N o._ >.F { F M o.o.o.N C N ' N N N N B N _ F N o.N C C C C B B B N N _ _ B C C B >.C S M.MX{.S A S Z >.B M M M M B B B B N B B M M M M M M M M M M M M B o.>.B B N M M >.M V o.:.V M M N M M M M M B B N M M M M B B M B M M M M M B B B M B N B B B M M M M M M M M M M M M M M M M V V V M V M B B N B B B M M M M M M M M M M M M M M M M M n n B B B B B B B B n n n n n B B M M M M V V V V M V M M M M M M M V V V v V V M M B M M M M M n M B B N C n n n n M M M M M M M V V V V V M M M M M M M M V V V V V M M M ",
"o.o.o.o.{ { ' { ' o.o.{ o.o.' { { { ' { { { { { { { { { { { { { F F F N F F { { { { F N { { F { { o.o.{ N N N { o.o.o.;.o.N _ N { o.o.o.N N { { { B { { B { ' ' B >.o.o.N { { N N { M N F { m F B m { B m m m m m 7 7 7 6 7 6 7 D 7 D X.7 7 @.m 7 7 7 7 7 < 6 6 6 6 7 7 X.,.,.,.4 7 7 7 7 5 5 6 3 5 5 7 7 7 m 7 m m m m 4 7 4 4 7 7 7 7 7 7 7 7 7 6 6 7 7 7 4 7 7 m 7 m m 7 6 7 7 4 D 7 7 7 4 6 7 7 6 7 4 m m o.>.o.M M v ] Z [ !.MXM.A +X+XM.- - M.MX~.A |.S oXVXNXM.XXM.~.k.NX- k.lXkX(.hXcXzX(.A.F.iXhXhXkX(.(.lXeXnXeX^.wXbXzXzXzXzXrXl.F.l.sXhXlXkXnXbXdXcXDXB.F.k.).VX- M.- k.}.~.k.S S - MX- `.A b n v V V ] Z +X[ - - S NXVXNX- [.o.B F o.>.n B >._ C Z Z [.Z S A S ~.S S M.- S B ' F { { m B B B M +X[.Z [.N B N { F B M B N N N { F N B N N N B N ' ' ' ' ' ' { o.o.' N o.o.o.o.o.o.N { N F F N _ N F _ _ o._ _ _ F _ _ _ C _ o.o.o.C C >.>._ C _ C C C C C C o.B N B F N B N B o.N N N B N N N N N N N N N _ N C B C _ _ C N C C C C C C N Z Z [ M.MXA A S Z Z b >.M B B M B M B B N C N N N N B M B M M M M B M M B M n N B N B B M V V V V B M V M M B M M B V M B M M ;.M B N M M B B M M B B B B B N B B B n n n M M B M M M M M M M M M M M M M M V V M M B B M M M M M M V M M M M V V M M M M M M M M B B n n B B B B M n n n n n M n n M n n V V V V V V V M M M M M M V V V V V V V V v v v V V n M n n b n n n b n n n V V n n V V V V V V n M M M V V V V V V V V V V V V ",
"o.o.o.o.o.o.] ] o.o.o.o.o.o.o.o.o.o.o.o.N N F { { { N N N ' { o.{ o.F B N F F N N N N B F { F N { { ' { { B N N o.N { o.F { o.o.o.o.N { o.o.{ N >.o.{ N F F F F o.{ N N N N N N N >.{ N { { M B N B B { m m m m m m m m m 7 m m X.m m m m D 4 7 m m 7 7 4 X.7 8 3 8 5 6 7 X.7 4 6 7 7 7 7 <.7 <.6 5 7 7 4 4 4 7 7 8 4 4 m { ,.U.8 7 7 7 7 7 7 7 7 7 7 D 7 7 7 7 m m m D D m 7 7 4 m { P.M @.X.3 5 6 5 <.X.m @.@.:.>.>.] >.S G.Q.Q.{.+XZ [ [.S {.MXNX].M.M.~.oX`.].k.k.- - '.~.M.k.).F.F.BXrXvXBXzXB.C.hXeXnXlXhXiXC.eXeX^.wXrXzXcX9XzXhXzXzX(.hXbXlX).(.lXhXhXhXnX).lXc.).jX).].mXk.S |.XX`.M.M.MXM.MXA S n v M v ] [ ` S [.Z S +X~.A ~.[.N M N b - M.+X+Xb C [ S S MXM.S ].OXVXNXVXMX- M ' { F { B B M C n +Xo.b M B B B B F F N N N N N B N N { B B ' N { B N B B B ' { { o.o.' { ' { { B o.B o.F o._ B o.N C _ N N _ _ _ _ _ C C C C N C _ o.o.o._ C _ _ C N o.o.C C _ _ B o.C B [.C Z Z ] o.{ B o.B o.C C C C B N C o.>.Z B >.>.Z C Z C C C C N N C Z A ].|.S S Z Z M Z Z Z Z n C b B B >.B B M B ;.Z Z n n B N v B B M B M M B B B B b Z n ;.n V v M M M V F M V B N n M M M B V M B N B M M B n M M M M M N N N B B n n B n B B B M V V V M M M M V M M M M M M M M M M M n B B M M B B B N N B M V M M V M M M M n n n M M M n M M V V V V V V V n V M M n M n V n V V V n n V n n n v v V V V v V V v v n n n n n b b n n B C n n n n n M n n n V n n n n n n n V n v v v v n n n n n n ",
"o.o.] ] C ] C ] o.o.o.o.o.o.o.o.o.o.o.o.C C C N o.o.{ ' N N ' { N _ N N N N N N N N N B N { N N B N N N N B N N o.{ o.o.N N o.o.N { o.o.{ N N o.o.o.o.o.o.o.o._ o.o.o.o.{ N { { N o.N N B { F { B { { { { m B m m D m m D D D D { m m X.{ m ,.X.m m m X.7 7 7 7 7 7 6 4 7 7 7 7 7 7 7 7 7 4 7 6 X.7 7 7 7 D 7 7 7 7 7 4 4 X.8 :.X.4 7 7 4 m 7 4 7 m 7 7 4 7 m m m m m m m m 7 X.m v N +XV M X.<.7 5 7 6 7 4 m X.V B o.M Y.[.[ S ~.Z [ Z M Y.Z {.k.].NXM.M.!.M.M.oXM.S k.M.k.MX- 1.iXnX(.VXaXzXzXaX(.C.hXnX/./.lXnXnXc.(.zXzXzXrXbXbXrXzX9X1.b.)./.).sXlXlX1.l.l.lXkXkXiXkXk.F.kXlXNXF.k.S ].- k.VXS k.A S >.U.n ] Z [.Z [ [.] Z ~.- U.>.v B B C [.- +XMX~.- [ [.S M.].].jXkXnXsXaXaXMX+XS b N >.o.>.>.M B o.n C C B B m { m $.B B B N N N B B B B B { B B ' { B { { B ' ' B ' B ' B B B B N _ B N o.N F o.B C o._ C F _ _ F C C _ _ C C C N N N N o.C C o.N _ C B C C o.C _ _ o.C Z C Z C Z o.' N { N N C C C C o.] B B ] M Z Z B Z Z Z Z Z Z B B B Z C S ~.MXMX|.+XW.C ] ] [ [ ] Z C C Z [.Z Z Z Z S S [ Z Z >.Z B N B M v M M B M M B b Z S Z Z b ] N N B M M ' B M n n M M M M V M B M V B B n B B B M M B M B B B B n n n n n B M M M M M M V M M M V V M M V V V M V V V V M B B M n n n n n M n V V V V V V V V M n n n M M V V V V V V V V V V V V M M M N n V v V B n n M n n n b n n n V V M V V V v V v b b n B n n Z B B C n n n n n B M M M V V n n M M n n n n v v v v n n b b n v ",
"o.] o.] C C ] ] ] ] ] ] C ] o.o.o.o.o.o.o.o.] ] o.o.o.o.o.N N N N C o.o.o.o.o.{ N F N N N ' N N B B N N N N N N { N N { N N F { N N o.o.N N N { { N { { o.o.o.o.o.{ F F { ' N N N { { o.N { { { { { B B { { { { X.{ F { { { F { { m F m m X.:.X.X.m m m X.m m m m m m m m m m m X.7 m m m m m 6 7 7 m m m 7 7 7 7 7 m 4 m v V { m m m 4 m m 7 { m { F F { F m m D m D m m m ,.{ B B n Y.>.V m 7 7 6 7 7 X.m m m m m ' V V >.>.Y.Z Z ` Y.[ Y.A '.MXM.MX].S - MXVXVXNXoXjX].M.F.lXk.nXbXhXrXdXHXzXeX(.A.(./.iXeXkXlXeX(.(.9XaX7XrXbXzXzX/.lXiX/.).lXk.F.).b.- ).lXNXD././.eXb.VXNXlXF.].VX].M.XXk.k.F.M.M.A ~.Y.Y.~.b S M.S [ ] Z [ [.Z Z C n M b [ M.MXoXk.k.- S M.OX).VXiXiXeXhXhXeXhXmX~.A ` [.>.M N { B F B B B ] ] B B B F { F N B B B N N ' N B B N B B ' { { N N { ' N ' ' N N N B >.>.M N B B B B N B N o.N N N N N N C C _ _ _ _ C N N N C N o.C _ C N _ C Z Z C C C >.N C ] ;.Z ] [.] N o.N B N o.C C C C C _ C B Z Z Z _ C Z Z A Z Z C Z C B Z S Q.}.M.|.MX[.b ] Z [ +XW.b Z >.- +XW.A |.|.+X+XXXS +X+XS Z n V M N B N n B B Z Z [.+Xb Z [.[.U.Z b M M M M M N v B n v v B v M N C Z n n B n N M B B N B B B n n n n n n n n n V V V M M B n M V B B B M V V M V M n n V n n n n n n n n n n V V V V V V V V V V V V V V V v v v v v V V V n V n V M M V V n V b v B n n n b n n n n n n n n v n n n b n b n n B n n n n n B n n n n n n n n n n n V n V V n n v v v v V v n n b b b b ",
"C C o.o.o._ o.o.C C C C C C o.o.C ] ] ] o.o.o.] o.o.o.o.o.o.o.o.o.o.o.o.o.o.o.o.F { F N N F N N N B { N N N B N B B B B N N N N ' N N N N N N N N N N N N N _ o.{ N N N N N N N { N N { ' { N B N N { { { ' { N { { ' { B B B { X.{ { m m F m m m { m m m m X.m m D D D D m B m m m F m m m @.@.7 m m D m m X.X.m m m m m ,.o.M m m m m m m B { F o.{ { { N B B F F m m ' P.o.>.>.C b G.[.M ' m m 7 m m m m X.m X.X.X.m V N U.I.B N ;.Z ] [ S ~.MXk.].|.XXM.F.VXVXk.].].oXoXlXlXiXhXnXaXDXbXzXnX(.C.eXlXbX).).).hXiXlXqXhXD.sXBXGXbXbXc.lXF.k.k.k.jXlX1.k.kX).).NX1.F.nXiX).nXjXNXF.k.jXM.S M.k.k.VX].~.A A S {.}.A MXS XXS ` b Z Z b S Z b b A A ].NX].k.M.].OXlXlXlXlXbXhXqXbXhXiX/.lXVX].S A ] M B o.B B B B B o.N B N M B F N B F F F { N N F N B B N B { B B B B N N B N ' ' N ' ' ,.;.N o.' ' N B M N B B B N N N B N N C N N N N N N N N N N C C C C C >.[.] Z C C N o.o.N U.C Z >.Y.] ] o.>.B C C C _ o.N B N C C [.G.Z C >.S +XW.S C B B n Z Z Z [ A A S S S Z M Z S {.~.S S [ !.M.S ~.+XMXM.M.- - |.{.S Z M B V M N B n B B B S ~.M.S S [ >.Z n b n B b N n M _ C b B n b B M n n n b ;.M n n n V n B B n n n n n n n n n V n n n n n n n B V V n n n n V v V v V n V n V n b b n n n V V V V V v v v V V V V V V n V v v v v V V v v v v v v n n n n n v V v n V b n b n b n b b n n n n n v n n n n n b b b n n b b n b n b b b b b n n n n b b v v v v v v v v v v v v n v b b n n ",
"C ] ] ] ] ] ] ] ] ] C C ] ] ] o.C C ] ] ] ] C C o.o.o.o.o.o.o.o.o.] ] ] ] C C o.C o.o.C N N N N N B N N N N B N B B B B B B B B N B N N N N N { N N N N ' ' ' N N N N N { { { ' { ' N N ' ' N o.N B ' { N N o.B N N ' N N B N { { { { N N B { B ' B B { m { m { { F { F F F B F N M F B F { m m m m { X.F X.m X.X.X.@.{ m #.B B F N B F { { { N N o.B F { M { B F F { { N [.B Y.[.S |.~.S Z N N m D m F m X.o.m X.m X.m M N M n M o.;.>.n o.Z A Z S S Q.|.k.k.kX1.k.OXjX].1.).).hXnXDXhXsXzXnXrXeXeXlXD.).F.).).k.1.l.).sXBXeXeXBXBXBXl.).F.).- - .X.XjX).sX1.nXD.(.B.eXnXnXc.k.1.F.M.k.k.].M.OXF.).).OXk.S ~.S ].].].k.|.M.- M.S n.n.- A ~.M.A M.k.VXeXlXlX).).hXaXVXeXeXhXnXnXnXnX(.iXlXkXjX~.Z B B { F F #.N o.o.M ' M F F F F N N B B B B N B B M >.{ N V B B B N N N B N o.N M o.N o.N B { ' >.B B N N N B B N N B B B N N N N N N N N B B B N B C N B C C +X>.Z ] Z C C ] ] C Z ] ] n Z B [ >.I.Z C C N N N o.N B ] U.U.Z Y.>.A +X[ A Z >.C n Z Z S [.+XM.A [ [ Z A Z A [ A A [ MX|.~.S S M.M.S A A S S Z n B n B M F B V M B N Z b S Q.S S S Q.S n C n M Z n M B >.>.Z b b Z n M M B b Q.[.b B n B n C n N n n b n n n V V V V n n n n n n n V V v V b n n v v v n V n V n b n n n n n n V V n v v v v v v v v v v v v v v v v v v v V v v V V v v v v v v V V v M V b n b b b b n b n n n n n n n n b n b b b b b b b V b b n v v b v v v v v v v v v v v v v v v v v v v v v v v v b b ",
"C C ] ] o.o.o.o.o.o.o.C ] ] o.o.C C C C ] ] ] C _ o.C o.o.o.C ] o.o.o.o.] C C ] _ o._ N C N N N N B N B N N B B B N B B B B B B B B N N N N N N N N N ' ' o.{ ' ' N { o.o.o.{ N { o.o.{ o.o.o.>.o.B B N N ' >.' { ' ' N o.N N { { N { ' B ' B ' N B B { { ' ' { F N F N F F F N B o.N ' F N { { X.{ M B B M { m X.m { N { B B { N N N { { { { { { M o.N N o.B { F { B B B ] Z Z [ M.MXMXS Z >.{ { B m B B $.#.m m m ' B { o.V B F B B M M ;.o.Z C Z Z ~.+XM.F.VX).NXF.F.).- k.VXnXzXDXhX9X9XnXzXhXhX(.eX/./.].).F.F.F.D.NXF.1.b.9XhXVX1.lXF.).- ].].].).F.1.F.eXeXnXnXiXl.1.F.].lXF.OX- ].F.F.lXl.hXVX1.jXM.].].kXlXNXF.].MXM.M. X X.XF.MX.XoX].lXlXnXbXcXbX7XbXdXcXhXVXhXeXqXiXlXlXbXbXqX^.jX}.S C N B M F V F B B ' V B M N F N B B B B B N N N { ' N B N ] ' B B B B M M M N o.B B B B B B B ' ' N B N B B M B B B B B B N N { F N N N N N B N B N C B C Z Z G.>.Z Z Z o.] M ] N C Z o.>.B Z Z [ G.Z Z C C o.M :.' C n Z Z Z [ ~.~.XX+XS Z b [ [.A S Z A A [ Z ] Z S !.~.{.Q.~.A S XX- M.A A S S {.{.+XA Z >.b n _ C n B n B _ N Z S b A Q.+XM.S {.S Z b n V b Z B M b >.A A [ S b B B M b [ o.b n b n n n B n b n n n n B B V V n M M M n n n n n b b n b n n v v V M V V n n b n n n n b n V V n n v v n n n v v v v v v v v v v v v v v v v v V v v v v v v v v M v b B b b b b b n b n n n v n b b b n b b b b n b v v v n b v v v v v b v v v v v n n b b v v v v v v v v v v v v b b b ",
"] ] ] ] ] ] ] [ ] ] ] ] ] ] ] ] Z Z ] ] ] ] o.o.] ] ] ] ] ] ] ] ] o.] ] C C C ] C C C C C C C C N N B B N B N B B B B B B N N B N N B N ] C C N ] ] C N N C ' ' ' ' ' ] o.o.N N N N { { o.{ N o.B B o.' N B o.' ' ' N N ] ' N N N ' N N { B N B B B o.N N ' ' N N N N B N N F { B o.o.{ N { B { { B { N ' >.B m X.{ o.' F F N B F o.N o.B { { B N { N N N B { { { B B ' N M N Z [ S ~.MXM.Z B N B B N N N N B M B o.o.M n +XN B M F o.B B M M B M C Z S M.oXOX/.F.NXNXNXsX).(.zXbXHXzXzXS.A.eXc.c.(.l.(.)./././.F.1.F.lXD.1.c.F.nXbXc.1.k.F.k.- k.lXk.].k.k.lXNXlXhXsXNXk.k.k.jXS M.M.k.]./.iX(.sXNX).).kXlXnXlXhXhXD.lXlXjXlXOXlXlX).).sXNXsX).kXeX7XbXFXFXHXDXcXDXsXnXnXrXBXhXlXhXhXrXnXiXVXM.S Z B B >.N B M B ' B ' { F F N M B N N N N B B N B N { ' ' C ] ' ' ' N B B B B N B B M B B B N o.M N B N _ N N B B B B N B N N N N B B B B B B B N N C C C >.Z +X] +XZ >.>.M o.C ] Z o._ ;.>.Z Z A [.Z C C M V N B C b ] Z Z Z Z A MX{.M.S S A +XMX~.b G.Z A [ b Z S S '.NX'.A b A |.!.A S S Z Z Z A Z G.Z Z S G.[ [.>.b b Z Z Z b W.+XS S S _.~.M.~.S b Z B n b Z v N b G.~.M.~.- n [.M v [.C B V B o.v V M n B n n B n V n n n n M M M M M V V v B b b b b n V v n v V v V n V V n V V V V V v v v v v v n v n n v v v v v v v v v v v v v v v v V v v V V v v V v v M C b b n b b b b b n n n v n b v v b b v n n n b b b v v v v v v v v v v v b v b b b b b b v v v v v v v v v b b b b b ",
"Z Z Z Z Z ] ] ] Z Z Z Z Z Z ] ] C C Z Z ] ] o.>.>.o.o.o.o.o.] ] ] ] ] C Z Z ] ] C C C C C C C C C C N N N B N B B B N B B N N N N N N N N N C o.C ] ] C N N N N N N N N N N o.o.o.B N N N N N N N N N B N B o.N N ' N N B N N N N B N N N N N N N N N ' N ' o.B B { B N N B F N N o.N N N { ' ' N N B N N o.N B ' { B B B o.B o.B P.N N F { N N B N B N ' B o.o.B N ' N _ o.C ] S [ MXMXNXS N B o.C N B ] M M o.M o.>.B o.>.N n M B n B M M M B B M B H.M. X].F.F.- ).kX1.F.C.bXbXHXHXB.(.A.eXbXBXeXeXF.c.F.F./.F.).lXlX).D.hXhXzXnXl.(.eXjX1.F.k.F.- ).).eXeX).(.).).k.).].].].M.M.k.].OXbXVXhX1.1.).(.nXeXzXbXzXrXrXsXeXeXhXVXeX(.hX(.cXhXsXVXhXzXbXBXS.DXbXDXDXrXnXNXrXzXcXbXNXnXsXrXrXzXkXjX- S Z C B ] ] B N M ' o.B ' M B C Z B n M B B M { M N B ] N C N N N ' B B N B B o.M N B M N B M N N B N N _ N { N B B B B B B B N N N N N N N N N B C C Z C ;.C Z Z [ Z Z B C B N o.o._ Z C >.Z A ~.[.A Z >.>.N N M Z Z n Z Z Z Z A !.A S S A [ '.A A Z Z S M.M.S Z Q.S S MXMXM.S Z S S M.+X~.S Z C C >.[ Z [ b Y.Y.b S S Y.S S n n G.!.S S A M.|.MXS S S S [ Z o.>.M b Z S +XMXMXS Z n M B v n V C b n n v V n n n b N b M V n V n n n M B M V V M b A - Z b V n v V v V v V n n V n n n n n v v V V v n n n n n v v v v v v v v v v v v v v v v v v v v v v v V v M ] v Z ] b b b n b b v v v V v v n v v v v b b b v v b v v v v n n v v v v v v n b b b b v b v b v v v v v v v b b v v v v ",
"] ] Z C ] ] ] ] ] ] ] ] Z Z Z Z ] ] Z C C C C ] ] ] ] C o.] ] ] ] ] ] o.o.] ] ] C o.o.] Z C Z C _ C C C C N N N N N N N N N N N N N N C C C C C C C C C C N N N N N B N N N C o.N ] N N C B C B >.>._ N N C B N N N N B N N C N N N N ' ' ] N ' o.' o.N ] o.C C N B C B C N N N N N B ' N ' N B ] B o.] ] o.o.N o.B { N { N B N N M N N o.o._ o._ o.o.Z B B N B M C ;.+XZ C _ C Z M.jXVXMXXXn N >.[.b N >.M >.Z Z >._ C B C n C C >.Z Z Z B N V M N [ S M..Xk.).jX- ].jXk.k.lXnXhXhXVXD.sX(.F.iXeXhXC.F.F.F.).l.C.iX).).hXBX(.hXD.rXVXeXhXnXiX1.).F.).)./.kXhXhXhXl.1.OX- - NXM.k.- - 1.kXhX9XD.hXkXhXhXzXzXbXrXcXaXzXeXrXBXhXrX9XaXD.zX9XsXzXNXbXbXhXnXnXvXDXbXzXdXzXGXDXDXZXDXcXcXvXdXzXnXnXNXoX- S S b b b Z B B N N N B Z b [ A +X+X+Xb N N B B B B M B M N N N N B ] B V N B C B N N N B N B M B N N B N B B B N N N N B B B M B N N B C N N B C Z B _ >.Z Z Z >.Z C Z C B ] N C C Z n Z Z [ MXMX!.A Z Z o.C M C Z b Z Z [ Z S S A Z A [ Z S S T.Z b S }.+XS S Z A S A S S S S {.S [ M.M.A n B B n Z Z Z S b S S Z >.+Xb Z Z b b Z A M.jXNXMXjX- S S M.[ Z Z n b [.b A T._.A S b n b V M V n V B v v v n M v v >.C b n M n n n n n M M V v V B S - MX~.` n V v V V v V v V B v V V v V v V v v n V n n b n n v v v v v v v v v v v v v v v v v v v v v v v v V M V M U.[.Z b ;.G.C >.N M v v v v v v v v v v v v v v v n v v v v v v v v v b v v b b b b b b b b b b v v v b b b b v b b b ",
"C ] ] ] ] ] ] C ] ] Z Z Z Z ] ] Z Z Z Z C C C ] C C ] ] C ] ] ] ] ] ] C C Z C ] >.] Z ] o.C Z C C _ C C C C C N C C C C C C C N N N N C C C C C C C C C C ] ] ] C C ] ] C C C C N _ C N C N o.] o.o.B C N N N C C C C o.N o.C N N { ' ' N N N o.' N ] N C C C N N C N o.B _ C C o.o.C C N B o.N C ] B ' ' o.] B B o.N { B B o.N N o.N N F N N _ o.Z Z U.U.Z C C o.C Z n S n >.>.S M.M.VXVX'.S Z B N M B ] C Z Z C >.C B B C M C n Z Z Z Z o.V B o.V S A !.M.MXjXXX].`.].k.- ].).bXhXaXl.F.(.sXnXhXkXF.(.C.b.(.).)././.eXhXVX(.rXzX7XwX9XhXD.hX).).(.1.).(.hXnXS.(.kXF.1.- OXOXjXOX- k.F.hXnX9XA.rXrX7XwXbXrXdXcX9XBXBX9XrXbXbXbXzXnXrX9X0XGXHXcXvXBXnXbXBXaXxX0XvXbXHXcXGXDXbXfXfXvXxXbXrXzXhXnXkX].- M.XX}.~.- S Z Z B Z Z Z M.M.n.}.~.S Z n B B N B N B C B n n B ] >.n Z U._ C N N B C B C N N B N n _ N B B N B N N M N M N N Z B C N C N B B N C B C n Z >.[ Z Z Z [ Z N ] B o.Z Z Z Z Z S S ~.~.A S [ C C C Z Z G.P.b C M b +XA S Z n _ >.A A b S W.+XMXOX].XXS S S M.S M.M.M.A S S S +XW.n B Z B Z n b [ W.S Z Z [ b Z b Z Z Z b S M.NXOX].M.k. XXXQ.Q.n Z n n b Z S ~.A S b Z b B V b n M V M B M M M b V B +XC b b n b n n n n b v V v M b - |.NXMXS b n V V V V n v V M v V v v v v v v v n n n n b b v v v v v v v v v V v v v v v v v v v v v v v v v v v v v v v b n b n v C V v V V V v v v M V v V C >.>.o.M n v v v v v v v v v v v b b b b b n b b b n b b b b b b b b b b b b ",
"Z Z Z Z [ [ ] ] ] ] ] ] ] ] ] ] ] C ] ] C Z C C Z Z C Z C ] Z ] C C C ] C C C C ;.o.Z C ] C C ] C C C C C C C C C C C C C C C C C C C C C C C C C C C C C ] ] ] ] ] C C C C C C C C C o.Z C o.M C N N ] C C C C _ N _ C N N C B C N B N N C N N N N ] N C C o.C C o.C B o.C C C C B C ] C N C C b +Xo.N B ] C >.C C N ' ' o.o.] N C B C B N o.o.C C >.I.U.Y.B Z N B Z b +XI.n B C A A M.k.S S Z B M C Z B n B B >.B B C B B o.B Z Z Z _ Z C n C B n Z S _.k.A S M.!.S k.k.M.).iXnXbXF.F.S.F.7XqXzXnX9X(.eXbXeXeX(.(./.S.C.S.rX9X9Xz.wXA.7XeXeXeX(.eXiX9XbXrXrXB.F.l.c./.F.).).).F./.1.lXnXnXS.dX7X7XrXbXhX9XD.hXcXBX9XcXbXDXDXDXzXzXzXzXwXzXzXdXdXHXbXBXrXbXFXFXZXAXDXDXHXDXAXAXJXDXcXzXzXzXDXbXiXkXlXNXNXjXMXoXS A S S - {.A !.}.~.M.- S Z Z N V B N C B Z S A U.S Z b b Z ] B M C N B C B C B N N C C o._ _ o.' N B C o.Z N M Z Z Z n Z B C C o.C >.o.C C C Z Z n C Z U.Z Z B B C S Z S S [ S S - S A Z B U.B >.Z S A Q.Z B C ] C Z S >.Z >.o.Z b Z S ~.XXk.].).NX].A S S MXk.M.XXA S A S S b Z Z S A A Z b Z _ A S S Z >.B Z Z Z [ [ ~.M.k.S ].k.'.M.~.S A b b b P.S Z S S b S S b Z n Z b B M v M n v n V n B b Z B b b n n b b n M n n V n b - S NX).k.S b b v n v V n v M n n V n v v v v v v n n n n n b b v v v v v v v v v v v v v v v v v v v v v v 8 8 v v v v V n n v b b v v v V V v v V v v v v v v v v v B M n b v v v V v n v n b n B b n b b b b b b b v b b b b b b b b b b b ",
"[ A [ Z Z [ [ ] ] ] ] ] ] ] ] C ] ] ] C C ] ] ] C Z C Z Z Z Z Z C Z Z Z C C Z Z C Z C C Z Z C Z Z C C C C C C C C C C C C C C C C C C C C C C C C C C C C C C C ] Z Z Z Z Z C C C C M B ] N Z C N C o.] C C C C C C C o.N o.o.>.N N N ] N N N C N N N N C C >.C >.o.C o.>.C _ C C C Z C C C >.>.] o.] N o.N ] C C C o.] N ] C >.C C _ N C C N C >.U.C Z [.P.C Z N N N B >.[.C Z Z [.A [ A +XS Z U.M b B B o.M B N o.M B B N B B C Z Z C C Z Z N n P.A T.n.S S A S S A ~.M.jXc.F.bXeXeXl.D.hXzXzXsX(.hXbXeXhXC.(.qX/.eX(././.9X9XrXzX7XD.hXrXA.S.7XzX9XrXrXB.7X1./.k.F.(./.lX).hXiX).S.rX9X9XDXJXvX7XaXzXrXBXeXnXrX8XzXwXrXyX8XdXrXpXiXrXGXzXzXcXzXzXBXzXzXbXAXFXDXFXDXbXHXcXAXFXAXyX9XzXsX8XBXcXbXeXnXBXD.S.).kX].- k.S XX!.k.]. XS M.M.M.A S n C C B N Z Z S ~.+Xn.S A S S b Z B C >.>.Z Z Z C B B Z n >.B C n C B Z Z Z n B C Z Z Z Z Z ] Z Z Z ] >.>.C Z C >.C ] Z Z A >.G.[ Z Z A {.XXXX+XA - S A ~.>.Z Z U.>.[ A A Z A C o.B C >.Z W.b C >.Z A [ A !.k.].F.eXHXoX- M.+XM.S .XoX].S S S M.[ S Z Z [ >.S Z U.P.Z Z S Z Z Z Z Z Z Z [ Q.- S k.~.M.- S S S Z Z >.I.Z n S A S Z Z ` [.P.b b Z n b n M M M B n n b B b b n n b n b b n n n n n Z - M.jXNX).k.- Z b B v n n n n n n n n n n v n n V n n n b b b n n b v v v v v v v v v v v v v v v v v v v v v v v v v V v V n v ` b v v v v v ` ` ` v v v v v v v v v v v v v v v v v v v v v n b b n b n b b b b b b b b b b ` b b b b b b b b ",
"[ A [ [ A Z Z Z Z Z ] ] ] ] ] ] Z ] ] C ] >.>.[ ] Z [ C Z Z C C C Z Z Z Z Z Z Z Z Z Z C C C C Z C Z C C C C C C Z Z C C C Z C C C C Z Z C C C C C C C C Z C Z C C C Z Z C Z C C C _ C C C C Z Z B ] B Z C C ] C _ C C B C C >.;.C C C o.C C C C C C C C C C >.C C Z Z Z I.C C Z >.C >.n C o.C Z Z Z C N ] C C C Z C C ] C ] C Z Z B >.C C C C M Z ] n Z Z C B Z C N Z Z G.W.Z Z C Z ] ] >.A S n [.Z Z B n Z B b o.B B Z C V N B o.B B N b C n C B C Z S S S G.Z S A A A S `.M.kXlXlXeXD.sXnX7XrXzXwXwXhXrXzXB.(.hXeXzXrX9XhX9X9XzXzXrXrXrXzX7XaX9XrXBX9XrXzXB.B.).eX).S.D.A.rX7XhXrXrXhXzXbXzX9XhX7XzXhXBXbXaXnXBXDXzX9X9X9X8XbXzXvXnXeXeX9XzXzXrXwXDX7XrXrXxXtXxXDXGXbXzXzXbXbXzXvXzXzX9X8XDXdXAXzXbXB.9XBXsXrXlX).c.OXlX].).).].k.F.F.M.M.!.M.b n Z n b S S ~.`.`.oX!.A S ~.Z [ S Z Z b Z n n Z Z [ S S Z Z Z Z >.Z Z S S Z Z Z n Z Z Z ] >.G.Z Z Z Z Z S S S Z Z S Z A S S S S |.`.MXjXjXkXmXk.'.S k.S T.{.b A S A S A Z Z o.o.S [.[ {.I._ _ [ Z - S ].M.F.lXnXkX].- k.M.F.lXkXkXNXlXM.S M.XX{.A b Z Z B B _ B b Z B Z Z b Y.S Z S Z S S {.A ]. X].A S A S S S W.n S S Z S b n Z Z Z n n n b b n b C +Xn b n Z b Z n b n B n n n n n Z n S S - ].NXNXVXVX!.S b b b b b n n V n n n n n v n n V b b b b b b n b b n n b V V V M B o.o.o.N M v v v v v V v v v v v v V V V v v v b b v b Z b >.Z Z B C n V v ` v v v v M V v v v v v v v v v v ` v b v b b b b b b v v v v b v v v b b b b b b ",
"Z Z A A Z Z Z Z Z Z Z Z Z C ] ] C ] ] C ] >.>.] C C C Z [ C Z Z Z C C C Z Z Z C Z Z Z Z Z Z Z Z C C C Z C C C Z Z C C C C Z Z C C C C Z C C C C C C C C C Z N Z Z Z Z C Z Z C C C C Z C >.Z Z P.] Z P.U.n Z C C B C C C C C Z C _ C C C C C C N C C C C C C o.C Z C Z Z Z Z C Z C C C _ C >.Z _ C o.n >.Z Z C Z C C C b ] C Z B C o.C >.C n C Z >.Z [ Z Z Z Z C B C Z Z Z G.~.A Z Z Z Z ] Z [ Z b Z >.+X>.[ [ S S S Z Z n Z B B C B >.N C n n B Z B n Z Z Z Z Z Z S Z S S k.k.1.kXeXhX(.9XzXzXwXzXnX9XzXzXzXrXiX7XhXbX9XrX9XrXwXzXrXrXwXrXzX7X9XrXzXwX9X(.HXaX7XiX).(.D.aX9XzXzX7X7XA.7XzX7XzXrXrXhXrX7XiXbXDXrXzXnXDX7XaXzXbXbXvXrXrX(.).eXD.<X>X7XrXeX(.rXzXdXdXdXDXaX9XnXaXaXhXrXzXHXbX9XxXxXxXxX8XrXcXDXrXwXeX7XiXlXeXlXlX).lXc.F.VX).lX.X`.A S S S S S S  X).lXlXmX].}.}.S S G.S Z S Z Z Z A b S +XQ.A S Z Z >.S S +X~.S S Z Z Z Z Z Z Z [ S S S A ~.M.M.S [ A !.+X}.M.k.S |. XOXkXlXnXnXnXjXjXOXk.k.S S A [ ~.~.M.A A Z Z Z S A A A A A A S |.S ].).lXiXhXiXiXk.M.k.F.nXiXiXeXlXeXnXF.k.jX].`.}.A b Z C b B C n n b Z S A [ Z S S S S A k..Xc.lXjX~.S S S S b Z n n Z Z b b Z b n Z n n Z n b b n >.Z b n b Z Z Z B n n b n b b n n S S S ].].F.mXMXMXT.n b b b b b b n b b b n n n n b n n V n V b b b b n n n n n n n B B B N N B M V V n V V V V V V V v M V v M M V n n M b b B P.>.U.n >.>.[.>.;.V V n n n n N M V b v v v v v v v v v b b v v v v b b v v v v b b b v v v v v v b b ",
"Z Z A A Z Z Z Z Z Z Z Z Z C C C Z Z Z Z Z A Z C C Z Z Z [ C Z C Z Z Z C Z Z Z Z Z Z Z C C Z Z Z Z Z Z Z Z Z Z Z C Z Z C C Z C C Z Z C C C C Z C C C C C C C Z Z Z Z Z Z C Z C C Z Z Z Z Z Z Z Z Z ] n C Z Z C C C Z Z B Z Z C C C C C o.Z C C C C C C C C C C C B C C Z C C Z Z C C C Z _ C Z _ C C Z >.o.C C Z B C P.>.Z n >.] Z Z Z Z C C Z G.>.S A |.~.S Z Z Z C B Z Z ~.|.M.Y.Z Z o.>.Z n >.n >.U.[ Z - M.A ~.'.XXQ.[ S S Z Z C B C n Z Z Z B M b b b Z Z [ S Z Z A S k.- F.nXbX9X(.D.zXzXzXdXzXrX7XhXzXA.9XzX7X7XS.nXnXrX9XrXeXnXnX7X(.7XrX9XwX(.(.7XhXeXzXiX/.7XrX9XvXdX8XcXsXrXrXbXrX7X7XiXeXwXzX7X5XzXbXDXbXsXhXaXdXxX8XGX:XrX7XeX(.rXaX0XS.S.hXeXeXaXbXvXzXzX<XcXzXD.(.(.zXrXAXdXDXDXGXxXyXHXHXvXbXdXrX0XzXdXrXBXzXiXnXlXeX/.eXS.F.).kXlXF.].].k.].VXiXbXiX).lXOX`.S S A G.S S Y.|.A A S S M.n.S S A S S ~.M.S MXMX!.S Z Z Z Z [ A S A A S S k.MX.X].].oXjXlXlXkXnXkX).kX).iXlXhXnXnXhXhXhXnX).].k.- M.- MX X XM.M.A ~.S S S S S {.~. XM.mX)./.).kXlXnXzXbX).mXjX).c.iXiXzXzXbXhXlXiXiXhXiX.XoXS S Z Z B n Z A [ S S A M.A k.S M.S k.jXmX/.kX].].S - XXA S n n Z b b S Z b Z B n n b b b Z b Z S b S b b Z b b n b n V n b b S S S S S NX).jXS S S - b Z n Z n b n b b b b n b n n n n b b n n b b b b n b b V b b b n b n n V b b b b V V V V V V v v n V n B n n M M M M M n n b b Z S b ` ` b v b v v v v V N B n v V V n v v v b v b v v v b b b b v v b b b b v ` ` v v v v v v v ",
"Z A [ [ A Z Z Z Z Z Z Z Z Z Z Z Z Z Z Z Z Z Z Z C Z Z G.Z Z >.Z Z Z Z Z C Z C C C C C Z Z Z Z Z Z Z Z Z Z Z Z Z Z Z Z Z Z Z Z Z Z C C C C Z Z Z C C C C C C Z Z Z Z Z Z Z Z Z Z Z Z Z Z Z Z Z Z Z Z Z Z Z Z Z Z C Z Z C Z C Z B C C C o.Z C C C C Z C B Z C C C C Z Z Z B C Z Z Z U.Z _ C C C Z C Z C Z >.Z Z C B U.Z Z Z Z >.[.Z Z Z >.Z Z U.A S A ~.~.M.{.}.A A >.A A S S S A ~.S Z Z Z >.>.Z Z Z b S ~.S M. X].].`.~.S S S Z S Z Z Z Z b S S n n b Z S S Z S S b [ A ~.`.- ].iXnXrXrXzXzXzXyXzXzXzXrXaXaXrXaXB.zXbXbXrXA.S.7X9XzXbXhX7XnX9X7XwXwXrX(.rXeXnXzXhX7XrXzXcXcXaX9XaXhXhXD.rXzXrX7XhXiXzXrX7XA.Z.A.nXhXsX9XrXzXxXyX8X>X9XzXeXsX9XrXzX9XaXeX(.sXzXbXnXzXbXFXrXrXaX(.eX7X<XdXAXDXZXHXAXcXcXBXvXHXAXxXvXfXAXvXbXHXwXhXnX9XhXsX(.(.F.(./.eX).lXnXhXbX7XwXpXqX).).].M.S S S S S ~.~.S M.- ].jX`.].k.M.k.S !.k.k.k.M.oXS M.>.A A A S S `.XX].].].lXlX).).).).lXhXhXaXiXzXeXlX).eXqXeXhXnXrXnXeXlXkXOXk.k.k.F.kXlXNX].k.k.~.A A S S - M..XmX).kXlXlXlXlXbXnXhXnX).eXiXbXbXDXzXzXbXzXbXnXnXpX^.eXjXM.S ~.Z Z n Z A {.Q.S S !.XXXXk.jX].).iX).).iXc.F.k. X}.- A n S Z S G.+Xb n n n Z B Z Z n b S S S S S S S S S S S S b b b S S n.A S S k.lXVX).M.- S S S b b n b n n n Z b b n b n C n n b b n n b n n b b b n b b b b b b b n n n b b v b b b b n v v v b v b b b V M b M V b b b n B B ` b b S n n b v v v v v V v v b v v v v ` b b b b b v ` b v b v b b b v v v b b ` ` v v v v v v ",
"Z A [ >.Z Z Z Z A A Z A S Z S Z Z Z Z Z Z Z A Z Z Z Z Z Z Z Z Z Z A Z Z C Z C Z C C C C C C C C C Z C Z C Z Z Z Z Z Z Z C Z Z Z C Z C Z Z Z Z Z Z Z C Z Z Z Z S S S S A A S A Z Z ] >.Z n Z Z Z Z Z Z G.S Z Z Z Z Z C Z C C B C Z Z C Z Z B Z Z Z Z Z A Z Z o.C Z C Z Z Z P.G.Z Z Z C C >.C C C Z Z Z Z Z >.[ Z A S [ [ Z A _ S Z S Z Y.[ S [.Z A ~.!.~.~.MXMX'.S S A S S k.'.~.S S A S G.b {.Z b b S S - ].].F.).].k.].XXA S S S S S S Z |.S ~.` S S A A ~.S A - }.S ~.MX`.k.1.).iXnXhXhXnXnXwXrXdXzXnXwXaXAXB.l.S.7XBXrXA.B.A.7XzXzXiX9XrX7X9XrX7XrXbX9XhX7XrXnXrXzXnXnXcXdXaXdXbXzXnX9XzXbXrX9XzXrXA.<XrXS.S.9X9X(.eXrXrX>X0XyXDXzX7XaXaXzXrX7XwXnXaXrXrXzXbXdXdXxXdXdXyXbXrX9X0XrXyXxXDXDXbXcXzXrXbXDXdXGXFXHXJXxXdXcXvXrXrXrXhXbXnXrX9XrX(.eXBXeXhXhXnXnXeXnXrX(.).).).].XXk.S - A S - S k.].OX].)..X.XoXOXM.k.- - oXk.].k.M.S }.~.M.k.M.`.].OXOXlXeXVXsXsXlXsX).hXhXBXBXBXzXhXhXeXbXsXsXsXeXhXeXlXlXlX).lXsXhXlXlXlXiXkXk.M.S +XS k.oXF.F.k.sX).lXlXlXlXhXnXhXbX9XhXnXwXhXbXzXnXnXnXbXzXnXzXhXiX/.M.- k.A A S Z A S S ~.S k.k.k.k.].).iXnX).)./.eXlXlXOXMXM.S S Z Z [ XXS S Z n Z >.n n b S S +X X].~.k.A S S - S S S - S S XX`.XX`. XF./.l.F.eXVXXXM.S S n n b b Z b Z Z S Z S b b M n n n n n n n n n n n b n b b v b b b n n n n b Z b b n b n b b b b n v b b V v n b b b b V b b Z Z b b b Z b Z v v v v v b n v b v v b v b b b ` b b b v b ` b b ` ` b b b b b v b b b ` ` b b ` b ",
"Z Z A Z Z Z A Z A Z A A A A S S A A Z Z S Z Z Z Z Z Z Z Z Z C Z Z S Z Z Z Z C Z Z Z Z Z Z C Z Z Z Z Z Z Z Z Z Z Z Z Z Z Z Z Z Z Z C B Z Z Z Z Z Z Z Z Z Z S S A ~.XX!.k.A S A S S S Z b Z Z Z A Z Z Z S S Z Z Z Z Z Z Z Z Z Z Z S S S S Z S S S A Z Z >.Z Z Z >.[ Z Z Z Z Z n Z Z Z >.[ Z Z [ Z Z Z Z Z Z Z [ Z Z A Z S A A G.G.S [ S S A [ A A S A S S M.+X- .XoXjX- ].M.F.oXoX].'.M.- |.~.A b S A A A ].jXOXkXkXD.F.).k.S S M.A A A S A n.- A S Q.A S {.MXS A S M.k.- - - M.M.F.hXhXzXrXrXzXnXzXcXrXcXbXzXcXcXl.S.B.1.B.9XS.9XrXzXbXwXA.S.7XzXwX7XzXrXwXrXrXrXrXnXDXzXDXrXrXDXdXbXHXbXzXwXcX<XdX1XAXdX9XaXwXrX9XrX9XrXrXzXzX9XHXbXbXrX7XS.zXaXrXrXrXzXzX7XrXdXzXdX9XyXcXxXxXdXvXyXdX0X9XbXBXcXcXdXxXdXfXDXHXGXAXDXFXGXcXFXbXzX7XaXrXaX7X9XA.9X9XzXhXhX9XS.9XsXzXrXS.iXiX).].].].S M.S jX- ].lXOXkXeXkX).OXOX).).OX].OXOXk.lXk.M.A M.k.k.k.].].).).).).9XsX9X(.eXsXNXeXsXzX9XzXzXaXbXbXsX).sXeXnXkXsXsX).sXhX).hX9XzX(.bXnXNXF.k.S S k.M.k.k.k.F.NXD.F.S.lXiX(.7XeX9XhX9XzXsXaXBXBXbXzXbXrXnXbXzXbXC.).jXoX- k.n.A S S S A S XX].F..XjX).).eX).F.iX/.eXlX(.).kX- S S S S !.MXS S S n S Q.b b n S M. X.X).).kXOX.X].~.].]. X.X].).].].].).).).hXhXzXhXkXmX X- S S S S n n >.>.Z A ` ~.S b v v V n b n n n n n n b n n b n b b v v b b b n n b b b n n b b b b b b b ` b b n n b b n b b b b b b b b b b n b b v b b b b b v b b ` b v b ` v b ` b b v v b b ` b {.S ` b b b b ` b b b b b ` ` ` ",
"A Z Z A A [ A Z Z Z Z A S Z A S S Z Z Z Z Z A Z Z Z Z Z G.G.Z Z A A A [ Z Z Z Z Z Z Z Z Z Z Z Z Z Z Z C Z Z Z Z Z Z Z Z W.[.b Z Z Z Z Z Z Z Z Z Z Z Z Z S S XX.X.X].].oX XM.S S A A Z b S A S A A Z A Z Z Z S [ U.A Z Z Z Z A S S {.n.S {.A S A S S S Z Z Z Z G.Z C [ Z A Z A S Z A S Z [ >.[.>.Z Z Z Z Z S S S S S A A A ~.+XA A ~.Q.A A ~.[ A A A A S S - k.k.k.mXlXjX).].jX.XM.].M.A - S - M.k.k.`..XOX].OX).).).).F.F.]. XMXOX.XOXF.`.`.].S k.M.A M.S S - - S - k.- ].S k.mXF.eXS.rXhXD.7XwXzXrXzXzXrXcXzXzXrXbXdXzX9XcXBXrXzXDXwX7XaX9XrXrXaXaXDXrXzXS.7XrXbXzXnXbXbXDX9XdXcXwXbXbXrXdXrXzXdX9XGXHXzXaXA.7X7XnXzXrXwXrXcXzXvXDXHXrXwX7XzXzXrXwXaXnXzXrXzXcXbXDXbXzXcXxXbXzXdXdXzXFXdX1XdXBXzXvXdX9XyXzXDXDXxXFXDXvXAXAX7XcXzX9X7XrX9X7X(.zXeX9XbXD.(.7X(.hX7X(.7XqXeXbX).OXOX- S ].OXlXlX).iX(.(.(.).).eXkXiXlXiXlXiXnX).OXoX- k.M.k.].OXOXlXlX).(.hX9XhXhXsXsX).eXhXzXaXcXDXBXnXaXnXnXkX9X(.9XbXnXsXeXeXkXhXhXhXnXsXhX).OX].k.k.F.].].lXlXlX(.eX(.rXbXhXzXhXnXeXA.hXhXnXBXnXnXBXDXrXnXaXzXzXwX7XhX).NXk.].M.k.M.k.k.k.lXlXlX).).).C.lXhX(.D.(.lX).F.D.eX).M.M.S S S S - S S S S S S S n Z - M.OX).(.S.)./.F.].].F.].lXF.).).).)./.).lX).hXzX9XzXbXF.- S S ` S b n b Z b >.Z S ` b b n V B b n b b b V b V n V n n V b n b b b b b n Z b b n b b n b b b b b b n b b b v b b b b b ` v b b b b b v b b b b b b v v b b b b b b b b ` b b ` b v b ` ` b b A G.b b b ` ` ` ` ` ` - - - ~._.'.",
"Z A A A S A A A A Z A A Z Z A +XW.Z Z A Z Z A Z Z Z A S Z Z Z A A A Z Z Z Z Z Z Z Z Z Z S Z Z Z Z Z Z Z Z Z Z Z Z Z Z Z S n A S S S Z S Z Z Z Z Z Z S A k..XOXOXeXhXlXsX).OX XM.k.S S A A A A A A A G.~.A A A A Z A A A S A A S S ~.k.~.]. X].~.}.M.S S A S Z H.>.Z Z Z S Z S A [ A [ A [ S S A S Z S !.~.A S ~.S A - S A n.M.k.S  X'.'.A A k.S A S '.k.k.k.].].).).sXlXlX).).).OXOXOXF.].S k.].M..X).).].].).).sX/.F.F./.lX].].).)./.NX).).].].].S - S k.k.].|.k.M.MXOXM.k.k./.(.S.A.A.7XS.B.9XzXbXbXDXGXzXzXAXbXHXHXwXzXbXdXzXzXrXrXBXnXnX7XrXzXnXbXzXzXbXzXaXzXBXzXrXbXzXrXcXdXwXzXzXdXrXdX9X0XAXGXzXbXnXzXrXaXzXzX7XrXzXzXbXDXbXcXvXwXwXzXrXnX9XzXnXzX7XwXnXbXbXDXDXrX9XzXzXcXvXyXvXrXzXGXdXzXzXzXdXdXdXfXbXxXvXFXAXFXvX9XrXrX7XrXnXzX9XwXrXsXeX9X(.C.(.hXsXrXrX^.7XnXqX).).].].].].).iXeXiXeXhX(.rXhXeXeXiXeX(.hXkXhXhXhXiXF.M.k.M.1.F..X).kXlXiX).).eXeXeXhXkXkXhXhXhXBXBXcXvXBXzXbXkXkXeXrXzXrXeXsXsXhXhXrXBXhXsXsXhX).).).kXiXkXjXnXlXhXzXhX9XnXwXnXrXzXnXzX7X7X7X(.sX(.D.nXBXBXrXzXBXaXrX0XnXzXBXhXlXkX.X).kXjX).jXnXiXeXhXhXeXeXsXhXNXnXeXbXlXeXhXeXiXlXk.`.S k.S A ~.~.M.S S S S Z S S F.).hXA.7XnXhXlXsXF./.lX(.(.F.eX(.).iX/.eXhXiXiXeXeXnXlXVXk.- k.S S S S S Z b b S S b n b b >.n b n b b b V b V V M V b b b n b b b b b n n b >.b b S b S b ` ` b ` b b b b b b b b b b b b b b b b b b b b v v b b b b b b b b b b ` W.b b S b b ` b b ` A A - - - S S b b S k.'.XXXXmXjX].].",
"A A A A A A A A A ~.A A S A A A S [ A S A Z Z Z A A Z A A A A S A A S A Z Z A S Z Z Z Z Z Z Z Z Z Z Z Z Z Z Z Z C Z Z Z A A S A A A A A A A Z Z [ A A M.].lX).iX(.7XeX(.eXsXOXiXOX).F.MX~.A [ [ Z S A A A S A A A A A A n.n.M.M.k.M.).)..X.X].jX.X'.S A A M.A A Z A Z A !.S S T.S A n.A A A A A M.!.n.k.jXXXk.`.M. XjXNXOXmXF.- OX].M.].M.k.|.M.jXk.k.OX].].lX].sXeX(.).eX(.(.eXeXeX(.).).].F.F.kXlXlX).lX).lXF.]./.).).).F.iX).).sXD.)./.)./.].].].F.].F.OXF.M.OX].OXM.S - F.).).D.hXC.(.zX(.zXbXzX7XrXbXnXbXzXbXHXzXbXzXcXwXdXbXHXzXnXnXcXrXDXBX9XbXaX9XrX7XrXrXaXrXaXrXA.bX9XdXzXzXzXrXcXbXdX0XcXzXHXbXnXzXnXzXrXaXrXaXbXdXwXAX9XvXzXdXbXrXzXrX7XwXrX7X9X9X9XwXwX9XbXwXcXbXbXzXvXzXcXvXxXdXdXzXzXcXzXdXdXdXxXvXxXDXvXxXdX0X<XwXzXrXrX9XrXrXrX9XhXeX(.eXeXnXeXS.zXhXA.S.(.(.).iXF.F.).(.(.hXiXwXzXrXrXqXhXrX(.hX(.hXhXeXhXzXeX).).).).)././.).).kXiXeXlXeXlXhXhXhXhXaXVXnXaXS.BXBXzXaXBXaXeXhXwXhXnXhXeXsX9XeXnXDXzX9XaXsX9XeXeXeXzXnXeXnXiXbXiXbXzXbXbXDXrXrXhX(.(.hX(.eX9XzXD.bXDXaXdX9XnXnXaXdXcXBXnXnXhXhXlX).eXlXnXiXhX9X^.zXnXeXhXhXhXsX7XnXhX(.(.eXeX).).).jXM.].F..XOX X Xk.MXk.- k.A k.).).(.wXrXrXbXhXeXlXlXlXeXC./.S./.(.(.iXiXzXzXzXDXiXnXeX).].].`.`.A S S S - S S S - S - b S n S n b n B b b Z B n B n b b n b v n b b b ` b n A ` S - S - - S A S S ` S b S S b b b b b b b b b ` ` b ` b b b ` ` b ` - ` - - - - - S ~.S ` - ` - S ` ` S A S S A S A M.~.!.~.].F.F.]./.F.F.F.",
"A A A A A A k.k.XXMX~.S A A A S A S A A A A Z A A Z A A A A A M.+XS A A S A Z Z Z Z A A Z Z Z Z A A Z Z Z Z C Z Z A A [ S A A M.M.k.k.k.A A A [ Z A S M.OXeX(.7XwXeXeXkXkXD.eXeXeX(.jXOXk.A [ [ A A S S A A A k.~.k.k.S S `. XoX)./.NX(./.lXlXlX).].k.S A S n.S A A A A S M.A S A k.!._.~.k.k.k.k.k.].MXk.F.].].kX/.)./.c.(.F.l.b.).sX).).jX].].OXF.F.)./.).).).).kXsXhXeXeX7XhX9X9X9XeX/.eXNX).(.(.(.iX)./.].]./.OXlXD.C.9X9X9XD.D.).S.).D.(.).].).].).]./.].).).).).k.F.k./.lX).(.S.F.S.eXeXrX7XA.9XrXrXrXS.rXbXBXzXbXzXdXrXzXrXrXGXcXaXrXrXzXaXzXzXrX9XrXrXrX7XrX7XaX7XwX9XaXA.9XdXaXdXcXbXbXdXvXDXzXrXaXaXaXwXrXzXbXzXaX7X7XxXvXyXdXdXwXbXrX9XrXwXbXrXzXzXcXrXzXzXzXzXbXbXcXbXzXzXzXaXdXdXaXzXcXcXzXdXxXdXfXdXZXvXdXdXvXvXcXzXaXwXrXrX9XrXrX7XhXsXD.F.F.hXeXkXhXsX(.hXrXrX7XS.hXnXeX(.rXrXrXrXrXzXl.9XeXA.eXbXrXeXsX7XeXrXrXhX).(.).(.(.F./.(.(.iXeX).).eXeXnXnX(.eXbXhXsXaXaXaXcXDXbXBXbXsXzXnXhXnXbXhXhXnXDXnXBXvXD.sXcX9XhXzX7XrXzXrXzXbXrX7XzXrXDXvXnXaX9XhXhXeXrXrXzX7XzXbXBXbXnXaX9XzXaXdXcXcXcXaXGXhX9XrXeXqXiXrXrX7X7X9XrXnXzXhXhXzXnXsX(.9XhXhXhX(.(.eXeXS.lX).F.).)./.F.NXlX/.].].iX).(.9X7XdXrXbXBXnXlXnXC.eXeXqX(.iXDXhXhXiXiXqXwXrX9XaX(.(.OX).].OX X`.M.- A - M.`.'.~._.~.A S S b b n b b Z Z S b b b b b b b n b S S S M.M.- - S ~.'.!.'.'.`._.{.- - S S - - S S S - - - - - - S A A A A S A A S A n.~.~.~.~.M.S A S - k.S S - S - S S M.~.M.k.M.M.M.].].F.F.F.].)./.F.C.F.F.",
"|.A S A A S ~. X}.'.k.~.S ~.!.A k.A k.A A A A A A A A A A A S !.+XS M.T.A A A [ A A A A A A A A A A A A A Z A A S A A A k.M.]..XjX.X].`.~.A A A A A k.F.].).sX7XsXS.(.sXaXhX9X(.nXiX(.OXM.S S S k.XX].M.k.k.k.F.MX).).F.k.VX).F.).(.eXD.D.(.).hX).).kX.X].`.k.k.M.M.A S M.+XXXM.M.].].].].k.k.k.k.k.k.k.F.)./.).lXF.D.S.S.c.F.hX(.S.).).).).).F.).kX/.).eX)./.lXsX).eX).hXeXiXrXrXeXrXbX(.(.nX).F.D.).sXD.).sX].F./././.D.).hXD.).sX(.9XD.sX).).sX).OX).].).).).).).).F.k.F.).F.).).F.S.B.S.rXhXeXqX9XsX7XeXrXS.7X9X9XwXdXdXcXaXaX9XaXzXBXzXrXaX7XzXzXrXrXD.9XrX7XA.S.S.rXnXB.9XA.bXrXdX9XcXGXHXzXbXHXbXdXzXrXdX9XrXaXdXbXdX<XA.Z.bX8X8XbX9XdXdXzXzXrXAXzXrXrXzXzXzXbXzXbXzXcXbXbXzXzXrXaX9XdXdXcXzXbXzXyXbXdXxXdXdXxXcXyXxXzXdXBX9X7X7XwX9X9XaXA.A.(.9X(.hX).kXsXD.D.9XrXrX7X(.9XhX(.C.S.B.7XwXbXzXnXrX9X(.rXD.eXsXsX(.bXsX9XBXrX7XaX7XhXhXeXqXS.D.S.(.eX(.lXeXhXbXzXzXnXnXeXbXcXBXvXcXzXbXcXsXhXnXhX9XhXhXaXzXBXdXzXcXDXvXcXBXbXnXDXzXzXbXnXzXzX7XbXbXzXDXdX9XnXqX9X9X7X9XrXrXzXaXzXBXbXnXbXzXhXnXbX9XnXbXbXsX9XnXhX(.eXeXhXbXrXrXrXzXhXzXzXrX9XqXiXhXbXbXhX(.(.sXnXdXcXaXF.S.iXiXiXrXVXbXnXlXlXlXeXnXBXhXbXrX7XhXD.).(.S.iXqXhX(.9XiXiXhXiXqXwXnXrXrXeX).).iXiX].].).).k.F.].).)..XOX`. X].S - S S b b b b ` S ` S S b b S S S S S S k.A S S - k.].OXM.].F.F.].OXk.M.].].M.k.M. X].M.].M.k.M.M.M.M.M.M.M.M.].].].OXOX X XOX].].].].].].M.k.M.M.k.k.F.M.].].oX].F.F.F.].F.F.).)././.D.(.C.(.F.",
"~.A A A k.`. XS A S A S M.k.k.k.k.k.k.k.k.k.A A A k.A A A A A M.oXk.k.M.A M.A A A A A A A A A A A A A A A A A A A S A A F.]..X].).).lX.X].- k.A A M.M.jX].).9XeXeX(.(.D.D.).(.9XzXwXeXiXkXk.k.k.M.jX).].kX).).).D./.).).hXkXeXS.(.9X9X(.F.sXeXS.(.iXlXlXlX].M.k.k.S M.k.k.M.].- ].OX].F.F.].F.k.M.M.F.M.F.).)././.).lXkXF.9X).(.eXsXS.).(.lX).).).(.).D.).eXlXiXlX).eXsX(.hXhXeXeXhXeXqXeXeXeXF.F.D.D.).).).D.F.D.D.).).D.D.sXS.).cX(.sXsXsXeX).D.).).).sX/.).).(.(.eX(.(.).(.).D.F.D.S.(.rX(.9XhXrX(.eXhXeXeX9X9XrXrXnXHXrXzXaXaXzXrXzXrXHXcXaXaX7XrXaXS.bX9X7XzXrXbXHXDXzX<X7X7XdXcXrXcXdXvXDXbXcXHXzXrXdXzXzX8X9XzX7XrXcXrXA.Z.HXvX9X9XxXnXrXzXvXcXrXdXbXzX9XaXaXaXzXrXDXDXvXcX9XDXdXrXdXdXcXrXzXrXzXdXdXvXdXvX0XdXxXdXyXrXdXrX7XS.S.7XzXB.7XeXeXeXS.eXhXnXsX).F.sX(.eXeX(.D.S.(.eXhX7X7XS.7XzXBXnXhX9X9XbXnXsX9X(.aXS.aXhXsXaXrX9XrX9XA.eXS.A.D.S.(.eXeXlXC.7XrXaXzXzXl.7XsXzXzXcXzXnXdXcXBXbXsXaXsXaX9XbXcXbXcXdXdXbXxXxXcXzXcXbXzXbXbXbXzXzXzXsXBXcXaXbX9XD.zXrX7X9XwX9XA.7X7XrX9X7XzXzXzXqXzXnX9XrXbXvXrXhXrXnXhX(.eXeXsXzXhXwXrXrXrXzXrX8X5XzXbXDXbXhXsXrX<XBXbXzXsX(.zXvXpXnXzXbXbXzXiXhXlXhXeXhXhXzXA.(.(.).).)./.7XeX7X9XiXbXiXC.7X9XrXrXaXrXeXhXD.).sXD.(.).).eXiXhX).)./.).].].jXk.S S k.~.~.M.k.M.M.k.A S S S M.~.M.M.k.]..XOX.X].OX/./.).).(./.(.).).OXlX).).OXlXlX).OX).).].).F.M.M.F.F.k.M.k.M.F.k.F.F.F././.F.F.].).).OX).).OX]./.).F.F././.F.c.F./.iX/./.).F./.).F.F.D.S.D.(.",
"k.S k.`.oX].S A A A A A k.M.k.M.jX.XF.].F.k.A S M.k.M.S A k.S k.mXOXk.k.k.k.k.k.k.S n.n.A A M.A A A A A A A S k.k.k.M.M.].).)./.).lXlXlX).M.k.S k.M.S OX).(.(.D.D.sXD.).).).).sX(.(.(.nXlX).F.F.).bX).(.(.).).sX).(.S.(.rXS.9XD.S.(.(.).).hXD.eXqXnXnXeXkX/.).F.F.k.].M.k.k.].].F.F.F.F.VX).F.F.F.F.).k.).).).)./.).eXF.F.F./.).eX).).(.).(.D.(.lX).F.).iXlXeXeXeXhX(.9XhX(.9XeXeXsXhXD.).(.).).S.S.NX).(.kX).).D.D.).).).).).).).).).).lX).).).sX).sX).).).D.9XeXsX(.(.(.D.D.9XD.D.aX(.rXzX7XeX9XeXA.(.).sXD.9X9X7XeXsXrXzXaXnXzXzXdX9XBXzXDXBXrXrXaXaXrX7X9X7XrXrXvXGXzXrX9X>XrXzXzXzXzXzXbXbXDXcXcXzXdXwXzXaX9X9XzXA.9XcX<XwXyXAXbXdX>XcXcX0XcXvXvXdXdXdXdX9XdXzXrXaXzXDXcXcXbXwXbX9XdXrX9XdXrXrXxXxXbXdXdXfXdXyXxXvXrXdXzXwXD.rX7XS.(.7X(.A.rX7XsX9X(.9XhXeXsXD.D.S.(.(.D.9XsXeXsXDXzXBX9XS.rXnXnXnXzX7XrXzXaX9XbXzXrX7X9XnXaXdXrX7XzXhXrX9XrXrXS.7XzXS.C.eX7X7XrXrXBXrXzXaXBXcXnXnXBXbXbXbXBXsXcXsXaXBXcXcXbXdXzXxXdXzXDXvXBXBXvXcXnXDXbXbXnXrXbXnXzXaX8XaXaXwXzXrXD.rXrXD.rXrXrXaXrXbXnX7X(.iXBXzXzXwXwXrXrXrXhXbXrXeXhXnXhXhXzXaXzXaXzXyX5XzXFXFXbXnXnXvXdXaXzXzXnXnXrX7X5XvXiXhXeXrXeXqXeX(.(.(.hXhXzXwXeX)./.).(.iXiXeXzXzXhXzXhXiXhXrX7XrXnXaX9XnXeXeXeX9X).eXeX).).eXmX).).(./.).].OXF.].jXjX)..XlXlXOX).].F.F.].].OX).).mX).).).lXF./.).).).eXhXeX(.hX).eX).eX).eX).).hXlX).lXnXsX/.).).F./.F.F.F.F.F././.F.c.F.F.F.C././.(.).D.).).(.).eX).S.S.D.(.eXeXhX).F.l.b.l.F.).F.(.D.).D.D.",
"k.k.lXk.k.k.`.~.A S k.S k.lXNXF.].kX).].].].].M.jXOXjXM.S k.F.F.F.lXNXF.k.F.F.].k.]. XM.A k.A k.A n.A A k.k.MXS k.OXOX].).).D.).rXrX).NX/.c.F.M.- 1.)./.hX(.C.7XlX).).(.).).).hXsXeX9XVXnXS.F./.).(.S.D.(.D.F.(.eXD.sXD.(.9XS.S.(.).).S.hX(.(.aX7XA.eXeXsXF.l.OXjX].F.F.F.F.F.k.F.c.F.lXD.sXsXlXF./.).F.).).).(.F.(.).).c.).hXF.lX(.^.lX/.(.).D.F.S.hXsX).).eX).(.DXeX(.nXnXnXeXnXhXsX(.(.).).).S.S.nXeXD.kX).sXsX).).).).).).).OX).).).).sXsX).lXsX).).(.(.(.D.nXhXhXhX7XeX(.9XsXS.9XaXnXzXbXhXS.(.(.nXeX(.eXsX9XsX9X9XzXdXrXaX9XdX9XaXrXbXnXrXrX7XrXrXbXzXaXzXrXbXbXzXwXrXrX7XzXdXdX9XzXzXdXcXdXdXdXzXzXzXzXdXrXrXdXzXbXbXzXdXcXvXrXdXyX8XzXcXbXxXzXxXdXrXbXdXdXrXrX9XdXdXzXcXcXdXzX9XcXdXdXzXdX9XrXDXGXxXbXdX0XxXvXxXzXrXzXS.7XwX(.7XD.7X9XzX(.7X(.eXeXsX(.9XD.sXaX9XS.7X7X7XD.D.zXnXbXVXBXaX7XbXrXbXrXzXzX9XaXzXcXzXdXnX9XD.B.S.9XzXzXzXbXD.7XaXaXcXBXnX7XrXhXwXbXbXDXnXaXzX9X9XzXzXBXDXnXvXvXcXbXVXHXcXvXvXzXvXz.zXHXbXHXvXDXdXaXdXzXaXzXbXzXbXcXDXDXBXD.dXvXzXcXD.aXrXaXbXzX9XhXrX7XnXS.eXiXbXnX9XrXxXDXyX7X7XbXbXS.rXrX7X9XhXzXnXbXbXzXzX<XvXGXDXzXxXDXbXcXvXHXbXnXzXbXBXbXpXzXzXnXhXzXzXiX7X9XsXhXnXwX7X7XrXeXhXiXeXqXpXzX9XA.rX9XrX7X7XrX7XwXaXD.eX9XrXaXrX(.eXeXeX).).sXS.S.sX).eX).).).).).iXlXhX).lXeXlXbXbXiX).)./.).NXhXeX(.lX).lXeXeXhXeX9XeXqX9X).sXsXsXsXeX).(.eXrX9XeXeXeX(.9XiX(.(.).).).iX).).).).D.F.D.).(.(.(.(.qXeX7XrXeXeXrX(.eXeXrXhX9XhXhXeXeX(.(.C.D.).D.D.F.lX).).(.",
"1.NX).l.k.k.k.`.`.S S k.OX).iXhX).hX).)./.]./.OX).OXF.lXk.c.c.b.B.(.).kXNX).lXsXsX).OXjX].k.k.k.k.A k.A k.k.].VXkX).).).(.).eX).).9XeXeXD.F.F.D.kXnXkXlX(.9XS.(.(.).S.eXeXD.hXzXnXrXaXnXnXF.B.S.).).(.).).).).F.F.S.S.F.NXF.sX(.(.(.F.A./.9XrXeXnXD.D.F.sXkX).).eXF./.F.F.F.F.).F.kXNXlX(.S.hX).F.F.l.D.).(.(.F.eX/.F.F.F./.iXkXiXlXF.).).(.D.(.sXD.hX).(.eXkX9X(.S.zXaXrXGX9X7XzXaXsX9XD.(.(.).eX(.7X9X9XhXeX).mX).D.).(.).).lX).sX).sXmXhXsXVXhXlXsXsXeX9X(.(.9XDXaXbXBXzXeXnXcXaXDXDXbXrXzXbXnX).).S.hXsX).sXsXeXeXhXzXaXbXhXrXnXzXzXzXbXrXrXrX9X9XnXzXbXnXzXdXzXzXcXrXrXdXzXzXDXbXdXdXbXzXzXrX9XrX<XdXrXzXdXvXdXrXzXzXDXzXbXA.9XvXAX0X<XDXDXbXxXxXAXdX0XdXrXrXaXzX<X8XyXyXxXdXdXzXrXnXdXnXcXcXrXxXDXAXzXGXvXvXxXdX0XDXDXrX7XA.9X7XA.S.A.7XwXwXeX9X7X(.eXA.7XrXB.bX9XrXbXnXrX9XdXrXnXzXBXaX<X7X7XrX7XrXaXdXaXzXzXaX<XrXA.9XrX7XeXrXzXrXrXnXzXaXHXaXrX9XS.A.7X9X7X7XHXA.bXBXaXhXnXdX9XaXBXDXcXbXHXvXHXGXHXHXxX9XBXrXS.9XBXBXDXDXvX9XaXaXnXbXcXHXHXbXbXDXcX8XvXaXcXvXHXGXbXrXrXwXzXbX9XrX7XnXqXhXzX9XrX9XzXzXrXcXbXnXzXzXHXdXcXDX9X9X7XaX9XvXcXcXdXDXDXDXFXFXDXgXHXGXcXdXaXGXGXbXAXHXdXaXaXcXzXcXdXzXBXhXnXrXzXrX7XsX(.hXS.iXyXrXzXzXbXzXbXzXnXzXwXaX7XrX7XzXrXwXeXiX(.eXeXeX).(.S.nXsXsXeX).lX).).).(.D.eX(.(.(.hX(.F.D.F.F.D.D.F.(.kXeX).(.F.S.(.(./.(.(.(.(.C.D.(.(.eXeX7X7X7XwXeX7XwXiXzXhXhXC.F.(.eX).(.).(.).eXeX).(.).).S.eXqXS.(.hXnX9XeXeXkXeXeXnXeXhXeX(.).eXlXeX).C./.).lXF.F.(.(.).",
"lXkXc.k.l.k.k.k.k.k.F.c.).F.S.D.eXeXD.F.).F./.).).).(.D.).bXiX(.wXbXbXhXhXD.nXeXkXhXeXsXkXmXOXF.M.M.].].OXjX).).).eX(.eX(.D.(.eXeX).(.D.(.D.F.sXsXeXnXaXzXrXbXrXS.(.(.A.7XrXwXHXGXS.7XzX(.B.S.F.eX).eXF.D.(.D.F.F.).).hXF./.D.F./.).(.(./.(.eX(.9XC.F.l.D.eXhX).eX).kXD.D.F.l.F.kXF.S.hXD.).S.F.c.F.c.c.).D./.D.F.).D.)./.).iXeX).eX(.(.).(.eXeXD.(.).eXcXhX(.9XsXBX7XzXDXaXrXaXzXBXBXD.9X(.(.hX9X(.zX9XeX9X9XhXsXeX(.).(.eX(.eX(.eX).9XsXnXsXhXeXhXsX(.).).).sXhXnXnXbXhXnXvXDXBXDXbXbXDX9XaX9X9XhXeXS.F.).hX).eXsXeXsXnXsXzXnXaXwXzXzXaXzXzXaX7XbX7XaXaXzXrXaX9XcXdXzXrXdX9XcX9X7XdXzXrXdXdXdXdXrXrX9XdXcXzXdXzXbX9XbXbXbXdXdXdXrXvXAXdXbXFXFXDXbXxXyXxXHXzX0X9XdX0XcXxX0X0X0X9X9XzXdXrXrXzXbXdXzXdXGXyXzXfXDXdX0XyXyXaXwX7XrXrX7X7X(.7XS.9XzXrX9XzXsXsXsXeXhXbXGXrXbXbXDXzX9XcXGXzXbXzXzX<X9X7XbXDXzXrXdXzXdXaXcXDX9XxX9XDXDX7XeXrXeXhX7X7XzXvXcXvXaX8X9X<Xz.7X7XS.aXD.D.zXhXzXnXaXdXzXaXzXaXaXHXHXbXxXvXbXDXdXaXGXzX9XS.9XnXnXaXaXaXnXrXzXcXvXDXDXDXHXcXdXbXHXcXBXGXzXDXzXbXA.nXiXbXrXqXeXiXeXeXzXnX9X9X8XcXcXHXcXdXzXHXyX0XdX0XdXdXzXvXVXzXdXvXvXbXZXZXFXvXHXHXvXdXbXbXGXHXZXFXxXdXcXdXdXxXdXdXbXBXzXaXwXrXdXrXeXnXeXzXzXyXrXzXbXnXzXzXzXbXbXrXwXzXHXzX9X9XrXeXiXeXeXiX).).).).sX).hXhXiX(.eXD.).S.(.).hXhXeX(.eXeXD.S.).S.F.S.F.F.C.S.(.).)./.S.eXiX(.(.eXeX(.D.D.9X(.9XaXrXwXwXwXiXeXrXiXhX9X(.9XC.9XeX(.eX).eXeXeXeX).).)./.F.C.qXqXeXqX(.eX).eXeXsXhXeXmX).eXsXhXlXlXlXiXlX).F.F.(./.).",
"hXeXeX).).kXiXlX).F.F.F.D.(.).).eXsXD.).).).(.(.).(.7XS.B.rX(.wXwXrXzX7X(.D.(.S.eXD.eXBXhXD.).).].].).F.lX).F.).D.D.9X9XD.(.7XeXeX9XD.(.D.S.<X9XBXnXdXbX9XzXzXzXA.zXrX7XrX9XzXnXzX9XGX9X9XD.S.S.(.(.F.HXD.C.sXF.F.(.eX).(.F.F.C.(.eX(.eXBX(.(.D.D.(.D.F.).).sX).F.S.).hX(.F.(.).(.eXeXsXhXeXF.S.F.c.F.).(.).F.F.S.S.(.F.).kX).D.D.D.eXeX(.D.).).D.(.(.hXhX7X(.eXsXsXcXsXcXaXdXcXdXHXDX<X9X<X8X7XhXzXhX9XzXeXkX9XhXsXsX(.(.eX9XrXBXsXsXsX9XaXBXnXeXkXlXsXlX).hX).S.sXzXzXbXaXrXcXvXbXxXDXaXDXrX9XrXeX9XhX9X9XsXsXsXsXrXrXhXzXrXzXzXzXrXwXrXzXrXrXrXnX9X9XwX7XaXrXbXbXzXzX9XvXbXAXcX9XzXA.7XrXdXwXzXrXzX7XzXzXDXcXbXxXrXzXdXdXyXyXzXrXzXAX0XvXFXFXGXvXdXdXAXDXdXdX0XyXdXbXxXdX<X8XdXdXzXzXzXzXdXnXzXxXdXyXxXDXfXdXdX0XrXdXzXwXbX(.9X(.D.7X(.S.A.aX(.A.rXzXnXrXrXbXHXGXdXyXbXdX9XaXyXdXzX1XbXD.rX7X7XbXcXdXwXcXcXAXHXHXAXdXdXDXZX9XaXaXbX9XrXwXzXBXbXvXHXxXdXdXrXrX7X9XA.A.S.rXrX7X(.7XrX9X9XaXzXDXcXDXvXxXZXDXdXcXdXcXHXGXBXsXsXrXaXnXdXaXaXbXdXxXbXHXcXxXdXdXrXHXHXbXGXHXdXcXcXnXDXzX7XwXrXhXHX9XeXkXbXaX8XdXaXaXbXbXzXcXcXDXxXGXGXxXdXdXGXHXcXbXzXaXdXxXHXDXfXHXAXHXFXAXAXxXHXAXAXFXyXbXBXvXvXAXcXbXBXBXbXdXzXrX9XzXzXaXzXaXrXrXzXrXzXzXDXbXcXvXbXzXzXrXzXzXwXzXrX7XqXzXnXeXeXnXeXeXhXeXeXhXhX(.lXeX).eXlX).(.lXeXhXhXsX).(.(.sXeX9X(.(.D.(.eX).).).(.).(.(.).eXsX).D.).D.(.(.).eX).eX(.eXeXhXrXsXhXD.9X9X(.D.eXeX9X9X9XeXsXsXeX).lXlXqX(.(.eXeXeXhXnXeX(.eX).sXeX).eXlXhXeXeXqXlXeX).).(././.qX",
"rX9X9XF.eX).hXlXeXhXzXB.C.B.(.eXaXD.).D.(.D.S.D.eXC.C.(.rXwX7X7XrX9X7X7X7XeXeX9X<XzXaXS.zX(.(.).(.(.D.).kX).(.S.D.D.D.9XhXD.(.rXsX9X9XD.F.S.aXdXDXbXrXzXcXdXcXzXzXbXzXwX7XwXzXrX9XBX9XA.7XS.D.D.(.(.S.(.C.S.sXC.F.).eX(.S.S.(.eXS.eX(.nXhXeXD.eX(.F.S.(.F.S.(.D.(.F.eXeXS.F.F.F.c.bX(.eXeXeXD.(.D.F./.F.l.VXC.C.C.F.F.bXhXnX(.C.(.).).eX).).(.eX9XsX9XeXhX9XaXnXsXsX(.9XaXaXcXxXdXaXaX9XzXvXdX<XHXrX7X9XrX9X9XNXsXsXsXsXeXeX9XrXhXeXaXzXzXD.9XnXnXhXhXsX).(.hXeX(.hXsXsXhXeXzXBXdXZXbXdXcXdXaXaXeXeXsX9XsXsX(.eXsXsXnXzXrXbXzXzXbXzXzXzXrXzXhXwXaXzXwX7XrX9XD.aXdXyXdXzXzXrX9XdXzXzX9XwXzXzXzXzXrXzXnXdX9XdXDXHXHX9XxXzXdXyXdXyXzXcX0XxXAXxXfXZXZXdXdXDXbX0XdXvXdXdXvXxXbXxX<X>XdXxXrXrXnXdXzXcXbXzXdXdXZXvX0XxX0XdX9XzXrXcXrXD.D.(.7X9X7XD.S.7X(.D.7XzXhXzXzXvXbXzXxXbXbXdXrX9X0XdXcXFXDXvXzX9XnXzXbXrXcXcXdXcXGXHX9XdXDXGXdXzXaXrXbXaXwXrXaXzXcXHXDXxX0XaXdXcXzX7XS.A.9XwXaX7X7XA.A.rX9XA.(.cXvXBXbXDXbXDXDX9X<X9XzXBXHXDXdXbXcXrX9XrXbXbXdXbXZXbXbXxXdX0XrXcXzXDXaXaXcXaXDXBXrX7XzXrXrX9XrXrXbXHXnXzX9XcXbXBXzX9XnXBXzXHXAXxXGXZXDX0XDXvXvXcXaXDXBXvXbXZXDXZXxXvXDXAXZXxXZXbXAXDXFXDXdXvXAXDXzXDXcXcXzXrXzXrXaXzXhXhXhXrXzXrXrXzXzXdXbXDXAXvXrXzXDXrXwXrXzX7X9XzXnXzXzX(.zXhXbX9XhX9XsXhXiXeXhXhXeXeX(.(.eXsXeXkXeX).hXeX(.sXeXA.eXsX).F.(.).).)./.(.(.(.(.eX(.).).eX).).(.D.).(.).eX).(.).eXeX9XD.(.9X(.9XD.(.eXeXeXsXhXsXeXeXiXiXeXeXeXrX9XrXsXsXeXeXsXsXeXeXeXeXeXqXqXeX(.).eXeXeX9X(.(.C.",
"zXrXaXF.F.(.nXhXhX9XnX7XwXS.(.7XaXeXD.).(.).(.C.F.S.eXB.B.A.D.9XbXaX9X(.D.9X(.(.(.nXrX7XzXhXeX(.(.(.S.sXeXD.D.D.D.).D.(.eXeX(.nXrXhXzXzXaXzXaXbXxXbXdXvXxXAXxXDX0XaXdXdXrXzXhX9XaXzXbX(.D.(.(.9XeXC.S.D.S.F.S.(.hXS.9XaX(.(.nX).9XeXeXeXD.eX).).D.(.(.D.(.eX(.(.F.).sXl.F.F.l.F.F.(.hX(.hX(.eXS.F.F./.).).eXlX(.(.sXhXeXeXrX9XeXeX).(.eX(.eXeX(.9XeXrXsXrXsXDXBX7XsXrXzX7X7X9XdXnXGXzXDXhX(.nXrX9XaX9XeX9XzXhXsXsXsX).eX).sXeXhXaXsXhXhXhXaXzXsXnXhXnXhX).eX9XeXeX).hX9X(.9X9XcXcXxXxX0XxXcX9X9XrX9X7XzXzXhXhX9X7XnXzXhXzXzXzXbXzXiXzXzXzXrXzXzXzXrXwXaX7XrX7XrXcXdXdX9X9X9XwX9XrXbX<X<XA.wXrXrX9XcXBXnXzX0XDXHXHXbXzXvXxXyXvXzXzXdXrXcXxX<X0XyXdXfXdXdXfXdXDXbXDXGXxXDXdX:XdXHX0X0X<X<XrXrXcXBXvXdXdX0XAXAXxX0XxXdXzX9XzXzXS.A.(.A.A.A.7XA.S.7XB.S.7XnX9XzXnXrX9XcXcX0XaXdXdXvXbXHXbXvXaXdXvXcXdXvXdX9X9X0XBXbXdXBXaXvXGXxX1XdXzXrXrXzX7XrXrX9XDXfXbXdX<XDXHXzXaXnX7X9XwXrXrX9X7XwX(.hXsX9XhXbXcXcXbXBXcXBXHX9X9XdXDXGXHXHXHXBXaXzXcXHXBXHXbXHXbXdXAXHXvXrXrXzXvXbXcXdXzXdX9XrXwXzXBXbXzXzXbXrX9XrXaXzXDXzXvXzXrX9XrXzXzXdXrXvXGXxXxXbXbXrXrXwXBXDXBXnXbXbXzXzXcXbXAXxXdXxXvXbXDXbXDXDXaXdXnXzX9XbXbXbXzXrXiXhXhXrXrXzXhXhXzXrXzXbXnXnXnXdXaXzXzXrXrXaX7X9XeX7XD.kXhXsXqXzXnXzXzXrXD.9XsXeXeXsXhXeXhXhXnX(.sX).sXcXhXaXhXeX).eX9X(.).eX).9X).).).).).(.(.9X(.(.).).9X(.(.(.(.S.F.D.(.).(.eXeX9XeXeX9XeXeX(.9XsXhXnXzXaXzXzXrXrX9XeXhXrXhXzXzXaXrXzXsXeXeX(.hXsXsXhXeXrXqX9XrX7XeXeX(.eX(.A.A.S.",
"zXhX9XbXc.7XD.9X9XeX9X(.9X7X7XzX7X7XhX9X(.(.A.eX(.(.S.(.(.(.(.eXbXsXeX).).S.9X(.(.hX(.B.hXnX9XF.7XS.D.bXsXD.F.eXsX).eXeX9XD.hXnXbXDXAXdXHXcXHXHXFXDXDXvXdXbXZXxX1X0XdXdXbXrXsX9XBXbX9XD.S.D.D.kXD.eXS.(.F.F.D.S.S.).aXsXS.sX(.D.9XhXnXeXD.sX).lX(.S.(.eX(.(.eX).S.S.sXhXF.F.F.(.(.eX7XnX9XrX(.(.(.).D.D.F.(.l.(.9X9X(.9XnXsX9XS.(.(.).eX(.eXhX(.9XsXnXnXnXzXrX9XzXhXaX9X7XzXHXwXzXnXVXhXeXhX(.eXrXaXsXeX7XnXeXhXeXsXsXeXaXhXsXaXsXsXhXaXaXsXsX9X9XnX9XeXeXeX(.(.D.).hXhXsXsX9XaXdXvXDXvXdXdXcXdXwXaXzXD.zXaXzXzXzXzXzXnXcXrXzXdXzXzXzXhXrXzXnXiXrXrXaXzXwXrXzXwXzXzXrX0XrXcXzXcX9X<XzX7XrXzXwX9XaXBXdXaXdXaXbXDXHXGXdXdXdXxXdXcX7XzXAXcX8XrXyX8X8XyXdXdXbXdXdXvXGXGXZXHXxXDXxXGXDX9XrX9XD.rXbXBXdXxXdXzX9XDXHXDXyXdXzXzX7XzXD.D.(.7XS.S.A.wXS.S.7XrX9XnXrXaXrXrXaXaXcXdXdXzXzXzXdXBXbXDXDXDXbXDXBXaXzXcXaXaXcXcXdXcXaXHXGX0X0XdXaXvXnXDXB.wXzX9XdXyX0XfXBXdXbXbXzX9X<XbX7XBX9XA.7X7XrXnXrX7XwXVXbXVXcXcXDXbXcXnXcXcXcXbXDXDXcXDXcXnXcXHXvXbXHXHXBXbXbXGXHXcX<XcXBXcXHXDXzXrXaXrXrX9X9XrXrXaX7X9XwXhXzXyXbXvXzXbXrXzXrXzXdX9XdXdX9X9XzXcXbXA.zXzXrXzXbXbXzXzXnXbXDXbXcX0X0XxXdXzXzXbXdXvX9XdXzXhX9XcXbXzXzXhXrXzXhXzXhXhXhXhXhXhXnXVXbXzXzXaXaXrXrXwXeX9XeXS.eXeX).D.(.7XhXnXhXbXrXA.eX9XeX).eXeX(.rXsXnXsX9XsXNXeXaXhXkXhXaXsXsX9XnXnX).(.sX).D.).).).(.9X(.(.sX9XeX(.eXhXnXeX9XD.S.S.(.D.D.(.9XeXeXeXrXD.rXsXeXeXzXaXrXnXzXrXrXiXeXhXhXzXzXzXaXzXaX9X9XaXsXnXsXsXhXrXzXrXeXrXrXeXeX7X9XeXA.S.z.",
"iXrXeXeX9XhXD.(.C.hXeX(.A.B.rXBXaXbX7X7X9X7XwXhXnX(.rXS.S.S.9XD.rXhXhXD.eX9X).).eX9X(.9XA.7XaXaXA.8XaXzX9XD.9XsX9X9XA.9XwX7XbXzXDXGXDXAXFXDXDXJXDXZXfXxXZXZXZXfXZX0XdXdXnXbXaX9XbXDX7XhX9X7X7XsX).eX(.S.C.D.sX(.F.eX(.eXD.D.9XeXeXkX).).9X(.nX9XD.D.9XzXiX(.nX7XeXD.hXhXA.D.sX(.S.zXrXaXrX7XzXF.eXD.(.F.9XC.7X(.hXzXrX9XnXBXaX(.A.D.(.eX).eX(.(.nXnXzXbXrXzXzXrXhXrX9X7XrXdXdX9X9XcX9XrXrXrXrXaXhXnXBXzXzXeXaXhXeX9XhXrXeXeXhXeXhXkXsXBXDXnXdXaXhXnXhXbX9X(.zXD.(.VXNXcX).D.sXDXGXJXGXvXxXcXdX0XbXbXdXdXdX9XdXcXHXcXzXBXbXdXcXyXxXcXdXdXaXzXrXzX7XaXaXzXwXrX<XzX9XrX0XrXHXJXAXDXxX9XzXrX9XdXrX9XzXBXbXzXzXdXxXAXxXbXdXdX0XdXdXdX9XbXxXdXHXdXcXbX9XcXdXzXdXxXDXGXGXFXGXHXyXAXbXcXyXzXrXaX<X7XHXzXdXzXyX0XzXrXrX9XrXDXGXdXrX9X7X7XS.(.7X(.7XA.7XA.B.9X9XeXaXrXrXrXdXaXaXaXrXaXaXaXaXBXHXvXGXGXbXHXvXdXdXcXdXcXcXaXdXaX9X9XdXbX0XaXnXzXaXbXzXbXzXcX9XxX0X0XxXFXdXvXBXaX9XcXHXDXDXbX7XS.A.7XbXzXhXrXHXDXHXDXHXBXnXvXzXDXxXcXbXvXbXGXxXvXDXbXAXxXDXGXbXDXHXHXBXaX8XaXdXzXzXaXrX7XrXnXzXbXnXGXzXrXwXrX7X9XrXzXzXzXbXbXzX7XrX7XzXzXzXaXaXzXaX8X9XzXzXzXbXzXzXnXaXzXnXDXGXGXDXdX0XcXxXcXdXzX7XnXbXnXnXzXnXcXcXzXaXhXhXaXzXhXrXzXhXhXzXzXnXbXzXnXrXrXrXrXhX9XrX9X7X7XA.7X(.(.A.qXhXhXzXzXhX7XhXrXhXeXeX(.eXeXrXeXsX9XsX9XhXHXhXVXaXrXrX9XeXeX).eX(.(.9XsXD.9X).(.).).sXhXsXeX(.).9XeXeXeX9X9X(.S.D.D.D.(.(.eXsXsX9X9X9XbXnXzXzXhXnXnXhXrXaXhXzXzXzXzXzXzXzXzX9XeXeXhXeXhXhXzX9X9X7X7XeX9X9X(.hXeXeXwXrX7X",
"eX(.hX(.(.rXrXS.eX).eXS.hXA.eXzX9XzX7XaX7XD.rXhXnXeXhXeX9X9XhX9XrXwX9X(.9X(.(.).eXeX7XS.D.rXrXzXbXrXrXaXcXaXsXrX9XhXhXrXA.dXbXHXGXFXbXGXZXDXGXZXZXFXZXFXGXAXGXvXZXdXxXcXdXzXrX9X7XS.zXBXbXwX9XnX9X).S.(.A.nXeXS.eX(.D.).sX9X(.9XhX(.S.D.A.9XeX(.sXsX7XA.BX9XnXDX7X<XhXrXhX9XzXaXzXBXxXBXGXcXbX7XD.(.A.eXS.nXbXbXGXrXwX7XbXzX9XrXrXD.eXhXeX(.(.zXBXnXdXHX7X7XrXbXhXhXaXrXbXBXzXcXzXdXzX9XnX9XrXwX9XzXzXhXnXhXsXnXhXhXrXnXrXD.sXhXnXnXsXbXBXBXzXwX(.bXhXeXbXeXD.aXHXzXVX9X9XhXcXDXHXHXFXvX0XyX0XxXbXxXxXrXyXzXvXDXGXvXHXDXxXbXvXyXzXxXzXdXrXaXrXzXrXaXrXzXwXaXwXdXdXvXzX8X8XdXAXAXbXzXvXzXrXrXA.A.vXbXcXdXzXzXDXDXvXdXvXbXxXbXyXdXfXdXcXHXGXbXzXzXdXrXrXaXxXbXBXHXFXfXxXdXdXdXrXyXzXzXrXaX9X<XrXaXcXdX0X0X8XrXrX9XrXbXzXzXrXrX7X7XrXaX7XA.B.(.7X(.B.A.A.B.9XeXaXeXsX9X9XzXaXaXnXaXzX9XcXDXbXGXGXDXcXzXdXdXaXzXnXdXsX9XdXaXxXvXfXdXaXdXnXbXrXrXaXzXcXdX0X9XJXFXxX0XdXaX9X9XcX9XDXGX7XrXwXA.9X7XA.aXD.S.8XzXBXDXvX8XzXcXxXxXcXvXHXAXGXGXHXGXdXHXDXvXvXvXBXbXnXD.dXaXaXhX9X7X7XzXzXwXzXaXbXzXrXaX7X9X7XrXrXhXrXzXbXbXDX7X9XnXzXzX7XbXzXrXdXdXaXaXaXbXzXnXbXnXnXzXzXzXvXGXDXbXcXcXzXdXrXdXaXaXaXzXhXzXzXzXdXzXhXaXrXaXrXzXhXhXrXrXzXzXbXnXaXaXaXrXrXrXaXrXrXrX9X7X(.(.qX(.eXA.iXhXhXzX9XhXnXnXeXkXsXD.hXhXhXzXeXzXeXhX(.sXsXhXrXaX9XsXbX9XBX9X(.eX9XbXsXeX).eX(.).(.eX9X9X).sXeXeXeXeX9XeXeX9X).(.).eXhXD.S.D.rXzXzXbXzXnXaXzXzXhXzXrXzXzXhXzXzXzXhXrXhXrXeXeX7XrXhXhX9XA.(.hXnXrX9XrXqX(.eXeXrXzXaX9X",
"bX7X^.rX7XS.(.F.qXhXiXeX(.9XrX9XdXrXcXrXrXzXrXrX9XrX7XzXD.rXrXzXzXrXD.S.(.9XeXeXsX7X9XrXA.zXdXdXvXdXcX8XaXdXzX9XaXzXzXzXS.DXDXDXHXZXDXHXZXGXHXJXHXHXHXGXZXFXZXvXvXvXFXDXcXaXaXzXzXwXwXrXbXzXhXzXhXD.9XD.S.zX9XF.(.(.D.eX(.D.eXeXc.D.9X(.7X(.9XBX7X9XS.9X(.bXzXbX9XwX7XzXnXHXaXcXDXbXdXbXHXbXbXBXhX7X9XeXrXwXhXhXS.zXrX7XzXaX(.D.zXsX(.eXeXeXA.nXBXzXbXdX9X9XnXhXhXrXzXzXHXHX7X9XdXcXrX9X7XrXrXnXzX9XwXzXBXzXzXnXbXbXhXhXsX7XhXhXnXhXsXaXbXDXbXaXwXzXhXhXrXBXBXDXcXvXcX0XaXdXxXbXGXHXDXfX8XxXfXvXdXbXbXdXvXAXdXdXbXdXxXZXfXdXvXyXvXdXrXaXdXdXaXzX7XrXzXrX9XrXdXdXxXDXAXDXzX0X9XyXxX0XdXdXwX9XrXzXxXxXvXzXrXFXvXvXDXvXHXdXvXyXzXbXvXHXbXdX9XcXzXwX7XrXzXzXcXbXzX9XfXdX<X8XyX8X9X9X7XrXzXwX7XrXdXbX9XdX8XDXDX9Xb.9XrXrX7X7XzXD.7X7XBXzX9XS.(.(.(.A.(.(.S.F.D.hXhXrXsXeX9XrXsXaXzXdXzXrXzXdX0XcXxXdXdXdXDXzXaXdXrXaXdXaX0XcXxXdXxXdXzXzXbX7XaXBXcXbXzXdXbXDXvXaXvXxXdXcXrXrX7XGXHXGXzX7XwX7XrX7X7XwXnXaXrX9XaXrXzX9XrXdXrXdXxXdXxXGXZXHXGXvX<XDXdX9XvXdXbXvXaXrX9XrX9XrX9XrX7XBXDXnXzXrXzXaXzXrX7X7XrXrXzXzXrXbXdXDXzXzXrXzXwXnX9XD.nXBXbXaXbXbXzXhXnXhXzXnXdXdXzXcXvXBXHXDXcXDXvXDXbXdXdXrXaXcXaXzXrXrXzXaXhXrXrXrX9XhX9X9XiXrXiXhXzXzXaXrXaXrXrXrXrXaXaX7XS.C.qXzXiXeX/.iXS.zXhX(.^.bXhXnXeX(.9X(.(.7XeX9XsXhX).sXeXeXhXsXeXsX9XeXnX9XsXsX9XsX9XhXhX7X9XeX(.).D.).eX).9XD.9XD.(.9X9X).(.(.(.(.(.eX(.(.9XeXnX7XzXwXzXzXzXzXzXzXhXzXaXaXaXaXhXaXaXrXrX9X9X9X7X7X7X7XA.aXBXhXrXrXrXwX9XhXzXzX9XrX7X9X",
"BXhXA.l.A.wXS.(.C.qXhX(.9X7X(.9XdXbXcXdXDXbXbXnXbXzXS.zXDXDXDXrXrXrXrX9XwXhXhXrXrXaX7XwXzX8XDXHXHXbXvX9XrXaXzXdXrXrXrX9XcXDXHXHXDXDXAXvXZXgXgXHXJXZXGXZXGXGXFXFXGXAXfXbXdXzXrXzXzX9X9XA.bXnXzXrXeXF.eXD.D.D.eXeXnXeXF.D.(.S.l.(.BX(.(.(.sX(.D.9X9XhX9XrXhXhXA.rXrXrXzXBXzX7X9XxX<X1XdXyXxXbXHXBXzXnXeXsXnXDXnXzXzXnXaXrXbX7X7XrXc.(.bX(.S.(.A.7XbXbXDXzX9XrXhXrXzXrXzXbXGXGXdX7XrXbXzXrXbXzXzXhXzXzXrX7XbXnXhXnXnX(.eXF.hXeXnXhXhXaXbXnXHXBXbXzXzXrXzXbXVXzXnXrX0XZX0XdXbXZXHXxXZXDXZXZXyXdXvXdXvXJXvXfXFXGXDXGXZXvXxXDXDXvXFXZXvXdXzXxXzXrXrXzXrXzXzXzXzXrX<XbXHXAXvXDXdX8X<XcXdXdX9XzXrXrX7XzXxXAXdXyXyXbXdXS.dXGXHXZXbXxXzXzX1XDXvXvXdXcXzX7X7XzX9XdXzXbXbX0XdXdXAX0XAXzXrX7X7XrXwX9XdXdX7XdXrXvXGX0X7XD.wXrX7XwX7XrXwX7X7X7XzXrXrXA.A.B.B.A.F.C.S.F.F.9X9X9XaX9X9X7XrXhX9XaXnXrXaXB.dX0XdXdXdXAXHXDXBXaXaX9X<XaXaXDX0XbXDXGXrXzXcXD.9XzXGXDXHXdXdX9XBXzXfXdXaX8XzXzX7X9X9XcXwXrXrXnX7XrX9XS.9XnXrXbXhXhXrXbXrXrXdXcXdXcXHXHXGXDXZXGXHXxXdXzXdXzXcXrXzX7X9X9XrXrX9X7XbXbXzXnXzXBXzXnXaX7XaXzXnXbXzXzXbX7XzXzXrXzXrXzXwX7X9XrXdXaXnXzXzXzXnX7X9XhXwXrXaXzXwXcXDXGXDXbXHXvXvXGXDXGXDXdXdXcXrXA.rXzXzXrXrXrXrX7XwXrX9X9XrXeXrXhXwXrXrXrXrX9XwXrXrXrX7X7X(./.S.C.).eXeXqX7X(.hX7XhXhXhXzXhXeX(.D.(.eX9XrXeXhXeX9XsX(.aXhXsXzXBXhXeXrXsXsXsX(.sXsXeX(.eX).).).).).D.(.9X(.eX9X(.(.(.D.D.(.(.(.S.S.S.(.eXsX7XhXrXrXzXnXzXzXnXzXzXzXaXaXzXzXaXaXhXhXrXrXwX9XhXrX9XrXzXnXBXbXhX7X7XaXaXrXwXzXnXBXrXrX",
"zXHXwXdXS.S.9XA.7X7XS.zXzXrX7XS.yXHXzXbXbXzXcXDXbXnXbXzXbXDXcXDXvXyXrX9XrXaXzXzXzXzXzXbXHXdXvXGXFXGXHXBXvXxXxXaXwXdXdXzXbXDXGXHXFXvXZXZXHXHXFXJXFXZXSXHXFXZXFXHXGXZXDXDXbXdXrXrXrXnX9XcXzXcXHXzX9X(.(.D.9X(.(.(.hXnXS.hXeX(.D.hXsX9XeXeXhXeXnXaXhX9XwXzXzXbXhXzX9XnX7X7XwXHXV.<XdXyXdXGXDXDXdXvXbX9X7XaXbXzXaXbXbXA.D.rX7XbXzXbX7XzXA.A.7XhX9XaX9XaXrXdXrXzXrXzXzXzXzXnXzXbXzXzXrXdXzXdXHXzXBXzXrXzXaXdX9XdXaXzXcXsXzXcXnXzXS.D.hXhXnXaXzXdXzXzXzXnX9XrXbXdX7XrXgXfXDXGXJXJXJXZXJXGXDXZXvXAXGXbXAXJXFXFXJXHXZXAXZXZXZXvXFXFXDXHXFXvXdXcXvXdXrX9XzXzXdXbX9XzXdXrX0XdXDXDXdXyXrX9X9X9XdXzXdXwXzXdX8XyXrXdXzXxX>X:XHXGXGXvXvXxXxXdXvXvXdXdXdX9XrXwXwXaX7XdXrXrXrX9XAXDXyX9XrXzXbXdXwXzXaXaXaXBXBXzXrX8X7X<XrXdXwXrX7XwXaXrX7X9X7X9XrXwXrXS.S.S.S.A.S.F.S.F.C.9XsXeXhX9XsXeXeXhX9X9X9XaXdXcXxXzX0XdXxXdXHXbXHXvXrXaXrXrXdXvX<XGXdXdXcXcXdX<XwX9X<X0X9XD.dXbXvXBXcXvXzXbXzXrXcX9XzXrXdXDXcXbXbXrXzXrX9XsX9XaXzX9XaXbXcXzXzXcXvXDXJXFXHXHXZXvXdXDXzXzXaXaXaX9XdX9XaXzXrX7X9XzXzXrXwXaXbXnXzXrXzXzXaXhXzXbXwXrXrX7XrXrXzXnXzXrXzXnXwX9XrXaXbXzXzXrXzXzXzXnXzXrX9XzXcXcXHXdXdX0XxXdXyXHXDXDXbXyXdXBXcX9XcXbXzXzX7X9X7X7X(.7X9XrX9XeXzXbXrX7XrX7XaX7X9X7X7X9X(.D./.S.(.(.7X7X7X7XA.7XA.(.9XhXeXiXbXeX(.C.(.(.eXrX(.eXhXeX9XnXeXsXbXnXaXzXhXzX9XaXeXnXhXsXeXeXeX9XeX9X).(.(.eX(.9X9XhXeXeX(.(.(.7X7X(.D.D.D.(.(.9X9XwXrXA.wX9XnXaXhXnXrXzXhXzXzXzXaXhXzXhX9XrXwX7XrXwXrXzXzXzXzXzXzXrXeXwXaXaXzXnXnXdX9XrX",
"wXcXrX9X0X<XrXD.wXzXbXhX7XrXrXS.dXGXHXHXbXcXbXzXbXDX7XdXcXvXDXvXvXxXdX7XrXwXrXrXzXcXvXcXfXZX1XJXvXGXGXGXDXHXDXdXxXzX9XbXbXdX<XHXGXZXHXHXvXGXZXJXJXGXFXJXZXHXZXGXZXHXZXDXrXrX7XrX7XrXDXcXDXbXnXD.(.D.9XsXrX7XhXeXhXeXS.S.F.D.sXeXA.eX(.(.(.D.rXaX(.aXzXrXrXzXnXHXzXaXzXrXDXdXDXfXZXZXZXZXDXbXdXnXnX9X7XrX9XhXnXzXzX9XnX9X7XHXGXzXBXnX7XaXhX(.zXbXdXdXzX1XzXdXaXzXzXBXbXbXzXcXzXbXdX0XbXHXnXnXcXaXdXzXdXzXzXaX9XcXzXaXnXbXzX9XD.zXaXbXnXcXdXbXcXcXbXbXBXrXcXcXdXdXGXFXJXJXHXAXHXGXGXZXDXDXxXyXvXJXJXGXJXDXHXgXHXFXZXHXZXZXGXFXGXJXGXDXxXvXxXdXzXvXdXdX<X9XzXaXzXaX8XxXcXrXdXrXbXrX9XrXzXwXzX7XrXwXrXGXrXrX9XbXAXDXFXAXHXJXxXfXcXdXfX<XyX0X9X9XrXrXaXwXzXrX9XrXzXcXcX0X0X<XrXrXrXdXzXzXwXrXrX8X9XzXcX<X7XzXdX9X<XrXrXwXrXzX7XrXD.aXzXwX7XA.(.9X(.A.(.S.S.S.D.9XeXeXsXsX9XeXsXsXaXrXnXzXdXdXcXcXdXaXdXdXvXDXGXcXdXaXaXaXcXHXvXGXbXxXxXcX9XdX9X<XaXrX9XA.9X9XDXGXcXDXdXcXrXdXwXwXzXzXnXDXrXDXDXzXaXbXrX9X9XaX7XrXzXaXzXzXcXvXFXAXHXHXfXvXDXxXdX0XBXrXnX9X9XrX9XcXaXaXnXrX7XaXaXbXrXzXzXrXzXaXbXzXrXaXnXbXzXzX9XbX9XzX9XzXzXnXzXrX7XrXbXzXDXzXrXBXDXzXrXzXzXrXzXzXdXdXDXbX0X0XHXfXdXGXdX0XxXbXFXDX0X9XGXDXaXwXhXzXzX7X7X(.7X9X9XeXnXnXrXrX7X9XS.9XD.7X(.7XD.(.(.S.S.B.(.S.S.(.7XrXrX7XA.C.9XeXeXeXS.(.A.S.eX9XhXeXhXnX9XeX9XeXrXhXzXzXzXrXhXsXnXsXnXnXsXhX9XeXsXeX(.(.(.9X(.(.9XeXeX9X7X7X(.(.(.(.(.(.7XD.(.(.7XaX9XhX7XrXzXaXaXrXrXzXzXaXaXzXzXzXzXrXaXrXzXhXrXrXbXbXhXzXrXzXzXrXrXeXaXrXaXdXzXrXrXzX",
"zXrXbXbXvXAXdXdXbXzX9XrXbX9X<XyX0XdXGXdXvXDXdX8X<XdXdXdXcX0XvXvXfXDXDX0X9X<X7XdXzXxXAXGXDXZXDXFXFXAXZXDXFXFXHXDXxXyXdX9XrX0X0X<XvXJXFXFXHXHXHXJXJXHXJXHXFXHXHXJXHXHXDXvXzXcXwX9X7XrXdXcXHXvXaX7X9X(.9XS.D.zXbXS.9XeX(.9X9XD.9XeX(.F.9XeXeXzX7XrX9XzXwXzXbXbXzXDXnXnXrXaXbXFXDXZXJXKXHXGXDXvXdXcXcXrXrX7X(.rXnX7XnXzX7X(.7XzXDXbXzXrXrXrXzXbXA.S.rXdXxX9XrX9X9XzXrXnXbXbXcXDXxXcXdX0XzXzXdXDXHXDXcXzXbXdXxXzXcX9X0XzXcXBXdXrXaXvXaXbXcXcXdXvXAXbXbXvXvXbXcXDXDXGXGXJXGXJXFXZXgXfXgXFXGXvXgXvXcXdXFXZXGXvXgXgXFXGXvXDXvXFXJXZXJXJXJXDXyXvXxXdXxXHXvXzXdX9XcXdXBXdX0XvXdXyXDXrXdXwXrXwX7XzX7XzXrX7XDXcXrX0XyXrXyXFXvXdXHXGXbXyXDXcXzX8XxXbXdX<X7X9XzX9XzXrXrXvXrXrXdX0X1X0XrXrXrXzXaXrXrXrXwXrXrX7X9X7X7XzX<X9XrXaXzX7XzXaXzX9XrXaX9X7XA.9XS.(.F.A.S.(.9XeXS.D.(.eXeXhX9X9XaXeXsXhXrXdXrX9XaXdXaX9XyXdXDXDXHXbXdXcXcXdX9XDXGXDXDXvXHXxX0X0XdXxXcXcX9X8XzXbXdXbXrXdXbXzXbXcXrXdXzXzXxXvXcXcXzXrXnXcXnXsXhX7X7X7XnXrXbXnXvXdXdXdXGXGXHXxXzXvX9XnXzXbXzX9X7X9XaXrXrXD.zX9XbXrXrXrXbXnXnXaX9XaXBXnXnXnXbXbXbXzXzXaXaX9XwXrX7XrXrXaXhXwXzXaXrXrXzXbXbXzXzXrXvXxXvXzXBXDXHXbXbXbXHXbX1XvXfXvXGXHXGXGXHXFXDXBXbXrXzXhXBXhXhXsX9X7X7X9XeX9XwXrXrX7XD.7X9XrX(.(.S.S./.S.S.C.S.7XS.A.7XA.D.D.7X7X(.7X7X(.S.(.S.(.).eXsXeXeXsXeXeXeX9X9XsXnXbXnXeX7XsXzXhXsXrXeXeXeX9X9XeX(.(.9X(.(.(.(.(.hXhX(.9X9X9X9X9X(.(.hX9X9X(.zX7XaXrX9XrXaXrXrXrXrXzXzXrXhXzXzXnXnXaXaXaXzXnXcXbXbXbXbXbXzXzXzXzXzXrXzXzXzXzXcXdXxXZX",
"vXdXDXFXDXZXZXvXDXzXzXzXzXcX0X8XyXAXxXfXDXvXdX0X<X0XDXbXAXvXvXDXHXFXAXzXyX9X7XzXAXcXHXFXZXDXdXDXFXDXGXHXDXDXZXfXxXdX0XxXdXAXdX0X1XAXJXHXFXHXZXJXFXGXJXHXJXZXFXFXGXGXDXdXyXDXrX9X9X9XdXaXdXvXBXrX9X9X9X9XsXaXrXVXeX(.eXeX(.9X9XeXA.zXhXrXhX9XrX9XrXBXDXHXDXcXvXxX9XbXaXrXDXDXGXGXJXJXHXFXFXfXvXxXcXaXaXhXaXhXzXrXrXrXzX(.7X9XbXzXbXzXrXzXzXzXnXrXdXxXbXvXzXvX9XrXcXaXbXbXyXbXcXxXzXxXzXvXvXdXcXDXDXbXbXxXAXbXDXxXvXvXbXBXbXdXaXaXaXbXDXDXDXxXbXvXbXDXcXbXcXbXHXGXJXHXGXAXZXvXvXdXgXGXAXHXHXvXaX0XFXJXGXDXZXvXZXvXvXZXFXHXZXZXGXDXFXAXfXDXvXyXyXDXGXxXHXdXrXaX9XxXDXZXdXvXbXdX7XdXrXwXzX7XA.7XzXzXbXxX0XrX9XdX0XdXZXdXGXdXfXdXdXdXxXbXbXHXcX9X7XrXbXrX7XzXrXzXdXzX9X<X0X<XcXzX7X7XwXwXrX7XrX9X9X8X9X9XaX9X9X<XzXaXD.7XrX9X9XaXzX7XB.S.(.A.S.S.B.B.S./.(.D.S.S.eXhXeX9XeXeXeXeXeXrXzXaXrXaXcXcXcXrX0XdXcXbXbXvXvXbXcXcXcXxXvXGXvXHXDX0XdXyXvX0XcXzXcX9XzXrXcXaXzXzXzXcXcXzXdXrXzXbXzXrXdXrX9X9XzXnXzXzXzXrX7XrXaXrXcXzXzXdXxXyXxXAXxXdXDXcXvXaXaXzX9X9X7X9X9XrXA.7X7XrXzXwXzXzXaXzX7XaXrXrXaXzXzXbXbXaXrXaXrXaXrXzXbXwXrX9XrXbXzX7X9XzX7XhXzXrXbXnXzXaXcXbXDXbXDXHXDXHXbXbXDXxX:XdXGXGXFXDXGXFXGXGXHXcX7XzXbXBXnXsXrXzXsX9X7X9X9X7X9XrX7X9XA.nXsXnXbXsX7X(.(.(.S.S.B.S.A.9XD.hXrX9XhXzXnXeXA.(./.S.D.S.(.eXeXeXVX(.eXhXhXaXeX9XnXnXzXeXrX9X9XbXsX9XeX9XhX(.D.(.(.(.(.7X(.nXD.eX9XrXeXzXnXrX9X7X9X9XeXeX9X9XzXrXzXaX9XrX(.9XaXrXzXrXzXzXnXnXzXzXnXaXnXbXzXzXbXbXzXcXbXbXDXzXzXzXzXzXzXdXaXdXxXvXAXDX",
"FXFXGXJXJXDXvXvXaXcXdXcXcXcXdX0XxXFXdXDXvXZXfXdXdXdXvXZXDXFXZXDXFXZXvXbXdX9XA.9XzXcXvXFXfXZXfXAXFXvXHXFXZXZXZXfXfXfXfXvXDXbXdXyX0XdXHXFXGXvXGXJXZXJXJXFXHXSXFXJXHXGXDXxXdXbXzX7X8XdX0XdX9XbXDXrX9X9XhXD.(.rX9XVX<X9X9X9X9X(.9XaXwX7XzX7XrXzXrXwXzXbXHXDXAXDXDXxXdXzXdXrXAXAXJXZXZXFXFXZXZXxXxXdXzXzX<X<XaXzXwXrXrXzXzXaXD.7XzX9XcXcXdXzXdXrXDXbXHXDXvXDXfXDXbXzXzXrXbXDXvXdXAXbXxXxXdXdXDXvXdXDXvXvXAXZXAXDXdXZXDXvXHXvXdXdXdXzXzXzXdXxXFXdX0XxXcXbXbXdXzXdXZXDXGXxXHXcXDXbXxXgXvXAXAXAXvXvXxXaXHXFXFXDXHXHXvXvXbXvXDXZXHXDXZXZXZXZXfXZXxXfXAXyXdXyXHXGXdX9XdXcXDXHXxXHX9XzXrXrXzX(.9XwX7X7XwXcXrXdXrXdXzXrXdX0XyXyXZXvXxXvX9XyXdXBXbXdXzX9X9XzXcXzX7XrXdXcXzXvXAXvX9XzXzXrX7X9XrXaXzXzXrXwXrXrX9XrX9X7X9X9X9X9X9X<X7XaXrXrXrXD.(.B.B.S.B.B.S.S.B.S.D.S.D.S.D.7X7X9XsXhXsXeXeXeXaXdXrXdXBXDXbXdXyXdXzXcXdXdXcXvXdXzXxXbXFXDXFXFXvXAX0XdXvXbX0X0X9XaXrXnX9XcXdXrXzXzXdXzX9XdXdXdXrXdXdXdXdXrXrXnXzXaXaXzXrX7XrXzXrXdXzXvXdXcXDXHXHXxXrXBXBXrX7X7XrX7XrXrXnXaX7X9XwX9X7XrXzXaXDXrXzXnX9XhXaXrX7XaXnXzXwXrXwXrXrXzXrXaXrXzXzXzXrXzXzXzX9XrXaXzXcXbXcXbXbXbXbXDXbXcXbXDXvXbXDXZXvXZXHXGXDXGXZXGXyX0XAXzX7XzXnXnXrXaX7XsXhXeX9X(.D.(.7X9X7X9XnXnXbXaXaXaX(.A.(.A.D.A.S.D.(.7XrXbXzXaXhXnXeX(.(.S.S.C.(.S.D.(.D.).eXeXeXhXhXsXrXeXrXzXaXaX7XeXsXeXsX9XeXsXeXeXD.D.(.(.(.(.9XnX(.(.(.9X9XbXhXsX9X(.rXsX9XeXrXnXaXwXwX9X9XrX7X7X9X7XrXrXzXzXzXaXnXbXzXzXaXbXbXrXrXwXrXwXwXwXzXzXrXwXrXzXzXcXbXDXAXDXFXDX",
"JXFXJXGXJXGXZXZXbXzXcXHXxXdXZXZXDXDXdXZXfXDXZXdXdXdXdXHXHXFXZXFXGXZXDXdXrX<X7X<X9XrX0XbXcXdXbXDXDXvXfXgXCXZXFXGXvXZXAXZXvXzXdXdXxXdXxXDXFXAXGXJXFXJXFXFXFXHXSXFXZXFXGXHXvXdXzXzX9X9X0XdXdXbXzX7X7XzXrX7XrX7X9X8XD.sXD.hX(.BXD.aXrXS.wXbXzXaXrXnXwXdXHXbXDXGXdXyXbXcXzXAXxXfXGXZXSXJXFXZXFXGXdXxXdXrXrXzXbXzX7XA.rXBXzXrXrX9XzXvXxXHXAXwXcXzXzXGXHXZXFXAXHXAXbXdXdXrXdXzXvXdXDXxXGXHXdXvXxXbXbXHXDXvXDXDXvXDXxXxXbXfXGXFX0XdXaXDXbXxXbXxXDXHX0XxXDXbXHXbXdXdXdXGXGXvXbXbXdXdXAXAXHXHXHXJXGXDXGXvXgXHXdXZXDXDXDXfXZXfXvXfXFXDXfXGXAXZXZXAXZXvXfXdXdXdXxXdX0XdXbXHXvXHXbXbX<XzX9XrXzX9X7X7XwX7XzXrXzXzXGXcXvXdXdX8X9XdXyXZXdXdXzXyXcXdXdXdXrXrXdXaXrXzXdXrXwXzXvXDXvXdXcXcXdX9XrX9X7XrXrX9X7XrXrX9XaXzXrXaX9XrX8X9X9X9X7X7X9XcX9X9XD.D.S.B.B.B.B.S.B.F.(.D.D.D.D.D.(.(.9X9XrXsXsX9X9XvXzXdXvXcXcXdXdXyXdXbXcXdXcXDXcXaXdXcXDXvXDXHXbXbX0XfXGXxX8XzXvXdXdXwXrX<X7XnXzXzXdXDXdXzX0XdXxXdXdXzXcXcXdXrXaXsXaXaXaX7X7XnXaXzXcXcXzXcXdXHXDXzXdXDXzXrX9X7X(.9X9XBXDXD.bXzXzXaXrXrX7XzXzXbXBXaXbXrXrX7XS.rXaXrXaX9XwXwXwXzXzX9XrXrXzXrXbXnXzXaXrXzXrXbXbXbXcXzXbXcX0XzXDXbXcXHXdXcXDXbXbXyXbXdX:XGX0XFXdXxXzXzXwXrXwXaXaXzX9XrXsXA.(.(.7XeX9X(.9XsXbXbX7XrX7X(.rXrX9X7X(.hXhXzXzXzXzXzXhXzXnXiXeXqXS.S.(.A.F.S.S.S.(.S.F.S.).eX(.eX9XhXrXaXnXhX9X9X9X9XeXeXeXsXeXrX9XeX9X7X(.D.D.(.D.(.(.9X9X(.9X9XeXnXsX9XeX9X7XhX9XaXzXzX7X7X7X7X9X7X7X7XrXrXrXrXzXzXzXnXzXbXzXrXwXrXrXzXzXrXzXcXzXrXrXzXzXcXAXcXdXbXGXGX",
"FXJXJXJXJXGXFXyXDX0XzXbXHXDXDXDXGXJXvXvXZXFXDXvXZXdXdXdXAXFXAXDXFXGXbXdXrX9X9XaX9X7XrXdXdXaXdXcXvXbXfXgXZXHXFXJXFXZXxXxXbXxX9X<X0X1XyXDXFXAXDXZXJXGXFXGXFXFXFXZXJXFXFXAXDXcXcXzX9X9XzXcXbXDXrXA.rXhXaXD.9X9X8X9XD.8XcX9X9XcXnX9XrXzXcXbXdXcXbXDXbXzXdXyXxXDXdXAXxXxXyX0XZXGXvXgXKXFXZXJXfXAXFXvXxXxXbXbXcXzXnXnXD.zXdXdXvXdXcXHXyXDXvXzXxXHXrXvXFXdXbXFXAXxXBXcXdXdXxXxXHXxXDXxXDXdXdXZXxXHXZXHXZXZXZXFXZXDXDXvXZXFXZXFXvXxXxXDXzXzXdXAXDXFXdXxXDXvXbXdXxXdXZXZXFXbXxXGXZXZXZXtXFXFXJXHXJXKXGXgXgXFXvXHXDXZXxXyXvXDXZXHXFXDXfXDXZXvXAXDXDXZXfXvXdXvXxXfXxXvXzXbXdXrXdXdXnXD.rXzX7X7XwXzXwXA.wXzXrXdXDXzXzXcXdX9XdXV.yXyXdXzXyX9XBX9XdXcXzXdXzXaXrXdXdXrXrXcXdXzXdX9X8XAXDXcX9XrXzXaXrXrXrX9X9XaX9XaX9XaX9XrX9X9X8X9XzX9XzX7XaX9XrXbXB.S.A.S.B.B.B.B.S.9XA.S.(.A.S.D.(.D.9XhXaX9XzXBXaX9XxXcXzXdXaX0XcXxXaXaXcXBXvXcXdXcXHXDXHXHXHXvXdXvXZXDXbXGXvXcXbXdXA.9X<XS.zXbXcXdXaXdXdXxXvXdXdXcXzXzXaX9X9XsXrXrXzX9XD.zXaXzXBXbXzXcXaXbXBXxXxXDXnXaX9X7X7X7XaXzXzXzXBXbXbXnXzXaXrXrXnXrXbXzXbX7XrX9XrXzXaXrXrXwXwXrXrXbXzXbXzXrXzXbXbXrX7X7XrXaXrXnX9X<XzXdXzX9XrXbXbXzXdXzXzXzXdXHXGXZXyXN.1XDXfXbXFXxX9XzXnXzXzXzXzX7X7XrXaXrX9XD.9X7X9XrXhXBXDX7X7X7X(.A.S.rX9X7X9XzXnXzXrXhXwX7X7X9X9X9XeX(.S.S.eXeXF.D.F.(.S.).S.(.D.(.eXeX9XeXrXrXnXhXsXeXsXsXeXsXeXeXeXeX9XeX).9XeXF.C.D.D.D.(.(.sX(.7X9XsXnXrXrXhXwXrXaX9XzXnXaXaX9X9X7XrXaX9X9X9XwXzXaXzXzXzXcXbXcXcXrXdXrXzXzXAXzXzXrXwXdXdXzXcXcXbXDXDXDXGXGX",
"FXZXFXFXFXZXZXZXdX0X9X7XxXFXJXvXGXJXFXZXZXDXvXZXAXvX0XyXZXZXGXFXFXDXxXvX9X0XaXdX9X9XdXdXaX9X9XdXxXZXZXZXFXFXFXGXZXFXDXZXxXyX0X8XrX0X9XbXxXDXFXGXGXFXFXFXHXFXJXHXJXJXGXAXbXzXdX9XdXdXbXbXDXbX7XD.9X(.rX7XzXcX9XcX8X8XdXvXdXBXHXcXdX9XzXbXrX9XdXdXbXzXrX0XvXzXbXAXDXHX0X0XDXDXZXZXDXgXFXJXFXGXFXDXJXHXrX<XcXbXzXrXD.cXzXdXxXbXDXvXDXGXFXvXdXzXDXvXdXZXvXvXbXbXyXdXvXyXbXcXDXxXZXHXDXdXxXbXAXDXHXGXvXJXDXFXZXyXFXGXGXZXAXFXDXdX8XdXzXDXvXGXHXHXDXZXDXxXdXcXbXHXGXvXDXGXZXvXFXZXZXZXFXKXFXFXJXSXSXFXFXFXFXZXxXZXZXFXDXFXdXDXZXGXGXZXDXZXvXvXvXxXbXDXxXfXdXxXZXxXdXzXzXzXaXzX7XrXS.9XwX7X7XwX7XrX9XzX<XDX9XbXcXzXbXbXrX1XyXvXbXdXyXyXdXdXcXaXzXrXaX<XrXdX7XdX>XxXyXcXdXvXvXcXDXzXwXzXaXrXrXaXrXrXrXzXwXwX9XrXrX9X9X<X7XzXaX7XnXwXrX9X7XzXzXB.B.S.F.F.B.l.9XnXhX(.A.(.(.7X7XD.7X9X9X7XrXzXA.<XcXxXvXdXdX0XcXzXaXdXdXzXaXaXrXcXDXDXFXGXAXJXGXDXGXxXAXAXcXFXHXbXrXcX9XaXA.rXcXzXvXdXcXcXHXcXzXcXdXaXrXdXaXrXrXrXzXrXD.rXwX7XnXzXdXbXdX0X9XdXvXHXDXdX9XrX<XaXzXaXaXDXbXcXcXbXD.nXBXaXzXwXzXzXrXrXnXzXnX7XwXbXzXBXrX7XaXzX7XzXzX9XrXrXbXDXwXzXzX9XS.7X9XbX9X9XzXdXzXzXcXzXdXcXzXdXdXdX0XdXdXFXDXxX0XDXxXdXzXrXzXzXrX7XhXrXzX9XnXrX7X9XhX9X9XaX(.bXhX7X7XB.S.A.S.rXA.S.7XzXnXbXzXrX7XhXrX7XrXhXeX(.(.S.7XeXS.D.F.F.S.(.(.).eX(.eX9XeXeXsXeXhXsXsXaXhXaXeXeXeX9XeX9X(.9X(.9XeX(.S.(.(.D.S.(.sXhX9X9XsXrX9XzX9XnXbXwXzXrX9XzX9X9XrX9X7X7X9XrXaXzXnXaXrXzXbXbXcXzXcXdXcXzXbXcXvXzXcXdXrXzXrXrXrXbXxXvXvXAXFXZX",
"KXFXKXJXHXFXFXFXJX1X0X9X0XxXDXGXGXFXJXJXHXZXvXbXvXfXdXDXvXDXxXGXZXZXfXdXvX0XaXzXrXzXaXaXrX9XdXdXfXvXAXFXFXFXFXFXAXZXvXxXxXdX0X9X9X7XrXdXvXfXDXZXFXJXFXFXJXJXJXJXJXGXFXAXxXcXBXGXHXbXbXbXBXrX7X9X7XS.7XnXcXHXDXrX9XrXaXaXdXBXHXdXxXDXAXbXbXzXzXbXvXvXxXdX0XdXZXFXFXZXGXvXdXFXDXfXDXJXGXHXJXGXGXDXGXyXyXdXzXzXbXrXxXvXdXbXFXZXvXGXdXZXZXbXbXxXDXvXFXFXZXgXZXvXxXbXxXvXGXxXxXZXZXdXdXfXdXDXGXfXDXvXdXdXGXHXDXZXdXZXDXfXFXFXHXDXDX0XdXHXFXHXZXFXFXfXDXdXxXbXZXDXAXFXZXZXJXJXJXZXFXZXSXJXKXKXKXKXSXKXZXgXGXFXFXFXZXHXZXGXDXGXDXZXJXFXFXDXDXHXDXvXvXfXZXfXdXbXDXvXxXcXdXbXrX9X7XwX9X7X7X(.9XwX7XzX9XrXaX9XbXDXbXbXbXcXzXzX9X8XHXrXwXwX9X9XrXdXcXrX9XaXrX8XrXrXvXzXvXrXxXDXDXGXrXyXdXcX9X9XrXrXrXrXrXrXrXrXrXrXrX7X9X<X9X9XcXrXrXzXrX7XA.7XaXzX9XrXB.l.B.9XrXrXB.B.(.(.S.D.D.D.9X9XsXzXvXdXBXvXBXbXrXxXcX9XdXnXzXzXdXdXzXdX9XcXdXdXdXAXGXGXAXAXDXZXfXHXHXDXvXdXbXDXwXA.A.wXzXcXzXcXbXDXGXbXzXdXzXdXrXzXzXrXrXwXrXaX9XwXzX7X9XrXvXGXHXdX0XxXDXDXBXdXrXzX8XnXzXnXrXdXcXzXzXrX9XzXcXnXcXaX9X9XzXzXzXrX9X9XzXzXnXbXaXBXrX(.rX7X9X9X9X9X9X9XzXzXrXzX9XvXdXwXzXzXrXzXbXrXwXzXnXaXbXzXzXcX9XrXaXBXbXzXwXzXrXzXrXzXhXbX9XaXaXrXwXzXwXBXaXBXbX9X7X7XnXrX7X(.7XD.(.S.<XS.zXD.GXbXbXhXzXbX9X(.A.zXhXzXrXA.(.eXhXA.eXeXS.S.S.D.(.hX(.9XsXnXsXeX9XrXhXzXsXhXhXsXaXsXhXeX).).eXsX).).(.(.).).F.(.D.F.).hX(.(.9X9XsXdXzXaXzX9XzXzXhXrXzXaX9X9XrX9XrX7XzXzXbXzXzXzXbXbXwXdXrXzXzXDXbXzXzXzXvXzXrXzXzXnXzXcXxXDXAXDXAXGX",
"FXJXJXJXKXZXFXFXFXyXS.9X9XzXFXJXGXGXJXJXGXFXbXZXZXZXdXvXvXZXbXDXvXdXfXvXvXxXzXrXaXzXrXrX9XrXsX9XdXfXZXFXHXHXFXHXZXFXFXAXAXxXdX9XwXrXrXzXxXbXDXZXGXJXJXJXKXKXKXJXJXHXHXAXdXdXaXcXHXDXcXzXzX9X7X(.rX9XD.bXGXcX0XcXbXdXcXBXdXvXdXvXZXvXdXAXAXAXzXdXxXAXDXFX9X<XZXGXHXDXFXDXdX1XvXFXZXZXGXFXFXJXFXZXvXxXdXyXzXdXdXdXcXcXxXbXDXFXGXFXZXGXZXFXAXHXvXxXJXfXZXZXZXfXbXdXdXAXDXbXvXDXHXxXDXDXbXDXDXxXDXFXxXdXfXDXHXZXDXfXAXFXAXZXAXHXFX1X:XdXvXGXGXFXGXfXZXxXDXAXDXvXFXFXZXJXFXtXZXJXFXFXKXKXFXKXFXFXKXKXKXGXJXJXJXFXGXFXJXDXFXDXGXvXvXGXGXbXDXZXZXDXvXZXvXfXdXxXvXxXcXdXxXzXdX7X9X9XD.7X(.7XwX7XA.7XwXzXdXrX7XD.wX9XrXrXcXdXrX<XA.zXS.zXrX9X9XwX9XzXvXDXaXdXzXbXrXdXdXcXdX9XxXAXvXyXbXdXdXrXwXwXwXwX9X9X7X9XrXaX9X9X7X9X9XrXrX9XA.A.D.wXzXrX7XhXaXB.(.zX9XhXnXS.F.A./.S.D.D.D.D.eX9XrXzXaXbXvXHXDX9XcXvXaXaXzXzXdXdXaXaXdXzXrXcXdXdXxXHXDXvXHXGXGX0XbXDXvXdXAXbXcXzXzX9X<X9XdXcXbXbXvXvXHXDXcXdXzXnXdXzXzXrXaX9X7XrXrXrXwXaX9X9X8X<X9XaXbXbXDXxXdXdXcXdXzXdXbXvX9X9XdXaXrXsXdX9XbXzXzXzXzXrXzXzXnXnXzXdXzXzXzXDXbXzXnXaX9XrXzXHXbXzX9X9X7X7XrXrX9XrXbX7XrXbXDXGXzXrXaX7XrXbXzXzXbXrX9XrX9XDXDXzXzXbXwXrXzXrXzX7XrXzXBXzXrX9XhXaXbXzXaXzXD.zX7XrXrXA.7XD.A.S.7X7X7XnXdXnXrXwXwXrXS.B.c.7XrX9X7X7XhXqX(.eXeXeXeXC.S.F.(.eXsX).(.sXhXsXaXaXsXzXsXhXhXsXhXsXeX9X).eXeXeX).(.).(.D.(.(.D.S.D.(.(.(.(.(.9XrX9XrXzXzXrXrXrXrXzXrXrX7X9X9X7XrXwXdXzXzXzXzXzXzXzX9XdXyXzXzXDXbXbXbXzXdXzXbXbXzXzXzXcXDXAXvXFXdXfX",
"JXJXKXSXFXJXJXJXAXxX8X8XyXdXdXFXHXKXHXGXJXFXvXbXxXxXbXfXDXGXDXxXxXvXfXvXxXcXrXrXwX9XaXrX9XaX9X9XaXdXxXHXGXHXFXHXZXFXFXDXAXzXrX9XrXaXzXdXAXxXAXZXFXHXKXJXKXJXKXKXHXFXFXvXdXrXrXaXaXzXaX8X7X7X9X(.wXzXnXbXbXbX0X0XdXdXbXBXrXvXvXvXvXGXGXZXxXcXcXDXcXvXvXvXdXS.FXFXZXFXZXfXbXvXyXDXGXGXZXGXFXFXZXDXvXvXcX0XyXdXcXbXbXdXvXDXZXZXGXZXZXZXGXDXDXDXDXvXFXGXHXZXZXDXbXbXdXvXDXDX1Xz.<XGXFXAXFXAXvXbXxXAXZXDXFXJXDXZXDXvXDXZXFXDXFXAXfXGXGXGXZXFXHXfXFXZXvXGXDXFXHXGXJXHXFXZXHXGXJXGXFXKXJXKXKXKXCXKXKXLXJXKXKXHXFXZXFXFXZXZXGXGXFXZXtXZXbXdXvXZXFXFXvXDXvXvXfXvXbXAXAXvXzXcXdXrXrX7X7X7X7X7X7X7X7X7XdXrXaXrXrXrXaXrXrXrXdX9XrX9X7XzXrXzXzX7X8XzXdXaXaXzXaXdXdXcX0XDXdXdX8XyX9XdXrXyXvXyX9XaXrX7X7XrXrX9X9XrXrXzX9X9XrXrXyXdXrXBXrX9XwX7X7XrXrXaX9X7XB.hXnXD.c.B.C.A.C.A.A.D.D.D.rXrXrXaXdXbXdXcXbXrXdXdX9XnXnXaX9X9XrXrXdXbXxXdXdXdXfXdXdXxXxXHXJXGXbXHXxXFXvXyXdXcXdX<X7X<X9XdXDXcXdXxXvXvXvXdXzXzXzXzXaXaXzXrX7XwXrXwXrXzX9X9XdX9XsXzXdXxXbXdXzXvXcXrXcXcXDXDXdXdXcX8XaX9X9XbXzXaXrXzXrXnXbXcXbXnXcXaXzXzXrXDXHXzXzXaXaX9X9XnXGXdXrXdXzXaXcXrX7XA.cXdXzXcXdXzXaXnXzXrXwXhXbXbXBXzXzXzXrXzXbXbXzXzXwXwXzXzXrXzXrXwXzXDXrX9X9XaXzXwXrXnXaXcXBXaXbX9X9XrX(.7X9XzXvXGXcXaXzXrX7X7X(.F.B.A.7XhXrX7X9XD.S.(.(.hXeXeXS.D.D.F.(.(.sXsXnXeXsXsX9XsXsXsXaXeXeXeXeX9X).eXeX(.).).).).eXD.D.D.(.S.(.(.9X9XD.9X8X<XzXaXhXzXrXrXrX9XrX7X7XrXzXzXzXdXzXpXpXrXrXyXzXcXcXbXbXcXbXbXbXbXDXbXrXrXzXzXnXzXcXcXDXbXxXxX0XfX",
"KXJXFXFXJXJXFXZXGXHXyX0XdXbXGXGXFXGXFXJXFXFXZXxXAXDXvXdXdXbXxXvXvXvXDXvXxXzXzXzXrXaXrXrX9X7XrXrX9X0XdXAXGXFXFXGXFXGXFXZXvXxXdXrX9XzXnXcXbXxXdXfXZXHXFXKXHXFXKXFXFXFXFXbXxXdXrX9X9X<XD.<XD.7XrXnXzX9XzXbXzXzXdX0XdXvXxXZXxXbXvXDXDXDXGXDXDXDXAXrXzXdXdXxXdXHXGXDXGXFXvXZXvXbXxXvXDXAXZXDXZXZXxXZXZXxXdXdXdXdXcXBXBXbXvXZXZXZXZXGXZXFXZXxXDXAXZXdXyXvXHXDXZXDXDXHXvXvXZXvXDXvXdXFXFXZXHXZXbXZXDXFXbXFXDXFXvXAXvXxXxXvXAXDXGXxXfXAXAXAXFXGXFXHXvXfXbXDXFXZXGXJXJXZXFXZXHXGXFXZXFXFXKXJXKXKXKXKXKXKXSXKXFXHXJXFXFXFXJXJXGXJXfXJXfXfXvXvXdXDXGXAXvXZXZXZXxXvXDXAXcXdXcXzXrXrXrXwX7X9XrXrX7X7XA.zXbXzXzX9X7X9XzXwXzXrX<XaX9X9XzX7X7XrXrX9X9X<XaX9XdXcXzXdXdX0X<XGXdXrX8XdX8XvXdX9XyXrXrXaXzXnXzX9X7XwXrXrXrXaX9X9X9X9XbXDXGXdXdX9XrXrXwX7XwXzXrXbXrXrXB.l.F.F.F.^.A.(.D.(.D.D.7X9X9X9XrXdXrX9XbXDXdXaXcXBXzXaXrX9XrXrXdXcXvXdXzXdXaX0X0XdXdXcXdXyXvXAXHXdXyXxXcXdXzXrX9XrX<X9XcXHXxXxXaX9XdXdXaXaXaXaXaXzXzXaXrXwXwX7XrXrXaXaXzX9X9X9XvXDXHXdXxXzXdXvXcXcXbXvXaXdX9XrX7X9XdXaXrXaXdXcXrXdXdXzXzXzXzXzX7XrXwXaXnXzXaXzXrXzX9XaXzXdXHXcXcXvXdXbXzXzXzXHXHXzXrXwXzX9XwXzXzXwXzXzXbXrXwXrXzXbXbXDXzXzXwXaXzXbXBXzXnX9XaXzXzXwXwXzXrXBXDXnXnXzXcXaXnXzXzXaXbXcXGXdXDXdXcXdXzXzX7XA.7Xc.B.S.(.hXzX7XS.(.7XS.(.kX(.S.(.(.C.D.S.(.9XeXrX9X9XeXeXsXhXsXrXeX9XeXhXsX(.).eX(.eX9X).(.).).(.D.D.(.D.(.D.(.9XrX9X9XzXzXaXrXnXrXrX9X7X7XzXbXBXbXcXzXvXbXvXrXzXbXDXHXBXHXbXcXzXzXdXcXdXbXbXzXrXrXzXzXzXcXzXzXAXxXfXtX",
"KXKXFXJXFXFXZXDXJXHXdX9XrXvXbXAXJXGXHXHXFXGXFXbXDXcXcXdXrXdXdXxXfXvXvXAXcXcXDXzXaXrXA.9X7XrXrX9X9X9XcXdXFXGXGXFXFXAXDXDXfXfXdX9X8XcXcXnXnXdXaXdXdXHXDXGXvXZXGXGXGXGXDXvXvXdXrX9X9XD.D.S.<XA.9XzXdX8XyXzXDXDXAXdX0XxXZXZXAXZXbXAXAXDXFXDXdX0XyX0X9X9X0XyXvXHXGXFXZXHXFXDXfXbXvXfXZXZXvXbXxXbXxXvXvXxXxXvXdXxXdXxXbXZXxXDXDXFXHXFXZXGXZXGXHXDXDXZXvXdXZXZXZXDXGXHXxXdXZXHXvXHXHXZXHXFXHXFXDXbXDXbXcXcXdXbXBXFXbXxXxXDXbXDXyXyXFXZXFXJXGXZXFXvXfXvXDXZXZXvXGXGXGXZXFXGXJXJXJXFXCXFXKXJXFXJXFXFXFXSXZXHXFXGXFXKXKXKXJXJXFXgXGXFXAXyXxXDXxXvXGXDXvXZXvXDXbXdXDXbXdXdXdXdXdX9X9X7X7X7XA.D.7XS.7XzXzXrXrXrXzXrX9X9XrXrX9XaX9XdX8XrX8X7X9X9XaX9X<XzXrX9XdXrXrXDXrXbXzX9XyXvXrX7X7XzX<XrXrXrXzXbXzX9XrXrXrX9X9XrXwXzXdXnXbXzXrXdXbXdX9X9XrXwXrXrXrX7XzXl.c.l.F.F.B.B.B.(.S.S.(.(.D.9X7XD.rX9XrXrXrXdXrXrXrX9X9X9XsX9X9X8XrXaXcXzXnXrXbXzX9XaXrXzX<XaXcXBXzXcXcXdXrX9XrXdX7X7X7X9XzXzXdXvX9X9XrXaXrXsX9XrXaXzXrXhXrX9X7X9XrXrXrXrXzXnXzXdXbXdXdXDXdX0XxXdXdXzXxXbXcXdXcXdX9X7XaXcXcXdXzXDXdX9XrXdXrXrXaXrX9XrXrXrXrXaXrXnXnXaXrXdX0XxXzXdXdXcXcXdXvXcXbXHXvXdXwXzXrXwXzXaXwXrXwXdXbXxXzXzXdXrXrXbXcXrXzXrXdXHXDXcXzXdXzXzXrXzXbXrXzXzXzXcXnXBXnXDXGXbXnXvXbXZXGXGXGXHXdXcXdXdXA.7X9X7XS.l.7XDXbX7X/.A.S./.qXqX(.(.eX9XeX/.D.S.D.9XeXhX9XeXsXsXhXsXhX9XsX7XzXhXhXeXeXeX(.(.(.(.9XeX9X(.(.D.(.D.D.7XeXhXsXrXnXzXrXzXzXrXaX7X9XzXbXzXbXzXzXzXzXzXdXzXzXzXZXDXGXDXDXZXvXxXdXxXdXHXHXbXAXyX7XrXrXrXzXzXrXyXbXrX",
"JXKXFXKXFXFXFXJXGXFXvXrX0XdXxXZXGXHXFXHXFXZXZXvXvXdXcXdXdXdXzXzXdXfXDXHXHXGXbXbXbXaX7X9X9X7XwXrXrXrXdXdXFXJXJXGXFXFXFXFXvXdXyX0X0XBXDXaXrXrXwX7XaXBXxXAXvXvXHXHXZXFXGXDXcX0X9XwX7XD.7X9XrX<X<XxXdXdXxXxXDXDXAXDXyXvXfXfXDXAXxXDXZXFXdXdXvXDXyXxXdXdXAXrXfXdXGXDXZXZXFXDXZXZXZXZXfXvXZXfXdXdXfXZXvXbXxXfX0XdXdXbXxXZXZXDXFXAXGXGXZXGXFXFXGXGXHXGXvXfXyXxXDXDXHXFXZX0XyXDXZXAXHXFXZXZXZXDXDXbXDXxXzXdXzXrXDXdXcXcXxXbXZXZXdX0XHXZXJXZXAXtXFXZXDXDXZXDXGXZXZXGXFXZXJXJXGXJXFXgXCXJXKXKXKXFXFXKXFXHXFXJXFXGXFXKXJXJXFXSXZXgXGXJXFXvXvXZXvXAXHXDXDXDXxXDXDXxXbXdXdXdXdX0XrXBXzX7X7XrX7XD.7X7X9X7XwXrXaXnXrXrX9X7XrXrXdX<XzXdXrXyXrXA.7X7XrXwXdXrX9X9X9XrXrXdXzXcXdXrX8X7XrXzX9X7XwXrX9X7X7XrXaXzXhXrX7X7X7XrX7X9XzXrXcX9XdXrXdXrX9XaXzXrX9XrX9XnX(.l.F.c.l.c.c.F.F.D.D.S.D.D.D.(.D.7XrXrX9XzX9XwXzX9X9X9XaXrX9X8X9X8X9X9XrXvXzXzXzXnXrX9XrXwXrX9XaXdXcXzXaX9XrXwXzXzXrXzX7XA.9XzXvXvX<X8X9XrXeX9XsXsXzXrX9XrXrXwXrXrX9XwXwXrXzXcXcXxXbXxXGXAXxXdXdXdXAXrXdXdX9XzXaXdXrXbXvXbXcX9XdXbXxXdXdXcXzXnXzXzXdXdXdXdXbXrXrXzXbXzXrXbXdXxXGXDXdXaXzXzXxX0XdX0X1XdXdXbXzX7XrXbXwXrXcXdXcXbXzXxXdXbXDXvX9XrXbXzX7XbXbXbXdX9X8XzXzXzXbX7XzXwXzXbXzXzXbXDXcXaXcXxXxXvXZXDXGXDXfXxXdX0X9XrXwXwXwXB.zXBXbXiX/.S.7XqX(.^.nXbXeX9XzX7X7X7XD.D.9XzX9XzXzXaXzXhXzXnXrX9XhXrXeX9X9X7X9X9X9XeX9X(.9X(.(.9X(.D.9XsXzXBXzXrXzXbXzXrXzXrXrXaXzXbXbXzXzXrXzXyXzXwX9XyXyXdXxXAXDXDXFXxXbXfXzXzXxXbXHXxXzXzXrXrXrXrXyXdXrXFXFXFX",
"KXKXKXKXFXFXHXGXFXHXDXxXdXyX0XdXZXZXHXHXZXvXxXfXAXzXdX0X0XyXxXDXDXZXFXHXDXGXdXcXdXrXdXcX7XD.rXzXdXxXxXvXFXFXGXJXHXFXFXFXZXvXfXvXaXBXDXdXwXwX7X7X7XzXcXcXvXAXHXZXZXZXDXDXzXaX9X9X7XwXaXnXbXvXvXFXvXxXvXxXbXHXFXZXvXZXZXvXxXxXbXDXFXtX0XZXxXAXxXvXzXDXbXfXxXdXZXHXGXDXDXZXDXDXDXZXdXfXDXvXAXxXDXDXHXDXxXdXdXdXdXxXvXbXvXZXFXDXGXGXFXZXGXZXGXGXZXGXZXFXxXvXZXDXFXFXFXyX1XZXHXZXDXDXFXvXfXfXDXvXDXcXcXcXbXxXbX0XzXGXbXDXGXDXyX1XZXDXJXHXFXZXGXJXFXFXGXGXFXZXZXGXFXFXJXZXFXZXFXJXSXJXJXKXJXKXKXFXSXgXHXJXGXJXJXJXFXJXJXFXZXKXHXFXZXGXDXbXZXDXZXZXFXFXAXZXDXbXxXdXfXdXxXyXaXD.7XrX9XA.7X7X7XwXwX7X9X9XwXbXzXaX<XS.9XbXGXzXdXrXyXrXzX<XzXzXrX9XrX9XrXzXbXrXdX9X9X9XzX9X9XwXDXzX7XrXrXrXD.9XzXzXrX9X7XD.9X9X9X9XwXrX7XrX9X9X9XdXdXrXdX9X9X7XnXrXzXaXF.c.F.B.F.F.F.F.B.D.D.D.S.S.C.(.D.(.9X9X7X9X9XaX9X9X9XwXaXrX9X9X9X8X8X9XrXaXaXrXrXhX9X9X9XaX9X9X9X9XeXaXrX9X9X9XzXzX7XrX7XnXaXzXdXcXbX8X9X9XsXsXrXaXrX9X9X9X9XrXzXzX9XwX9X9X9XrXdXdXvXDXHXdXHXvXdXvXFXdXdXyXdXdXdX0XdXdXaXcX0X0XZXZXDXbXdXxXzXdXzXrXrXrX9XrXbXrXrXzXzXzXdXwXdXvXZXHXaXbXdXdXzXbXDXdX9XdXrXdXzXbXbXbXwXzXzXbXcXHXdXcXGXcXdXdXdXzXbXDXzXcXzX9XrXdXzXrXrXrXzXzXl.rX7XA.wXbXbXzX9X9XzXbXZXDXHXHXGXDXDXDXrXbXzXzX7XrXwXbXnX7XA.F.B.(.7X7XqX/.iXiX/.S.(.A.7X9XrX9X7XzXrXhXzXnXnXzXzXwXhXrX7X9XeX9X7XD.eXhXeX9XsXnXnXeXrXhX9X7XsXnXbXDXbXzXnXcXzXdXdXrXdXdXbXzXbXzXyXzXrXwXrX8X9XzXxXDXbXDXvXDXHXHXDXDXxXcXbXHXbXzXrXzXbXzXrXdXpXrXyXGXvXvX",
"LXKXKXKXFXFXFXFXFXHXHXbXvXxXfXvXZXHXZXZXfXZXvXxXdXyXyXdXyXxXxXAXFXFXAXAXZXDXvXcX0XdX7XxX9X<X7XbXdXAXZXFXFXHXFXJXGXJXJXGXZXfXfXZXxXDXbXcXaX9X7XwX8XaXvXZXbXfXfXfXDXZXDXDXvXvXdX9X9X9X8XaXxXbXxXvXAXDXGXDXvXDXGXDXGXZXZXZXdXfXbXxXDXZXGXFXAXZXvXDXDXbXDXHXAXyXbXxXFXHXZXZXZXDXZXDXZXxXxXdXAXZXGXGXGXZXxXfXvXxXdXxXbXZXvXxXFXFXFXFXJXZXJXFXFXFXHXFXZXDXvXZXZXDXGXFXFXvXvXFXGXGXFXZXZXZXZXAXDXfXbXvXDXvXdXdXaXaXdXGXHXDXDXbXyXvXHXZXDXGXJXJXAXDXZXFXZXDXFXFXHXHXFXJXJXDXJXZXFXJXSXFXKXJXKXFXJXKXHXHXgXHXFXJXJXKXFXJXFXFXJXFXfXfXFXDXZXZXFXGXDXDXDXZXDXAXbXZXxXxXfXdXAXvX9XdXrXwX9X7X7X7X7X7X9X7XwX7XrXaXwXwXrX9X<XrXrXrXdXrXrX7X7XwX7XrX7X7X9XrXzXzXbXDXbXdX<XdXvX9XrXzXA.rXS.nXrXA.rXrXrX9XD.A.7XwX7X7XwX9XrXrXS.rX9XrXrXdX<XrXwX<XaX7XrXrXaXrXl.F.c.F.c.F.F.F.F.S.D.D.D.D.(.S.S.9X9X7X7X7XrXzX7XrXrXwXaX9X9X9XrX9X8X9X9X9XrX(.9XrX7XaXzXbXD.D.7X7X9XhXdXaXwX7XzXzXrXrX9XzXdXdXcXdXdX9XD.rXaX9XnXaX9X7X7X7X9XrXnXaXrXrXrX9X7XrXdXdXbXGX0XGXHXdXdXbXZXZXdXDXvXxXxX1X1XxXbXbXAXvXvXZXJXGXvXxXdXdXaXrXrXdXdXdXzXzXzXaXwXzXcXdXxXFXFXxXGXbXxXcXBXGXcXBXdXcX9XrXbXaXaXnXzXrXdXrXDXvXBXxXzXDXbXaXdXrX7XbXGXbXrXwXcXrXzXrX9XzXbXzX7XbXzX7XzXxXzXdXrXzXBXxXvXHXZXvXZXFXGXGXbXAXFXHXzXzXzXbXC.B.F.A./.C.qXiXiX9XeX7XrX9X7XrXrX7X9XrX9XrXrXnXnXbX9XzXrXrXhXeXrXsX9X9X9X9XrXeX9X9XeX9X9XaXzXeX9XD.9XdXcXbXBXcXzXzXzXzXzXzXzXrX7XdXbXDXcXzXwX9X>XrXzXvXAXFXAXZXxXAXbXDXbXFXAXbXvXHXbXcXvXbXbXzXrXdXbXrXrXbXyXzX",
"KXKXKXKXKXJXKXKXHXZXHXFXFXHXvXvXvXHXFXFXZXDXvXfXvXxXdXyXfXdXZXAXFXFXFXFXDXZXHXvX0XfXdXDX8XD.vXDXfXFXZXFXFXFXFXKXHXJXKXFXZXvXZXGXDXGXvXvXyX7X7XD.7XrXbXDXfXfXfXvXZXHXDXDXxXbXzX0XDXdX9XdXAXZXDXGXDXJXGXZXZXFXDXZXJXJXGXFXDXAXbXvXfXHXJXDXDXvXvXDXHXFXDXDXDXfXdXyX0XfXxXbXxXxXvXDXvXxXbXvXDXbXDXDXZXfXbXxXbXbXyXvXxXZXZXvXFXFXZXJXJXFXFXFXHXHXHXFXGXZXbXZXDXDXDXDXFXZXDXFXHXJXFXFXJXDXvXvXZXvXZXxXxXrXxXxXdXzXdXvXDXDXDXvX0XdXbXDXDXGXGXFXFXvXGXZXZXFXZXZXZXZXJXJXFXGXGXZXHXgXZXZXJXKXJXKXJXSXFXZXZXZXZXHXFXFXKXKXKXFXJXHXZXfXZXZXFXGXGXFXZXZXAXZXvXZXDXbXxXdXfXvXxXdXcXrXrXwX7X9X7X7X7X7X7X7X7XrXhXaXzXwX7X7X9X9X<X7XwXvXHX9XwX9X9X7XrX9XrXrXrX<XcXdX7XcX9XcXdX9XrXwXnX9XA.9X9X7X7XD.(.7X7X7X7X9XrXaXrXrX9XD.7X7X9X9XrXwXwXbX<X7XzX9X7X7XrX7Xc.l.F.F.c.c.F.F.F.C.F.S.S.F.D.D.D.(.(.7X(.9X9X7XaXwXrXrXrX9X7X7XsXaX9XaXS.sXrX9X7XrXeXhXsX9X(.9X9X9XaXzXrX9X9X9XzXaXrX9XwXzXdXrXaX9XzXaX8XaXrXaXdX8X9X7X7XD.7XaXnX7X7X9X9X9X<X9XdXdXHXHXvX0XFXHXvXZXZXDXHXDXDXZXGXvXxXbXfXdXFXvXxXDXHXHXFXGXDXGXrXrX9XdXbXnXzXBXnXwXzXwXcXcXvXHXfXbXxX9XdXbXGXDXHXaXDXBX9X9XrX7XDXzXrXvXdXbXbXGXvXaXdXdXcXdXrXnXzXrXrXbXrXcXrX9XzXzX9XbXwXDXzXzXwXzXyXrXdXzXbXzXxXZXZXFXZXgXgXFXDXFXFXbXDXbXzXzXrXwXA.A.9X7XA.A.S.9XrX7XqX7X7X7X7X9X9XaXdXaXbXzXrXzXzXaXzXrXrX9XrXhXrXhX7X9X7XrXsXeXeXhXhXhXaX9X9XnXnX9XrXdXbXbXDXcXdXzXdXxXAXxXdXxXdXzX8XxXbXdX9X7X8XrXvXAXDXxXyXxXGXbXZXDXZXxXvXxXAXDXdXxXvXcXAXbXzXyXzX8XrXyXzXvX",
"KXKXKXKXKXKXFXFXKXFXFXFXHXZXvXgXgXHXJXGXDXvXfXdXyXdXxXxXAXDXFXGXGXSXGXFXAXZXDXfXxXdXDXHXvX0XGXvXZXGXFXFXFXFXSXFXFXJXJXFXZXZXZXFXFXGXvXvXyX7X7XD.<X9XzXzXdXFXGXZXZXHXZXvXdXxXvXdXcXcXvXFXJXGXGXJXFXJXJXFXvXHXGXJXFXFXGXGXDXZXZXvXZXfXGXGXZXFXGXFXvXHXGXHX0XfXxXdXdXfXbXxXvXxXDXDXAXvXxXxXxXxXZXHXvXxXZXxXDXDXxXxXxXvXZXAXGXFXZXJXJXGXHXFXFXFXHXFXHXZXvXxXFXFXDXGXGXZXZXDXHXFXZXJXGXFXFXFXvXxXxXvXbXdXAXvXyXdXxXAXfX0XfXdXxXZXFXGXfXFXGXFXFXtXFXZXZXHXZXFXFXZXHXZXDXGXFXZXHXZXFXSXSXSXJXJXJXJXJXJXJXFXZXHXFXFXKXJXKXKXJXJXFXFXFXZXZXDXFXHXDXDXvXZXxXvXHXvXZXdXxXZXxXbXdXdXrXaXaXwX7X7X9X9X7X7X7XzXrXrX9X7XD.D.rX9X9X9XDXzX<XrXzX7XrXA.rX9XdX9XzXzX9X9XzXcXAX9XdXrX7XcX7XD.7X7XS.7X7XD.D.D.7X(.D.rX9X9XwX7XrXrXzXrXrXrXzX9XrX9X<XzXB.<XA.rXwX7XS.c.F.c.c.c.F.F.B.F.C.F.D.(.eX(.D.S.(.(.(.(.7X9XrXrXwX9XwX9X9X9XdXzX9XzXD.rX9XhX7XD.eXhX9X9XBXbXaX9XnXzXeX9X7XeXrXrXrXwXwXdX9X8XrXvXDX8XrX9XrXnX8XaX9X9X9X7XD.rXnX9XaXrXwX7X7XrXbXDXDXxXZXDXDXbXbXvXfXJXFXGXHXDXFXvXDXbXxXvXGXxXZXbXxXvXdXxXBXbXbXcXdXrXnXvXnXzXzXaXaXnXrXzXcXrXdXxXbXrXaXcXHXxXcXaXrXHXHX9X7X7XaXzXDXbXbXzXcXDXcXxX9XdXdXdXbXzX<X7XzXdX7XbXdXA.rXDXzXwXzXHXrXrXwXdX0XAXHXAXGXzXdXJXFXFXZXZXZXFXZXDXDXDXDXAXcXzXwXzXrX(.7X9XA.A.eX9XiX9X7X(.7X9XrXdXdXbXBXnXbXzXzXzXdXrX9XrXaXzXaXrX9XaXrXrX9XaXaXsXnXhXeX9X9XaXaXaXdX8XrXzXcXzXcXdXxXdXdXxXbXbXxXxXvXyXyXdXrX9X<XbXbXDXDXxXHXGXvXyXGXFXZXxXdXfXAXvXxX0XDXDXAXFXvXvXvXyXzXyXrXrXzXzX",
"KXKXKXKXKXKXFXFXKXGXJXGXFXHXvXdXZXFXFXFXvXxXdXdXzXDXZXDXZXDXDXDXGXZXFXZXZXZXbXxXdXdXDXGXHX0XvXGXFXGXJXFXFXFXHXFXSXHXFXGXHXFXGXGXDXAXxXvXdXrX9X7XrXwX9XzXvXAXZXZXFXGXZXvXvXxXDXbXdXZXDXGXGXGXGXHXJXFXJXFXgXHXJXFXJXFXFXGXFXFXDXfXZXZXZXHXZXJXGXZXFXZXZXdXvXbXfX0XxXdXdXrXdXzXbXdXdXdXdXxXcXxXcXvXAXbXAXvXDXDXAXxXZXvXZXFXFXZXFXJXJXFXHXFXFXFXFXFXZXGXZXfXDXDXDXGXGXAXZXGXJXGXZXJXJXGXFXHXZXZXZXZXbXbXvXDXfXvXxXdXZXxXDXbXvXvXDXHXZXZXyXvXZXfXvXvXHXHXHXFXZXZXZXZXvXZXFXvXvXHXFXFXFXJXFXJXJXJXKXJXJXFXHXJXFXFXFXFXJXKXFXJXJXFXSXFXZXZXZXZXHXHXZXFXZXZXFXZXDXfXxXxXzXxXbXaXrXaXrX9X7XrXwX9X7X7X9XrXwXrXrXzXrXwXzXrXrXrX9XrXzXyX7XrX7X7XwXwXrX<XrXrXrX9XrXrXS.rXDXrXrXS.7XaXA.D.7X7X9XD.A.D.7X9XD.9XrX9X9X9XrXaXrXrXzXzXdXdXzXA.A.9XS.S.A.7XrX7X7XB.l.l.c.c.c.c.F.c.C.F.D.F.C.S.S.S.(.(.(.D.9XzX7XrX9XrXrXrXzXdXdXaX9XaXsX9X7XrXD.S.9XsX(.7X9X9X(.sXaXzXzXsX9XrXrXaXzXaXcXdXdXdXxXbXHXdX9XaX9X<X8XaXrXrXrX9XD.rXnXrXwX9X9X7X<XdXHXGXHXvXbXcXbXvXfXvXAXJXZXfXZXfXFXvXdXGXFXfXDXfXfXbXvXdX<X0XdX0XdXzXDXcXrXcXzXwXrXzX7XaXbXnXdXvXHXdXrXbXzXbXDXbXzX9XHXDXDXaX7XwXD.wXDXzXbXzXbXzXzXcXdXzXzXdXbXbXzXzXdXrXrXzXcXdXbXbXzXwXbXbXaXzXrXzXyXAXHXxXbXcXbXDXDXFXHXHXFXZXHXDXHXxXvXxXzXzXbXcXbX(.aXbX9XS.A.hXwXrXaXzXbXDXFXDXdXdXbXHXDXdXzXdXrXrXzXdXzXrXzXzXbXzXaXrXaXaXrX9XdX9X9XdXrXrXaXaX0X0XrXxXvXxXvXbXbXdXxXvXxXZXvXyX0X8XvXxXxXvX8XvXDXZXdXdXHXGXdX0X0XdXfXGXDXfXfXAXxXfXAXFXFXDXAXAXzXzXxXpXwX7XwXzX",
"KXKXKXKXKXJXKXJXJXKXFXHXZXFXZXgXvXGXFXFXvXDXxXdXdXbXAXvXZXZXFXFXFXFXAXxXZXDXxXdXyXdXDXFX>XdXDXxXZXZXHXZXFXJXFXHXHXFXGXGXFXGXGXDXZXbXvXxX0XzX9X7X(.rX9XzXzXdXyXZXFXJXHXZXAXdXbXvXvXHXFXJXGXJXGXFXJXJXGXHXZXFXFXJXJXJXFXSXFXFXZXZXFXFXFXJXFXFXFXAXFXdXbXDXvXxXdXDXbXxXdXdXdXbXbXdXrXrXdXdXzXdXxXbXxXvXvXbXbXfXZXvXDXvXDXFXZX1XJXJXJXZXZXFXZXFXFXZXFXFXfXZXFXFXJXGXGXFXvXZXFXGXHXFXGXFXGXFXGXHXDXZXxXDXvXDXbXdXvXdXDXZXvXZXvXHXDXZXDXZXxXFXZXdXvXGXHXHXFXZXZXJXZXZXZXDXZXDXHXZXFXFXFXHXFXJXFXJXFXZXFXHXFXJXHXHXFXFXJXKXFXFXFXFXgXgXHXZXZXFXGXFXZXFXFXDXDXFXbXvXdXdXxXvXzXdXrXrXwX7XrXaX(.7X7X7X7XrXaXrXrXrX7XrXaXzX9X7XrX9XdX9XrX9XS.aX7XaXrXdXrX9X9XrXrXdXrXrXzX7X7X7XrXnXA.S.7X9X(.D.(.A.7X7XS.7X7X7X7XDX9X9XzXzX7XrXrXrX9XS.S.A.7XA.B.7X7X7Xc.l.c.c.B.c.c.C.(.C.F.F.(.C.S.C.(.(.S.(.D.(.D.7X7X(.9XzXzXrXdXaX9X9X9X9XaX9X7X(.S.7XD.D.S.rXrX9X7X9X9XsXdXsX9XaXrXzXaXaXcXBXaXaX0XHXbXbXdXdXcXcXDXcXzXdX9X9X9XzXzXwXwXrXrXwX9XrXbXbXbXaXdXcXxXbXZXDXZXFXZXxXDXGXvXxXGXdXvXZXDXvXfXHXDXyXS.dX0XvX0XDXbXHX9XzXaXrXaXrXaXrXdXzXBXcXbXDXcXaXzXnXcXdXrXzXzXDXrXrXrXwXD.7XzXzXzXzXzXzXbXzXwXzXcXnXzXrXdXzXzXdXzXdXdXzXzXzXzXbXzXbXbXzXzX9X8XvXvX9XbXcXxXxXFXGXJXJXGXtXvXDXxXvXzXDXAXDXbXbXrX<XA.7XaXzXwXwXzXbXHXHXDXDXGXAXdXbXzXdXbXHXHXbXzXrXBXdXdXzXzXBXHXzXzX9XdXrXdXzXdXnXdXrX9XdXcXbXcXcXyXbXxXxXxXbXfXfXDXbXxXZXxXyX0XdXvXbXvXzXrXV.yXDXZXyXxXJXdX<XV.vXGXfXvXfXZXxXCXGXDXDXFXvXZXAXxXyXdXrXdXrX7X7X",
"KXJXJXKXKXKXKXJXJXFXZXFXZXvXfXdXdXDXGXZXxXvXbXdXdXzXcXdXfXZXFXDXAXFXZXvXxXAXxXdXaXaXzXdXA.bXzXbXvXfXZXZXZXFXHXHXvXvXvXDXHXxXfXdXxX0XbXxX0XcX9X9X(.9XnXrXdXrXdXZXHXFXFXZXdXxXZXvXvXFXJXJXJXJXSXFXFXCXKXHXZXFXFXFXKXKXFXSXFXHXZXFXGXFXJXFXFXHXZXHXFXvXZXDXbXxXzXxXxXbXcXvXcXzXcXdXdXxXdX0XyXdXdXxXxXbXzXvXvXZXDXZXvXZXZXFXFXJXJXKXCXKXJXHXZXGXFXZXFXvXxXZXZXGXJXFXGXZXfXZXJXZXJXZXZXJXJXJXGXHXFXvXfXZXDXvXfXZXvXFXvX0XfXFXZXGXvXDXGXxXDXvXDXDXvXGXFXGXDXZXZXGXGXZXGXAXFXZXZXZXFXFXZXFXHXJXFXFXJXZXZXHXHXHXHXHXFXFXKXSXSXFXFXKXFXCXFXFXSXSXFXFXHXFXFXAXJXZXZXGXyXvXvXDXcXrXrX9XwX9XzXrX7X7X7X7X9X9XwX7XwXrXA.7XwXrX9X9X9XA.9XdXwXwX7X7XrXzXrX7XrXdXrX<XyXrXdXAXyX7X9XwXrXS.(.zXaX7XD.S.A.A.7X(.S.9X9XrX7X7XaX9X9X7XwXwX7XwXS.rXS.S.B.7XA.7X7X7XB.c.l.B.l.F.l.F.F.F.F.B.C.F.A.S.C.S.7XD.(.(.S.9X9X7X9XaXzXrXD.rXdX9X8XrX9XD.(.7XS.7XD.7X7XzXcXrXrX9X9XrX9XrXaX9XzXzXaXrXzXzX9XdXAX1X0X<X0XbXvXGXDXbXcXdXcX9XaXnXdXrXdXbXzXwX9XrXrXbXvXvXcXbXdXfXZXDXvXFXFXHXZXDXZXZXDXxXDX0X0XbXZXZXvXvXxXxXdXdXyX0X9X9XDXzXzX9XdXrXrXdXzXaXrXrXdXzXaXnXzXdXrXrXrXdXaXaX9XrXwX9X7X7XzXzXrXaXaXzXnXdXdXaXnXvXnXnXzXnXbXHXbXHXbXrXzXzXdXbXwXrXdXdXcXdXyXcXbXDXdXcXDXAXDXFXGXJXFXHXgX0XyXbXDXvXDXAXDXvXdX<X9XrXrXbXnXcXbXFXHXDXHXDXGXZXfXxXdXxXvXxXvXbXbXAXAXzXdXvXzXHXDX9XcX9XdXzXrXcXbXcXcXzXcXDXxXvXdXzXyXxXvXxXdXdXfXfXZXZXfXvXdXdXdXdXvXAXDXAXfX>XtXvXxXfX0XyXdX0X<XAXAXAXAXvXGXxXZXGXZXGXFXfXZXbXdXyXxXxXyX0XrXrX",
"FXKXJXJXJXKXKXJXFXZXZXZXZXvXfXdXdXDXDXdXzXdXbXzXzXdXdXdXxXDXHXDXDXHXFXxXcXdXdXaXrX9XrX9X9XcXdXDXHXAXAXAXFXFXDXZXvXxXxXDXHXxXzXdXdXrXzXxXbXdX1X8X9XsXhXrX9XrXbXGXGXDXfXdXdXbXDXdXZXDXFXGXHXJXFXFXFXFXKXFXHXFXFXFXKXJXKXFXFXSXZXGXFXFXJXFXFXGXFXZXFXZX0XdXZXHXdX0XBXdXrXDXxXcXcXdXdXxXxXvXxXdXdXdXdXzXvXbXfXvXbXbXDXFXFXFXFXFXFXFXFXJXFXZXHXJXGXZXGXHXZXFXDXFXDXHXZXZXtXZXZXFXZXfXvXJXJXFXGXFXFXHXDXDXvXfXZXDXDXDXfX1XvXDXGXFXZXxXZXxXDXvXZXZXZXGXZXHXFXZXZXGXZXfXAXZXFXFXFXFXHXZXZXFXFXFXZXFXFXHXFXFXHXHXFXFXFXFXSXSXFXFXFXJXJXSXFXFXFXFXJXFXFXFXFXFXDXZXxXZXvXvXyXxXyX9XrXwX7XrXaX9XwX7X7X9X7X7XA.7XwXwX9X7X7X9XrXrX9X9X9XdXzXrX7X7XrXrXzXrXzXdX9X8XDX9X9XdXrXdXwX7X(.7XhXaX9XrX7XD.S.A.9X7X7XwX9X7XrX9X9XwXrX7XzXzXwXzX9XaXB.A.7X7X7XS.B.7X9Xl.B.c.l.F.F.b.F.c.F.F.S.B.S.C.C.S.B.S.D.7X7X(.(.9X7X7X7X7X7XrXrX7X9XD.aX9X7X7X9X7XaX9XrXrXrXdXaXnX9X<XrX9X9XaXrXaXzXrXaXzXdX0XdXbXvX0XvXxXGXGXGXGXzXBX8X9XaXnXzX9XrXcXzXwX7XrXdXbXHXbXcXbXdXxXZXZXFXGXJXGXfXZXZXfXdXdXHXFXdXAXbXvXDXHXdXyX0XdX0XxX9X9XDXDX9XrX9XrX9XdXzXrXrXrX9XrX9XaXrXdXrXrXdXrX9XaX9X9XS.A.9X7XzXaXrXzXdXaXzXrXzXzXrXcXnXnXzXnXzXzXcXzXzXrXdXcXdXdXzXzXDXcXrX9X0X9XbXnXvXvXcXxXHXHXGXGXJXJXFX0XdXfXAXDXZXZXDXHX8XdXbXdXrXDXbXHXbXHXFXFXGXDXGXJXDXvX:X<XxXxXzXdXzXvXDXcXcXvXdXcXdX>XyX0XzX0XzXvXAXvXzXdXdXaXxXzXbXvXdXdXdXvXZXvXfXZXZXZXxXvXxXyXxXxXxXDXAXfX8XyXFXAXfXxXxXvXDXZX8X0XDXFXZXxXxXxXFXFXFXFXDXGXFXvXxXdXvXDXvXdXrX9X",
"FXFXFXFXJXJXJXJXGXZXZXZXDXZXvXdXvXFXbXdXzXdXcXvX9XrX9X9XrXbXDXDXbXDXDXbXzXdXrXrX9XaX(.9XzXdXbXbXbXvXvXvXbXZXbXvXxXdXdXcXvXdXrX9X8XrXaXvXbXdX0X8XrXsX9XeX9XwXzXxXvXxXdXxXDXDXDXyXyXZXHXFXZXHXFXFXJXFXJXFXJXJXKXFXKXKXKXJXFXSXFXJXFXFXFXZXZXFXHXZXAXZXFXZX0XDXDXdXdXxXvXAXbXAXcXdXxXZXAXFXZXfXdXdXdXxXvXvXxXdX0XZXFXGXGXKXKXKXJXKXJXJXFXHXHXJXGXFXGXFXZXDXFXFXZXHXFXFXZXfXZXGXZXgXFXJXJXHXGXFXHXFXZXHXZXZXGXGXGXZXZXtXxXZXFXZXHXZXAXZXvXvXDXDXGXDXZXZXHXDXFXFXZXdXDXDXDXZXZXAXAXDXFXFXFXFXZXFXSXHXFXFXFXFXFXFXHXSXFXFXJXJXKXKXKXKXJXJXJXJXJXFXFXFXGXGXDXFXZXvXDXAXdXyX9XaXwXrX9XrXrX7XwX7X7X7XA.7XA.7XA.wX9XA.zX7X>X9XrXbXzXrXbXzX7X7X9XrXrX7XdX<X9X9XcXrXwXrX7X9X9XrX7X7X9X9X9X9XwX(.7X7XD.S.wX9XrX9XrXaXzX9X9XdXdXzXwXwXzXbXS.S.A.<XrX7XS.A.7XB.l.B.c.l.l.B.B.c.B.B.F.C.F.S.C.C.D.D.B.D.7XS.A.7X7X9XwX7X<XD.7X9XrX9XaXBXD.wX9XrX7XrX9XrXvXcXzXcXdXdXdX9XzX9XwXrXzXrXdXzXbXbXxXZXDXHXZXJXFXGXvX<X1X1XdXcXxXdXzXzX9XzXrXwXrXzXnXDXcXaX9XaX0XxXHXDXZXFXFXZXDXZXxXZXfXfXxXDXvXZXvXfXAXvXxXvXdXdXyX0XrX8X9XcX9XdX9X9XrX9X9XrXaXrX9XrXwX9XD.7X9XdXaX9X9XrX9X7X7X7X7XrXzXaXrXbXzXrXzXaXzXaXrXnXzXzXzXwXzXhXrXzXzXzXbXzXdXdXdXdXdXzXdXdXdXdXDXcXBXHXxXbXZXgXHXJXvXHXdXxX1XbXGXFXFXxXHXDXFXvXxX<XbXGXHXvXvXGXGXGXFXAXDXZXZXfXxXvXfXdXdXyXdXbXAXxXxXzXxXxX0X0XdXfX8XyXyXxXGXFXDXdXdXyXZXvXdXdXxXfXdXFXJXGXxXDXAXZXdXyXvXvXxXAXAXAXZXfXyXGXAXZXfXxXZXFXDXdXdXxXxXxXGXFXZXdXFXFXJXFXvXFXZXZXZXdXfXvXvXvXxXvX",
"JXJXFXFXFXFXJXFXSXHXFXZXZXZXAXvXfXGXxXdXaXaXaXnXaXsX9X9XaXvXbXxXxXxXcXdXzXaXaXrX9X7X9X9XwXzXcXzXbXDXFXDXbXvXxXxXcXdXdXaXzXrX9X9X<X0XaXGXvXxXdXrXaXrX9XhXrX7XrXzXdXdXdXxXbXAXDXdXfXZXGXFXFXHXJXFXFXJXKXFXKXFXKXKXKXKXKXKXKXFXFXJXJXFXFXHXHXHXFXFXAXZXfXZXfXyXyXzXxXbXDXxXbXbXbXDXbXDXDXFXvXZXvXvXxXbXxXxXvXdX0XvXJXJXFXFXKXKXKXKXKXKXHXFXFXFXFXGXFXFXZXAXDXFXHXFXZXFXJXZXfXfXgXfXZXFXGXZXFXFXHXFXvXDXFXFXGXFXFXHXZXfXZXGXGXZXvXfXbXAXZXvXxXvXDXZXZXHXvXFXFXZXDXfXZXFXFXZXvXDXDXGXFXFXZXFXFXFXHXFXZXFXGXFXSXHXHXSXFXFXJXFXKXKXJXKXJXKXKXJXFXFXJXJXGXFXFXFXZXvXvXZXAXyXrXdXwXrX9XrX9X9X7X9X7XD.7X7X7XD.7X7XA.9XrX7X<XA.<XzXzXrXnXrXwXrXaXrXwXyX9XrX9XzXdXrXwXrXrX9XD.D.A.A.A.S.7X9X7X7XD.A.9XD.7X9X9X7XrXaXwXwXaXrXwXrXrX9X7X7XS.7X7XA.7X7X9X7X9XzX(.A.A.B.B.l.c.B.B.c.F.C.S.C.S.S.(.(.S.D.(.D.A.S.7X9X9XD.<XA.D.<X<X9XdXdX7X7X9X9XrXrXnXbXzXbXHXHXHXDXBXbXbXzXyXzX7XaXzX9X9XxXvXvXbXDXJXJXAXZXdX0X:XdXdXcXbXxXzXdXzXzXzXwXrXrXrXaX9X0X9X0X0XvXFXDXvXvXGXFXGXZXZXdX0XxXvXFXxX1XdXDXfXZXDXvXAXxXrX8XrXzXS.wXzXrXrXrX9XrXrX9XrXzXaX<XrXA.S.S.S.cXzX<X7X9XdXwXwXrX9XbXnXhXzXbXzXrXzXzXaXaXzXzXrXrXzX7X7XbXrXzXzXaXdXnXdX9XdXcXzXbXDXzXdXDXGXDXdXvXxXAXZXFXHXGXHXZXGXZX1XGXdXZXxXGXGXZXFXDXFXZXFXFXDXFXfXGXfXDXGXGXGXFXfXZXFXDXxXAXFX0X9XzXzXyXdXdXvXfXyXGXDXZXvXtXyXvXZXDXHXxXdXxXFXDXxXfXbXvXfXZXAXAXZXAXAXxXyXrXvXvXvXAXbX0XdXdXxXJXJXFXfXfXxXbXAXvXyXGXdXvXZXFXFXAXfXJXGXHXfXfXvXZXFXZXZXvXdXfXdXdX",
"JXJXGXGXFXFXFXFXFXZXZXZXFXHXAXdXdXFXcXzXrX9X9XzXzXrXrXsXaXrXdXrXxXxXdX9X9XrXaXhX7X(.7X7X9XwXrXdXzXbXFXHXvXdXdXdXzXaXaXsXhXaXrX7X8X8X0XbX0XdXbXbXHXzX9X9X9X7X9X9XzXdXdXbXDXHXDXbXFXGXFXZXJXFXJXFXJXJXSXSXJXJXKXKXKXKXKXKXKXFXFXFXZXHXFXFXFXHXHXHXAXDXFXvXvXyX<XvXxXzXxXfXdXvXAXbXGXDXFXZXfXZXZXFXZXbXvXAXfXvXZXfXHXJXJXKXJXKXKXKXKXKXSXKXJXJXFXFXFXZXZXFXFXGXGXFXGXFXFXGXfXfXvXAXtXfXFXFXGXGXGXGXFXHXFXGXFXHXZXGXJXZXFXGXDXZXfXvXvXvXZXvXdXxXvXZXDXZXfXAXAXZXSXvXfXFXGXDXZXGXFXGXFXFXFXHXFXFXFXFXGXJXJXFXHXFXFXFXFXFXJXFXKXFXKXKXKXKXKXJXFXJXJXFXFXFXFXHXDXvXfXZXvXdXdX9XrXrX7XwX7X9X7XrXrXwX7X7XA.7XA.7X7X7X9XwX7X7X9XrXwX7XrXrXwXzX7XrXzXrXrXcX9XdX9XrXzXcXzXrX7XS.7XA.S.S.(.7X7XD.9XrX9XS.9X7X9XzXrX7XrXrX7XrXwXrXrXS.B.D.7X9XrX7X7X9XD.7X7X7XzXzXzXbXzXc.c.l.B.B.c./.S.S.F.A.D.D.(.D.A.7X7X7X9X9X9X<X9X<XD.D.7XrX9XaXdX8XaXaXrXaX9X9X7X9XrX0XbXcXzX9XcXrXaXdX8XcXcX9X9XdXdXZXZXAXFXJXDXtXFXFXfXdXxXDXDXxXcXvXzXzXrX7XwXrXrXrXA.<XD.0XfXDXGXFXZXDXGXZXZXZXDXdXxXfXdXHXdX8XdXxXxXAXbXyXdXdXdXdXyX<XyXxXyX8XrX9X7XrXdX9X9XrXrX7X9X7XA.D.D.S.S.9XD.<XzXzXwXdXbXzXzXzXzXbXaXrXaXzXrXnXrXrX7XaX7XzX9XhXzXzXrXbXzXnXrXzXrXdXAXyX9XbXFXDXbXbXdXDXbXvXZXJXHXHXFXFXGXvX0XZXxXgXfXZXJXGXfXfXGXFXJXfXGXGXGXfXtXAXvXvXZXfXtXFXZXDXZXfXGXdX9XdXzXzXyXyXfXvXZXxXJXGXZXfXfXxXfXvXFXDXxXxXZXZXvXfXvXvXZXAXAXFXfXxXDXvXdXyXyXpXzXzXvXdXxXyXtXZXJXFXZXAXbXvXxXzXxXdXyX1XxXvXAXxXdXGXDXZXvXZXZXfXZXZXAXvXfXfXxXxX",
"GXFXFXGXFXFXFXFXZXZXHXFXDXZXvXdXZXDXvXyXaX9X9X9XrXrXzXaXzXcXcXrXdXcXrX9XA.9X9XsX(.zX9X7X7X9X9XrXrXbXHXHXAXxXdXrX9X9XeX9XsXsX9X7XD.dXDXAXvXAXHXZXzXzXwX(.7X7X9XrXdX9X0X9X9XcXbXDXFXGXZXfXSXFXFXJXJXKXKXKXKXKXKXKXKXKXKXKXKXFXFXFXZXGXGXGXFXFXFXZXZXDXGXvXdXfXAX<XdXbXxXbXdXZXfXfXGXZXAXZXfXZXZXGXDXZXZXGXDXvXZXvXgXKXKXKXKXKXKXKXFXKXFXKXJXJXGXFXFXHXZXFXZXGXJXJXGXZXGXJXZXtXZXFXdXfXGXGXFXFXGXGXFXZXZXHXZXGXHXFXFXfXFXFXFXZXxXZXAXxXvXZXvXZXvXZXDXvXZXZXZXFXZXZXZXFXGXAXZXGXFXDXGXGXGXFXJXSXFXFXJXJXFXFXHXFXFXFXKXKXKXFXKXKXKXFXKXJXKXFXSXJXJXFXFXFXFXHXFXZXbXDXxXdXdXrXrXrXrX9X(.9X9X7XwXrX7X7X7XS.A.B.7XbXrX7X7X8XrXwXwXrXrX7XrX7XrXaXrXrXrX9X9X9XaXdXzXzXrXbXbXD.7XS.7X7X7XS.7XD.zXzX7XS.rX9XrX<XrXwXwXzXA.A.rXA.S.A.D.7XrXhXrXrXrXrXS.D.7X7X7X7XrXhXiXzXc.c.l.l.B.B.S.B.S.D.(.F.S.A.D.9XrXrXrX9XrXaXwXD.7X9XaXrXA.rX8X7XaXdXzXaXA.rX9X<XdXV.S.aXzX9XA.9XrXdXzXdXdX9XyXxXvXvXfXZXDXJXJXZX1XyXdXdXDX0XvXxXdXvXcXzXrX7X7X9X9X9XaX8X<XaXvXbXAXDXvXZXtXtXfXDXZXZXbXdX0XdXdX8XxXvXxXxXzXdXyXxXxXdXxXvXyXzXzX8XdXdXrX9X9XrX9X9X9XrX7XbXD.S.D.D.D.S.S.9XzXBXzXwXbXdXrXzXzXnXaXaXrXrXzXrXaX7XwX7X7XrXzXrXrXzXnXDXDXzXcXdXrXdXrXvXyXHXxX0XxXcXdXbXZXFXDXFXJXJXFXGXvXFXdXyXvXFXZXJXGXFXFXJXFXFXFXFXGXFXFXDXZXyXDXvXtXZXZXdXZXFXZXZXZXxXDXzXrXdXxXZXvXDXGXJXJXFXJXFXZXZXZXDXDXGXZXdXbXDXvXdXfXfXZXxXfXvXtXyXbXzXrXrXrXyXzXyXyXrX0XyX8XvXJXJXGXFXZXFXHXbXvXbXdXxX0XAXfXAXDXvXvXZXZXAXZXZXDXZXAXxXdXyXdXZX",
"HXZXHXHXHXFXGXFXFXHXHXFXZXbXfXdXGXvXfX0XrX9X7X7XwXrXwX9XrXbXbX9XdXzXzX9X9X8XrX9X(.aXrXS.D.9X7X9XyXcXbXbXdXyXrX9X7XD.7X9XeX9XD.A.S.cXHXvXZXZXZXZXvXbXwX7X9X9X7XD.9X9XbXrX9XdXvXHXZXDXZXZXZXFXFXJXKXJXFXJXKXKXKXKXKXKXKXKXKXFXJXFXFXGXFXHXHXHXDXZXZXZXGXDXbXDXAXfXDXGXvXDXDXbXfXFXZXZXZXZXFXHXFXFXFXFXZXFXGXZXgXZXZXKXFXKXKXKXKXKXLXKXKXKXKXJXGXJXGXGXZXFXHXFXFXJXFXfXZXFXGXxXfXfXZXZXFXHXHXZXHXDXZXZXZXZXHXGXFXZXZXvXFXDXDXZXvXvXdXxXvXAXxXxXxXHXDXvXFXZXAXGXZXZXDXAXFXFXFXFXDXZXFXFXFXFXFXGXFXFXJXGXFXFXHXSXSXHXFXJXKXKXJXKXKXFXFXSXFXSXSXJXJXJXFXFXHXHXHXZXZXZXvXdXdXdXwX9XrX7X7X9X7X(.7X7X7X7XrXS.7XwXzX7XrXzXA.9XwXwX7X7XwXrXrXwXaXbXyXrXdXA.rXdXrX9XrXzXzXzXaX7X7X7X7XS.D.9X7X7XD.(.rXrX7XzX7XzX7XzXzXzXcXS.<X<X7X7XA.9XaXrXwXrX9X9XA.S.B.S.D.7XB.B.qX9XrXA.A.S.B.B.c.D.A.7X7XS.S.D.9X9X9X7X7XS.7XdX9X7X7X7XrXzXzX7X<X9XaX9XaXrX7X7X9X9XD.A.1XS.BXnXrXDXcX8XdXsXaX0X8XdXvXxXZXfXFXGXfXtXZXtXZXDXxXDXxXxXcXvXrXdXrXrX9XrXrXrX9XA.<XrXyXdXvXvXfXyX0XxXfXDXvXdXdXdXdXdXDXdXAXDXdXvXxXbXFXDXdXdXzX0XxXzXxXbX8X0X8X9XrXrXyXzXdX7XrXzXzXBXbXBXzXc.7XrX7XaXDXzXzX9XrXzXzXaXrXzXrXrXzXaXrXzXD.9X7X7X9XbX7XrXbXnXnXnXcXcXrXzXrXAX0X0XDXZXFXFXDXDXfXdXZXHXKXGXJXFXFXHXyXtXGXJXFXJXJXKXKXJXFXZXFXHXZXgXGXGXZX1XfXvXfXZXFXfXJXFXdXAXAXvXAXvXAXdX8XyXdXFXGXJXJXgXFXFXCXgXZXvXZXDXDXZXDXDXfXdXxXbXDXvXxXdXtX8X8X8X8XyXrX7X9X9X8X<X8XdX1XdXFXZXZXFXAXHXDXAXdXbXdXdXyXdXdXxXFXfXxXvXxXZXZXFXZXZXAXZXxXpXyXxX",
"HXZXZXHXHXFXJXJXJXJXFXGXdXdXdXDXGXxXxXdXrXwX9XrXrXaXrXrX8XrXzXdXdXvXcXrXrXaXaXrXS.7XS.S.A.S.9X<X9XzXzXdXrX9XdXdX9XD.7X9XeX7XS.S.9XZXFXJXJXHXHXGXvXHX7X7X7XD.<X7X9XrXHX9X9XdXDXGXZXZXFXZXZXSXZXZXJXFXFXKXKXKXKXKXKXKXKXKXKXFXJXFXGXGXHXFXFXHXFXHXfXZXDXHXFXDXDXFXDXFXZXZXFXHXFXfXfXGXGXFXJXFXFXtXFXFXFXZXFXJXHXSXHXKXJXKXKXKXKXKXKXKXFXKXKXFXHXGXFXGXGXGXGXZXCXGXGXZXZXZXFXFXfXFXZXvXZXZXGXGXFXHXHXZXZXFXFXvXZXHXZXHXAXAXZXvXvXdXxXxXdXvXvXvXvXDXDXZXDXAXFXFXAXZXFXZXFXDXAXAXFXFXFXZXFXZXFXJXZXZXFXFXFXGXHXCXgXZXFXFXKXJXJXKXJXKXFXSXFXFXFXFXSXHXGXZXFXHXDXZXZXxXvXbXdXaX9X7X7X7X7X9X(.7X7XS.<X7X7X9XzX7XHXbXbXbXdX9X7XrXrX9XrXrX7XaXrXzXwXrX9X9X9XrX9XrX7XwXwXwX7XrX7X7XwXzXrXA.aXS.A.7X7XrXrXwXdX7XdXzXA.7X7XA.A.<X7X7XD.9XrXrXwXrXrXrX7XA.S.7XB.(.A.l.z.qXqXqXHX9XB.S.c.S.S.A.7X(.S.S.7XD.7X(.7XS.7XaXD.D.7XS.D.aXzXnX8X<XS.rXzXnXrXaXcX8XD.S.S.rX<X<X9XaX9XdXaXzXzXzXdXdXdXvXvXHXGXZXFXZXAXJX0XDXGXGXAXxXdXzXrXdXaXzX9XrX9XrX9X9XzXbXdXdXbXdXyXxXAXbXDXZXAXZXZXvXZXDXDXvXZXvXvXxXDXDXHXdXzXcXyXdXyXzXdXdXDXvXdXrX9X9X8XrXyXrXaXnXbXrXS.S.B.D.S.9XrX7X7XwXyXrXdXzXrX9XrXzXaXzXaXnXbXzXrXwXrX7XzXzXwXrX7XzXdXdXdXzXzXzXzXdXAXAXfXFXAXHXZXGXFXHXHXJXJXJXHXJXGXFXtXGXJXJXGXKXJXFXFXJXJXFXZXCXtXFXGXGXyXfXxXFXJXZXAXFXJXKXAXdXxXZXzXzXGXdX0XyX<X1XGXJXZXSXCXGXZXHXvXfXAXvXGXGXZXxXdXdXxXbXAXvXbX0X>X8X>X8X8XwXrX7X7X7X9X<XxXxX8XyXfXZXFXDXAXGXFXvXyX9XdX9XyX8XxXxXdXxXdXyXxXAXZXZXZXZXZXxXxXZXfXpX",
"ZXZXZXZXFXJXJXFXJXFXJXGXvXgXxXDXDXbXdXyXwX9XwXrXcXzXzXGXbXyXdXvXbXvXbXDXGXcXdXzXrXS.A.S.S.S.D.7X7X7XrXrXwXrXaXzXaX9X(.9X9X<XS.1X2XvXJXZXgXvXZXZXvXxXrX<X<X7X<X7XD.nXcX9X0XbXGXFXZXFXGXGXSXSXZXCXJXJXKXKXKXKXKXKXKXKXKXKXJXKXJXKXJXFXFXHXHXHXFXFXZXZXAXFXHXHXJXZXDXZXvXAXZXDXFXxXGXGXZXFXZXJXZXZXZXSXZXFXSXJXJXJXJXKXFXFXKXKXKXKXKXZXFXFXFXFXFXFXFXHXJXFXFXSXFXJXJXFXfXZXFXHXGXGXFXfXDXFXDXFXGXFXDXvXDXFXZXZXvXZXZXAXZXAXvXvXfXfXxXxXbXxXfXxXxXdXxXDXGXZXGXFXFXAXxXZXZXFXHXZXFXZXHXZXFXFXGXHXFXGXJXJXFXHXJXZXCXZXZXHXKXJXJXKXKXFXSXKXKXFXFXFXFXFXFXHXHXZXDXZXbXxXAXDXxX9X7X7X7X7X9X(.7XwX9XA.7XrXA.7X7XrXbXcXxXdXvX9X9X9X<XrXwXaXrXaXaX9X7X9XwX9XrXaX7X7XnXwX7XrXwXrXwX9XrXzXaX7X7X9X7X<XaXrXrX7X9XwXrX7XwX7XS.9XA.A.7X9X8X9XaX8XrX9XwX7X7XA.7XrXB.F.B.l.l.7XbXzXwXrX7X9XS.B.B.S.A.(.7X7XB.S.7XD.S.A.zXS.B.S.B.S.S.wXzXnXaX<XS.rXzXbXaX7X9XdX0XdXxXvXdXxX0XdXrXaXaXcXdXxXvXFXGXFXFXAXDXAXGXZXZXfX<XGXGXDXDXdXyX9XzXzXrXrXzXaXwX9X7XnX9XaXdXaX0XvXAXHXJXZXZXvXvXxXZXZXZXZXxXZXZXfXvXbXvXxXxXdXbXvXxXxXxXbXDXzXcXzXcXrXrXdXbXwXwXwX9XdXS.S.B.S.rXwXrXrXzXwXzXvX7X7XzXrX(.B.wXbXzXbXnXbXzXbXzXzX8XzXrXdXrX9XrXzXzXvXvXvXcXzXHXyXvXxXvXJXDX<XyXGXGXJXJXfXZXJXJXJXJXGXHXfXKXJXJXFXZXHXJXSXZXZXZXtXJXHXDXfXFXxXZXGXGXDXDXvX8XfXyXxXfXfXyXdXAXdXyX8X8XfXGXfXGXJXJXFXGXFXxXxXvXbXDXDXxX0XdX0XdXxXAXfXyXtX6X:X>X>X:X7X8X<X9XA.rXDXxXyX8XV.V.dXxXZXZXZXAXAXxX0XyXyX9X9XdXrXdXdXdXyXfXxXZXZXAXAXZXFXSXAXAXxX",
"ZXHXZXHXKXKXJXKXFXJXJXGXZXgXZXbXDXvXyXdXrXrXrXzXvXDXzXzXyX8XyXAXvXDXDXGXbXxXrXA.D.S.D.<X(.D.7X7X(.D.7X7X7XwXrXrX9X9X9X8X8X<XS.1XdXSXKXFXZXZXZXdXdXdXaX9X<X9X<XD.S.zXvXdXvXDXvXFXGXJXGXJXZXZXFXJXKXJXFXJXKXKXKXKXKXKXKXKXKXKXFXFXFXFXHXHXZXHXFXFXZXZXFXFXFXFXGXHXHXDXZXDXFXZXfXFXDXGXJXFXFXHXZXZXKXFXFXJXFXFXFXKXKXKXgXSXJXKXKXSXCXgXFXHXFXFXFXFXJXFXJXFXFXFXFXSXFXFXHXJXJXHXFXHXGXZXHXDXGXHXFXDXDXDXZXHXZXZXAXZXvXvXAXvXAXvXvXfXxXZXbXZXdXdXxX0XZXFXGXDXFXDXFXFXvXZXZXFXFXHXFXvXZXFXGXGXFXFXHXHXFXZXFXJXGXFXFXSXFXGXJXHXFXKXFXFXKXKXFXSXKXKXKXFXFXHXFXZXZXDXDXvXDXvXrXwX7X7X<X7X7X7XrXhXwXA.5XwX7X7XA.yXcXZ.B.rXDXyX9X9X7X9XzXzX9XaX7XrX7XbXrXrXaXwXrXrXzX7XrXwX7XrX7XwX7XrX9XrX9XA.rX7XbXzXaX7XwXrX7XrXbXwXrXS.A.A.D.9X9X9X8X9X9XaXrXA.7XA.8XcX7XB.B.7XA.D.hXwXrXwX(.7X7XB.S.F.A.D.S.A.D.B.hX7XrXS.7X7X7X(.B.B.A.9X9X9XdX9XrXrX<XrX9XaX<XD.0X1XdXDXHXbXdXdXcXdXdXdXdXbXDXZXFXFXDXFXDXFXvXdXfXtXyXHXFXbXxXzXzXrXzXrXrX7XwXwXzXzXbXaXrXrXdXcXAXHXZXZXDXZXxXZXZXAXDXZXZXtXZXFXAXxXxXxXdXxXbXdXdXbXxXdXAXvX9XzX9XbXcXzXrXzXrXrXzXrX9X<X<X<X7XS.z.A.bX7XzXbXrXzXyX9X7XA.B.S.D.hXzXbXbXnXzXzXvXxXdXdXdXrXvX9XvXrXvXvXdXGXbXcXdXFXDXdXFXvXJXAXGXtXFXGXZXZXJXJXFXJXJXJXgXSXFXgXZXJXFXFXFXCXSXFXJXFXFXZXJXDXDXfXAXFXFXGXZXDXyXfXvXyXfXdX8XdXDXvX0XdXdXfXHXfXGXJXGXGXZXxXZXxXvXxXxXvXyXyXdXyXdXvXxXfXfXfXyXpX8X:X7X7X>X<XA.7X9X9X8X>XrX8XV.0XyX0XtXyXxXyXyX8X0XrX9X0XrX8XrXrX0X8XdXvXZXZXSXFXFXGXAXZXZXZX",
"ZXFXZXFXJXKXFXKXGXFXHXZXZXvXFXxXZXZXfXdXvXDXDXAXbXAXvXAXdX0XfXDXfXdXbXHXbXvX9XS.V.9XzXaX<X9XrX9XD.7X7X7X7X7X9X9XwX9X9X9X8X1X<XtXGXJXJXKXFXGXDXdXcXdXdX9X<XD.7X8XD.nXcXcXGXGXdXFXZXJXFXZXZXFXJXFXFXKXKXKXKXKXKXKXKXKXKXKXKXJXKXJXKXFXFXFXHXHXFXFXFXFXJXGXGXFXGXGXZXFXdXZXFXHXJXGXZXFXGXHXFXFXHXHXJXFXFXFXFXFXJXJXKXKXFXJXKXJXKXCXFXKXJXFXKXFXFXJXJXFXFXFXFXFXFXFXSXFXKXJXFXJXJXJXFXDXvXZXHXGXAXAXDXDXfXvXbXZXHXZXdXxXvXAXZXvXxXvXbXxXdXDXxXdXvXdXDXFXHXDXFXGXFXAXZXDXFXDXZXDXFXFXZXFXFXFXFXJXGXHXZXFXFXKXJXJXJXKXJXJXJXHXKXSXKXKXFXFXJXJXFXFXFXSXSXFXHXGXFXGXZXZXbXzXrX9X7X9X7X7X9XrXzXwX7X7XA.7X7XyXrXzX<X9XdX9XbX9XrX9X7X7XrXrXrXzXrXrXwXzXrXrXaX9XaXrXwX9XrXrXrXrX7XwX7XrX7X9X7XwXrXnXaXrXrX9XrX9XwXrX7XwXD.7XD.7XS.7X7X7X7X9XdXzXrX7X9X7XbXbXrXS.D.D.wXrXzXwXrX7XA.B.B.(.B.c.S.9XB.A.A.B.7X(.nX9X9XrXS.S.S.D.rX7XD.wXzXD.D.D.D.<XS.<XS.S.dXaXxXHXDXbXdXfXDXZXbXvXbXxXbXdXvXfXZXHXZXFXZXdXfXfX0XdXHXDXcXcXzXrX9X9XrXrXrXrXzXrXrX7XaXaXrXzXbXFXFXvXZXZXfXtXtXfXZXFXJXZXGXZXZXDXvXfXdXvXvX0X0XdXvXAXxXzXxXyXdX9XzXHXzXzXzXDXzX7XwXwXwX7XzXS.7XD.S.nX9XbXzXzXbXzXrX9X7XA.D.aXwXzXzXzXDXdXrXzXvXDXdXrXyXyXvXyXzXcXcXbXdXFXAXDXAXFXvXDXfXdXJXGXFXZXZXfXZXFXJXFXZXFXFXCXgXFXfXZXFXJXJXSXJXGXGXJXGXGXFXxXfXfXdXfXDXHXvXbXZXZXvXZXfXyXyX<XxXDXdXyXyXvXfXtXZXFXvXDXAXyXbXZXZXbXvXfXdXyXdXxXxXfXxXxXZXxXDXZXAXAXvXrX8X7XA.A.A.>XyX7XrXA.A.<XzXzXAXAXzXyXrX8XrX8XzXrXzXwX9X8X0X0X0XxXAXAXFXAXZXAXZXZXZXfX",
"ZXFXSXJXJXJXFXFXFXFXGXvXdXZXHXAXZXDXHXdXbXvXbXvXDXAXvXAXxXdXDXFXZXHXbXZXHXbXdX1X0XDXGXbX9XrXaX7XD.7XA.D.7X7X7X7X7X7X<X<X1X<X1XgXJXGXJXJXFXGXZXdXDXaXrXdXrX8X8X7X9XdXcXbXGXJXFXJXJXKXGXFXFXFXKXJXKXKXKXKXKXKXKXKXKXKXLXLXKXJXKXJXFXFXFXFXFXHXFXFXGXFXGXGXGXFXFXGXHXFXZXvXFXJXFXvXFXFXFXFXFXFXFXJXKXFXSXFXFXHXFXFXKXKXJXJXKXFXKXgXJXKXFXFXKXFXFXJXJXFXHXJXJXKXKXJXJXJXGXSXFXFXJXZXFXFXDXfXDXFXDXZXZXvXdXxXfXxXZXZXvXdXdXvXDXvXvXbXxXfXdXxXdXDXZXxXDXGXGXGXAXZXZXZXZXvXHXFXDXAXHXGXFXGXFXJXFXFXHXFXZXKXHXJXFXSXSXJXFXKXJXKXFXgXFXKXFXKXKXFXFXFXJXFXHXFXZXHXZXGXZXZXxXdXrX9X9X9XrX9X7XrXwXA.7XzX7X7X7XrX9X9XdXcXDX9XdXzXDXdX7XrX9XrXaXD.7X7XrX7XaX9X9XrXrXaXrXaX7XwXaX9X7X7XwX9X7XD.7X7XwXaX9XwXaXrX9XwXrXwX7X9X7X9X7XwX7X7X7X7X7XrXwX7XA.<XnXrXnXbXzX7Xl.l.wXrXwXS.S.9X7XS.S.7XS.^.S.rXD.S.S.S.S.7X7XA.7XzXA.A.S.S.D.7X9XrXaX8X9X<XS.B.S.9XrXrX0XcXDXbXxXdXfXyXDXZXDXdXxXbXZX0XdXvXvXvXHXZXFXfXxXZXZXdXbXbXcXvXrX9X7X9XzXzXaXrXrXrXrXdXzXnXdXdXdXvXAXDXGXZXZXZXGXZXJXFXZXDXtXZXGXZXZXfXvXZXxXyXdXdXdXzXrXyXyXzXdXrXdXDXzXzXdXzXwXdXwXwXdXrXaX9XzX7XzXzXzX9XbXDXrX7XrXwXwX7XrXrXzXzXrXzXzXcXHXbXDXzXxXdXyXdXcXvXcXbXcXbXbXDXvXcXvXvXxXFXtXAXdXGXJXKXFXfXvXtXfXfXfXZXZXgXHXFXCXCXJXFXFXKXJXGXGXZXZXGXGXAXfXfX0XyXHXDXDX0XyX>XfXDXDXfXAXbXFXDXfXtXfXfXZXZXfXZXZXyXvXxXyXbXfXfXdXfXAXZXdXfXfXdXvXfXFXFXZXpXxXZXAXyX8XrXZ.A.A.rX>X>X7X:XZ.B.>XrXvXyXrXrXA.>X>XwXrXzXwX7X<X9X7X9XyXAXAXAXZXZXZXZXfXyXyXuX",
"GXFXKXJXKXJXGXHXFXFXFXfXdXZXHXvXZXZXDXxXxXdXfXZXxXFXDXvXDXZXDXAXDXZXFXDXFXHXdXdXDXHXDXDXbXBXdXA.<X9XS.A.7X7X7X<X<X9X9X1X<X<XgXGXKXJXJXJXGXGXAXDXbXdXzXbXzXrXrX9XaX9XbXGXFXHXFXgXZXZXFXJXJXJXJXJXFXFXKXKXKXKXKXKXKXKXKXKXKXKXFXKXFXFXFXKXFXFXHXHXGXGXFXGXJXFXGXFXHXgXZXHXZXFXSXZXFXFXJXJXKXFXFXKXJXFXSXSXHXFXSXZXJXFXFXKXKXJXFXCXFXFXKXKXKXJXJXFXFXFXSXJXJXKXJXSXFXZXFXGXJXFXFXFXFXDXFXdXxXFXDXFXZXZXZXxXdXxXvXDXfXvXvXGXDXDXdXfXcXxXdXdXdXxXdXZXDXDXDXHXDXDXZXfXHXZXFXHXDXGXHXHXFXJXFXFXKXZXSXFXFXFXSXKXJXFXFXFXJXJXJXJXZXgXZXZXFXJXKXSXFXFXJXFXHXJXJXHXvXFXDXxXvX0XrXrXwX7XwXaX7X9X7XS.7XzXwX7XA.rX7X9XwXzXzX<XzXcXdX9X8X8XA.7XbXwXaXaXwX7XaXwXrXhX9X7X7XrX7XzXrXrX9X7X9X7X7X7X7X7X9XwX7X7XaX9XwXzXD.9XD.7X9X9X9X9X9X7X7X7X9X7X7X7X7XwXbXaXzXbXrXrXz.l.A.hXA.z.A.rXA.D.rX(.7X7XwXwXaXD.S.S.A.<XD.S.9XrXS.A.S.A.7X9XaX9X7X7X7X7XD.7XrXrXdXzX0XAXZXbXdXZXdXdXxXDXZXAXDXZXZXvXgXfXfXZXFXZXZXgXtXxXyX0XDXFXbXzX9XrX<XrXzXzXdXrXwXdX8XrXbXbXdXdXdXdXFXDXZXZXHXZXJXGXfXZXAXfXfXdXFXtXAXFXFXvXvXfXxXzXxXyXAXrXzXyXrXdXrXdXzXcXrXyXdX8XrXzXdXbXaXzXzXrXzXwX9XbXbXbXzXrXxXyXzXdXcXdXcXdXdXdXcXbXDXbXzXDXDXDXcXcXzXvXzXzXbXcXdXAXzXzXrXyXxXGXyXHXFXDXfXGXGXZXFXfXyXdXFXJXKXGXZXJXZXfXZXFXGXGXZXGXFXfXxXFXFXAX0XdXfXvXbXdXDXxX<XyXZXJXAXvXvXDXAXAXAXxXAXxXZXZXZXAXxXyXZXyXtXfXfXdXfXZXFXFXFXxXdXZXZXfXFXGXAXyXyXpXyX8X7XB.z.Z.Z.>XA.tXwX7Xv.z.B.5XrX8XwXrX8XA.>XS.7X7XzX7XB.8X8X9XzXvXfXAXxXxXxXZXZXxXxXxX",
"JXKXJXJXJXJXJXFXHXHXvXfXZXDXGXxXHXvXgXfXfXDXZXFXZXFXDXbXxXvXAXZXHXvXfXDXxXvXZXGXDXDXDXbXzXdXrX<XB.A.S.A.S.7X9X9XrXxXHXGXGXFXFXKXJXKXFXJXFXFXvXxXbXdXzXnXrXrXrX9X9XdXdXxXGXHXgXgXtXtXFXKXJXKXKXJXSXSXFXJXKXKXKXKXSXKXKXKXKXKXJXKXKXJXKXJXFXFXHXHXHXJXFXFXGXFXJXZXFXFXSXZXHXZXCXFXFXFXFXKXJXJXFXJXFXJXJXSXZXFXFXZXFXFXKXFXJXKXJXFXFXFXJXKXFXFXFXFXFXFXFXKXJXKXFXKXFXJXFXFXFXZXJXZXFXZXDXvXyXDXvXGXDXDXvXdXfXHXZXbXvXZXFXvXZXfXZXvXdXDXdXdXdXvXZXvXvXAXDXDXZXvXZXAXHXZXDXZXHXJXJXJXFXGXHXHXJXFXFXFXFXKXKXKXKXFXFXKXJXSXJXFXCXZXgXZXSXFXFXFXFXSXZXFXJXJXHXZXJXGXdX0XdX0XyX0XwX<X7XwXrX9X7XA.A.7XD.7X7XwX9X9XcX7X<X9XdXDXdXrXrXS.7XdXrX9XzXrX7X9XzXaX9XrXaXrXwX9X9XrXwXrX9X9X7X9X7XrX7XrX7X9X9XS.rXD.9X7XrX7XrX7X7X9X7X9X7XS.7X7XwXD.S.z.B.7XaXnXzXwX7XrX7XA.wXzXrXl.B.wX7X7X7XB.A.wXhX7XzXzXA.B.<X<XS.<XdXrXS.D.S.7X7X7XrX9X7XwXD.9X9XrX9XA.S.1XdXbXvXvXxXvXfXfXZXZXZXbXvXZXDXFXZXFXJXJXGXZXZXZXtX1XfXyXZXDXcXyX<X9X7XdXrXrX8XrXrXzX9XwXcXdXdXdXfXZXGXGXZXDXZXFXJXZXdXZXZXFXdX0XfXtXyXFXHXfXDXvXrXdX8XyX8XzXyXyXrXrXzXzXdXdXdXzXvXdX9XzXzXzXzXzXrXrXwXdXDXDXbX>XrXyXxX0XvXFXAXbXcXcXcXDXzXcXDXDXbXvXzXbXbXbXyXbXvXcXxXzXyXxXzXcXdXyX8XxX0X0XxXdXfXFXZXfXfXfXdXvXZXFXJXZXfXJXFXZXAXZXZXFXZXZXGXZXtXZXAXZXfXvXdXdXDXGXHXxXyX1XxXFXDXfXHXFXxXDXFXxXvXZXxXxXZXyXZXDXFXGXxXtXfXfXZXFXAXDXDXAXZXGXyXdXZXFXAX8XwXpX8XrXzX>XA.>XA.>XpXxXxXxXl.l.z.Z.>X5X8X7XA.Z.S.A.S.D.A.B.>X>X7XrXxXAXxXyXyXtX8XtXfXfXtX8X",
"FXJXJXJXJXJXGXFXZXHXvXvXDXZXGXHXFXfXZXfXZXFXDXZXvXZXZXFXvXxXZXvXvXxXDXFXvXFXxXfXHXvXxXdXdXdX0XS.A.9X8X9X9XvXAXAXxXbXDXHXFXJXFXJXFXJXKXGXHXDXZXdXDXdXdXaXrXrXrX<XvXyXfXvXvXHXFXZXgX1XZXFXFXZXFXFXFXFXFXFXKXJXKXLXSXKXKXKXKXKXKXKXKXJXKXJXFXHXHXSXZXHXFXHXGXFXGXHXFXZXGXFXZXGXZXFXFXJXFXJXHXFXHXJXJXJXJXFXHXZXZXFXJXJXFXZXFXKXKXKXKXJXKXKXSXFXFXJXHXSXKXJXJXHXFXJXJXfXgXZXFXFXDXGXGXFXFXvXfXdXfXZXbXvXdXdXxXDXvXdXvXxXxXxXbXDXvXdXxXvXdXxXbXvXDXDXFXDXbXfXZXfXvXZXGXZXHXJXGXZXZXHXFXJXFXFXJXFXKXJXKXKXKXFXKXKXFXFXJXSXKXZXCXSXZXHXZXgXgXSXFXZXuXFXFXFXFXZXFXfX0XfX0XyXyXrX9X9X7X7XwX7X7X7X7X7X7X7XwXD.D.rXaXzXwXD.9XbX9X9XrXdXrX9XdXdXdX7XwXwXrX9X9X9XrXrXrXwXaXwX9X9X7X7X7XwX7X9X9XS.9XS.aX9XwX7XrX7X7X9XrXzXzXzX9XwX(.A.9XrXwXA.A.7XrXA.A.9X7XdXzXwXA.wXbXwXzXl.l.B.A.wX7X7XA.wX7X7X9XzX<XS.A.9X9XwX7X<XS.<X7XrX9XdXzX7X9XaX9X7XrX7XB.9X9X0XdXxXbXbXfXfXfXGXDXZXDXGXZXgXZXJXFXHXFXFXSXHXJXJXFXgX1XyXDXFXxXyXrXrX9XrX0XrXyXdXrX9XyX0X9X<X0X0X0XfXZXvXZXGXGXGXGXFXAXFXxXZXGXfX1X1XyXFXFXvXdX8XV.9XyXyXdXyXrXrXrXdXdXyXzXcXAX9X0XcXrXdXHXyXzXcXrXzXvXbXHXAXrX7X0X8XFXZX0XzXyXrXcXDXzXzX9XA.9XzXyXyXbXbXHXzXbXzXbXzXbXzXzXzXbXzXpXzXyXyXyXyXdXyXyXdXvXvXfXbXvXFXdXtXJXZXAXZXDX0XxXyXAXFXFXfXxXAXCXZXGXxXdXvXdXvXDXvX8X<X0X0XyXFXxX1XtXZXAXGXAXyXyXxXtX<XxXZXDXFXZXGXZX1X1XtXfXZXAXAXFXFXAXGXZXGXFXZXZXtX>X<X:X8X8X8XyX8Xl.B.yX8X8X5Xz.z.z.v.z.A.A.Z.A.Z.A.B.S.B.S.B.V.V.0XzXdXdXxXyXxXfXyX8X8X1XV.V.",
"gXKXFXJXJXFXFXHXFXZXvXgXDXFXFXGXZXgXJXHXFXZXDXZXZXGXZXZXvXHXFXFXvXvXvXfXZXDXfXdXfXyXvXAXHXHXDXvXdXdX0X1X8XGXFXxX0XfXZXZXFXJXFXFXKXSXJXHXFXFXHXdXvXbXHXHXbXdXrXrX8XdXFXHXgXGXFXZXZXZXSXSXKXFXFXFXFXFXJXFXSXSXKXKXKXKXKXKXKXKXKXSXSXKXKXKXFXHXFXFXFXZXFXGXGXFXGXJXJXFXFXJXvXfXZXZXZXFXZXHXJXJXKXJXHXHXHXgXZXfXHXFXFXFXZXKXFXJXJXKXKXJXJXKXFXFXCXFXFXGXJXFXJXKXJXSXJXZXHXGXAXFXZXZXZXFXxXvXdXdXdXfXxXvXdXvXvXdXdXbXdXfXxXZXbXxXdXxXfXdXxXxXxXvXDXFXDXvXfXyXfXfXvXDXFXFXFXFXFXJXJXFXJXJXCXSXJXKXKXJXKXKXKXKXSXSXKXSXSXFXFXZXHXSXFXGXFXFXFXJXFXFXZXJXFXZXGXFXvXZXDXdXdXdXrXdX9X9X9XzXwX9X9XwXaXaXaX7XD.7X7XD.rXnX9XA.S.9X7XrX9XdX9XbX9XdX7X<X9X9X7XrX7XrX7XwXwXzXzXwXrX9XwXrXzXrXrXwX7X7X9X9X9X7X7XrX9X9XwXwX9XzXzX7XD.wXA.D.rXzX7XB.rX7XwX<XS.zXzXDXzX(.9X7X7XbX7XA.B.l.B.9X7X7X7X7XrX9X7X<X9XA.S.7XzXzX9XaX9XS.S.rX9XrXdX7XwX7X9XrX7X<XB.S.8XdXdX0XvXvXZXfXfXGXAXxXDXFXfXgXZXJXHXHXFXJXFXFXJXJXJXtXfXfXZXZXdXfXbXdXyXrXdXdXdXxXdX0X0X9XrXbXdX1XdX0XFXHXJXGXFXFXGXFXvXAXDXfXAXfXtX1XyXvXAXAX<X<X1XbX8X8XrXrXdXdXdXyXrXzXcXdXxX0XyXrXdXAXdXdX<XyXxXbXAXAXbXxXxXxXzX8XvXDXvXfXDXvX8XdXzXdX9X9XrXdXyX0XzXzXzXzXzXzXbXvXzXvXvXvXvXpXrXvXyXrXcXxXbXdXtXyXyXxXvXJXZXxX8XAXGXJXGXGXvXtX0XxXvXDXZXtXZXFXxXxXFXxXdXyXxXDXDXAX>XyXAXDXFXvXAXAXAXFXGXZXxXpXxXxX8XyXfXtXfXFXGXJXvXgX1XfXfXyXAXyXxXAXGXFXGXfXtXAXxXwX:X:XN.8X8Xz.8XtXV.>X8XB.8X<Xl.b.l.l.l.A.B.B.B.B.B.z.B.z.z.N.N.<XrXyXxXyXyXvXZXyX8X>X>X:Xz.z.",
"gXZXFXFXFXFXZXZXZXHXfXHXfXFXJXGXJXGXvXtXfXGXGXZXFXZXGXZXFXZXZXFXZXZXZXZXZXAXZXfXdXfXDXFXHXFXZXDXDXbXFXHXvXAXGXJX1X1XtXHXJXJXFXFXFXFXKXSXKXJXZXtXfXZXJXFXDXxXdXbXfXFXfXJXJXJXHXKXJXSXgXJXFXJXFXFXFXCXFXFXSXKXKXFXKXLXLXLXKXKXKXKXKXFXKXFXFXFXFXFXFXHXSXZXZXFXGXSXJXFXHXfXZXGXFXZXvXfXvXJXFXZXvXGXFXZXgXvXZXgXZXJXJXJXSXFXHXJXHXKXJXKXKXZXFXFXFXFXJXJXFXFXFXCXCXSXGXZXZXFXZXFXfXGXZXxXvXfXfXfXvXdXdXdXdXvXdX0XxXxX0XbXbXDXvXdXZXdXdXbXyXZXDXDXGXFXGXfXZXGXZXZXZXZXHXFXgXZXJXJXFXFXKXFXKXJXKXFXFXKXKXJXKXJXSXSXFXJXKXFXFXCXHXFXJXJXJXFXFXFXZXSXFXFXZXZXFXZXZXZXZXfXvXvXcXyXrXrXrXrXwX7XwXwXwXwXD.7X7XB.D.D.wXaX7X7XA.wXrXrX9XdXcXzXcX7X9X9X9X7X7X7XrXrXwXwXrXzXrXaXrX9X9XrXaX9X7X7XrX7X9X7XwXrXrX7X7X7X7XwX9X9X7X7XrXS.S.rXwXrXwXz.A.S.B.A.A.A.A.9X9X9XzXrX7XwX7X7Xl.A.rXrXyX7XyXrXdXyXyX<X7XyX8XzXdXdXdXdX0XA.9XrX<X9X7XwX7X9X9XwX7XA.V.Z.<X0XfXdXxXfXxXfXZXGXJXfXfXHXZXZXJXGXZXJXJXSXJXFXZXFXJXHXxXdXdXdXxXvXdXdXdXyXxXdXdXxXdXvXtXdXdXyXZX0XfXFXFXFXJXGXGXZXtXFXFXxXfXvXbXvXxXfXvXxXAXZX<XyXGXyXdXyXyXdXdXxXyXdXrXxXDXxXvXyX8XdXdXfXAXbXxXvXxXdXDXdXyXyXZX0XyXtXDXFX8XdXxXDXDXbXcXrXvXbXxXdXvXdXyXdXyXdXcXcXbXyXvXyXzXbXpXrXrXzXzXrXvXzXzXvXyX8XxXAXvX0XAXyXdXdXdXvXxXvXyXyXtXyXAXfXxXxXAXAXGXFXFXxXxXyX0XdXvXvXyXxXxXvXAXZXfXtXfXfXdXyX8XtXtXtX8XxXtX1XfXvXDXJXJXFXFXZXZXtXtXtXfXAXxXZXxXtXV.xXAXtX8X:X>Xz.V.1X>XtX8X1X8XAXAX>X8.7.z.Z.z.z.V.z.l.l.l.N.z.z.z.N.1X>X8XyXAXvXxXyX1X:XV.V.N.l.l.l.",
"gXgXZXFXFXZXZXZXFXZXZXZXGXFXGXGXGXZXFXFXFXHXFXGXFXDXZXFXJXZXFXZXZXZXFXZXFXFXDXFXDXdXxXZXZXDXvXvXvXZXZXGXJXDXGXZXvXZXZXFXJXJXFXKXJXKXSXSXJXFXuXCXFXZXfXDXFXDXyXZXJXGXZXHXKXKXFXJXKXSXCXJXJXJXKXKXKXKXJXSXSXJXKXKXKXKXLXKXKXKXKXJXKXKXKXJXJXKXJXFXGXFXFXSXFXFXFXGXGXJXGXvXvXvXdXdXvXfX0XdXdXxXxXDXvXZXZXvXgXZXGXJXZXGXGXFXFXFXFXKXSXFXJXSXFXSXFXFXFXFXSXHXSXZXSXZXFXZXZXZXFXZXZXFXFXGXDXdXxXyXAXdXxXZXxXdXyXdXvX0XdXxXvXHXZXbXvXfXdXdXdXbXZXFXDXZXvXvXxXxXGXDXZXFXHXGXFXgXFXHXFXJXFXFXFXFXKXKXKXKXKXKXFXJXJXKXKXKXKXKXSXSXZXZXFXHXFXJXFXJXFXFXGXZXHXFXZXJXFXFXDXDXdXzXAXdXrXcXrXrXdX7X9X9X7X9X7XD.A.D.D.7XS.D.A.S.7XwX9XS.aXzXzXrX<XyX9XrX9X9X<XrX9X9X7XwXaXrXrXrX7X9X9X9XrX9X9X9XzXA.D.nXD.rXD.D.7X7X7XrXaXwXaX9X<XwX7X7XrXwX<XA.A.S.A.S.S.<X<XrX<X7XrXrXzX7XrX7XA.A.rXzXzX<XyX8XyXvXbXvX9XxXrXyXxXaX1X<X9XD.rXrX9X9XA.wX9XwX7X8X7XrX0X8XyXyXyXvXfXvXZXvXvXZXFXZXHXvXZXFXGXJXGXJXFXFXFXZXGXFXZXfXZXvXxXxXdXdX0XdXyXzXAXAXAXZXvXZXxXxXdXvXZXZXxXGXFXFXJXJXZXZXJXZXZXAXZXfXdXxXvXxXDXvXxXyXvXAXyXAXdXvXvXxXdXdXxXdXzXdXbXHXdXAXvXfXxXAXAXAXZXAX0XfX>X:X<XyXfXfXtXxXAXZXAXxXxXAXyXvXbXrXzXbXdXyXdXxXcXdXdXcXvXvXzXbXbXzXyXvXyXrXrXzXzXrXyXyXDXrX8XdXxXAXvXxX<XdXdXxXdXyXvXxXyXvXxXAXAX0XxXfXvXxXfXZXbXxX<XyXdX8XxX8XdXxXdXvXyXdXyXyXyXZXvXdX8X8XyXyXtXAXtX1XZXGXFXJXFXFXJXFXAXtX1X8XuXpX8XtXtX1XtXZXAX8XV.z.B.B.>XV.V.0X8XuXFXFXtXB.b.7.b.l.b.l.l.7.l.z.8.8.7.7.l.8.<XyXvXGXAXvXyXyX:XN.z.l.l.7.1.1.",
"FXvXZXFXZXZXFXDXHXFXHXJXGXGXFXJXJXfXZXGXGXFXDXZXFXFXZXZXZXDXFXZXZXFXDXZXFXAXDXFXFXfXvXZXZXDXZXZXGXGXFXZXFXFXFXFXHXGXFXJXJXFXFXKXKXKXSXFXKXKXuXSXJXFXJXGXJXFXZXJXxXZXJXtXCXJXKXFXSXJXFXZXKXFXKXJXFXJXKXKXJXSXFXKXKXKXFXKXKXFXJXKXKXFXKXKXJXJXFXFXFXFXSXSXFXSXZXFXGXGXFXZXDXDXdXdXzXzXrXaXvXbXxXxXdXvXAXFXDXDXGXGXFXGXZXHXFXFXFXSXSXFXFXKXZXZXFXSXCXFXZXFXFXFXZXCXGXgXGXZXFXZXDXGXAXGXvXAXfXFXfXfXxXfXdXvXbXvXvX0XHXbXvXZXvXZXfXvXZXdXdXbXvXZXZXZXAXfXfXZXFXZXZXHXFXFXJXZXJXHXKXKXFXFXFXKXSXFXKXKXKXFXgXKXKXKXKXKXFXSXSXFXHXFXFXFXFXJXGXGXFXZXGXCXFXSXZXFXGXFXJXGXDXcXbXvXzXxX9XrXzX7XrX9XD.S.7XA.A.zXrX7X7X7X7X7X7X7X7X7XrXcXdXrX<XyXdX9XrX<XzX9XwX7X9XwXzXrXdX9XrXrX9X<XdX8XdX9XA.rX7XS.D.bXrXrXaXrXrXrXrX7X9X7X<XrX<XA.9XD.<X<XA.dX9XZ.<X0X1XbXyXcXdXrXzX9X9XrX>X8XrXrXyX8XyXvXxXvXyXdXyX8XdX0XdXdX<X0X9X8X<XA.dXrX7X9X7X7X7X8X9XrXyXdXdXdXdXfXDXZXxXfXZXZXZXvXtXfXZXZXZXFXJXFXZXFXZXfXZXfXfXvXxXfXdXdXyXdXyXyXdXAXDXGXGXFXFXFXfXdXxXdXvXDXZXJXDXAXZXZXDXZXtXZXAXvX0X1XdXxXdXdXdXyXxXvXzXdXxXAXdXyXxXxXxX0XyXzXdXyXyXFXvXDXyXfXAXFXFXtXFXAXZXtXvX8XyXfXtXFXuXdXGXFXZXFXAXvXyXvXAXrXvXvXvXyXyXxXrXzXzXbXxXdXdXdXzXvXzXyXyXzXyXrXyXzXzXyXxXbXxXyXvXdXvXAXFXxX1X0X<XyXyXxXtXdXGXZXxXyXxXvXAXvXxXtX8X8XbXvXyXdXrX8X8XyXyXfXfXfXyX1XyXZXyX8X<X1XyXtXyXfX8XyXFXZXfXGXKXFXGXJXZX1X:XtX1X:XN.:X1X1XxXxX>XV.z.l.z.l.l.7.z.z.>XtXyX0X1Xl.7.8.7.1.1.1.1.1.N.z.1.8.z.>XAXAXl.N.<XxXvXyX>XN.N.z.z.N.V.:X:XV.",
"HXZXZXHXZXZXDXAXZXFXFXFXGXGXJXGXGXHXFXFXHXGXZXfXFXGXZXZXfXZXFXZXfXFXvXZXGXFXGXFXAXfXZXZXDXDXDXFXDXZXZXvXFXJXZXfXFXJXFXFXKXFXFXKXKXJXSXFXJXKXFXFXKXJXJXHXJXJXFXvXFXgXJXFXFXFXJXJXSXFXFXKXSXSXJXJXKXFXFXFXKXCXKXKXJXKXFXFXJXKXKXKXJXJXKXKXKXFXFXFXSXFXFXFXFXHXSXSXJXJXGXHXDXvXrXzXrXrXaXdXvXvXzXzXdXvXxXxXZXFXGXFXGXFXFXGXFXFXGXJXSXFXFXJXZXZXgXgXSXJXFXFXFXJXHXHXFXFXFXGXZXJXGXZXJXFXFXxXZXDXvXvXdXfXfXvXfXdXvXZXDXDXZXvXdXbXdXfXvXxX0XvXZXZXGXFXAXZXZXGXZXFXFXtXZXFXFXFXJXFXFXFXFXKXFXKXJXKXKXKXKXFXCXKXKXKXKXKXKXKXFXJXFXSXFXZXJXJXJXFXGXAXJXSXHXHXFXFXGXFXJXFXvXDXvXxXrXyXrXrXzX7X7XwXS.D.7X7XFXrX7XwXB.D.7XA.wXS.wX9X9XrXrX7X9X9X9X9X9X9XbX7XzXwXwXrXdXdXzXrXzXrXrX9XrX<X9X9X9XA.9X7X9XaXnXrXrX7XaX7X9X7X7X9XrX9X9X9X9X9XA.9XS.cXyXxXyXdXdXvXdXbX0XbXxXdX9X9XrXyXrX0XxXvXdXvXvXvXxXvXxXtX8XxX0XyX0X0XdXrXdXrX9XrXyXzXrXrXyXyX9XrXyXdXyXdXdXdXvXfXfXdXfXfXvXZXvXdXfXZXfXgXZXGXZXZXZXZXZXfXfXfXfXdXyXyXyXdXdX0XvXvXbXHXJXGXDXvXDXDXfXyXAXxXFXfXZXFXZXZXZXZXfXtXxXfX0X0XxXfXyXxXyXxXdXvXxXyXvXyXdXdXxXdXvXcXyXdXdXAXAXvXxXvXdXFXFXFXZXFXDXDXJXFXZXJXZXvXZXfXZXJXGXJXAXxXZXxXAXdXAXxXzXbXzXvXyXxXyXdXAXcXdXcXdXvXzXzXyXzXvXvXyXpXzXzXzXbXbXvXdXfXvXvXAXGXJXGXZXZXAXdXdXyX0XxXFXxXfXFXdX8XxXfXyXtX7X8XyXvXxXyX0XrXyXyXdXxXAXyXfXfXfXAXtXtXfX8X1XtX8XxXfX1X8XZXJXJXFXJXFXZXfXfX1X1XN.z.:X8XtX:X<X:X:XV.Z.:XB.N.v.z.z.>X:XV.8XV.N.B.z.B.z.l.7.7.b.l.7X>XA.8XxXyXxXtXrX<X8X8XyX8XtX8X8X0XyXxXxXyXtX0X",
"FXFXFXZXxXZXDXDXFXJXZXJXZXJXJXZXFXGXFXDXDXFXvXxXGXJXZXGXZXfXFXHXZXFXZXvXFXJXFXDXZXvXZXfXZXAXDXGXGXZXgXZXZXGXGXZXHXJXJXFXJXFXFXFXFXFXFXKXKXJXKXFXJXJXJXJXZXZXfXfXFXfXFXGXJXJXKXFXFXFXGXGXSXgXHXJXGXGXJXJXKXHXJXFXFXFXJXFXSXKXKXKXJXKXJXJXFXHXHXFXFXFXFXJXHXFXFXSXJXGXJXFXZXfXrXrX9X7X9XrXaXaXdXaXxXxX0XfXbXxXfXZXAXvXZXHXGXGXGXJXHXFXFXZXgXgXZXJXGXFXJXZXZXFXHXHXFXJXJXFXfXFXvXJXGXJXZXAXfXvXAXvXvXZXfXdXyXfXZXFXdXxXZXZXvXZXxXdXvXAXfXvXFXGXGXFXGXFXZXFXFXHXHXZXZXJXFXFXFXFXJXFXSXSXSXKXSXKXKXKXSXCXSXKXKXKXKXKXKXKXKXFXFXFXFXZXJXGXJXZXZXZXFXZXtXgXZXJXGXJXFXZXfXdX0XdXdXzXzXzXdXwX7X7XA.wXzXbX7XA.wX9XwX<X(.A.A.B.9XA.wXrXdX7X8XrX<X8X9XrX9XyX7X7XrXrXwXzXdXrXyX8XyX0X7X<X9X9XrXzX7X<X7XwXzXrX7XA.wX7X9X9X7XwX9XA.rX0XdXbXS.AXV.dXtXDXfXxXxXvXfXdXfXAX0X8XdX0X8XyXxXxXfXfXZXZXxXvXyXxXAXyX0X0XyXvX0XdX0XdXrXyXxXzXzXzX8XrXdXrX0XxXdX0XyXdXdXfXxXxXfXfXfXfXZXZXZXdXfXfXfXZXFXfXZXfXvXZXxXfXdXtXdXyXyXfXdXdXdXyXDXDXDXAXFXFXZXvXFXDXvXfXfXZXfXfXDXvXxXFXfXAXZXfXtXfX0X<X0XdXdXxXdX0X0XyXxXxXdXdXxXxXdXdXdXdXdXyXxXxXvXxXdXfXvXFXFXZXfXGXvXJXJXJXFXJXvXfXFXFXFXGXKXJXZXxXtXfXxXAXbXdXxXdXvXzXxXxXAXxXyX0XtX0XxXbXvXdX8XrXzXvXyXyXbXrXvXvXbX0XxXyXGXJXAXDXDXDXZXJXZXxXZXvXdXxXAXDXAXZXxXtXyXyX8X8X<XyX>X0XxX8X8X8X8XxXxXpXZXfXfXxXyX>X1XFXAXZXZX1X:XN.x.N.N.N.:X2X1XN.x.x.:X2XN.1XN.z.V.1XtXtX0X8X8X8X7X7X8X7XA.7X>X7X>X>X>X<X>X>XA.>X7X7X7X7X8X8X8X>X5XA.A.Z.:X>X>XV.A.<X>X8X8X8X:X>X<X8X8X8X>X>X",
"GXJXGXZXZXZXDXFXGXGXGXGXSXZXJXZXZXFXZXZXGXZXvXyXJXJXZXFXZXfXZXHXJXFXFXyXxXDXZXZXfXZXDXvXZXAXZXJXFXgXZXFXZXZXZXZXZXFXJXJXJXFXJXJXFXFXFXJXJXFXKXJXJXSXSXSXZXZXZXfXZXGXZXFXKXJXJXJXJXFXFXJXZXHXFXFXZXJXFXJXKXHXHXKXJXFXJXFXFXKXFXKXJXKXKXJXJXFXFXJXJXHXFXKXFXFXFXFXFXHXGXFXvXdX9X9X9X7X9XrX9XrXrX8XaXDXxXxXvXvXdXdXFXfXZXtXZXFXGXFXJXGXJXgXFXHXvXZXGXZXGXZXtXZXZXZXHXZXJXGXFXtXGXxXFXZXvXFXFXfXZXZXfXZXZXfXZXZXZXZXfXfXvXZXAXZXvXdXAXDXZXZXFXFXZXJXFXGXFXgXHXFXJXFXHXJXFXFXKXFXKXFXFXFXKXKXCXKXJXgXgXFXKXFXKXKXKXKXKXKXKXKXKXSXSXgXFXFXJXfXZXDXZXfXZXZXJXJXGXGXZXxXyXfXdX9XrXDXzX9XyXrXyX8XbXbXbXrX>X7XrXdX7XS.D.A.A.D.dXdX7XwX7XS.8XyXdX7XzXzX9XrXzXrXwX7X7XzXzXzXrX9XrX9X<XrX9X9X7XwX<XwXrXrXzX7XwX7X7X7X9X7XwX7X9XrXrX0X0XdX9XGXyXxXyXvXfXvXyXvXdXdXFXbXyX0X9XdXyXfXyXdXvXyXFXZXxXyXAXZXZXdXdXAXdXfXdX0XdXdXdXyX0X8XxXxXyXdXyXrXyXdXyX0XyXxXxXfXvXxXfXfXfXZXvXfXvXdXtXZXFXFXZXfXZXZXZXvXZXAXfXdX1XdXfXdXyXdXdXyXFXDXAXZXZXZXfXfXfXxXxXAXdXfXfXZXxXdXGX0XAXxXvXfXdXfX0X<X0XfXvXxXdX0XyXyX0XyXrX0XvXvXdXAXyX0XDXvXAXxXvXDXZXDXDXFXZXDXJXJXFXHXZXFXDXZXfXxXfXZXJXJXAXZXZXyXyXyXzXyXyXyX0XvXxXxXxXxXFXxXxX8XrXyXdXzXxXxX8X7XrXvXtX7X8XrXdXyXvX7X8XAXxXtXZXFXDXxXAXZXyX0XxXdXdXAXxXxXdXfXtX8X8X8XtX8X8X8XyXrX8X0X8X8XtXyXfXxXFXtX<X1X>XV.N.1X1X:XN.8.8.N.:Xz.x.x.x.8.x.z.N.N.:X:XN.2X1X1X8X<X8X8X>XZ.A.Z.A.A.B.B.B.z.z.z.z.B.Z.Z.Z.Z.A.Z.A.A.Z.Z.Z.Z.Z.Z.>XA.A.A.>X5X8X7X>X7X8X0X8X8X8X<XV.A.>X>X5X5X",
"fXxXAXFXAXZXZXZXGXJXGXJXCXSXZXGXZXGXZXZXHXvXZXdXDXDXDXxXZXDXfXFXGXZXZXtXtXfXDXDXfXZXFXFXFXFXZXGXJXtXZXFXHXFXHXFXSXFXJXJXFXFXFXFXHXFXFXJXJXHXSXFXFXFXJXFXGXGXJXFXfXJXGXFXZXSXFXJXKXFXFXGXJXFXSXFXZXHXZXJXJXHXvXHXFXKXJXFXJXKXSXKXSXFXSXFXKXFXFXKXJXFXKXJXKXKXJXKXFXFXJXGXvXdX9XrXrXrX9X9XD.7X7X8X9XdXdXbXvXbXvXvXFXAXZXfXZXxXFXGXZXHXJXvXFXHXZXJXJXGXFXZXfXZXSXZXFXJXFX2XFXZXvXvXFXfXxXAXFXvXZXZXtXGXJXZXvXDXDXZXAXvXxXZXZXZXvXvXFXAXAXZXHXHXZXJXGXZXFXFXFXFXFXFXFXSXFXFXKXFXFXFXFXKXFXFXKXKXCXuXSXKXKXJXKXKXKXKXKXKXKXKXFXFXZXZXZXZXDXvXFXGXGXZXZXZXJXHXZXfXxXfXfXdXzX0X8X0X7X<XzXbXvXzX0XrXyXdXAX>X>X8X7XS.A.S.A.A.zXzXwXA.7XA.9X0XdXzXdXbXzX9X9X9X7X9XwXzXrX7XyXrX0X8X9X0X<XA.rX7X9X9X7XwXzX<X7X9X7X7X7X7XrX9X8X0X9XyXrXdXGXJXbXdXfXDXvXvXdXyXfXvXdXdXdXdXxXvXdXZXfXfXvXtXvXZXyXtXtXAXxXvXxXvXAXxXyX0XyXvXdXdXdXyXvXyXyXxXyXyXyX8X8XdX1XfXvXdXyXdXfXfXdXfXfXZXvXDXvXfXZXZXxXfXfXfXfXdXZXFXxXdXdXZXxXdX0XyXyX0XyXZXFXDXZXyXuXgXZXdXvXxXfXvXdXfXvXfXdXAXvXyXvXxXtX1X1X0X0XyXdX0X0XyX0X0XyXdXyXtX8XdXdXxX8XyXDXxX0XdXxXyXyXfXfXvXGXZXdXvXAXbXdXbXbXAXFXDXAXDXvXAXxXfX8XfXtX8XtXyXrXyX8XyXdXtXxXxXxXvXyX0X8X8XrX8XxXyX8XyXyXrX8XwX8XyX8X8XyXDXxXyXyXfXvXyX8XtXxXZXtXxXtXtX8XyXZXfXAXAXtX8XA.rXGXdXxX8X8XdX8X8XyXtX>X>X8XtXZXtX8X:X:X:X:X1XN.N.N.N.1XN.x.x.N.:Xx.x.z.x.x.x.8.l.8.7.8.>XdXyXtXwX8X6X6X8X7X>X5X>X^.5XA.A.Z.Z.A.Z.B.A.>X>X>X>XA.A.A.^.A.S.Z.Z.Z.5X5X5X7X5X7X7X8X8X8X:XV.z.l.z.v.B.v.z.",
"yX0XxXGXFXZXFXFXJXGXHXFXfXJXZXGXFXDXtXZXZXxXAXxXxXZXZXZXFXZXfXFXZXZXvXZXgXfXGXDXZXvXZXFXFXFXZXZXGXfXHXFXFXZXFXSXFXFXJXJXFXHXFXZXSXFXFXFXSXZXFXZXZXJXJXJXGXFXAXFXfXfXZXFXSXZXFXFXJXJXSXZXCXFXCXCXZXZXFXZXZXgXfXgXCXJXJXJXFXFXFXJXFXFXFXJXJXHXFXFXJXFXFXSXKXFXJXFXZXZXZXvXvXfX9X9X9XrXrXaX7XD.D.9X7X9XdXDXxXvXxXyXxXAXxXFXFXDXZXDXFXJXFXZXFXGXFXFXFXJXZXHXZXFXgXfXJXvXJXyXGXgXtXfX8XZXyXfXxXfXZXfXZXFXGXFXFXAXfXvXAXxXvXDXZXFXZXFXFXGXDXZXFXGXJXZXGXHXSXGXHXJXFXJXFXFXKXKXSXFXFXJXFXFXFXKXKXFXSXKXKXKXJXKXKXKXKXKXKXKXKXKXJXFXZXHXZXZXxXZXFXZXZXZXZXJXJXFXZXZXZXxXAXxX8X8X0X9X0X8XwX7X7X9XdXzXzXdXbXzX7XB.A.wXB.S.7X7X7XzXdX<XA.rX8X7XrXcX9XrX7X<XA.9X7X7X7X7XrXdX9XdXrX0X0X9X<X0XdX8X7XwXwXzX9X7X9XrXrX9X7XrXdXdXdX<X0XyXdXdXDXZXdXvXxXvXFXfXfXdXfX0XfXfXtXdXZXyXfXtXdXfXtXZXfXfXyXZXdXfXxXAXvXvXAX0XyX8XyXdX0X0XyXyXxX8XdXDXyX0XyXdX0XxX1XdXyXfXdXZXbXbXxXdXdXDXvXfXfXZXfX0XyXdXdXyXvXfXdXvXvXGXFXZX0XyXdXyXyXdXAXZXyXfXZXZXAXxXfXfXyXfXyXxXvXdXdXyXdX0X0X0XvXfXdX1X<X8X8X0XdX0X0X0X0X8X8XtXyXyX8XrXzXyXxXdXyXyXyX0XdXyXvXvXfXyXdXxX>XxXDXDXvX0XyXyXyX8XrX0X8X1X1XfXAXGXZX8X8X8XdXxX8X8X>X8XZXxXvXxXyXyX<X:X8XdX8X8XtXyX8X>X6XyXyXrXdXvXxXvXyXxXxXvXZXtX<X1X1XyXfX1X:XtXtXxXxXvXAXGXAXxXyXvXbX8X>X0X8X0XyX8X8X8XV.v.V.8X1XV.x.7.8.8.l.V.N.z.z.z.x.l.V.N.N.tXtX:Xx.z.N.N.l.8.l.8.N.1X0X8X8X8XzXpXpXyXpXrXiXwXwX7X7XA.5XA.A.Z.A.A.A.>XA.A.^.^.A.Z.C.C.B.A.C.v.z.c.z.l.z.z.z.v.l.b.1.1.1.1.l.z.z.l.",
"dXyXDXJXGXZXFXvXGXJXGXfXZXGXFXFXfXDXdXfXvXvXxXvXfXxXfXAXJXZXZXZXFXGXZXyXxXyXbXvXDXvXZXHXFXFXZXZXFXJXFXFXFXZXSXFXGXJXFXFXFXFXFXFXZXFXSXSXFXFXFXJXSXJXGXFXGXGXZXFXfXZXfXtXvXZXFXGXJXJXFXGXCXFXFXZXZXZXHXZXFXZXtXHXHXvXHXJXGXFXFXHXFXJXJXJXFXJXJXFXFXGXZXHXJXGXJXFXHXZXZXxXvXfXyX9XdXzXzXzXS.rX(.9XrXdXxXdXbXvXfXfXAXZXDXDXZXvXvXZXHXHXGXZXZXFXJXJXZXFXZXGXvXHXHXAXxXvXfXDXGXvXvXxXyXyXfXZXGXZXZXZXGXJXFXHXJXvXfXvXfXfXZXvXAXFXJXFXGXGXFXgXZXFXFXZXFXAXZXZXSXSXJXGXFXKXFXJXFXHXKXJXFXFXFXKXKXKXKXKXKXKXKXFXKXKXKXKXKXJXKXFXHXZXgXZXfXvXgXZXZXCXZXFXSXFXFXFXZXfXZXxXZXxX8X8X9XrX9X<X9X9X<XA.9X1X0XdXrXdXzX9XrX<XzX9XbX>XyXzX<X0X9XyXyX8X0X0X0X9X<X9X<XdXA.9XA.9X9X0XrX9X0X0X8XA.rXvX8XrXyXyXrX9X9X9XrXyXyXrXyX8XyXvXyXrX<X8X0XyXxX0XfXGXvXfXZXtXfXfXgXtXgXtXtXtXtXfXfXfXfX1X1X0XtXtXZXyXZXvXfXfXyXyX1X:X>X8XxXxXxXyXyXdXyXfXvXtXyXyXyXdXvXyX0XdXdX0XtXZXZXyXtXtXtXtXyXfXfXdXdXfXDXvXDXvXxXAXFXDXDXDXDXdX>X<X8XrX0XyXyXxXxXxXZXvXyXtXyXbXAXdXrXdXzXvXbXDXDXxXyXxXzX8XcX>X:XyXdXdXyXrXtXtX8X1X>X:X>X>X<X8XtX0XyXyX8XyXyXyX8XtXyXxXvX8XxXfXyXyXtXrXtXyXrX8X8X8X>X>X8X8X8X:X1XtXfXyX8XN.8XfXfX8XtXfXfXfXuXuXfXfXyX8X1X1X8X8X1X>X:X>XuX1X8X0X0XV.8XfXdXyXdX8X8XyXzXAXxXrX<X0XvX7XyXyXAXvXFXDXFXbXxXrXyXzXzXzXyXtXwX>X>X8Xz.8.x.x.x.N.1X8X1X1X1X:XV.l.l.l.l.7.8.8.7.7.z.8X1X1X:Xx.x.x.l.l.7.l.V.V.B.z.l.b.l.B.5X7X7XwXwXqX7XqXqX7X7X7X5X5XA.A.Z.C.B.C.C.C./.C.C.C.C.v.B.C.C.B.C.B.B.Z.A.A.B.Z.5X^.Z.v.c.v.",
"DXxXdXxXvXFXGXZXZXGXZXZXfXvXDXZXyXdXAXdXxXxXAXxXdXdXtXZXFXAXZXHXGXGXvXdXHXfXxXvXFXHXZXHXFXZXZXFXJXFXJXZXZXZXFXFXFXHXGXJXFXFXFXSXFXSXFXGXGXGXFXJXFXFXZXZXxXZXZXvXtXfXtXfXZXFXFXGXSXJXZXSXFXAXSXGXfXgXtXFXGXZXZXHXFXHXGXJXFXHXFXZXJXFXFXKXFXfXZXfXFXGXFXZXFXGXZXFXZXAXZXZXDXfXdX1XA.S.S.9XA.A.7XrXwXdXdXxXAXvXZXdXdXdXZXAXfXvXDXFXZXZXFXFXHXfXZXZXFXGXFXFXgXAXAXAXZXvXJXvXFXHXxXdXdXAXZXZXDXvXZXtXDXFXZXHXGXHXZXgXZXZXyXZXZXJXGXJXFXFXHXZXyXZXZXFXZXFXfXZXFXSXGXFXFXFXFXFXJXJXJXFXHXFXFXSXFXKXKXKXKXKXKXFXFXFXKXJXJXKXSXgXZXZXZXZXgXgXvXfXgXSXZXFXFXGXSXGXFXZXZXZXAXvXdX0X9X<X<X<XA.A.A.A.8X0X0XdXdXyXdX0X<XdX0XrX<XzXdXyX1X1X<XdXyX0XyX8X0X0X0X0X1XyX9XdX0X<X<X0X0X9X9X0X8X8XyXzXrX>XA.rXzXxXzXrXrXrXzXzX7XvXvXzXzX<XdX<X<X0XtXfXtXfXfXdXdXfXZXfXgXtXV.:X2XtX1X2X2X8X1X1X:X1X1XtXZXdXtXZXfXfXZXfXZXAXAXxXxXuXtXtXyXtXdXtX1XtXZXvXyX0X1XdXdXfXdXZXvXfXdXyXtX:X:XtXfXfXyXdXyXyXxXyXzXzXdXrXyXyXyXyX0X0XrXxXxXvXbXDXGXFXvXyXzXxXvXAXAXbXvXvXAXDXbXyXdXdXzXdXyXzXcXvXAXDXAXAXbXbXxXyXyXtXtX8X8X8XyXxXyXyXxXfXyXyXyXtXtXyXtXyXyXtXzXyXtXtX0X8X8X<XA.Z.A.>XB.:XB.Z.z.:X:X:X>X>X>X1X8X1X1X1X1XtXuXtXtXCXuXtXuXtX:XV.V.N.z.V.V.:X:X:X8X8X1X:X<XyX1XxX0X>X<X8X8X7XA.7X8X>Xl.Z.>XpX7XrX7XyX8X7X7X>X8X>X>XS.A.7X8X>X5XyXxXyXxX1X:X:X1X8X8X1X0X1X8XyXdX<XN.z.z.l.8.7.1.1.1.1.x.x.:X1X1X1X>XV.B.B.l.7.8.z.B.Z.V.Z.>X>X7X7X7X7XqXrXiXiXrXwXqX7XA.A.Z.Z.C.Z.^.^.^.^.^./.Z.Z.Z.Z.C.Z.Z.C.B.C.C.C.B.v.v.B.v.v.c.c.",
"AXvXdXxXvXDXDXHXZXZXZXZXdXdXvXdXdX0XdXxXdXdXdXxXfXdXvXyXfXDXSXFXZXZXZXxXvX0XdXyXdXfXvXZXGXfXSXFXFXHXJXJXFXSXZXJXFXFXGXFXFXFXFXFXFXZXGXFXFXFXFXFXHXZXfXfXfXxXvXvXfXfXdXxXvXZXZXZXZXGXZXZXJXFXAXFXDXZXfXZXZXFXFXFXGXGXFXZXvXvXFXZXZXZXGXFXdXtXxXZXFXDXvXfXfXZXGXHXDXfXxXdXfXvXyX9X<X9XS.S.7XS.A.9X9XyXcXcXvXAXfXxXyXbXvXfXvXFXvXfXZXxXvXZXZXfXCXGXZXZXZXDXAXGXDXZXHXZXxXGXZXFXvXZXxXDXZXAXFXvXZXfXDXHXZXFXHXFXZXfXfXZXZXZXFXAXfXZXfXAXZXZXfXZXfXAXGXZXZXZXZXFXZXGXFXFXFXFXFXHXFXFXZXFXFXSXFXKXKXFXKXJXKXFXSXFXFXFXJXZXZXfXfXfXZXfXZXDXvXZXZXfXfXxXAXJXJXGXZXZXZXxXdXxXrX9XdX7XS.7XA.B.A.<X0X>XvXbXfX0XyXdXyXyXdXxXyXxX0XfXyX1X0XxXfXdXdXyX0X>X8XyX0XxXxXyXyXtX0X0X8X0X0XyXdXxXdXdXyX8X0XdXrX1X0X0XxX0X0XyX9X9XyXdX8X8X>X8X<X1X1X1XtX1XfXfXdXyXtXZX2X:X2X:X,X1X1X2X1X:XtX1X:X2X1XN.1XtX1XgXfXgXtXfXvXvXDXDXxXtXyXfXdXdXdXtXyXxXtX1X1XdX8X<X0X0X0X0X<XtXfXyXyXfXfXfXfXfXyXdXdXyXdXyX0XyXdXdXdXzXdXyXdXzXzXvXrXrX8XrX7X8X8X8XrXyXrXrXrXwX7X7XwXwXwXrXwX7XrXrXzXrXzXrXrXrXwXwXvXzXrXwXrXrXyXwX>XB.l.l.8.l.l.l.7.1.7.l.:X1X1X<X>X>X>X>X8X8X7X8X8X8X7XA.B.z.B.z.A.>XV.8.7.7.l.:X:X:XV.V.>X:XN.z.x.N.:X8X1X8.7.N.:X:X:XV.N.:XV.V.V.B.:X8XxX8X8X8X8XyX8X7X7X7XA.Z.B.>X5XA.A.7X8X>X>X>X>XZ.B.B.Z.B.A.A.>XA.>X>X>XB.z.V.:Xz.z.v.B.V.>X1X8XyXxXdXtX<X>XA.V.Z.l.z.:X:XB.B.B.B.v.v.v.B.B.z.z.z.l.z.Z.Z.B.v.l.l.l.b.b.l.v.B.Z.A.Z.Z.Z.Z.A.^.A.Z.B.B.Z.Z.^.^././.^.^././.C.v.c.c.v.B.C.C.v.v.c.c.c.l.z.z.z.c.c.v.",
"bXxXxXdXvXbXvXDXZXZXZXyXfXdXyXfXdXxX0X0XyXdXyXxXDXdXxXfXGXJXDXfXvXxXDXdX0X1X0X0XyXDXZXDXZXJXJXFXZXGXSXZXJXJXJXGXFXJXJXJXJXFXHXFXZXfXFXGXFXFXJXKXFXZXyXfXZXvXZXFXZXfXZXZXZXZXHXZXfXFXFXFXFXFXGXFXZXZXfXvXZXZXZXGXFXFXFXZXFXxXZXfXfXvXfXZXDXyXyXyXDXZXxXfXyXfXGXDXvXvXAXDXFXAXxX9X<XS.S.S.A.7X9X9X9XdXdXbXvXvXZXDXyXyXdXZXfXvXfXvXDXDXvXxXxXfXfXxXxXfXvXZXZXGXAXZXHXZXGXFXFXZXvXfXxXvXZXvXZXDXAXvXZXZXZXFXZXZXZXFXfXtXZXvXvXvXFXvXxXvXfXfXZXxXyXxXZXyXZXxXZXZXZXZXFXZXZXFXFXFXGXJXFXFXGXZXZXZXFXJXKXJXKXFXFXFXCXZXFXgXZXgXfXgXfXZXbXHXZXFXFXfXfXxXFXSXFXFXZXZXfXxXdX8X9XyX9X<XA.S.A.A.S.<XV.<XzX0XxXdXZXxXxX0XvXvXxXxXxXxXyXDXDX0XxXdXyXdXdX8XyXfXdXdX0X0XyXxX0X0XdXyXyX0XxXdX0XyXyXdXdXyX0X0XbXDXvXdXdXyX0XcX8XyX>X>X0X<X1X:X1X1XfX:X1XyX1X1X1X2X1X1X,XtX1X2X2X2X2X1X:X1X1X1X:X2X:X:X1XgXtXgX1X:X1XvXZXgXfXtX8XyXdXvXdXtXxXfX1XtX1X<X1X1X0Xz.N.1X1X:X:X:XV.N.V.:X:X:X<X1X8X9X0X0XyXrXrXrXyXyXrXrXrXwX8XwX8XwX8X7XrXrXrXwXrXwXqX7X7X7X9X7X9X7X7X7X7X7X7XA.7X7X9X7X7X7X7X7XeX7X7XqX7XwXwXwXwXwXrXyX0X<XN.V.:XN.z.l.:X:X:X:X<X>X:X8XA.A.A.A.7X7X7X7X7X7X7XwX>X8X8X>X:XV.V.8X8X8X1X8X:X>XV.l.l.z.v.v.V.:X1X1X:X1XtX8X1X8X>X8X8X>X>X8XV.>X8XV.7XZ.A.5X7X7X7X7X5X>XZ.>X5X>XB.>XB.A.B.A.Z.Z.Z.B.A.Z.B.l.l.b.l.l.l.z.B.B.V.V.Z.B.V.z.l.z.z.B.B.z.Z.:X>X:X>XN.v.:X>X>X:XV.v.v.B.B.v.v.v.v.Z.B.B.B.v.v.z.l.l.b.b.b.7.7.b.l.v.v.B.v.v.v.B.Z.B.B.C.Z.C.C.C.C.C.C.v.C.v.v.v.v.v.v.c.c.v.v.c.c.l.l.z.c.v.v.v.B.",
"9XzXzX0XyXdXyXxXvXfXGXFXvXxXxXyXyXvX8X8XdXrXdXAXxXdXdXdXxXFXJXFXvXxXvX0X0XyX0XdXvXvXZXZXJXJXGXZXZXFXZXZXGXZXFXJXGXGXGXJXHXZXGXJXFXZXGXFXSXFXFXFXGXZXfXZXZXZXJXGXZXZXFXFXHXZXHXfXvXDXGXFXZXGXFXAXvXFXZXDXFXDXGXFXHXDXDXbXDXfXxXfXyXdXvXdXvXzXrXzXxXzXdXrX9X0XrXDXxXxXvXAXvXxXcXxX0XdXrX9XrXbXzXzXbXxXdXcXxXdXdXxXdXxXyXdXvXAXdXxXcXvXxXdXxXAXZXvXyXfXZXAXfXZXvXZXZXHXZXZXdXZXvXdXbXfXxXfXZXZXZXvXvXvXZXZXfXdXfXZXDXZXZXfXtXdXfXbXAXcXdXdXxXxXdX0XfXvXdXvXFXfXxXxXFXvXfXvXZXDXZXZXFXFXJXGXFXZXAXHXZXFXFXZXFXFXGXHXfXdXDXdX0XdXZXfXvXxXvXvXAXAXxXZXxXZXGXFXfXxXxXAXyX8XyX8X<X<X>XV.S.V.1X>X<X<X1XdXfXfXZXxXfXxXZXvXFXdXdXdXyXfXdXfXdXfXfXfXxXdXfXfX8X0X1X1XfXZXfXfXvXyXfXtXDX0X1X8XdXfXyXyXdXxXvXvXvXDXAXdXxXbXvX<X8X<XAX8X<XV.N.:X<X1X1X:X:XN.:X2X1XtX:X1X:X1X1X:X:X:X1X1X:X2X1XtX2XgX2XtXtXtXtX:Xq.8.N.,X1X1XtXtX0XtXtXvXfXyXdXdXyX0X0X8X1XtX0XyX<X:X:XV.V.:X8X0X8X8X0X0XrXrXrXrXrX9X7XwXwX7X7X7X7X7X7X7X7X7X7X7X7XqXqXqXqX9XqX7XwXwX7X7X7X7X7X7X7X7X7XwX7XwXwXrX7XqXeX7X^.S./.^.7X7X5X5X7X7XqX7X7X8X0XrX1X1X0X:XN.V.V.N.V.9X<X>X>X7X7X7X7X7XwX9XwXwX7X7X7X7X7X0X8X0X8X8X>X8X>X>X8X8X8X>X>X>X>X>X8X8X8X8X8X7X<X<X<X<X7X7X7X7X8X7X7X7X7X5XA.>X>X5XA.7X5X5XZ.z.l.z.z.z.v.b.b.7.b.b.l.z.B.z.v.z.B.B.B.z.z.l.l.l.v.B.v.v.v.B.A.>X>XA.Z.Z.S.Z.S.z.z.l.v.z.z.z.z.z.v.V.Z.>X>XZ.B.C.C.v.v.C.C.v.c.c.l.7.1.1.7.b.b.b.z.v.v.B.Z.A.A.A.Z.B.B.B.B.B.C.C.C.C.C.C.C.v.v.c.c.c.z.l.l.b.l.l.z.c.c.c.v.B.C.Z.Z.C.",
"rXzX0XrX0XyXtXFXyXDXZXAXxXyXyXxXyXDX8X>X<XxXAXdXxXDXxXdXtXFXGXxXvXfXxXfXdXfXdXZXyXxXZXvXJXZXfXGXJXFXFXJXZXZXtXfXFXFXFXFXZXZXGXGXSXZXSXZXSXJXJXJXZXSXZXZXZXGXGXZXFXGXGXGXZXFXZXfXFXGXZXFXFXJXAXvXvXZXDXZXbXFXJXZXDXFXFXFXZXbXdXdXvXbXcXdXzXyXrXA.rXrX7XzXdX0X<XdXzXyXdXyXyXxXzXcXcXyXdXDXbXbXbXbXdX9XdXzXdXxXdXvXyX0XdXAXxXdXxXDXbXvXdXyXfXZXZXvXtXxXxXZXdXvXdXfXyXfXZXDXdX0XyXfXZXdXyXvXZXdXxXZXvXfXZXfXtXtXZXfXfXZXfXyXyXyXyXFXxXdX0XdXdXyXyXfXdXfXyXxXZXfXfXZXvXdXdXyXdXfXvXZXDXFXFXFXZXZXDXZXZXHXFXZXZXfXfXyXtXZXvXdXvXfXfXZXbXxXdXfXAXZXZXfXfXZXFXZXZXGXZXyXyX>XyX>XV.8XdXS.V.0X<XdXV.V.0XfXZXZXfXZXZXAXFXDXdXdXfXfXfXZXZXxXvXdX0XyXxXfXyX1X1XyX8X:X1X1XtX0XfX1XyX<XxX1XtXxX8XyXtXfXDXZXyX1XyXxX0X0X<XvX<X8X8X8X<XV.V.N.N.z.N.x.z.x.z.z.:X:X:X:X1XV.N.N.N.N.:X1X:X8.:X:Xz.x.N.ZX1X2XuXgX1XtXtXgXgX,X:XN.:X1XfXtXtXfXtXfXZXfXfX1X0X1X1XtX0X8X0X0XtXyX0X0X0X8X0X8X8X0X8X8X7X7X7X7XwXwXwX8X8X9X7X7X7X7X7X7X7X7XqXqX7X7X7XqXqXqX7XwXwXrXrXzXrXrXrXrXrXzXzXiXwXhXiXiXiXiXeXeXqX(.7X^.^.^.^.^.^.7XA.7X7X9X7X8X8X>XA.S.A.S.A.<X>X7X7X7XeXwXwX7XwXwX7X7X8X>X8X>X>XB.B.>X8X8X8XtX8X8X8X8X>X>X>X>X6X8X7X8X>XA.7X7X>X7X8X8X8X8X7X7XwX8X8X>X7XyX8XwXwX5X5X5XA.A.^.5XA.A.^.Z.B.Z.B.c.v.Z.B.z.b.7.7.7.1.1.1.1.1.7.b.7.b.l.l.b.l.l.z.B.Z.Z.Z.Z.B.l.b.7.b.b.l.l.l.l.b.7.7.7.l.l.z.v.B.A.Z.C.v.B.C.B.v.v.C.C.v.v.v.v.v.v.v.z.v.l.b.7.b.l.l.l.b.b.l.l.c.c.c.c.C.C.C.C.C.C.C.C.C.C.C.C.B.v.C.Z.C.C.Z.Z.Z.Z.Z.Z.",
"xXxX8XvXDXvXyXDXvXDXAXGXvXvXzXvXvXvX<XyX8XxXvXdXxXvXxXAX0XxXFXGXxXZXZXFXfXdXDXHXFXDXxXFXfXGXJXZXAXZXGXZXfXDXGXAXZXDXZXFXGXGXFXZXFXFXSXZXSXJXJXFXCXFXZXfXSXFXZXZXJXJXJXJXFXJXGXZXZXGXZXDXFXDXDXFXvXyXZXAXDXGXHXFXFXDXDXDXZXvXdXxXvXrXzXrXyX<X>X9X9X<X>XbXDXdX0X<XyXrX>X8X7X0XxXxXdXDXFXxXDXHXvXdXyXyXyXxXxX0XxXxXyXyXdXdXdXdXyXdXzXdX0XdXyXxXfXfXZXZXdXyXyXdXdXyXtX1X1XtXfXZXfXvXfXdXfXfXfXfXZXfXdXfXxXdXfXyXZXZXGXyXdXdX0XdXfXdX<XdX0X>X1XdXxXfXDXfXZXZXfXfX0XgXZXfXdXyX0XyXdXfXfXfXZXZXZXAXZXvXxXtXZXZXZXZXtXfXZXfXdXxXvXfXvXZXxXxXyXbXFXvXGXZXxXfXZXFXZXZXfXfXdXyX0XV.<X0X1X1X:X<XZXdX1XFXJXGXZXZXfXfXAXyXfXfXFXZXZXxXxXDXDXdXdXyXdXyX0X<X1XtXtXtX<X>X1XV.tXfX0X1XyX1XfXfXfXZXfXfXyXfXFXZXtX<XxXGXyX:X:X<X0X8X<X<XtX0XfXtX8X>X:X8XyXfXgXN.z.l.z.N.N.tX1X:X:X<X8X0X1X:XN.z.l.N.N.:X1X1X1X1X:X2X2XN.N.N.N.N.:X2X1XtXfXfXfXyXtXtXtX0XyX0X8X<X<X8XA.>X<X>X<X9X9X9X7X<X7X9X7X7X7X7X7X7X7X7X5X7X7X7XwXqX7X7X7XqXqXqX7X7XqXeXeXeXiXeXzXhXrXiXzXnXbXbXnXzXiXiXzXzXiXzXhXiXiXhXiXiXqXqXqXqXqXqXqX(.^.^.5X5XA.A.7X5XS.5X5X7X7X^.^.7X7X5X7X7X7X7X7X7XqXqX7X<X9X9Xl.1.1.1.8.8.l.l.V.V.A.>X7X7X>X>X>X>X5XA.A.>X5X>X>XA.Z.B.B.B.S.S.B.B.v.z.l.b.b.b.b.b.v.Z.A.5X^.^.A.A.Z.C.C.^.A.A.C.^.A.C.C.B.B.B.B.v.v.B.c.c.c.C.C.B.v.C.v.v.v.v.B.Z.C.C.B.B.B.c.C.B.B.z.z.l.b.b.b.7.7.7.7.7.7.b.z.Z.5X7X7X7X5X7X7XA.Z.Z.Z.Z.Z.C.B.B.B.v.c.c.l.l.l.l.l.l.z.z.v.B.C.C.C.C.v.c.c.c.c.c.c.c.l.z.c.c.l.l.z.v.C.Z.^.Z.C.B.C.Z.",
"vXvXrXxXDXfXyXvXFXxXvXAXyXxXvXvXvXyX0XvXAXdXxXAXxXdXvXvXdX0XfXfXfXGXxXvXyX0XZXFXDXGXZXZXJXfXAXGXJXGXfXFXxXZXAXFXFXZXZXZXFXGXJXAXZXSXCXCXSXGXFXHXFXHXZXgXgXHXZXZXJXJXJXFXJXJXJXZXZXGXxXAXFXvXFXZXdXvXfXfXvXDXvXDXvX1XfXvXDXdX0X0X9X0XrX9XvX<XN.V.8XN.V.9XbXrX8X9XrXrX8X8X>X8XdXAXxXdXFXdXDXvX0XdXdX9X0X0X0X0XdXdXdXyXdXrX0XdXzXdXdXdXyXdXrXzXxXfXxXZXfXyXdXdXdX1X>XgX>XvXtXtXdXdXxXdXvXfXdXyXyXfXtXxXfXyXfX1XyXvXvXyXdXyX0XdX0X0XdX>X1XdXvX0XfXfXdXtX0X2XtX1X:XtXtX0XyXdXyXtXtXfXdXtXfXZXfXvXZXZXZXZXfXZXZXZXZXxXDXtXfXvXfXZXvXdXdXfXvXdXfXxXFXvXZXfXfXZXfXvXZXZXfXfX1X8X1X1XN.dX:X2XvXZXyXfXZXZXfXfXAXfXxXvXfXZXZXyXfXvXDXAXfXfXFXZXxX8X1X1X1X1XtXZX>X:XN.N.1X:X1XtXtX:X>XtXtX1X1XtXfXfXfXfXdX0X8XyX8XN.z.V.xXdXvXyX:X>X1XdXtXyXyX0XtXtXtXtXxXtX>X0XvXyX8X8X8X0X0X1X1X:X1X>X>X1X1X:Xl.l.z.N.:X:XV.,X1X:X:X:X:X1X1X1X1X:X:XV.N.:X:X:Xl.V.8XdX8X<X7X7X<X>X>X<X7X9X9X<X9X7XA.S.S.A.7X7X7X7X7X7X7X5X^.^.^.^.(.(.7X7XqX7X7XqXqXqXeXqXqXwXeXeXqX(.A.A.A.7X7X(.9XeXiXeXeXeXqXqXqXeXqXqXqXqXqXqX(.^.^.^.^.^.5X^.^.^.A.A.^.^.^.qX^.A.^.^.A.S.C.C.C.S.S.S.A.S.A.S.7X>X>XZ.V.>X<X>X8X8X>XA.Z.B.B.B.B.B.Z.A.A.Z.Z.Z.S.A.S.B.S.C.B.B.C.C.B.Z.Z.B.B.B.B.v.v.v.B.B.v.B.v.v.v.C.Z.C.A.C.^.C.A.^.A.C.B.B.v.c.c.v.B.c.c.l.l.c.C.c.c.C.C.v.v.v.c.c.c.c.c.c.c.l.b.l.l.v.v.v.v.z.z.l.l.l.B.Z.B.z.z.z.z.B.B.v.v.B.Z.Z.Z.Z.A.Z.C.C.C.C.C.C.C.C.C.C.Z.Z.A.A.Z.C.C.C.C.C.C.v.c.c.v.v.v.v.c.l.l.b.b.l.z.v.B.C.C.C.Z.Z.Z.Z.",
"xXZXvXvXfXAXfXfXFXvXAXvXFXxXxXyXxXAXdXvXvXxXDXZXdXdXxXvXxXxXyXxXyXyXfX8XfXdXAXJXZXZXFX<XyXfXAXZXZXGXAXFXDXZXxXvXFXtXZXZXfXZXGXJXGXGXAXFXFXGXFXZXFXZXFXZXtXFXJXFXJXFXFXZXJXJXHXZXZXZXgXgXZXZXZXFXfXDXxXdXZXGXJXFXZXyX8XyXdXyXyX8X<X1X<XbXV.vXV.N.z.1XB.0X8XV.V.V.A.9XA.<XA.8XyXxXdX8XfXvXdX1XyXbXzXyXyX0XtXyXtXdXdXyXzXyXrXdXdXzXyXyXyXdX0XdXdXdXdXxXyX0X0X0XdX1X1XV.:X1X:X1X0XfXvXxXdX8XyXfXxXdXtXfXZXAXfXvXfX0XdXS.<XdXdXDXdX0X<X:X0X1XfXvXDXHXtX2X2X1X:XN.N.1X:X>X>XgXfXtXtXtXN.ZXfXZXgXfXvXHXCXCXFXZXZXfXfXfX2X1XgXtXgXgXfXgXfXtXyXyXdXfXZXZXZXfXfXtXdXZXZXZXZXfXyXZXfXZX8X1XtXfXfXtXtXfXZXgXtXtXZXyX1X:X1XtXtXZXJXFXZXFXZXdXvXZX1XfX:Xz.N.N.l.:Xl.N.l.x.N.l.z.z.N.tXN.:Xx.:XN.N.N.N.V.1XfXfXfXfXfXfXfXdXyXyX0XyX0X8X8X8X1X8X8X8X8X8XdX0XyX8XtX0XyXyX8X9X0X8X<X8XtX8XtX0X8X<X:X>X8X<X>X:X<X1X1X1X1X1X8X8X1X:XV.>X1X<X>X1X1X1XtX0X0X0X0X0XrXzXyXrX8X7X8XwXwX7XS.B.l.l.l.l.c.B.7X7X7X7XqX7X7XA.A.A.A.7X7X7X7X7X7X7X7X^.7X7X^./.^.(.(.^.^.^.^.^.^.^.^.^.^.^.^.7XqX7X(.^./.^.^.7XqXqX(.^.^.^.^.^.^.^.^.^.^.^.(.qX^.^.^.^.^.^.^.^.^.^.A.A.A.^.^.A.5X7XwXrXrXrX8X>Xl.7.l.>X9X9X7X7X8X8XwXrXrXeXeXeX7X5XA.A.^.^.A.A.A.^.^./.A.A.A.A.C.B.B.B.Z.S.S.Z.Z.Z.Z.S.Z.B.Z.^.^.^.^.A.^.^.^.A.^.Z.Z.Z.C.C.C.C.C.C.c.c.c.c.F.C.c.c.c.c.v.c.c.c.c.c.c.c.c.c.c.c.v.c.v.B.Z.Z.B.v.l.l.z.z.z.z.v.B.Z.A.>XA.A.Z.Z.Z.Z.^.^.^.^.Z.C.C.C.C.Z.C.C.C.B.B.B.C.C.Z.C.C.C.c.c.c.c.c.l.l.l.l.l.l.l.l.l.c.B.Z.Z.C.C.C.C.B.B.C.",
"yXyX8X1X0X<X>X8XGXdXxXxXxXdXFXGXxXAXAXDXAXvXvXfXyXyX0X<XdX8X0X8XfXyXZXtXyXyXAXAXGXfXFXtX>XdXtXyX1XV.yXFXvXDXFXfXyX0XZXZXtX1XtXAXFXGXZXGXFXvXFXFXFXJXGXZXFXGXJXKXGXSXFXKXgXJXHXZXHXZXZXZXfXFXJXFXZXZXZXFXJXDXZXAXZXyX:XyX0XvXdX1X0Xl.N.l.yXN.0X>XfXHXvXyXyX0X>XN.S.B.0XdXdX0XxX<X:X<XyXyXyXdXdXdXdXdX0X9X8X<X0XyXrX0XdXdXdXzXdXzXxXdXdXdXdXdXdXyXyXxX0X0XdX1X1XdX1X>X>X:X0XV.N.0XxX8X8XyXxXvXZXxXtXyX0XyXyXtX8XdX0X0X0X0X1XfX1X1XdXyXtXtXtXV.N.x.1.8.x.N.,X1X2X1X,X3X2XtXfXZXCXgXtX1XfXfXgXfXFXZXfXtXtXtXtXfXtXfXgX1X2X1XdXfXgXZXFXZXdXdXfXfXfXfXfXtXtXfXfXfXZXfX0XgXfXvXvXtXfXtX1X1XFX1X:X>XtXgX1X1XGXZXz.l.:Xz.2XgXZXfXvXZXZXfX0XfXyXfX1X>X:Xx.8.l.z.N.N.N.z.N.N.x.N.l.l.8.x.:X:X:X:X1XtXfXdX0X0XtX8X<X:XV.V.V.V.V.V.V.V.V.:X>X8XtXdXyXyX8XtXtX8X8X8X8X8XwXrX8X8X8X8X<X7X7X8X9X7X7X7X<X<X9X7X>X8X9X0X0X8X8X8X8X8X8X8X1X>XV.N.z.z.z.V.V.V.V.Z.Z.>X8XrXwX7X7X7X7X7X7X7X7X7X7X7X7X7X(.^.A.^.5X^.A.A.A.A.S.S.A.A.A.>X<X>XA.7X7X7X7X7X7X7X(.(.7XqXqXqXqXqXqX7X^.^.^.7X(.^././.^.^.^.^.^.(.^.^.^.^.^.qXqX^.^.^.^.(.qX^.^.qXqXqX7X^.^.^.^.^.^.^.^.^.^.7XwXrXrXrXyXyX8XrXyXdXdXdXdXrX7X>XA.A.>X^.^.^.^.>XA.Z.Z.Z.A.^.A.A.A.A.S.C.C.C.C.B.B.B.B.l.l.b.7.b.b.l.z.z.z.c.v.c.B.B.c.v.C.C.c.c.c.c.B.C.C.Z.Z.C.C.C.c.c.c.c.c.C.C.C.C.v.v.c.c.v.C.C.C.C.C.v.c.c.c.C.C.C.v.c.c.v.v.v.B.Z.A.A.Z.Z.Z.Z.Z.A.A.5X^.A.^.^.^.^.^.^.^.^.^.Z.C.C.C.S./.C.Z.C.C.C.C.C.C.C.C.C.C.C.C.C.Z.Z.Z.Z.Z.Z.C.v.c.v.c.c.l.l.b.7.1.",
"dXfXfXdXDXvXdX0XbXyXdXyX8XyXxXxXvXvXAXDXfXyXtXdXvXfXfXvXdX>X0X8X1XyXfXfXfXDXfXyXyXtX1XdXyXfXdXyXtXZXyXyXvXxXfXvXfXxXyXtXtXyX8X8XfXvXZXZXxXfXAXFXDXDXGXZXDXJXJXJXGXZXFXGXFXtXFXJXHXJXFXxXZXJXFXGXFXdX:X1XZXDXvXdXN.N.0XvXDXvXDXGXDXDXHXFXfXvXyXDXDXvXvXDXvXxXdXvXAXGXGXcXdXdXdX<X8X>XS.<XdXdX0X<X0X8X>X<X<X<XrXyXrX9XdXyX9X0XrXzXcXdXdXdXyX0XyXyXyX0XdXfX1X>XtX1X8.1.z.8.7.:XbX<X<XdXxXdXdXvXxXdXdXyXyXfXyX8X0XfXvXyXvXdXfXdXfXtX7.7.1.8.8.7.8.w.x.w.8.N.%XN.N.3X3X3X1X3X2X1XtX1XgXtXCXgX3X2X3X1XgXtX2X1X2XtXtXtXgX:X8.l.1XZXZXZXfXtXfXtXtXgX1XgXgXgXyXfXfXfXZXfX1XfXdXZX1X:XN.:X1XJXfXFXFXFXxXZXfXZXZXZXfX:Xl.:XN.tXgXgXZXgXtXfXgXgXfXfXCXZXgXCXuXuXfXfXCXgXyXfXfXtXfXtXtXtXfXfXfXfXfXfXfXfXyX0X1X0X8X<X<X8X0X0X<X<X<X7X8X7X8X8X0X0X0X8X0XyX0X8X8X0X0X8XrXrXwXwXwX7X8X7XwX7X7X9X8X7X7X7X7X7X7X7X7X7X7X7X7X7X7X5X8X8X8X8X<X>X>X1X<X<X8X<X>X>XA.>XA.7X7XqXqX7X7X7X7X7X7X7X7X7X^.^.^.7X7X5XA.C.B.Z.B.B.B.B.B.Z.V.V.<X7X>X>X7X7XA.^.7XqXqXeXeXqXqXqXqXqXqXqXqX(.(.^./.^.^.^.(.7X7X7X^.^.^.^.^.^.^.^.^.^.^.^.^.^.^.^.^.^.^.^.^.^.^.A.C.Z.^.^.A.A.A.A.^.^.5X>XA.>XA.Z.z.z.z.z.l.B.S.>X7XA.A.A.A.A.A.Z.B.c.l.l.l.l.l.l.c.c.F.B.C.B.C.C.B.B.c.l.b.7.7.7.b.b.b.b.l.l.v.B.c.B.B.B.B.C.C.C.C.C.C.B.B.B.v.v.C.C.C.C.C.C.C.C.c.c.c.C.C.c.c.v././.C./.C./.^.^.^./././.C.C.C.C.v.l.l.l.l.l.l.l.l.l.l.l.z.v.v.C.^.^.qXqXqXqXwXiXiXqXqXqX^.C.C.C.C.C.C.C.Z.C.C.C.v.v.v.v.v.v.v.C.v.C.C.C.C.^.Z.C.c.c.c.c.c.c.v.C.",
"vXFXGXvXxXdXfXyXfXxXdX0XdXdX<XAXxXvXyXxX8XfXfXfXfX8X<X8X<X0XyX<X0XyXdXZXfXJXvXfXyXtX1X0XtXyXtX8X8X:X>X>X1XfXfXyX1XtXyXtXyX8X8X8XyXyXZXvXZXAXFXGXFXxXyXDXGXFXFXAXZXZXGXFXFXHXDXFXGXvXfXdXtXfXDXxX0X0X>X:X8XdXxXdXdXfXxXdXdXxXxXvXdXHXZXvXvXfXdX0XdXfXvXdXbXdXvXxXvXFXDXDXxXdX0XdXV.7.z.dXxXN.z.8XrXrX0XyXzXzXxXzXdXrXrXrX0XyXdXzX9X9X0X0XrX8X0X8XyX0X8X<XS.V.:Xl.N.l.z.:X0XxXvXdXyXdX0XdXdX8XV.8XyX0X0X8X<X1XyXxXtXtXyXyXfX<Xz.8.8.8.8.l.x.N.w.q.%X%XN.N.x.x.w.q.q.N.N.%XN.x.q.%Xw.N.N.w.8.8.x.:Xw.x.N.w.8.x.:X:Xw.z.V.2XtXxXtX:X1XvXtXtX:XgXtXgXvXxXfXfXyXtXfXyXfXfXtX1XuX:XZXZXKXFXFXZX0XZXZXZXtXyXfXyXtXfXgXtXfXZXtX1XtX1XtXtXgXfXfX1XtXZXCXfXZXCXfXfXCXfXZXfXfXtXtXtX1X8X2X2X1X8XtXyXtXyXyXdXfXyX0X8X1X<X<X<XyXrXrXyXyX0X8X0X8X8XrX8X8X8X<X8X>X<X<X<X7X7X>X7XA.A.7X7XwX7X7X7X7X7X7X7X7X7X7X7X7X7X7X7X7X7X5XA.7XA.A.<X7X>XV.N.V.<X8X7X7X7X8XwXwX7X7XqXeXeXwX7X7X7X7X7X7X7X7X(.7XA.A.S.A.^.^.A.<X>XA.Z.B.B.N.N.l.z.B.A.5X>X>X7X7X7X7X7XqXqXqXqXqXqXqXqXqXqXqXqXqXqXqXqX7X7X(.^.^.^.^.^.^.^.^.^.^.^././.^.^.^./.^.^.^.^.A.A.^.^.Z.C.C.Z.A.A.A.A.Z.Z.A.S.Z.A.A.Z.A.z.z.B.Z.B.B.A.S.S.S.Z.A.A.A.A.^.A.A.Z.C.C.C.C.B.F.c.F.F.F.B.C.B.C.C.B.B.B.B.B.B.v.B.B.Z.Z.Z.C.C.C.B.B.c.c.c.c.C.C.C.C.C.C././.C.C./.C.C.C.C.c./.^.^.qXqXqXqXqXqXqX(.^.^.C.C.C.C.c.c.c.c.c.c.c.v.v.v.C.C.C.v.v./.C.C.v.C.C./.C.^.^.^.^.5X^.5X5X^.^.^.^.^.^.^.^.C.C.C.C.C.C.C.C.C.C.C.C.C.C.C.C.C.C.C.C.C.C.C.C.^./.C.C.C.C.C.C.",
"fXbXFXGXxXdXAXDXyX>X0X<X<X0X0XvXDXvXfX1XfXfXFXtXfXtX8X:X>X>X:X8X1XV.yXxX0XfXvX0X1X:X>X>X:X:X<XV.S.<X<XyX<XN.8X0X<X<X>X>X7X8XrX8X0X8XtXvXAXzXAXxXzX>XAXFXxX0XxXvXdXZXvXDXFXGXGXyXyXxXvX0XdXbXxX9XA.V.V.<X9XrXyXyX9X<X7XzX0XaXrXzXcXxXxXdXvX0X<X8X9XxX8X0XAXxX<XxXdXvXGXFXdXrX0XA.V.>X>Xl.l.S.wX9XzXrXrXwX8X8X9X9XrXdXzXyX8X9X8X8X9X1X9X9XyXrXyX0X8XdXyX0XyX<X>X1X1XyXdXAXdXdXdXdXdXzXdXdX0X0X1X<X0XyX<XV.>X8X1XtX1X1X1XtX1X1X1Xl.7.8.N.:X%X,X%X2X%Xq.w.q.N.%X%X%XN.N.N.N.w.q.q.8.w.w.7.e.8.8.N.x.x.x.N.z.:XtXZXgXfXfXZXfXdXtXyXZXDXfXdXl.N.<XyXxXfXdXZXvXxXxXxXxXvXvXZXdXvXDXZXDXAXFXGXZXvXyXxXdX<X<XyXvXvXfXfXZXZXSXCXCXgXtXtXtXfXgXgXgXfXtXtXuXuXfXtXtXuXtXfXtXfXuXfXtXtX8XtX8XtX8X8X8X0XyXyXdXyXyXyXyXyXyXyXyXdXrX8X8XrX8X8X8X9X0XdXdXtX1X8XfXxXfXtX1X8X8X8XrXrXyXyXrXwXwXwXwX7X7X7X7XwXeXqX^.7XqXqX7X7X7XqXqX7XA.A.>X7X7X7X<X7X7X7X7X7X7X^.A.5X^.^.(.7X7X7X7XqXqXqX7X7X7X7X7X^.(.7X5X5XA.>X7XZ.z.7.1.1.1.1.7.7.8.N.>X8X7X7X7X7XqXqXqXeXeXeXeXiXiXqXqXqXqXqXqXqXqXqXqXqX^.^.^.^.^.^.^.^.^.^.^.^./.^.A././.A.^.^.^.^.^.^.A.5XA.^.A.C.S.C.C.C.C.^.^./.^.Z.C.Z.B.Z.Z.S.A.A.A.A.Z.S.A.A.^.^.^.^.^.^.^.^.^.^.^.^.^.A.A.^.^./.A.S.A.^.^.C.B.v.v.B.B.B.z.l.b.b.b.b.l.l.l.l.c.c.c.v.C.v.C.C.C.C.C.C.C.v.v.v.C.C.C.C.C.F.F.C./././.^.^.^././.^.^./.C.c.c.C.C.C.v.c.C.C./.C.C.C.C././.^.C.C.C.C.C.C.C.C.C.C.C.C.v.v.B.C.C.C./.C.C././.C.C.C./.C.C.C.C.^.^.^.^.^.^././.^.C.C.C.C./.C.C./.C.C.C.C.C.C.C.C.",
"bXfXfXZXdXdXDXHXcXdXdXV.V.>X7XxXxXdX1X<X8X8X0X:XtX1X8X<Xl.7.7.>X:XN.1XyX<X1XtX<XV.:X:XV.z.N.V.1X:XS.<X:XN.l.l.N.V.<X7X<XV.7X7XV.V.V.A.9XyXdXzX9XyXdXyXdXzX0XdXyXxXyXxXyXZXvXdXdXyXdXrXaXrXdXdXzXzXrXyXrXrXrXwXrXrX9XwX9XzXdXzX9XrXyXdXDXAX<X8XvXvX0XyXrXFX0XB.xXvXrXbXvX9XS.8X9X<X8XzXrX>XA.wXwXzXrXrX7XA.>XS.V.A.8XzXdXyXdXxXxXdXdXrX9X8X0XdXdXzX0X8X8XyXtXtX8X<X0XtXyXyXyXzXzXzXrX9X9XyXrX<X>X0X8X<XV.<X<X<X>XtXtXtX1X1X1XtX1X1XtX1X1X:XN.%X2X%X@X2X2X%X%X%X%XN.%X%X%X%X%X%XN.%X%XN.%X%X2X1X2X1XtXgXCXfXZXZXfXgXdXdXfXfXyXyXfXxXxXyXyXdXdXdXdX0X0XxXcXxXvXvXzXzXzXzXyXdXyXyXyXdXxXdXdXdXdXdXxXyXyXfXfXfXtX8X2X1X,X:X1XtXtXtX2X>X2X:XN.:X:X1X1XtXtXtXtXtX8XtXyXtXtXyXtXyXtXuXyXyXyXyXdXdXyX8X8X1X8X8X8X0XyXrX9XyXrX9X9XrX8X8X8X0X0X0X0X1X:X<XyXtXtX0X1X>XV.N.B.7XwXrXyXrXrXwXwXeXqX7XwXwXqXqXwX7X(.^.A.A.^.^.^.A.7XwX7X7X7X7X7X9XA.S.B.B.S.A.7XA.A.(.7X7X(.7X7X^.^.^.A.A.A.A.A./.A.Z.Z.Z.B.l.7.1.1.1.1.1.1.1.1.l.l.l.l.N.B.Z.A.A./.^.7XqXqX7X7XqXqXqXqXqXqXqXqX^.(.qXqX7X(.^.^.^.^.^.^.^.^.^.^././.^.^.^.A.^.A.C.C.C.C.C.C.Z.C.A.C.C.C.C.C.C.C.^.C./.(.(.(.5X5X7X7X7X^.^.5X7X5X7X7X7X7X7X7X7X7X^.5X5X^.^.7X7X7X7X5X^././.^.(.qX^.qXqX5XZ.v.l.l.l.l.l.l.z.z.B.B.c.l.c.c.c.l.l.c.C.C.C.C.C.c.c.c.c.c.c.c.C.C.C.C././././././.^.^.^.^.^.^.^.^././.C.C.C.C.C.C.C.C.c.c.c.c.v.c.c.c.c.v.v.C.C.v.v.v.c.c.c.c.c.c.c.v.c.v.v.v.v.C.C.c.C.C.C./.C.C.C.C.C.C.C.C./././.C./.C.C././.C.C.C././.C.v.C.C.C.C.",
"yXxXvXAXxXxXDXDXbX0X8XV.z.z.B.0X8X<X:X:X<XV.N.:X:Xz.l.N.8.N.N.N.z.z.l.N.z.N.N.:XV.N.:X:X1XyXz.:XV.0XyXyX0X<XdXdXyX0X8X8X<X7X<X8X8X<XrX9X7XzXrX7XzX9X<X9X9X9X9X9X8XrX8X7X8X9X9XrX9X7X9X9X7X9XrXwXrXwXwXwXrXzXzXaXwXaX7XrXzXrX9XaXzXwXrXdXzXrXrXrX7X9XyX8X8XvXrXwXrXzXbXzX7X8X8XrXrXrXwXwXwXwXiX7X9X7X7X7X9X7X<XV.<X7X9X9XrXdXdXyXrXrXwX9XA.A.7X8XwXyXzXyXyX8XA.z.V.8XdXyXdXdXdX9X9XwXwXrXdX9X1XrX8X>X7X<X>X>X1X1X1X<X1XgXtXtX1X1X1X1X:X2X2X:X2X%X2XN.%X1X3X3X1X,X2X%X%X2X%X%X2X2X2X1X2X2X%X2X2X3XgXtX1X1X1XgXfXvXfXZXZXZXZXZXxXxXxXdXxXxXvXvXxXvXxXzXvXbXvXcXvXzXzXrXzXyXrX0X8X0X0X0XyXrXdXrXrXrXyXdXyX:XV.N.N.:X:X:X:X%XN.:X2X2X,X:X:X2X2X:X2X2X8X2X1X1X>X1X<X1X1X1X1X1X1X8X8X8X8X8X8X8X8X8X0XrX0XyXtX0X0X0XrX9X9X0XwX8X8X8X5X7X>XS.V.z.l.7.7.8.x.z.N.>X>XV.z.l.b.l.z.A.>X9X7X7X7XA.A.A.A.C.S.^.7X7X7X7X9XqX7X7X7X7X7X7X7X7X7X7XA.7X9X7X7X7X(.(.7X7X(.^.^.A.S.C.C.C.S.A./.^.^.(.A.A.A.C.B.B.z.z.z.l.8.l.l.l.N.N.V.:X>X>X8X8X7X7X7X^.^.^.^.^.7X7X^.^.^.^.^.^.^.^.qXqXqXqXqX^.^.^.qX(.qXqXqX^.(.(.^.^.^.^.^.^.(.qXqXqXwXqXwXwXwXwX7X^./.^.^./.^././.^.^././.^.^.^.^.A.^.^.^.A.^.^.^.^.^.^.qXqXqXwXeXiXwXqXqXqXqX7X7XqXeXiXeXqX7X^.5X5X5X^.^.Z.Z.Z.Z.B.B.v.v.B.B.Z.B.B.B.B.B.B.B.B.v.B.C.C.C.C.C.Z.C.C.C.v.c.c.c.c.c.c.c.c.c.c.c.c.c.v.C.C.C.C.F.C.C.F.c.c.c.c.c.c.c.c.l.l.l.l.c.l.l.l.l.l.c.l.c.c.c.c.C.C.Z.Z.Z.C.C.v.c.c.c.c.v.v.C.C.F.c.c.c.C.C.C.C././.C./.C.C./.C.C./././././.C.C.C.C.C.C.C.v.",
"<X0X<X8XrXrXyXrX9X8XrX0XrXdXrXxXyXyXyX0XdXyX>X>XV.N.V.:X<X8X0X>X:X1X1X1X1XV.1X0X1XyX1X<XN.7.z.>XdX1X<X>X<X<X8X<XA.A.>XZ.A.A.A.A.<X<X<XwX7XrXzXrX9XwX7X7X7X7X7X<X7XA.wXwX7XrX7X9XrXrXrX7X7XwXrX9XrX7XrXrXrXhXrXzXrXzXwXrX9XrXbXbXzXzXrXwXwXrXdX7X<X7X8X7XwXvXbX8X7XrXyXrXrXyX8X9XwXrX9X7XwX7X7X^.A.7X(.7X7X7XrXrX8XwXrXwX8X9X9X9X9X<XA.A.S.S.A.7X7X8XyXrXrXrXyX8X0XyXyXyXdXdXdX9X7XA.0XyXyX0XdXyX0X0XyXrXyX8X<X:XN.N.z.8.N.:X:X:X:X:X8XtXtXgX1X2X1X1X1X1X2X3XtXtXtX1X3X1X1X1X3X1X2X2XtX1X1XtX1X1X2X1X1X:X:X:XN.N.N.N.:X1XtXdXfXZXZXZXxXxXdXdXdXdXzXdXrXzXzXzXzXrXzXyXrXrXrXdXzXrXdXrXrXrXwXwXzXdXyXyXyX>X:Xz.z.N.:X:X1X2X:X:X:X,X2X,X2X1X2X1X2X2X1X1XtX1X8X8X0X8X8X8X8X8XyXtXtX0XtXtXrX0X0X0X0X9X8X8X8X8X<X<X8X0X0X0X8X7X7X<X<X<X1X1X1X:X:Xl.z.z.z.7.1.7.N.:X:XZ.<XA.B.B.B.B.B.A.A.7X7X^.5XqX7XB.B.S.7XqX7X7X7XqXqXqXqXqXqXqX7X7X7X7X(.A.(.7X(.^.^.^.^.A.A.^.^.(.A.A.A.A./.A.A./.A.A.A.A.^.7X5XA.A.A.<X7X<X<X>X>X<X7X<X>X7X7X7X7X^.^.^.(.7X7X7X7XqXqXqX^.^.qX^.^.(.(.qXqXqXqXqXqXqXqXqXqXqX5X7XqXqXqXqXiXiXiXiXiXzXzXnXbXnXnXnXzXhXrXeXeXqX^.^.^././.S.^.S.S.^.^.^.^.5XqXqXqXqXqXqXqXqXqXqXqXeXiXiXiXeXqX7X7X^.A.C.C.C.C.C.A.^.^.qX^.^.^.^.5X5X^.A.S.A.A.A.A.C.Z.C.S.A.C.C.Z.C.C.C.C.C.C.C.C.C.C././.^.^./.C.C.C.c.c.c.c.c.c.l.c.c.c.c.c.c.c.c.c.c.C.C.C.C.C.C.F.c.c.c.c.l.l.l.c.c.c.c.c.c.c.c.C.C.C.Z.Z./.A.^.^.^.C.v.C.C.C.C./.C.C./././.C.C.C.v.C.C.C.C.C.C.C.C.C.C.C.C.Z.C.C.C.C.C.C.C.C.C.C.",
"rX0X9X9XrXyXrXrXrXyXrXrXrX7XA.>X>XV.S.B.l.7.7.l.z.V.<X9X8X8X8XyXyXzXvXdX>XV.7X7XA.V.V.l.z.V.1.l.l.<X<X<XA.7XA.<XA.A.A.S.S.S.A.A.A.7X9X7X7X7XwXrXwXwXwXwXwXrXrXyX^.7X7X7XqXqX7XqX7X7XqXqX7X7XqXqXeX9XqXeXiXiXrXwXiXrXrXeX9XzXbXzX7XrXrX7X7XwXrXrXzXwX7XrXwXqX7XrXzXwXqXwXwXrXwX9X9X7X7X7X7X(.7XqX7X(.^.^.^.7X7XwX5XA.S.A.7X9XrXhXdXrXwX9XwXrXrXwXrXrXrXrXrXyXyXyXyX8XrX8X0XrXrXrXrX9X7X>X7XrXwX8X0X8X0XtXrX0X0X0X0X0XtXyXyXyXyXyXtXtXtX1XN.z.N.2X1X2XtXuXtXtX1X1XfXtXuXfXgXuXtXtXtXtXtXfXfXfXfXgXdXgXdXtXtXtXtXtX1X2X1X1X<X:X:X<X0XdXfXfXdXdXdXdXdXrXrXrXyXzXzXpXyXyXpXzXyXyXyXyXyXyXdXyXyXrXyXdXyXyXyXyXyXfXyXtX1X1X2X2XtXuXtX1X1X1X1X2X1X1XtX1XtXtXtXyXyXyXyXyXyXfXdXtXyXyXtX0X8X9XrX8X8X8X8X9X0X9X0XyX0X1X1X<X<X<X1X<X<X:X:X>X1X1X1X>X>XV.Z.V.>X>XZ.l.7.1.l.A.A.A.S.B.B.A.7XwXwXqXqXwXeX9XeXrXhXrXeX7X7X7X7X7X7X7XqXqXqXqX^.7X7X7X^.^.^.(.7X7X7X7X7X7X(.7X7X7XqXqXqXqXqX7X7X7X^.(.7X7X(.^.(.7X7X7X7X(.7X7X7X7X7X7X7X7X7X7X7X^.^.^.^.^.^.^.^.^.^.^.qXqXqX^.(.(.qXqXqX^.(.(.(.(.^.^.^.(.^.^.7XqXqXqXqXeXeXeXeXeXeXeXiXiXqX7X7X^.Z.C.B.B.C.v.c.v.B.C.A.S.S.C.C.B.B.B.C.C.C.C.Z.A.A.^.^.C.C.C.C.Z.S.C.C.C.C.B.B.c.c.c.c.c.c.c.c.c./.C.C.C.C.C.A.^.^.^.^.^.^.^.^.^.^.5X^.^.^.^.^.C.^.Z.C.Z.Z.Z.C.C.C.C.C.C.C.C.C.c.C.v.C.C.C.F.c.c.c.c.C.C.C././.C.C.C.C.v.v.C.C.c.v.v.v.v.C.C.C.Z.^./.Z.C./.^.^.^.^.5X^.Z.B.B.C.Z.Z.B.z.l.l.l.l.l.l.v.B.v.v.B.Z.A.Z.Z.Z.>XA.A.A.^.^.^.^.Z.Z.C.v.v.v.l.z.v.v.v.C.A.",
"7X7X>X>X7X7X>X>XA.A.S.B.B.l.l.l.b.l.B.N.z.z.l.b.Z.7X7X7XrXrX8XzXyXrX7X7XA.>XrXrX8XrXrXrXrX0X0XzXyXzXzXrXrX9X7X7X7X7X7X7X7X(.7X7X7X7X9X7X7X7XwX7X7X7XwXrXrXrXzXzX7XqXeXeXqXqXqX5X7X7XqX7X7X7XqXqXqXqX7XqX9X9XwXwXwXeXzXrX7X7XrX9X7XqXqX7X7XqX7X7XwXrXrX7X7XwXwX7XwXrXrXrXwX7X9X9X7X7XA.7X7XqXqXqX7X7X7X7XqXqXqXqXzXzXwXS.S.wXwX7XrXrXrXaXaXrXrXwXwXwX9X9XwXrXrX8XrX8XrXyX0X0X8X8X0X8X<X<X0XrXrXrXrX0X8X0XrXrX0X0X>X<X8X0X8X>X>X<X<X:X:X8XtXyXtXuX1XN.:XtXfXtX1X1XfXfXfXfXfXfXfXfXfXyXtX0XyXdXyX0X0X<XV.N.N.:X1XtX1XtXtX0X0X0X0X0X0X0X0X0X9XrXrXrXdXaXdXzXzXzXzXzXzXyXyXrX8X7X7X7XwXwXrXrXrXwXwXwX7X8X8X<X7X1X>X:XV.V.V.:X:X:X2X1X1X2X,XN.N.N.:X,X1X1X8XtXtXyXyXtXtXtXtXyXtX0X8X8XyX0X8X8XrXyXyXrX8X<X<X1X<X1X1X1X1X0X1X2X:X,X,X<X1X<X<X1X8X7X9X8X7X7X7X7XwXrX8X7XA.7X7X7X7X7X7X5X7X7X7X7XqXqX9X9XqXqXqXqXqXqXqX7XqX(.^.qXqXqXqXqX^.(.7X7X7X7X7X7X7X7XqXqX7X7X7X7XA.A./.^.^.^.^.^.^.A.A.A.A./././.A.A.^./.^.A.A.A.^.A.A.A.A.A.7X^.^.^.qX^.^.^.^.^.qX^.^.(.^.(.qXqXqXqXqXqXqXqXqXqXqX^.^.^.^.^.5X5X5X^.^.^.A.A.S.C.C.A.A.C.c.l.l.l.c.B.B.B.Z.5X5X5XqXwXqXqX7X^.^./.A.^.^.^.^.^.^.^.^.^.^.^.^.A.C.C.C.S.A.A./.^.A.S.A.A.A.^.^.A.A.^.^.C.c.c.c.C.^.^.5X^.^.^.^.^.^.^.5X5X^.^.^.^.^.^.^.^.^.^.^.5X5X5X^.^.^.^././.C.C.c.c.c.c.C.C.C.C./.C.C.C./././.C.C.C.C.C.C.C.C.C.c.l.c.c.c.v.v.C.C.C.Z.Z.Z.C.v.v.c.l.l.l.l.b.b.b.b.b.7.7.7.7.1.1.1.7.b.b.l.l.l.l.z.v.B.B.B.Z.Z.A.Z.v.v.l.l.b.l.l.b.b.7.7.7.7.b.7.",
">X5X5X5X7X7X7X7X7X7XwXwXqX7X7X7X9X7X7X7X7X7X7X7X7XaXrXrXrX7XB.B.A.7X7XrXzXrXrXwXrX7X>X7X7XA.8X>X<X<X>X9X8X9X9X9X7X9X8X9X8X7X8X9X7XA.<X<XA.>X7X>XA.A.<X7X8XwXrXyXeXqXrXeX7X7X7X7X7X7X7X7X7X7X7X7X7X7X7X7X7X7X7XqXeX7X^.7X7X9XqX^.7X7X7XqX7X7X7X7X7XqX9XqXwX9XeXqX9XqX7X7X7X7XD.A.7X7X7X7X7X7X7X(.7X7X7X8X8X8X8X7X8X7XwXyXzXrXwXwX7X7X7X7XqXwXwXwXwX7X7XS.Z.Z.Z.Z.Z.V.>X<X<X<X8X0X0XyXdXdXdXyXrXzXzXzXxXcXvXdXrX8X8X>XN.N.V.>X<X<X>X8XdXyX:Xl.7.l.1XtXZXxXfXxXxXZXfXxXfXyX<X:X<X8X0X0XdXzXdXdX0X0X0XyXdXyX1X:X:X<X<X1X0X1X<X8X8X8X9X0X0XrXrXrXdXzXrXrXrXrXrXrXrXrXrXeXwXwXwXwXwXrXwXwXwXwXwXwXwXqXwXrXyXdXzXzXzXyXyXyX0X1X:XV.N.N.:X:X1XtXtX8X1X1X1X1X0XtXtXtXtXyXtX1X<X1X1X1X1X<X8X0XyX0X8X1X1X>X1X1X1X0X0X1X1X:X:X:X,X,X:X:X:X<X0X8X8X8X8X8X8X7X7X7X7XS.S.A.A.<X5X(.(.(.7X(.^.A.^.^.^.^.^.(.^./.(.(.^.(.(.7X7X(.7X7XqX7XA.A.A.A.A.C.B.c.l.B.B.S.S.A.A.A.S.S.A.S.^.^.^.^.^.^.^./.A.A.A./.^.^.S.C.S.A.^.^.^.^.^.^.A.S.C.B.B.B.B.B.B.C.C.C.C.C.S.A.A.^.^.^.^.^.^.^.7X7X^.^.^.^.^.^.^.^.^.5X5X5X5X5X5X^.5X7X7X7X>X>XA.>XA.B.B.B.S.Z.B.B.v.l.z.B.A.5XA.Z.B.C.A.^.7X7XqXqXqXqX7X7X7X7X7X7X^.5X7X7X7X5X^./.A.A.^.^.7X7X7X7X7XqXqX7X7XqXqXqXqXqXqXqXwXeXwXqXqXqX7X7X^.^.^.^././.^.^.(.(.^.^.^.^.^.^.qX^.^.^.^.^.^.^.^.^.^.^.^././././.C.C.C.C./.C.C.C.C.Z.C.C.C.C.v.v.v.v.v.c.c.c.c.z.l.v.v.v.c.c.v.Z.^.^.^.^.^.C.B.v.Z.v.v.z.z.z.z.v.v.z.l.b.b.l.l.l.l.7.b.7.1.1.7.b.b.b.7.7.l.B.Z.z.b.7.b.b.b.l.l.v.z.",
"8XwXwXrXrXrXrXzXrXzXzXzXzXrXwXwXwX9X7X7X7X7X7X7XwX7X7X7XA.7X5XA.S.A.7X7X7X7X7X8X7XA.7X7X7X7X8X7XA.9X<X9XA.9X7X8XwX8X8X9X8X9X7X<X<X>X<X<XA.>X>XA.S.Z.S.A.7X7X7X7X7X7X7X7X7X7XrXrXeXwXwXeXwXwX9X9XqX7XqXqX7X7X7X7X7X7XqX7X7XA.(.qXqXqX7X7X7X(.7XqX7X7X7X9XrXqX9XeXeXeX9X7XA.B.S.S.B.S.(.7X7XqXeXwX7XqX7X7X7X7X8X7X7X8X8X7X7X7X7X7X7X7X7X7X7X7X7X7XwXrXaXrXrX8X8X8XN.l.l.8.7.1.1.1.1.1.1.7.N.<X>X<X9X9X0X0X8X7X7X7X0XyXdXyXrX8X8X0XtX8X8X1X8XyXyXfXtX0XtXtXtXyXyXyXdXdXdXdXdXdXyX8X8X8XrXyXzXvXvXzXzXdXdXdXdXyX0X0X0X0XyXyXyXyXdXzXyXzXzXzXrXwX7X9XrXrXrXrXrXrXrXrXrXrXrXrXwXwXwXwXwXwXwXwXrXrXrXrXwXrXyXyXpXzXzXzXdXyXtXyXyXyX8X1X1X1X1X8X8X1X8XtXtXtX1X1X:XN.N.z.z.8.8.z.:X8XtXtX0X0X0X0X0X0X0X8X1X<X>X<X>X:X:X:XV.V.V.:X,X:XN.z.l.l.l.N.A.9XrX8X7XwXwX7X7X7X7XA.7X^.A.A.^.^.^.5X/.A.A.A.^./.^.S.C.B.B.C.A.7X7X7X7X9XeXqX7XqX7X7X^.^.7X7X7X7X^.A.^.(.(.(.(.7X7X7X/.^.^.^.^.^.^.^./.^.^.^.^.^.7X7X7X7X7X(.^.^.^.(.^.A.A.^.5X^.^.^././.^.S.C.C.A.(.7X7X7X7XqXqX7XqX7X5X^.A.^.A.A.A.^.A.A.Z.Z.S.A.A.A.A.A.A.A.A.A.>X7X7X5XA.Z.A.5X5XwX8X7X5X>X5X5X7XwXwXwXrXrXeXrXrXqXqX7X7X7X7X7X7XqX7X^.^.^.^.5X5X^.^.^.^.^.^.^.A.^.A.^.^.5XA.5X^.^.^.^.A.A.A.A.Z.Z.Z.Z.Z.A.A.Z.C.^.^.^././././.^././././././././.^.^.^.^.^.^.^.^././././././.C.C.C.C./.^.^.^.5XqXeXwX7X5X5XA.5X7X5X5X5X5X6X>XZ.Z.v.v.v.z.l.l.l.l.l.c.B.c.z.v.v.v.B.Z.V.>X>X>X>X>XA.A.Z.Z.Z.B.v.B.B.B.v.z.l.b.z.B.v.B.B.z.l.b.b.b.l.z.B.B.B.B.v.l.",
"wXwXwXeXrXeXeXrXeXwXwXrXiXpXzXzXzXhXiXwX7X7XqXqX7X7X7X9X7X7XqX7X7X7X(.^.5X5X^.7X7X7X7XZ.B.S.^.7X>X7XA.z.B.B.V.V.>X>X>XV.V.V.>X<XV.V.<X8X0X0X8X7X8X<X7X8X8XrXrX8XwXwX7X7X7X7X7X7X7X7X7X7X7X7X9X7X7X7X7X7X7X7X7XqX7X7X7X7X9XqX7X(.qXqXqX7X7X7XqXqXqXeX9XqXqXrXeX9XqXqX7X7X7X7XqXeXqXqX7X7X7XqXqX7X7X7X7X7X7X7X7X7XA.7XqX7X7X7X7X7X7X7X(.^.A.A.^.^.A.^.5X7X7X7XwXrXrX8X0XyX0X0X0X0X<X0X1X>XS.V.V.V.V.V.V.Z.B.B.Z.V.A.>X<X<X8X8X8X8X8X8XrX8X8X8X8X<X<XV.V.N.l.7.7.l.B.A.>X>X7X7X8X8X7X<X7X7X7XwXrXzXzXcXbXvXzXrX9XrXdXdXdXzXyX9X7X7XrX8X8XwXrXwX7X7XD.D.7X7X7X7X7X7X7X7X7X7XqXwXwXrX7X7XwXwXrXrXrXrXeXrXiXrXiXrXrXrXrXyXrXrXrXrXwX8X8X8XtXtXtX8X8X8X1X1X1X1X2X2X2X1X1X:X:X:X1XtXtX8X8X8X1X1X:X:XN.N.z.N.N.N.V.:XV.V.:X:X:X,X1XtX0X8XyX8X8X9XrXrXrX7XrXeXqXqX7X7X7X7X7X(.^.^.^.A.A.^.(.^.^.7XqXqXqXeXqX7XA.A.S.S.B.B.B.l.b.B.7XA.Z.C.Z.A.^.^.^.^.^.^.^.7XqXqXqX7X7X(.^.^.^.(.^.(.^.^.^.^.(.^./.^.7XqX7X7X7X7XqXqXqXqX9X7X7X7XA.S.C.C.C.C.S.S.S.A.7XwXrX9X7XS.C.B.B.B.S.S.A.A.^.A.Z.B.l.7.1.1.7.l.l.l.z.l.l.l.z.N.B.B.z.z.z.z.z.l.z.l.z.B.B.z.B.V.B.B.v.z.l.l.b.7.l.v.C.C.B.B.B.C.C.C.Z.Z.Z.B.B.B.Z.Z.C.C.Z.A.A.A.A.A.Z.Z.A.A.A.Z.Z.Z.5X^.5X>X>X>XZ.B.>XZ.Z.Z.Z.A.A.A.C.C.C.C.C././.C././.^.^.^.^.^.^./.^.^.^.^.^././.C.C.C.C.C.C.C.C.C.C.C.Z.A.A.Z.B.l.b.b.7.b.7.b.l.l.l.b.l.z.z.B.B.V.Z.Z.Z.V.Z.B.N.B.B.B.B.B.B.z.l.b.l.z.z.z.v.v.B.B.Z.Z.Z.Z.Z.Z.Z.C.v.v.v.v.c.c.c.v.v.z.z.z.z.l.l.b.b.b.b.b.z.B.B.",
"7X7X5X7X7X5X^.^.7X7X7X7XqXwXeXwXwX9XwXeXeXqX7X7X7XeXqXqXeXeXqXiXqXqX7X^.5X7X^.7X5X7X7X7X7X7X7XA.A.B.7.1.1.l.z.V.Z.>X<X8X8X8X8X8XyXyX0X1X1X<X<X7XA.S.A.S.Z.Z.Z.Z.S.S.S.S.7X7X7X7X7X7X7X7X7X(.A.A.7X7X(.7X7X7X7X7X(.7X7X7XqXqXqXqXqXqX7X7X7XqXqXqXqXeXqXqX7XeXwXqXrXeXqXeXrXrXwXqXrXrXeX9XqXqXqXqXqXqXqXqXqXqX7X7XqX7X^.7X7X(.^.7XA.S.S.C.C.A.A.^.7X7X7X7XwXwX7X9XwX8X8X8X8X8X8X8X<X8X0X8X0X0XrXrX8X8X7X<X7X7X<X<X>X<X9X9X7X7X7X7X7X7X8X8X8X8X8X<X8X0X0X8X1X<X>X>XrXrXwX8XrXrXrX8X7XwXeXeXwXqXwXrXrX9X8X8XrXrXrXrXrXdXzXzXzXzXzXzXzXrXrXwXwXwX7X7X9X7X7X9X7XwXrXrXwXwXqXqXqXqXwXwXwXwXrXrXrXwXwXwXqXwXeXeXeXrXrXrXeXrXrXeXwXwXwX8X8X8X8X8X8X8X8X8X8X1X1X1X0XtXtXdXtXtXtX8X1X0XtX8X8X8X1X:XN.N.:X1X1X1X:XN.N.N.N.:X,X2X1XtXyXtX1X1XZ.B.V.A.>X8XwXwX7X7X7XqX7X5X5X7X7X(.7X7X7XA.A.A.^./.^.(.7X(.7XqXqX7X7X7X7XA.B.B.l.l.b.7.l.Z.7X7X^.^.^.^.^.^.^.^.qXqXeXeXqXqXqXqXqXqX7X7X7X7X(.^.7X7X7X7X7X7X7X(.^.^.^.(.7XqXqXqX7X7X(.7X7X(.7X7X(.7X7X7X^.^.^.^.^.A.S.S.C.B.B.S.B.S.S.A.S.S.B.B.S.B.B.B.A.7XwXrXwX7X>X5X7X>XV.z.B.z.z.z.z.l.l.l.l.l.l.l.l.l.l.z.z.z.v.B.B.B.B.Z.C.C.C.C.A.A.A.Z.Z.A.A.A.A.A.A.A.A.A.A.A.A.A.A.A.Z.Z.B.v.z.l.z.l.l.l.b.7.8.b.l.l.7.7.7.8.l.z.v.B.v.C.Z.Z.A.A.C.C.C.C.C.C.C.C.C.C.C.C.C.C.Z.C.C.C.C.C.C.C.v.c.c.c.c.c.v.B.B.B.l.b.l.l.l.l.l.l.l.l.l.l.l.l.l.l.l.8.8.8.8.8.l.l.l.l.l.l.l.l.l.l.z.z.z.v.v.v.z.B.V.Z.5X5X5X5X5X7X7X7X5X5X^.A.^.5X^.A.^.A.Z.B.B.B.B.v.B.v.B.v.c.l.b.b.",
"A.A.A./.^.A.A.A.C.C.A.^.^.^.^.^.7X(.^.qXqXqXeXqXqXiXqXqXqXqXqXqX7XqXqXqXqXqX(.qX(.qX7X7X^.^.^.A.Z.B.b.1.1.1.7.B.7X>X>X>X1X1X8X0X0X0XyXyX0X8X7X>X7X>X7X7XA.A.A.A.7XA.A.7X7X7X7XqX7X7X7X7X7X7X7X7X7X7X(.7X7X7X7X7X9XqXqX7X7X7XqXqXqXqXqXqXqXqXqXqXqXqXqXqXqXqXqXqX7XqXeXiXeXqX9XeXqXeXiXiXeXqXqXqXqXqXqXqXqXqXqXqXqXqX7XqXqXqXqXqX7X7XqXwXeXeXeXeXwX7X7X7X7X7X7XwXyXrXrX8X8XrXrXrXrX7X7X7X8XrXrXrXrXrX9X8X9XrXyXyX8X8X8X8X8XwXrXrX8X>X>X:XV.V.V.>XV.>X:XV.N.l.l.l.b.z.Z.>X7X8XrXyXrXwXqXqXwXwXqX7X7XqXrXrXwXwXwXrXwXrXrXrXrXyXrXwXrXyXzXyXrXrXrXrXzXrXrXrXwXrXrXrXeXeXeXeXeXeXeXrXeXrXiXiXrXwX9X9X9XqXqXqXqXqXeXeXeXeXeXeXeXeXeXqXwX8XwX8X8X8X7X9X8X8X8X8X8X1X0X0X8X8X8X1X1X1X8X8X8X1X1X1X1X8X8X1X1X1X1X1X1X1X1X1XtXyX0X1X1X1X8X0XyXrX9X8XwXwX7X7X(.^.^.^.7XqX7X7X7X(.(.(.5X7X7X7X7X7X7X7X7X7X7XqX7X7X7X7X7X5XA.A.A.B.Z.S.B.l.z.A.qXqX7X5X5X^.5X7X^.^.^.^.A.A././.^.^.^./.^.^.^.^.A.C.C.B.C.A.^.^.A.A.A.A.A.A.C.C.C.C.C.C.S.A.^.^.(.(.7X7X^.^.A.A.A.A.A.A.A.S.S.S.A.A.A.S.S.S.C.C.B.C.Z.C.Z.S.S.Z.A.Z.Z.Z.A.Z.z.l.z.l.l.z.z.z.V.V.A.A.A.>X>XA.Z.S.B.B.v.B.S.A.A.Z.Z.Z.A.^.A.A.A.A.Z.Z.Z.B.B.v.z.v.z.z.z.l.l.b.7.1.1.1.7.8.l.l.z.z.B.z.v.B.:X:XV.B.:XV.V.V.V.>X>X>X>X5X5X5XA.A.A.Z.Z.Z.Z.C.B.v.v.v.v.v.C.v.v.c.l.l.l.l.l.l.l.l.l.l.c.v.v.c.c.C.Z.Z.Z.Z.B.B.B.B.z.z.z.z.l.l.l.l.l.l.l.l.l.l.l.l.8.7.8.7.7.7.7.7.8.l.B.B.Z.Z.Z.Z.B.B.Z.A.A.^.5X5XA.A.>X7XqX5X^.^.7XqX5X5X5X5X5X5XA.A.Z.Z.Z.Z.Z.C.C.C.",
"A.A.A./.^.^.A./.^.^.(.7X^.(.qXqX7XeXqX7X(.qXeXqXqXqXqXqX^.qXqX7XqX(.7X^.(.qX7X7X7X^.7X7X/.(.^.^.7X7XZ.l.B.z.z.Z.B.N.Z.>X<X>X>X0X7X<X7X8X<X8XrX8X8X9X7X7X7X7XwXwX7X7X7XwX7XwXrXwXwXwXwXwXwXwXrXrXrXwXwXwXrXeX9X7X7X^.^.7X7X7XqXqXqXqXqXqXqXqXqXeXqXqXqX7XqX7XqX7XqX7X7XqXqXqX7XqXqX7X7X7XqX7X(.^.^.S.S.A.A.A.7X7X7XwXwX7X7X7X7XwXwXwXwXqXqX7X7X7X7X7X7X7X7XA.A.7X5XA.5XA.>X8X8X8XwX7X8XyXrXwX7X>X<X<X7X7X<X>X>X>X7X7X>X>X>X>XA.B.b.1.1.7.l.l.l.B.<X8X>X>X1X8XtXyXrX0X8X7X8XrXrXrXrXwXrXrXrXrXwXwXwXrXrX8X8X8XwXrXpXrXrXyXyX0X9XrXyXyXyXyXrXyXyXrXrXwXwXwX9XwXwXqX7XqXqXwXwXwXwXeX9X9XwX9X9X9XwXeXwXeXeXeXeXeXeXeXeXeXeXeXeXiXiXiXeXwXrXwXrXwXwXwX8X8X8X8X9X9X9X8X8X<X>X>X<X<X<X<X<X<X8X1X1X<X1X<X1X8X1X1X1X1X<X1X1X1X8X8X9X0X8X8X7XwX9X7XwXwX7X7X^.^.^.A.A.A.A.S.S.S.C.Z.S.A.A.A.>XA.5X7X7X7X7X7X7X7X7X7X7X7X7X7X7X7X7X5X7XwXrXwXqXqXeXiXiXeXqXqXqXqXqXqXqX7X^./.^.^.^.^.^.^./.^.^.A.Z.C.C.C.C.C.C.C.C.A.A.^.^.^.^.^.^.A.A.A.A.A.A.S.C.C.S.A.S.S.S.C.S.S.C.B.C.C.A.S.A.A.A.A.A.C.A.A.A.A.A.A.A.Z.A.A.Z.Z.Z.Z.Z.>XZ.Z.V.Z.B.V.B.B.B.Z.B.z.B.Z.Z.B.Z.S.Z.B.B.B.Z.Z.C.C.Z.Z.C.C.Z.A.Z.C.B.v.z.v.B.Z.Z.Z.Z.Z.B.B.B.B.Z.:X5X8X8X>X:X>XB.B.B.z.l.l.l.8.b.l.l.z.z.v.v.B.B.B.B.v.v.B.V.Z.B.B.Z.Z.B.B.B.B.Z.C.C.v.v.c.l.l.c.c.v.c.c.z.l.l.l.l.l.l.c.c.v.z.l.l.l.8.7.8.7.7.7.7.8.l.l.7.7.1.7.7.7.7.8.x.x.x.z.v.V.V.V.v.z.z.l.l.b.b.b.b.l.l.l.l.z.z.v.v.B.>XA.Z.Z.A.^.A.^.^.^.^.5X^.Z.^.^.^.^./.Z.C.v.C././.",
"(.qX(.(.7X(.(.7X7X7X7X7X7X(.(.(.7XqXqXqX7X7X7X7XqXqXqXqXqXqXqXqX7X(.^.^.^.(.7X7X7X(.qXqXqX7XqX7X^.7XqXqXqXqX7X7X7X8X8X8XwXrXyXyXyXrXyXrX7X7XwX7X7X7X7X7X7XqXqXqXqXwXeXqXqXqX7X7XqX7XqX^.qXiXrX7X7X7XwXwX7X7X7XqX7XqXqXqXqXqXqXqXqXqXqXqXqXqX7XqXqXqXqXqXqXeXeXqX7X7X7X(.(.7X7X7X7X(.A.A.A.A.^.A.B.l.7.7.1.1.7.7.7.7.8.l.z.B.V.Z.S.A.A.S.S.A.A.7X7X7X7X7XrXwX9X7XwXwXwX7X8XwXrXrXwXrXrXrXrXrXeXrX9X9X7XwXrXwXwX8XwXwXwX8X8X8X7X5X>X8XyXfXfXfXtX<X>X>XV.:X<X1X8X0X0X8X8X8X0X0X0XrX8XrXyXyXrXrXrXyXzXyXrXrXrXrXrX0X8XyXrX<X<X8X0X0X1X0XyXyXyXyXyXyXzXrXrXrXrXrXrXiXrXeXeXeX9XqXwXeXwXqXqXqXqXqXwXeXeXrXeXeXeXeXiXiXiXeXeXeXeXeXiXiXeXeXwX9XwXqXqXqXqXwXeXqX7X7X7X7X7X<X<XA.B.z.l.l.z.V.>X<X<X<X8X8X1X<X<X<X<X>X>X<X<X1X7X9X7X7X7X5XA.^.^.7X7XqXqXqXqXqXqX7X(.^.^.^.A.A.S.B.z.l.z.B.Z.A.>X7X7X7X7X7X7X7X7X(.(.(.qXqXqX7XqXqXqX7X7XwXqXqXqXqXqX7X7X7X7XqXqXqX7X^.^.^.^.^.(.(.^.^.(.7X7X^.^.^.^.5X^.^.A.A.A.^.^.^.^.A.A.A.S.A.A.^././.^.^.A.A.S.C.C.C.C.C.C.C.C.S.S.C.A./.^.^.^./.^.^.^.A.^.A.C.A.^.^.Z.Z.S.A.Z.B.B.B.z.B.Z.Z.Z.Z.Z.Z.Z.C.C.C.C.A.A.S.S.C.B.B.v.v.v.B.C.C.Z.Z.B.B.B.v.l.B.S.>XA.A.Z.Z.B.B.B.B.B.Z.V.V.B.v.z.z.z.z.z.v.B.N.B.B.B.z.z.z.z.z.z.z.z.z.z.z.z.l.l.z.z.z.z.l.v.v.v.v.v.B.v.v.v.v.v.v.B.C.C.C.B.v.c.l.l.l.z.z.l.l.c.c.c.v.v.v.v.z.z.l.l.l.l.l.z.z.l.l.l.l.l.l.l.l.z.z.x.x.x.l.N.B.B.B.B.B.B.B.v.v.v.v.z.z.l.l.l.l.l.l.l.b.b.l.l.l.z.z.v.B.Z.A.^.^.^.^.^.^.^.^.^.^.5X5X5X^.Z.Z.",
"^.(.(.qXqXqX7X7X7X7XqXqXqX7X7X7X7X7X7XqXqXqX7X^.qX^.^.^.^.^.^.7X(.(.^.(.(.^.(.7X7X(.qX(.qX^.qXqX7X7X7XqXqXqXqX7X7X7X7X7X7X7X7X7XwXrXaXaXwXwXwX7X7X7X7X7X7X7X7X7X7X7X7X7X7X7X7X7XqXqXrX7X7XwXrXzXhXzXrX7XA.7XqXqXqX7X7X7X7X7XqXqXeXqXqX7X7XqXqXqX7X7X7X(.(.qXqXqX7X(.^.^.^.^.^.^.7X^.7XeXeXeXiXzXxXdXdXdXdXyX1XN.z.l.8.7.7.l.z.l.l.B.A.A.7X7X7XwX9XwXrX9X9X7XwXdXpXpXyXrXyXyXpXyXyXyXrX8X8X7XA.A.7X<X<X7X9X9X7X7X>X7X7X7X7X7X8X8XyXxXfXfXxXxXvXxXxXvXxXdXyXtX1X<XV.1XyXyXyXdXdXdXdX0X8X8XrX0X0X8X<X8X8X8X8XyXyXyXxXfXdXyXyX0X0X0X1X0XyXyXdXyXyXyXzXrXwX9XeXeXiXeXrXeXeXeXeXeXeXrXiXrXiXiXrXeXeXeXeXrXeXeXeXeXeXeXeXeXeXeXeXeXeXeXeXeXeXwXwXwXqX9XqXqXeXeXeXeXiXeX7XwXeXeXwXwXwXwX7XwX7X8X8X8X8X<XA.Z.Z.Z.V.S.A.>XwX7X7X7X7X7X5X5X^.^.^.A.A.A.^.A.A.A.A.A.S.S.A.A.A.A.A.Z.B.B.B.Z.A.>X<X7X7X7X7X7X5X7X7X7X(.(.7X7X7X7X7XqX7X7X7XqXqX5XA.A.A.A.A.C.C.S.A./.^./././.7X7X7X7X7X7XqXqXqX7X5X5X7X7X5X^.^.^.Z.C.C.A.A.A././.^.A.S.S.A.^.^.^.A.A.A./.A.A.C.C.C.C.C.C.C.B.C.C.^.^.^.^.^.A.^.^.^.^.^.^.^.^.^.^.A.B.v.z.l.1.b.l.l.z.B.B.Z.B.C.C.C.Z.A.A.A.A.A.A.A.S.Z.Z.Z.Z.Z.Z.Z.A.A.7X7X7XZ.Z.Z.B.v.z.z.v.z.z.B.B.Z.Z.B.z.z.z.z.z.z.v.z.z.z.z.z.z.z.z.z.l.l.l.l.z.z.v.v.v.v.v.v.z.l.l.l.l.l.l.l.v.v.v.v.v.C.Z.Z.Z.Z.v.c.l.l.z.c.v.v.v.v.v.v.v.v.v.v.C.C.C.v.v.v.v.z.l.b.7.1.8.l.z.z.z.z.B.:Xv.l.x.x.x.x.l.l.l.v.B.Z.Z.B.v.B.B.v.v.v.v.l.l.7.7.7.7.8.b.l.l.l.l.l.z.v.B.Z.Z.A.^.5X5X5X^.Z.Z.Z.Z.A.^.5X5X6X5X",
"qXqX7X(.7X7XqXqX(.(.7X7X7X7X7XqX7X7X7X7X(.^.7X7X^.7XqXqXqXqXqX7XqX7X7X7X7X(.7XqX7X7XqX(.qX7XqXqXeXeXeXqXqXeXeXqXqXqX9X7XqX7X7X7X7X7X7XD.A.A.(.^.7X7X7X7X7X7X7X7XqXqXqX7X7XqX7X7X7X7X7X5X7X7X8XyXzXzXrXrXrXwX7XA.S.A.A.5X7X7X7X7XqXqX7X7X7X7X7X5X5X7X7X7X7X5XA.A.7X7X7X7X7X7X7X7XqXqX7X7X7XA.S.B.z.N.S.<X0XtXtXtXyXyXyXxXxXdXrX7X7X7XD.D.7XrXzXzXzXzXzXzXrXwXzXzXyXyXyXrX8X8X9XrX0X0X9X9XrXwX7X9X7X<X>X>X>X>X7X7X7X8X8X8X8XwXrXyX8X8X1X1X>X>X>X>X<X<X8X0X8X0X8X1X:X:X1XtXfXyX1X:Xz.z.N.:X8X0XtXyX0XyXdXdXfXfXfXdXyXyXtX0X8X1X1X1X1X1X0X0XyXdXdXdXyXrXrXrXiXrXiXiXhXiXhXiXeXwXeXeXrXeXwXeXeXeXiXiXeXrXrXeXrXeXeXeXwXwXeXeXeXeXwXeXqX9X9X9XeXeXeXiXiXiXiXeXqXqXqXqXqX9XeX9XqX9X9XwXqXqXqX7X7X7X7X7X7X>XA.A.>XA.7XwX7X(.(.(.7X7X7X7X^.5X7XqX7X^.^.S.C.S.S.C.C.C.C.A.A.A.A.A.A.A.A.A.>X>XA.V.Z.A.>X5X5X^.^.7X5X5X^.^.^./.^.(.(.^.^.(.5X7X5X^.^.^.^.A.7X^./.A.A./.^.^.^.^.^.^.(.7X7X7XqXqXqX7X^.^.A.C.C.Z.A.^.^.^.A.A.A.A.Z.C.C.B.C.C.^.A.Z.A.A.A.A.A.A.Z.Z.Z.A.A.A.A.A.^./.^.C.A.A.^.^.^.^.^.^.^.^.A.C.A.A.^.5X7XA.B.S.S.B.B.v.B.B.C.C.C.C.C.C.S.A.A.(.(.(.^.^.^.^.^.Z.A.5X5XZ.Z.S.A.5X5XA.A.A.A.>X5X7X7X5X>X>X>X>X>X:XZ.V.z.v.V.V.V.V.V.:XV.V.V.B.v.v.z.z.z.z.z.l.l.l.l.b.7.b.b.l.l.b.l.l.l.l.l.c.c.v.v.B.B.v.v.v.v.v.v.v.z.z.c.v.B.C.C.C.v.v.v.v.v.C.Z.Z.B.v.v.z.z.z.z.v.B.V.B.z.z.z.z.z.l.7.7.l.V.>XZ.v.z.z.v.V.Z.B.v.z.v.v.v.v.v.v.v.z.z.z.z.z.z.z.v.B.V.Z.Z.V.V.V.Z.V.B.B.B.v.B.B.B.B.Z.V.Z.V.Z.",
"qX(.7X(.qXqXqXqXqXqX7X7X7X5X7X7X^.A.^.7X7X7XA.B.A.qXiXrXeXiXiXrXiXrXeX9X7X7X7XqXqXqXqXqXqXqXqXqX(.qXqXqXqXqXqXeXqXeXwXeXqXqX7X7X^.A.A.A.A.S.A.S.A.A.7X7X7X7X7X7X7X7X7X5X5X7X7X7X7X7X7X7X7X7X7X7X7X7X7X7X9X9X9XwXeXiXiXrXwXwXqX7X7XqX7X7X7X7X7X7X7X7X7X7X7X7XqXwXqXwXeXrXeXqXqXqX7X7X7XA.S.A.S.B.Z.V.A.S.>X0XyX0X0X8X7X8X8X7X7X7X7X7X7X7X7X7X7X7XS.B.S.7X7X7X9X7X7XA.V.B.N.N.S.V.V.N.z.z.B.A.<X9XrXrXyXyXrXrX8X8XyXyXyXyXyXyXrXrX0X1X:XV.B.B.B.B.N.l.z.N.l.8.l.l.l.l.z.N.N.8.7.7.l.N.:X>X:X>X>X>X>XV.V.V.<X<X<X1X1X1X8X0XyXfXxXfXgXyX0X0X1X1X<X8XyXyXzXzXpXiXiXiXrXrXrXrXeXwXeXrXrXwXqXwXwXeXiXiXeXeXeXeXeXwXwXwXwXqXqXqXwXwXwXeXeXeXeXeXeXeXeXeXeXiXeXeXqXqXqXqXqX9X9X9XqXqXqXqXqXqXqXqX7X7X7X7X7X7X7X7X7X9X7X7X7X7XqXqXqX7X^.^.(.5X(.^.^.(.(.(.^.(.(.^././.^.(.7X7X>XA.A.Z.B.z.l.l.l.z.l.l.l.z.B.B.C.C.^.^.^.^.qX^.^.A.A.A.A.^.C.C.C.B.v.C.Z.A.^.^.^.(.7X7X(.^.(.^.^./.A.S.C.B.l.c.l.c.v.Z.^.^.^.^.^.^.A.Z.C.C.C.B.B.C.C.A.A.^.A.A.^.^.A.A.A.^.A.C.C.C.Z.A.A.^.A.A.A.A.^.^.^.A.^.^.^.^.^.^.^.^.A.A.^.7X7X7X7X7X7X7X7X5XA.A.A.S.A.S.S.S.C.C.S.S.A.S.S.S.C.C.B.B.B.B.B.Z.Z.A.A.Z.Z.S.A.A.A.S.Z.Z.Z.Z.Z.Z.B.B.z.z.z.B.B.B.V.:X>X:X>X:X:X>X>X:X>X>XV.V.V.B.V.V.V.B.B.v.v.l.l.l.l.l.l.c.v.c.c.l.b.b.l.l.l.l.l.z.c.c.z.v.B.Z.Z.B.B.v.c.c.c.c.c.c.c.c.c.c.c.z.l.z.v.Z.Z.B.z.z.z.z.z.z.z.v.v.B.v.z.l.l.l.z.z.z.z.z.l.l.l.l.l.l.l.l.l.l.l.l.l.l.l.l.l.l.z.z.z.z.z.B.B.B.V.V.V.B.B.B.V.V.N.N.z.N.B.N.B.N.",
"7X7X7X7X7X7X^.^.^.^.^.^.A.A.A.A.A.S.A.7X7XrXzXzXwXwXzXzXzXzXnXbXzXzXzXrXwXqXqXqX7X7XqX7XqX7X7X7XqXqXeXeXqXqXqXqXqXqXqXqX7X7XqX7X7X7X7X7X7X7X7X7X7X7X9XwX7X7X7X7X7X7X7X7XqXwXwXwX7XwXwX7X>XZ.B.z.Z.7XwXwX8X8X8X7X>X>X>X>XA.5X7X7X7X7X5X7X7X7X7X7X7X7X7X9XwXrXzXzXbXbXzXhXwX7X7X7X7X7X7X7X>XA.>X7X7X<XA.>XB.l.l.B.9XwXwXqXeXeXiXeX9XwXwX7X7X7X7X7XwX7X7XrXwXrXwX7X<X8XrXdXdXdXzXdXrXyXrXrXrXrXwXwX8X7XA.Z.B.Z.>X7X7X7XA.A.S.A.>X7X<X8X0X8X8X0X8X7XA.Z.A.V.z.l.z.V.>X:XV.N.V.V.V.:XN.V.N.N.N.:X1X8XfXyXyXvXAXAXAXAXyX0X0XyXyX0X1X1X0X0X0X0XyXyXdXxXzXyXrXrXrXrXeXeXrXrXrXrXwXqXwXeXeXwXeXeXiXeXeXqXeXwXwXwXwXwXwXwXqXqX7X7X7X7X7X7XqXqXwXwXwXeXeXeXwXeXiXiXiXeXiXeXiXiXiXiXiXiXiXiXiXeXqX9XeXqXqX^.A.C.B.c.c.B.B.S.^.^.qXqXqXqXqXqX7X7X7X^.^.^.^.^././.^.^.^.^.(.7X7X^.A.A.A.A.A.A.A.A.Z.Z.S.A.>X7XA.A.A.S.Z.A.A.Z.C.Z./.7X7X^.A.S.C.B.v.c.B.Z.Z.B.C.Z.A.A.A.A.A.A.A.A.A.S.C.B.v.z.B.A.(.7X9X9XqX7XqXeXeXeXeXeXiXiXqX7X5X^.A.A.A.A.Z.A.A.A.A.A.A.5X7X5X^.5X^.^.A.^.Z.Z.S.S.S.S.A.A.A.^.A.A.^.^.^.A.A./.A.C.B.B.C.C.Z.S.A.A.^.^.^.^.A.S.Z.S.A.A.A.A.^.^.^.^.^.^.A.A.A.Z.Z.Z.Z.A.5X5X5X5XA.Z.Z.B.B.B.v.v.l.l.b.b.b.l.8.8.l.l.l.l.l.l.8.7.7.8.8.8.l.l.N.N.V.V.B.B.V.V.B.B.V.Z.Z.V.B.v.B.Z.B.Z.B.C.C.v.v.v.v.c.v.v.v.v.B.B.B.B.B.v.z.z.v.v.v.v.v.v.C.C.v.v.c.v.v.c.l.l.l.z.z.v.z.l.b.8.b.8.7.1.1.1.1.1.7.7.7.8.x.x.z.z.N.V.V.V.V.V.N.z.l.z.z.l.l.l.z.z.z.l.l.l.l.l.b.8.7.7.7.7.7.7.7.7.7.7.l.l.l.x.v.N.",
"(.^.^.^.^.7X7X7XqX9XqXwXwX7X7X7XrXzXzXaX7X7X7X7XwX7X7X7X7X7X7X^.B.B.B.S.S.S.A.A.^.^.7X(.qX7XqXqXqX7X(.(.7X(.^.^.7XqXqXqXqXqXqX9X9X9XqXqXwX9XqXwXwXwXwXwX7X7X7X7X7X7X7X7XqX7X7X7X7XwX7X7X7X8X8X7XwXwX8X7X>X>XA.A.5XA.A.>XA.A.A.7X^.A.^.7X7X7X7X7XwX9X7XA.B.z.z.z.l.F.S.A.A.S.S.B.S.S.A.A.Z.B.B.z.l.7.1.1.b.B.>X7X7XqXwXqXqXeXiXiX9XrXrXrXrXwX9X7X7XA.7X7X7X7X8X7X>X7X>XB.8.7.7.l.V.>X>X<X7X9X7X9X7X7X7X7X>X7X7X8X7X7X>XA.A.S.>X7X>X8X8X7X7X8XyXyXzXdXzXzXdXdXfXdXxXxXdXyX0X8XyXxXyXtXtXfXZXZXZXZXvXvXAXAXAXAXvXxXxXxXxXvXZXvXfXfXdXdXdXdXdXyXyXyXyXrXrXrXyXrXeXwXrXrXrXrXeXwXeXeXwX9XqXeXqXqXqXqXwXwXwXqXwXwXwXwXqXqX8XwX7X7X7X7X7X7X7XqXqXqXqXwXwXwXeXeXeXeXeXeXiXiXiXiXiXiXiXiXeXeXeXeXqXqXqXqXqXqX7X7X7X7X7X7X7XqXqXqXqXqXqXqXqXqXeXeXqXqXqX(./.^.(.7X7X7X7X7XqXeXiXzXpXwX7XA.>X>X>X7X7X5XA.A.A.A.A.A.^.^.^.A.A.Z.C.C.B.B.B.B.C.Z.A.A.A.A.A.S.A.A.A.A.S.A.A.^.7X7X7X7X7X7X7X7X^.^.^.^.7X7X7X7XqXqXqX7X^./.A.A.Z.A.A.A.S.Z.A.^.A.Z.B.B.B.Z.S.S.^.A.A.^.A.Z.C.C.B.B.v.l.b.7.7.b.l.z.B.B.S.S.A.A.^.^.A./.A.S.C.C.A.S.C.B.B.C.Z.A.C.C.C.Z.A./.A.A.A.A.A.Z.A.A.^.A.B.Z.S.Z.B.B.S.A.5XA.Z.B.v.z.l.l.v.v.B.B.B.V.V.V.B.B.V.V.B.z.z.l.l.z.z.z.z.x.x.z.x.v.V.V.V.V.>X:XV.V.>X>XV.V.:X:X>XZ.Z.V.Z.Z.A.^.C.v.v.v.v.C.C.C.B.Z.A.5X7X7X5XA.B.v.v.v.v.v.v.C.Z.Z.^.5X5XA.Z.Z.A.Z.Z.Z.Z.B.B.B.B.z.z.z.z.z.l.l.x.x.x.x.x.l.x.x.l.z.x.z.z.z.z.l.z.z.z.z.z.z.z.l.z.z.z.z.z.z.z.z.z.z.z.z.l.l.l.8.l.l.l.8.8.7.7.7.",
"^././.(.qXeXeXeXwXwXwX7X7X7X7X7XZ.S.S.S.A.A.>X>X8X8X7X7X7X7X>XZ.z.z.B.B.S.A.A.A.S.S.Z.B.C.S.^.^.7X7X7X7X7XqXqXwXqXqXeXeXeXqXqXqX7XqXwXwXrXwX7X7X7X7X7X7X7X8X7X7XwXwXwXwXwXrXrXwXrXrX8X9X9X9X9X8X8X7X>X7X7X>XA.>X>XA.A.7X7X7X>X7X7X7X7X7XwX7X7XA.B.B.l.l.l.l.l.z.<X7X7X7X7X7X7XwX8XwXwX7X7X<XV.l.l.z.B.S.<X9X8XrXrX7X7X7X7X(.7XqXeX7X7X(.7X7X7X7XqXqXwX7X7X5X7X7X7X7X>XS.Z.S.>X7X>X9X8X8X7X7X7X7X8X7XA.B.l.b.7.7.b.l.N.>X<X>X>X7XA.5X7X7X7X7X7X>X7XA.A.>X7X8X8X<X<X>X>X0XdXyX8X0XtX1X1X1X1X1X8XfXyXdXrX8X8XrXyXrXyXyXyXyXyXxXxXdXyXyXyXyX8X8X8X7X8X8XrXrX8X8XwXwX9X9XwXrXrXrXrXiXeXeXeXeXeXeXeXiXeXeXqXqXqXeXeXeXeXeXwXrXwXwX7X7XrXrXwXwX7X7X7XA.7X7X7X7XqX9XwXwXeXiXiXiXiXiXiXiXiXiXiXiXeXeXeXeXeXqXqX7X7X7X7X7XqXqXqXqXqXqXiXiXqXeXqXqXqXqXqXqX(.(.7X7X7X7X7X7XeXqXqXqXqXwXwXrX7X7X7XA.^.^.^.5XA.>X>X>XA.A.Z.Z.B.B.B.B.C.Z.S.S.A.^.7X7X5X5X7XeXwXeXrXiXiXiXrXeXqX7X7X7X5X5X5X5X^.A.A.^.^.A.A.A.S.C.B.c.c.c.B.B.A.S.A.A.A.Z.Z.S.Z.B.B.v.B.B.B.B.Z.S.A.A.A.A.A.S.Z.v.l.z.B.Z.B.N.z.z.v.B.B.v.z.z.l.b.l.B.S.S.S.S.C.Z.S.Z.Z.Z.C.C.Z.Z.Z.S.A.A.A.S.C.C.B.B.Z.Z.Z.B.Z.B.B.B.v.v.z.l.l.l.l.z.z.v.v.v.v.v.l.l.l.l.l.l.l.z.B.:X:XV.B.N.l.x.x.l.x.x.x.8.8.x.l.x.l.l.l.l.l.l.x.x.x.x.%X:X1X<X8X8X8X>X>X>X5X5X7XqXqX5X5XA.Z.Z.B.B.B.Z.S.A.Z.Z.Z.Z.C.C.C.Z.C.Z.Z.Z.B.c.z.c.l.l.l.l.z.B.v.v.B.B.B.B.z.z.z.z.V.x.z.l.l.l.z.z.l.x.l.8.x.x.x.x.z.N.N.N.V.V.v.z.z.z.l.l.l.l.z.z.z.z.z.l.l.l.l.l.l.l.l.l.l.l.l.l.",
"qXqXeXrXrXeXqX7XA.A.S.S.B.S.7X7X7X8XrXyXyXyXrX8X7X7X7X7XwXwXrXpX8X8X8XwXwXwXwXrXwX7X7XA.A.A.qX7X7X7XrXwX7X7X7XwXeXeXqX7X7X7X7XqXqX7X7X7X7X7X7X8X7X7X8XrXyXdXyXdXrXrX9X9XrXyXdXdX9XdXdXxXyX9X0XrX8XyXzXzXzXyXyXrXwXrXyXyXzXvXvXzXbXzXpXwXrXwX7XD.S.S.A.D.7X7X7XwX7XwXwXrXwXwXwX8XrX8X8X8X8X9X8X<X8X0X8X<X8X0X8X8X9X7X7X7XqXeXeXqX7XqXqXwXeXwXwXwX7X7X7XA.5X>X5XA.A.A.A.A.>X7X7X8X8XwX8X7X7X7X9X8X>X7X7X7X7X7X8X7X7X>XA.>X>X>X>X>X>XA.A.A.7X5XA.Z.A.Z.B.Z.Z.B.B.V.>X<X>X>X>X>X1X1X1X1X1X8X>X:X:X1X8X9X8X0XyXyXrXrXyXtXtXtXtX0X0X8X0X0X0XrXrXyXyXyX8X7X>XA.A.A.7X7XwXwX8XwXwXwXwXqXeXeXeXrXeXeXeXeXiXiXeXeXeXeXeXrXrXeXeXrXrXrXeXrXeXrXrXeXwX7X7X7X7X7X7X7X7X9X9XwX9XeXeXeXeXiXiXiXiXiXiXiXiXiXiXqXqXqXqXqXwXeXqXqXqXqXqXqXqXqXqXqXqXqXqXqXqXqXqXqXqXqXqXqXqX7X7XqX(.(.7X7X7X7X7X7X7X7X7X7X7X7X7X7X7X7XwXwXwXwXwXwXwXqX7X7X^.A.S.S.S.S.A.A.^.^.7XqXrXeXqXqX7X7X7X^.7X7X7X7X^.^.A.A.A.S.S.A.A.A.A.A.A.A.A.A.A.A.A.A.C.B.c.B.B.z.l.l.l.z.z.z.l.l.z.v.Z.Z.Z.Z.Z.Z.Z.Z.B.l.b.7.7.7.l.l.z.z.z.B.A.A.Z.Z.B.B.B.z.v.B.Z.B.B.B.B.B.Z.A.A.A.A.A.A.5X5X^.A.A.A.Z.Z.B.B.B.v.v.z.z.v.B.B.Z.Z.B.B.B.B.B.B.B.B.B.v.z.z.l.z.z.l.l.z.z.B.B.z.z.B.N.z.l.x.l.l.l.l.x.v.v.v.v.z.z.z.z.l.x.8.8.8.8.7.7.8.l.l.z.v.B.V.A.Z.Z.Z.Z.C.C.Z.Z.A.A.>X>X5X>XA.Z.B.B.Z.Z.A.A.^.^.^.^.A.Z.Z.A.A.A.A.>XA.A.>XZ.B.B.B.B.B.B.B.B.V.>XV.V.V.B.N.N.v.z.x.x.8.8.x.x.x.x.z.z.l.l.x.l.z.z.V.V.Z.>XZ.V.B.v.v.v.V.V.V.v.B.v.z.z.l.l.l.l.l.l.",
"qXqX7XqX9XqX7X7X7X7X9X7X7XrXwXwXrXrXeXwXqX7XqX7XqX^.5XwXrXwXwXwXrXrXrX8XwXwXwX7XwXwXwXwXwX9X7X7X7X8X8X7X8X7X7X7X7X7X7X7X>X7X7X7XwX7XwXdXrXrXrXrXyXxXxXxX0X8X1X<X<XS.V.V.>X8XyXdXxXvXxXdXfXxXxXdXcXcXvXcXvXvXzXrXzXvXbXdXA.N.N.N.>X<X8X0X0X0XrXyXzXcXvXxXdXrXrXrX9X9X<X<X9X9X7X<X8XyXzXdXtX8X>X:X:XV.V.V.V.V.A.V.Z.S.A.A.5X7XqXwXeXwXqXrXwXrXrXwX9X0XrXrXyXrXrXrXrXrX9X9XrXwX7X7XrX7X7X9X7X7X7X7X8X9X8X<X7X9X9X9X7X7X<X>X>X>X<X7X8X<X<X9X8X7X>X7X8XrX8XrXdX8XA.B.N.V.8X1X:X:X:XN.N.:XN.:X:XN.:X:X<X<X1X:X:X>X>X1X0X0XuXtXtXtX8X8XrXyX0X8XrXrX0X0XrX9X9XrX9XS.S.A.qXqXwX7XqXqX7XqXwXwXwXwXeXrXrXrXeXwXwXeXeXeXeXeXeXeXeXrXiXrXeXeXeXeXeXeXeXwXwXwXwXwXqX7X7XwXwXqXwXqXqXwXeXeXeXeXeXeXiXeXiXeXiXiXiXiXiXiXiXqXqXqXqXqXqXqXqXqXqXqXqXqXqXiXiXqXqXqXqXqXqXqXqXqXqX(.(.(.^.^./.S.S.A./.A.^.(.^.^.^.^.5X7XwXwXqXwXeXrXrXiXyXrXrXrXrXwXqXqX7X^.A.C.B.v.B.B.B.C.A.A.^.7X7X7X7X7X7X7X7X7X7X7XA.S.B.S.S.S.A.A.A.A.A.>X5X>XA.Z.B.Z.<X8XrX9X8X<X>X<X8X8X9X7XA.B.B.B.B.S.B.B.B.z.8.7.8.l.8.7.1.7.7.l.z.N.B.N.B.B.v.z.v.z.z.l.l.z.v.B.v.B.Z.Z.Z.Z.Z.A.A.A.Z.Z.S.S.Z.Z.Z.Z.Z.Z.B.Z.A.Z.z.l.z.z.Z.S.A.A.A.A.S.Z.A.A.A.Z.Z.B.B.B.B.v.v.v.v.v.z.z.z.v.N.v.z.v.B.V.V.B.B.B.v.z.l.l.l.l.l.l.l.l.l.l.l.l.l.l.l.l.l.l.l.l.l.l.l.l.l.l.v.v.B.B.B.B.B.B.B.Z.Z.C.C.^.^.^.5X5X5XA.A.A.A.Z.B.Z.Z.B.B.B.B.B.V.Z.:XV.Z.>X6XwXwX8X<X<X>X:XN.%XN.:X:X%X%X%X:X%Xx.x.x.x.x.x.x.8.x.l.l.z.z.z.v.B.v.v.v.v.v.v.z.l.l.z.v.z.z.l.l.l.",
"7X7X^.^.A.A.^.(.(.7X7XA.(.7X7X7XrXrXrXeXwXqXqXqXqXeXrXqX7X5X5XA.A.5X7X7X7X7X7XwXwX7X7X7X>X>X>XA.A.>X>X<X7X9X7XA.<XA.A.A.A.>XA.A.S.A.7X7XrXzXzX8X1X8X>X:XN.:X1X1X:XV.V.:XdXZXvXyXyXyX0X1X1X<X:X:XS.Z.A.8XdXcXzXdXdXdXdXxXxXxXdX0X:X>XV.N.V.<X0X0X<X<X<XV.S.S.<X<X8X9X<XA.B.z.z.z.N.l.8.l.l.8.7.8.8.z.V.V.N.z.N.V.>X<X9XrXwX7X7X7XrXyXrXyXtXyX8X1X1X<X>XV.>X>X>X>X8X9X9X<X7X8X8X8X8X8X9X8X9X9X1X<X<X<X7X1X8X0X0X0X8X<XA.A.7X9X<X>X>X>X1X8X>XV.V.A.A.8XrXrXyX8X8X0XyX0X8X1X1X2X:XN.1X2XN.N.V.:X1X8XtX1X1X:X>XV.N.V.V.V.:X:XV.:X>X1X8X0X0X0X0X0X8X0X0X0X0X0XrXrXrXrXpXwX7XwX7X7X8X7X8X9XwXwXwXwXwX7XwXwXwXwXwXqXwXwXeXeXeXeXwXwXeXrXeXeXqXeXeXeXeXwXwXwXwXqX9XwXrXrXeXwXeXeXrXeXeXeXeXrXrXrXeXeXeXeXeXiXiXiXiXiXiXiXeXiXqXqXqXqXqX^.qXqXqXqXqXqX^.^.(.^.(.(.(.(.(.(.(.^.^.^./.A.A.^.A.A.A./.A.A.A.A.A.^.7X7X^.7X7XqXqXwXwXwX8XwXwXwXeXwXwXwXqXqX7X7X7X7X7X7X7XA.C.B.S.S.A.A.^.5X7X7X7X7X7X7X7X7X^.A.A.A.A.A.A.A.A.A.B.B.z.B.V.<X8X9X8X>X:XV.V.S.Z.B.S.B.B.B.B.S.S.S.A.V.V.z.l.8.8.l.z.l.l.l.z.z.z.z.l.l.l.z.z.z.z.v.B.Z.Z.Z.Z.V.V.B.Z.Z.Z.Z.Z.Z.Z.A.A.A.A.A.>X5X5X5X>X>X>XA.A.A.A.A.A.A.A.>X>X7X7X7X7X>X>XA.>X>X>XA.A.Z.B.B.v.B.B.Z.B.B.V.Z.Z.Z.A.A.A.Z.Z.B.v.z.z.z.B.B.B.B.B.B.B.B.v.v.v.v.v.v.v.z.l.l.l.l.z.l.l.l.l.z.z.z.z.z.z.z.v.v.v.v.v.C.Z.Z.C.Z.Z.Z.B.B.v.v.B.B.V.V.V.B.v.B.V.v.v.>XV.B.V.:X>X:X>X:X:Xx.x.x.x.x.x.x.x.%X,X,X,X:X%X%X%X:XN.x.x.z.l.l.l.l.l.l.z.z.v.B.V.Z.C.B.v.v.v.v.v.B.v.v.",
"A.A.^.^.A.A.A.A.(.7X7XqXeXrXhXrX7X9X7X7X7X7X7X7X7X^.^.7X7X7X7X7X>XA.A.7X7X7X7XA.A.A.A.A.A.S.Z.B.Z.Z.B.z.z.B.l.l.z.z.Z.>X7XrXzXzXzXbXBXbXbXzXyX0X1X0X0X0X1X1X<XV.V.1XyXtX<XN.V.1X:X<X1X1X<X:X:X<X9XxXbXdXrXzXvXvXyX9XyXbXbXdXdXzXZXZXvXfXtX0X0X0XtX0X0XyXyX0XyXxX0X8X8X8X7XB.l.1.8.z.N.l.l.l.z.N.1X1X1XtXyXyXtX8X<X>XA.:X:X:X5X8X7XV.l.8.7.7.8.z.N.N.z.l.V.:X:X:X>X:X1XuXtX>X:XtXtX8X8X<XN.z.z.z.8.8.8.8.z.N.V.V.8X8X<XV.V.N.z.z.z.l.z.V.V.V.V.V.<X9X9X9X8X9X9X9XrX0X0X8X<XV.N.:X>XyXtXdXtX8XtXyXtX0XdXfXvXfXfXfXfXfXfXyXtX1X:X:X:X2X1X2X1XtXtX1X8XtXfXyXtXyXwX8X8XyXtX0XrX8X8X7X7X9X9X9X7XwXwXqXwXwXwXwXwX8XqXwXqXwXwXeXeXeXiXiXiXiXiXiXiXiXiXpXeXrXrXeXwXeXrXeXeXeXeXqXeXeXeXeXqXeXeXeXiXiXiXiXeXeXeXiXiXiXiXiXiXiXiXiXqXiXiXiXqXqXqX7XqX^.^.^.^.^././.(.(.qXqXqXqXqXqXqX7X^.^.^.^.^.7X(.^.^.^.S.A.A.S.S.S.A.A.^.^.A.A.S.A.7X7X7X7X7XqXqXwXwXwXqXqXwXeXiXrXqXqX7X5X^.^.A.A.A.A.A.A.A.A.A.A.Z.C.Z.Z.Z.Z.B.B.B.B.B.Z.Z.B.B.B.B.B.Z.Z.Z.A.A.A.>X>XS.B.B.B.C.Z.Z.S.Z.S.A.A.Z.Z.Z.V.V.B.B.B.V.V.Z.Z.B.B.B.B.B.B.B.B.v.B.B.B.B.z.l.l.v.v.B.B.B.B.B.B.B.B.B.B.Z.A.A.A.A.A.>X>X>X>X>X>X>X>XA.A.A.A.A.S.A.S.A.A.5X^.A.A.A.A.A.A.A.Z.Z.Z.A.Z.Z.Z.Z.A.A.A.C.C.C.Z.Z.Z.A.A.A.A.A.5X5X5X7X7X8X8X6X>X>X>XB.z.B.B.B.B.V.B.B.B.V.V.V.V.V.V.B.v.v.v.B.B.v.v.v.B.B.B.B.v.z.l.b.7.7.7.8.8.8.8.8.x.l.x.x.l.8.8.7.7.7.8.l.8.7.7.7.8.8.w.x.x.x.x.x.x.N.x.x.N.:X,X,X>X:X:XV.V.V.V.B.v.z.z.z.z.z.v.v.B.C.C.v.v.v.v.v.v.",
"zXrXeXwX9XrXzXzXeXeXqXwX9X7X7X7X9X9XwX9X9X7X7X7X7X7X7X7X7XA.S.Z.A.>X7X8XwXwX7X7X7X^.S.B.B.B.B.B.B.l.l.7.b.B.Z.A.>X9XzXvXzXrXrXrX9X<XS.A.<XZ.B.Z.<X<X<X>XN.z.8.7.7.8.7.8.N.:X<XV.>X1X1X:X:X<X1X8XyX9X8X9XrXrXrXyX0XrX9X8X<X<X8X8XfXfXtX<X1XyX0XV.V.8XyX8X>X>X>XV.>XS.>X>X>XV.>X<X8X8X1X8XtXtXtXyXyX1X:XN.N.N.:X>XV.N.N.z.l.8.7.7.l.z.B.>X1X:X:X:X:X:X1X>X1X:XN.N.:XN.x.7.7.8.N.N.x.z.x.N.x.z.x.z.N.:X>X1XtXtX0X1XtX1X>X:XV.N.z.l.8.l.V.1X0XyXdXdX9XrX9X8X8X9X8X8X8X8X0XfXAXZXZXZXfXZXZXZXZXxXvXZXdXdXfXdXtX1XtXtXtX0XtXtXtXyXtXtX1X3X1X2X1X1X1X2X:X:X:XN.:X8XtXtXtXyXtXyXdXyXxXdXyXrX0X8X7X7X7X7X7X7X9X9X7X7X7XqXwXqXqXqXwXqXqX7X5X5X5X5X7X7XwXrXrXrXrXrXrXrXrXrXrXrXrXrXiXiXrXeXeXeXeXeXeXeXeXiXeXeXeXqXqXqXqXeXeXqXqXqXqXqXqXqXqXqXqXqXqXqX7X7X^./.^.S.S.S.S.A.^.^./.^.7X(.(.qXqXqXqXqXqXqXqX7X7X7X^./.A.A.S.C.Z.A.A.5X7X7XA.A.A.A.A.A.A.A.A.A.7X7X^.^.^.^.^.^.7X7X7X7X7X7X7X7X^.^.^.A.A.A.A.A.A.S.Z.Z.Z.Z.Z.Z.B.B.B.B.B.B.B.B.A.A.A.A.A.S.Z.Z.A.A.A.A.^.^.^.^.5XA.A.A.A.A.Z.B.Z.Z.Z.Z.Z.Z.Z.Z.S.Z.B.B.B.z.z.z.v.v.B.B.B.B.B.B.v.z.l.l.l.z.v.v.B.B.v.v.z.B.B.B.B.Z.Z.Z.S.A.A.A.5X7X7X7X5XA.A.Z.A.A.A.A.A.A.A.A.A.A.S.S.A.A.A.>X5X5X7X7X7X^.^.C.C.C.C.C.C.C.C.C.C.C.C.C.Z.Z.Z.Z.Z.Z.Z.A.>X:X>XV.v.B.B.N.z.l.l.l.l.z.z.z.z.z.z.z.z.z.z.z.z.z.z.v.z.z.v.V.V.v.z.z.l.8.7.8.8.8.x.l.l.l.l.z.l.l.l.x.z.x.x.x.8.8.8.w.x.w.w.8.w.x.x.x.x.x.x.x.x.x.z.v.:X>X>X>XV.V.V.>X>XV.v.v.B.B.B.B.C.Z.Z.Z.Z.A.A.Z.",
"qX7X7XqX9XeXwXqX9X9X7XwXeX9XeXqX9X9X9X7X7X7X7X7XaX9XwXzXrXS.S.A.7X^.^.7XrXiXqX^.7X7X7X7XA.A.A.A.A.A.7X>X7XrX8X8X8X7X7X7X>X>X>X>X>X<X>X<X>XV.l.l.l.l.l.z.N.V.>X1X0XdXfXdXdXdXdXdXdX<XN.l.N.:XV.z.B.>X7X7X8XrXzXzXzXyXrX8X<X<X>Xz.N.:X8XfXfX0X1X1X8XdXdX0X<X>XV.N.z.l.l.l.l.l.z.B.<X>X:X>X1X1X1X8X:Xz.z.1XtX1X1X1XfXfXfXfXfXfXyXtX8XtXtX1X1X:XN.x.x.x.x.8.x.x.x.x.7.7.7.N.:XN.x.x.x.2XuXfXuXgXuX1X:XtXfXtXtXtX8X:X:XV.N.z.z.N.:X1XtX1X:XV.:X>X>X:XV.S.S.<X<X<X9X<X>XA.V.N.V.V.:X1XtXtX8X8XtXyXyXyXyXyXtXfXdXfXZXZXZXZXZXfXtX1X:X:X%XN.N.N.IXw.w.w.w.q.N.w.8.7.e.e.e.x.2XgX1X1XtXl.z.V.<XyXzXrXrXrX9X9XwX7X7X7X7X7X7X7XqX9XwXqX7X^.^.Z.B.v.B.S.V.Z.V.B.N.V.>X<X8X0X8XrXyXrXrXrXpXzXrXrXrXeXeXwXeXeXeXeXeXeXeXeXiXiXiXiXiXiXiXiXqXqX7X7XqXqXqXqXqXqXqXqXqX7X(.^././.^.(.^.^.(.^.(.7X^.^.7XqXqXeXeXeXqXqXqXqXqXeXeXqX7X^.S.B.B.B.C.Z.C.S.A./.^.^.^.^.S.A.A.A.A.A.^./.A.A.A.A.^.^.^.^.^.5X7XqXqX7X7X7XqXqXqXqXqXwXeXeXqX7X7XA.S.A.A.A.A.A.A.A.A.A.S.Z.S.A.A.A.A.^.^.^.A.A.^.A.A.A.Z.Z.B.Z.Z.Z.Z.Z.C.C.B.Z.Z.B.B.B.B.B.B.B.B.B.B.B.B.B.B.B.Z.Z.Z.Z.C.v.v.v.v.v.v.B.B.B.z.l.l.l.z.B.B.B.z.z.v.B.v.v.v.B.z.l.l.l.z.B.V.V.:X>X>X1X8X8X>XA.A.A.A.A.^.5X7XqX7X7X5X^.^.^.C.C.C.v.v.v.v.v.v.v.v.v.z.z.z.z.z.z.l.l.l.l.l.8.8.8.z.z.l.l.z.z.z.z.z.z.z.z.z.z.v.N.V.V.V.:X:XV.V.V.x.7.7.7.l.x.x.x.x.x.x.N.z.l.l.l.l.x.l.x.N.%X:XN.:XN.x.x.%X%Xx.x.N.x.x.x.x.v.z.l.V.:X>X>X>X:X>X>XZ.Z.Z.A.^.^.^.A.C.C.C.C.Z.A.Z.Z.",
"7X7XA.A.^.(.5X7X^.^.^.7X7X7X7X7X7X7X7X7X7X7X9X9X7X7X7X(.7X7X7XA.7XiXzXiXiXiXrXrX7X7XA.A.A.7X7XwX7X7X8XA.>XA.A.A.Z.B.A.>X7XwX8X8X9XyXrX8X>X7X7X8XyX8X0X8X8X8X0XdXxXyXyXfXdX1X:X:X<X<X1X8X0XyXyXdXyX8X>X7X>X>X7XrXyXrXyXvXbXdXrX8XtXyXfXdXyX0X1X>XN.z.N.>X<XV.V.V.V.V.>X8XyXrX8X8X8XdXfXyX0X1X<X:X>X0XtX<X:X1X1X:XN.:X:X:XV.:XV.V.N.N.:X:X:Xz.8.8.7.7.8.8.@X@XN.N.:X2XtXgXuXtX8XtXtXtX1X%Xx.7.7.8.l.7.7.8.w.8.8.N.:XN.z.8.8.l.l.l.7.8.l.l.l.l.z.N.V.S.>X<X<XV.B.l.l.l.z.B.>X<X>X:XN.V.:X:X:XV.V.V.V.N.N.<X1X1XtXtXtXtXyXtXdXfXfXZXZXgXgXgXuX3X%X%X%X#X#X%X4X%X#X#XN.N.%XN.7.7.x.7.7.l.:XyXzXrXwXrXrXrXwX7X7X7X7X9X7X7X9XwXeXwXwXwXyX0X8X9X8X8X>XS.<X:X<X0X0X<XV.V.V.<XrXyXrXrXrXyXrXrXrXrXrX8X7X7X7X7X7XqX7X(.^.(.7XqXqXqXqXqXqXqX7XqXqXqXqXqXqXqXqX7XqXqXqXqXqXqX^.7X7X7X(./.A.^.7X7X7X^.^./.A.A.7X7X7XqXqXqXqXqX(.^.^.^.A.S.B.B.B.C.S./.^.^././.7X7X(.^.A.A.^.^.^.^.^.A.A.A.A.A.A.A.^.^.^.^.^.^.^.^.^.^.5X7X7XqX7X^.A.S.A.A.A.A.5X>XA.A.A.^.A.A.A.^.^.^.^.^.^.^.^.^.^.^.A.Z.Z.Z.C.B.C.Z.Z.Z.^.^.A.A.A.S.S.A.5XA.5XA.A.A.Z.B.B.B.Z.Z.Z.Z.Z.A.A.A.A.A.Z.B.v.v.l.l.l.l.l.l.z.z.z.z.B.B.B.B.v.B.Z.A.>X:XZ.V.V.V.V.N.N.N.l.l.8.l.8.8.b.b.l.z.z.v.v.v.B.B.B.C.C.C.C.C.C.v.v.v.v.v.v.z.l.l.l.l.l.l.z.z.x.x.N.:X:X:X:XV.z.v.N.V.:XV.z.l.7.7.8.l.x.x.x.x.8.8.8.8.l.l.z.z.N.N.V.V.V.V.:X>X:X1X<X>X:X:XV.z.V.V.B.v.z.l.8.7.7.x.N.:Xx.v.v.:Xz.x.V.v.z.z.x.v.l.z.z.v.B.B.B.v.Z.Z.Z.Z.Z.Z.Z.Z.^.^.Z.C.Z.Z.Z.Z.",
">X9X7X7X7X5XA.A.A.S.A.A.A.A.A.^.A.A.A.^.^.^.(.7XqX7XqX7X^.A.(.7X7XqX8X8XrXrXrXrXrXeXeXeXwXqXqX7X7X7X7XwXrXrXyXzXzXyXzXyXrXrXrX0XrX8X<X8X8X0X0X0X8X<X9X<X7X<X8X0X8X<X<X<X8XyXdXyXzXdXdXdXyX9XV.z.l.B.>X8XrXrX8X>X7X8X8X7X7X7X8X9X8X8XrXyX0X9XyXvXvXvXvXvXvXxXzXyXyXdXdXrX8X>XA.Z.Z.N.N.V.8X<XV.N.l.l.l.l.7.1.8.N.V.N.N.z.N.V.>X1XN.8.7.7.l.8.l.:X2X1XtXuXfXfXfXfXZXdX1X1X8XtX>Xl.8.8.8.8.l.8.l.N.N.N.z.z.N.:X1X1XtXZXFXZXZXfXfXfXfXfXvXfXfXfXfXdX0X8X<XA.S.<XyXzX0X8X8X>XV.N.N.V.N.N.N.:X:X1X8XtX8X1XN.V.V.:X:X:X>X2X2X1X1XtXtXfXfXfXfXZXZXZXCX3X3X1X%X%X@Xw.q.w.q.w.w.N.%XN.:X1XtXdXfXdXyX8X8X8X8X8X7X7X7X8X9X9XrXrXrX9X7X7X7XwX7X8X8X8X8X<X<X:XV.N.N.V.:X:X:X:X:X:X:XV.V.:X>X1XtXtXyXdXyXyXrXrXwXwXwXwXqX7X7X7X(.7X7X7X7XqXqXeXeXqXqXqXqXqXqXqXqXqX7XqXqX7X7X7XqXqXqXqXqXqXeXeXqXqXeXeXeXeXeXeXqXqX7X(.^.A.A.A./././.^.^.^.^.7XqXqXqXqX7X7X(.(.^./.A.S.C.S.A.A.Z.C.C.C.C.C.Z.Z.^.^.A.A.A.A.Z.A.^.^.A.^.^.^.^.^.5X5X5X5X^.^.A.S.A.A.A.A.A.^.5X^.^.^.^.^.^.^.^.^.^.^.^.^.^.^.A.A.^.A.^.^.^.^.^.^.^.^.^.A.A.A.A.Z.C.C.C.C.Z.Z.Z.A.Z.A.^.^.^.^.A.A.Z.Z.Z.Z.Z.Z.Z.B.v.B.Z.Z.Z.Z.Z.Z.B.B.v.v.z.z.z.v.z.B.Z.A.Z.V.V.V.:X>X>X<X8X8X8X8X8X8X>X:X>X:X:X:XV.V.Z.Z.A.A.^.^.5X5X^.A.V.B.v.z.l.z.z.l.l.l.z.z.x.l.z.z.N.N.z.l.x.V.:XV.V.V.:X8X8XuXyXuX8X1X2X2X,X%X%X:X:X:X>X>X>XwXyXtX>Xv.x.z.:X%X:X>X,XV.B.V.>X>X>X>X:XV.:X>X:XV.B.B.B.B.z.z.B.N.B.B.z.z.z.z.z.z.l.l.l.l.l.z.l.l.l.z.c.B.C.A.Z.C.C.v.B.C.Z.Z.",
">X8X7X>X7X>XZ.7X7X7XwX7X5X7X5X7X8XwX7X7X7X5X^.^.5X7XqXqXqX9XwXwXwXqX7X7X7X7X7XwX7X7XqXwXeXwXqX7X7XqX7XwX8XwXrXrXwX8X8X8X7X<X>X>XV.V.V.N.N.N.V.N.z.z.A.S.>X<X9X9X<X8X0X8X8X8X8X<X>X9X9X<X9X9X8X7X7X7X8X7X7X7X7X7X7X5X>X7X7X>X7X7X>X>XA.V.A.>X>X>X8X9XrX8X>XS.>X0XyXyXrXrXyXrX7XA.B.>X8XyXzXzXyXrXyXrX0X8XV.N.N.V.>XV.V.N.N.z.z.l.8.N.1X<X:Xl.8.l.l.8.l.N.tXfXfXyXdX0XdXdXyX0X0X8X<X<XN.l.N.V.V.V.V.V.V.V.N.N.N.:X:X:X:X:X1X8X8X0X1X0X0X0X8X1X<X>X<X<X<X9X9X8X9X<X>XS.Z.V.>X<X1X<X:X:X:X>X>X:X:X>X1XtX:X:X:X<X:X:Xx.z.N.l.8.z.:XtXfXfXvXZXZXfXtX1X1X1X2X1X3X2X2X%X4X3X3XgX3XuXtX1X1X1X0X0X8X1X8X7X8X8X8X8XrXyXaXaXzXrXwXwXwXwXwXwX9X8X<X<X<X<X>XS.N.:X:X1X1XtXyXtXtX1X1X8X0X1X:XN.z.x.V.>X8X8X0XyXrXwXwXwXwXqXwXeXwXeXeXeXeXqXqXqXqXqXqXqXqXqXqX7X7X(.(.7X7X7XqXqXqXqXqXeXeXeXqXqXqXqXeXeXqXqXqXqXeXqXqXqXqX7X7X7X(.(.(.^.^.A.^.7X^.^./.A.A.A.^.(.7X7X7X(.(.7X^.^.7X5X^.^.^.A.A.A.Z.C.C.A.A.Z.C.Z.A.Z.A.A.^.^.^.^.^.^.^.^.A.A.A.A.A.A.A.A.A.^.^.^.7X7X7X7X^.5X5X^.^.5X5X^.^.^.^.^.^.^.^.^.^.^.^.^.^.^.^.^.^.^.^.A.A.A.A.A.A.A.5X7X7X7X7X5XA.C.Z.Z.Z.Z.Z.Z.Z.A.A.A.Z.B.B.B.B.B.B.B.B.B.B.Z.Z.B.z.z.v.v.v.B.B.V.V.V.N.V.V.V.V.V.>X>X:X>X>X>X,X1X1X1X8X1X<X>X>X5X5X5X5X5X6X6X5X5XZ.B.B.V.>X:XV.V.B.v.z.z.z.l.l.8.8.8.l.l.l.z.N.N.V.B.B.V.V.V.%X%X,X2X,X,X%XN.v.V.V.V.>X6XyXpXpX8X>Xx.v.V.%XN.%X,X,X>X>XZ.B.Z.Z.A.Z.Z.>X>X>X>XZ.B.v.v.l.l.l.z.V.:X:X:XZ.A.A.A.Z.Z.Z.A.Z.Z.B.B.B.C.Z.Z.5X5X^.Z.Z.Z.A.A.",
"V.<X>X8X0XvXwXA.:XA.>X>XZ.V.8X7X7X7X7X7XrXwXwXwXwXqXwXqXwX9X7X7X7X7X7X7X7X7X7X7X7X7XwXwXwXeXeXqXwXwXeXrXrX9X7X7X7XA.7X7X>X<X<XB.l.l.l.8.8.l.z.V.z.B.>X<XA.A.7X9X7X<X>X>X7XA.A.7X>XA.A.>X>X>X>X7X7X7X7X9X7X7X7XA.S.B.B.B.z.l.l.l.l.z.B.S.7X7XA.A.8X7X>X<X>X<X>XS.A.<X9XwXrXrXzXzXzXzXzXzXzXzXrX7XwXrXrXwX8X8XrXyXrXyXdXdXzXzXxXxXzXyXrXrX8X>XV.V.1X8X<X<X7X>X>XA.A.A.A.>X7X7X7X7X9X9X8X<X<X>X<X7X0X8X<XV.V.8X8X>X:X<X>X:XV.V.V.V.N.z.z.N.V.<X7X>XV.>X7X7X7X7X7X7XrX<XV.l.N.V.<X<X1X1X:XV.:XV.N.z.:X1XyXtX1X1X1X0X1X1XyXyX1X2X,X:X:X1X1XtXfXgXgXgXfXgXgXuXgX1X1XtX3X3X%X1XuXgXgXfXyXtX1X1X1X1X1X<X>X>X<X>XA.Z.Z.S.<X9X9X9X7XwXrXrXyXrXrXrXrX0X8X8X8X8XtXtX8X8X8X<X1X1X8XyX1X:X:X:X:X:X:XV.N.N.z.N.B.V.>X7X7X7X8X7X7XwXrXrXeXwXwXwXwXwXqXqXwXwXqXqXqXqXqX7X(.(.^.7X5X^.5X7XqXwXeXrXeXwXqXqXqXqXqXqXeXeXiXiXeXiXeXeXeXqXqXeXeXeXeXeXeXqXqXqXqXqX7X^.7X^.^.^.^.^./.^.^.^.^.^.^.^.^.^.^.^.^.^.^.^.^.^.^.^.^.^.^.^.^.^.A.A.A.A.^.^.A.A.^.^.^.A.A.A.A.A.Z.^.^.^.^.^.^.5X7X7XqXqXqXqXqX7X7X7X^.^.A.A.A.A.^.^.^.^.^.^.A.Z.C.C.C.C.Z.^.^.^.^.5X7X7X7X5X^.^.Z.B.v.v.v.v.v.v.v.v.v.v.v.B.B.B.Z.Z.B.B.B.B.v.v.z.z.z.l.x.x.x.x.8.8.8.8.8.8.x.x.x.v.V.V.x.x.x.x.N.:X,X>X>X>X>X>X5X5X5X5X5X5X>X>X>X>X>X:X:X>X:X:XZ.Z.A.A.Z.Z.Z.V.V.V.v.z.z.z.v.B.z.z.z.z.x.x.8.x.x.8.8.8.l.v.V.V.V.V.V.>X1X8X2X%X%Xx.x.x.m.@Xm.%X:X5X5X>X>X>X7X<X>XV.>XV.S.Z.B.B.B.v.Z.v.Z.5XZ.^.5X/.5X5X5X^.C.^.5XwX7X6X5XqX6X5XA.Z.A.A.Z.Z.A.A.",
"8XxXxX0X:X:XB.z.V.V.:XN.z.N.z.l.z.z.B.B.B.Z.A.Z.Z.B.B.A.Z.B.A.7X7X9X8X8X9X7X7X7X7X7X5X^.^.7X7X^.^.^.7XqX7X7X7X7X9X7X8XwX9X<XZ.l.l.l.l.N.:X8X0X8X9X<XA.V.V.z.B.Z.>X<X7X>XA.B.Z.A.A.Z.Z.Z.A.7X7X7X<X7X7X7X<X7X7XA.A.S.B.B.z.z.B.S.A.7X7X7XwXwXwX7XwXD.A.7XA.A.7X7XA.7X7X9X7X7X7X7XwXrXrXrXwX7XwXwXqXqX7X5XA.>X7X7XA.A.A.A.A.>X7X7X7X7X7X7X7X7X7X7X7X7X>XA.A.A.A.A.C.A.^.7X7X7X7X7X7X7X7X7X7X7X5X7XA.A.A.A.>X<XA.B.Z.B.l.l.z.B.B.z.z.V.:XV.V.V.>X<X<X>XA.A.A.>X7X7XV.<X8X8X0X0XtXdXfXfX8X1XtXyXtX8X8X1X>X1XtXtXtX0XtX8X1XV.z.z.V.,X1X1X2X:XV.V.N.N.,X2X:X:X2X2X:X2X2X1X1X3X1X2X2X1X8X1X1X:X:X<X1X0XtX8X8X8X<X<X9X9X7XA.S.S.A.A.:X>X7X7X8X7X7X7X8X8X0X8X8X8X8X8X8X<X1X1X<X1X1X1X0X1X1X8X8X8X<X<X<X7X>X>XA.A.A.A.Z.B.Z.B.Z.B.B.B.A.A.7X7X7X7X7X7XqXeXeXeXeXqXqX7X^.^.A.A.Z.Z.S.A.^.^.7X7X7XqXqXeXeXiXqXqXqXqXqXqXqXqX7X7XqXqXqXqXeXeXeXeXqXqXqXqX7X7X^.^.^.^.^.^.^.A.Z.Z.C.Z.A.^.^.^.^.^.^.7XqXqXqXqXqXqXqX5X^.^.^.^.^.^.^.^.^.^.A.A.^.^.A.A.Z.A.A.Z.^.^.^.^.^.^.^.^.^.^.^.7XqXqXqXqXqXqX7X5X7X7X5X^.^.^.^.^.^.^.^.^.^.^.A.Z.Z.A.^.Z.C.C.C.A.^.^.^.^.A.Z.C.C.B.v.z.z.z.z.z.z.z.l.z.z.z.z.z.z.z.v.v.z.v.v.x.l.l.x.x.8.8.8.8.x.x.x.x.x.x.z.v.z.x.x.x.x.x.x.z.z.z.v.B.Z.Z.A.5X5X5X5X5X6X5X7X6X5X6X6X5X5X5X5X5X5X7XwX8X5X5X>X>X>X>X>X>X>X5X>X>X:X:XN.x.x.x.x.x.x.B.V.>XV.V.V.v.l.8.7.8.8.@X@Xx.x.m.x.m.2XuXyXyXvXxXdXvXbXvXxXAXvXDXvXtX8XwXiXwX5X5X5X^.C.C.^.Z.^.qXpXiX5XA.Z.Z.A.^.^.^.5X7X5X6X5X5X5X>XA.",
"<X:XN.z.z.l.l.z.V.l.l.8.l.N.V.:X:XN.N.:XV.V.V.N.V.N.N.V.:XV.:XV.N.N.B.z.N.A.>XA.7X7X7X7X7X7X7X7X(.7X7XqXqXqX7X7X7XA.>X7X>X>XZ.l.l.Z.7X8X<X>X>X<X1X1X>X<X1XV.V.A.A.:X7X8X>X>X7X>X>X7X8X7X7X7X8X8X7X<XA.A.7X9X7XS.>XA.<X<XD.D.<X7X7X7X7X7X7X7XA.7XS.A.A.A.S.A.A.S.A.7X7X9X7XA.^.5X7X(.^.^.7XqX7X7XqXqXqXqX7X7X7XA.7X7X7X7X7XwXwXrXqX9X9X9XwXwXwX7X7XrXwX7XqXqXqX(.7X7X7X7XqX7X7X7XwX7X7XwXwX7XwXeX7X7X7X7X7X(.7XD.9X7XA.S.A.A.D.A.yX8X<XA.A.>XA.Z.A.S.A.>X7X7X7X7XdX0X8X0XdXxXxXvXxXvXxXxXZXZXZXZXZXfXfXfXtX0X1X8XtXtX0X1X<X1X1X:X1X3XgXgXgXgXdX1X2X2X%X%X%X2X3X1X2XtXtXtXuXuXtX>X1X1X1X1X>X:X:X>XV.V.:X>X<X1X9X9X9X9X9X9X0X8X<X8XrXrXyXrXrXtXyXdXyXyXyXdXdXxXxXdXyXyX0X8X8X8X0X8X8X8X9X7X<X7X7X7X<X<X<X<X7X7X<X>X>X<X7X7X7X<X>X>XA.A.A.S.Z.S.A.5X5X5X7X7XqX7X7X5X^.A.S.S.S.A.^.5X7X7X5X5X^.^.^.^.7X7X7X7X7X7X7X(.(.7XqXeXeXqXqXqX(.7X^.^.^.^.^.^./.^.^.^.^.^./.^.^.^.^.C.A.A.^.7X7X7X7X7XqXqXqXqX^.^.^.^.^.^.^.^.^.^.^.^.^.^.^.^.A.A.A.C.C.B.B.B.C.C.Z.^.^.^.qXqX7X7XqXqXqXqXqXqXeXeXeXeXwXwXqX7XqXqXqX7X7X7X5X5X^.^.^.^.^.^.^.A.^.^.^.A.C.C.C.C.B.v.c.v.B.B.B.B.Z.Z.Z.B.B.B.B.B.B.B.v.z.z.z.z.z.v.v.v.z.z.z.v.v.z.v.v.v.v.z.z.z.z.z.z.z.z.z.z.z.z.z.z.v.v.v.B.Z.A.^.^.^.^.^.5X5XqXqXqX7XqXqXqXqX^./.Z.C.C.Z.Z.A.5X5X6X6X6X5X5X5X5X7X5X6X<X<X,X:X>X,X>X:X:XV.>X>X>X:X>X:X,X1X2X3X2X%Xm.@X@Xq.x.4XyXAXAXAXAXFXGXFXGXDXDXJXAXFXGXFXAXbXnXzXpXwXwXwX6X6X^.^.Z.c.C.A.Z.Z.Z.Z.^.A.V.Z.v.v.v.v.v.V.V.V.",
"8.l.z.8.7.8.8.8.8.7.l.N.N.z.N.0XfXgXfXfXyXtXtX1X>X>X:X1X0XtXfXtXfXyX8X8X<X>X>X7X5X7XqXqX7X7XqXqXqXqX7XqX7X7X7X7XS.B.z.z.z.B.B.l.z.z.z.B.V.A.V.S.V.S.>X<X8X1X<X<X8X8X8X8X>X>XA.V.Z.B.B.z.B.B.B.N.S.S.A.<X7X9X7X7X7X7X7X7X7X7X8XwX7X9X7X7X7X7X7X7XwX7X7X7XS.z.l.B.z.z.B.S.7X7X7X^.^.7X7X7X7X7X7X7X7X7X7X5X5X5X^.^.7X7X7X7X7X7X7X7X7X7X7XwXwXqXqXwXqXeXqX7XqXqXqXqXeXqXqX7XqXqX7X7X5XA.5XqX5X^.5X^.7X^.^.7X^.^.7X7XS.7X7X7X(.S.S.S.Z.A.7X>XZ.z.z.z.l.l.l.l.l.l.v.Z.S.A.>X<XV.N.z.N.N.V.1X8X0X0XtXtXtXtXtXtXtX1X1X8X0XdXfXfXfXfXfXtXtXtXtXtXtXgXgXgXgXtX3XgXuX3X2X2X2X:X1X1X1XN.:X1X1X1X:X:X:X1X1X1X0X8X8X8X8X8X1X1X<X9X9X7X7X7X<X<X:X>X>X>X>X:XV.N.N.V.:X<X8XyXxXxXxXvXdXzXzXdXyXdXrXdXdXyX0X7X7X7X>X<X7X7X7X7X8X8X7X7X<X<X7X<X<X>X7X<X>X>X5X5X>XA.A.S.C.S.A.^.^.^.A.A.A.A.A.7X7X7X7X7X7X7X7X7X7X5X(.^.^././.^./.A.C./.7XqXqXqX7X7X^.7X7X7XqXqXqXqXeXeXeXeXqXqXqXqX^.qXqXqXqX7X7X7X5X5X5X^.5XqXqXqXqXqXqXiXqXqX^.^.^.^.^.^.^.^.^.^.^.^.^.A.C.C.C.C.C.C.C./././.A.A.A.A./.^.^.^.^.^.^.^.^.^.7XqXqXqXiXeXeXeXeXeXqXqXqXqX7X^.^.^.A.Z.A.A.A.A.A.A.A.A.A.Z.Z.Z.Z.Z.S.A.B.B.B.B.B.Z.Z.Z.Z.Z.Z.B.B.B.B.B.v.B.B.B.B.B.B.B.v.V.Z.>XV.B.V.V.B.B.B.B.B.v.z.z.v.v.B.Z.Z.Z.Z.A.A.S.C.C.Z.Z.Z.C.C.C.^.^.5X5X5X5X5X^./.^.Z.v.z.v.z.v.v.Z.5X5X6X5X7X7X8X8X8XtXtXuX8X8X<X<X6X<X>X>X>X>X>X>X>X%X%X,X%X@Xx.w.w.w.x.tXDXGXGXFXFXSXFXFXFXJXJXGXGXAXFXDXAXbXDXbXzXvXrX5X8XrXpXwXyXzX7XZ.Z.Z.Z.Z.5X6XwX6X6X6X6X5Xv.v.v.z.",
"8XrX8X<X1XtXdXdX>XfXfXtXtXfXuX8Xz.8.x.:X1X:X:X2X<X1XyX1XN.7.7.7.l.N.:X:X<X1X8X8X8X8X7X7X7X7X7X7X7X7X7X7X7X7X7X7XrXrXwX7X7X8X8X7X7X7X8X8X8X9X9X8X>XS.V.N.l.8.8.7.l.z.:X<X1X<X>X1XV.N.z.z.B.V.>X<XV.S.>X<X>XA.>X7X>X7X8XrX8X7X<X9X8X8X9X7X7X7X7X7X7X7X>XA.7X9X>XV.>X>X7X8X8X9X7X7X7X7XqXqX7X7X7X7X7X7X7X>X>X>X>X>X>X5X7X7X7X7X7X7X7X(.7XqXqXqXwXeXqXqXqXqXqXqXeXeXeXwXwXwXwX7X7X8XwX7X8X7X5X5X7X7XA.A.S.S.S.S.B.B.S.A.A.7X7X<XA.S.7X>X>X9X8X7X7XS.B.B.B.z.l.l.l.B.N.S.Z.<X7X1X:X:XV.V.V.:X>X1X1X1X1X>X>X>X1X8X8X8X1X8X0X8X0XyXyXyXxXxXxXyXtXyXuXtXuXtXtXgXuXuXgXgXCXyXtXfXuXtX8XtXtX8X1X1X1X1X1X1X:X:X>X1X1X1X8X8X0XyX0X<X8X8X8X8X>X:XV.N.z.l.8.7.8.l.z.l.l.8.l.8.8.l.8.8.l.z.V.<X0XyXdXyX9X8XrXrX8X8X8X8X1X<X>X>X1X>XV.N.V.:X1X8X<X<X<X9X8X9X7X>X7X>XA.A.A.A.S.Z.S.A.A.A.S.S.S.S.S.S.A.A.A.A.A.A.^.^.A.A.A.A.^.^.^.(.(.^.^.^.7X7XqXqXqXqXqXqXqXqXqXqXqXqXqXeXiXqXqXqXqXqXqXqX7XqX7X7X7XqXqXqXqXqXqXqXqXqXqX7X^.^.(.^.^.^./././.^.S.A.A.A.A.A.A.A.(.^.5X^.^.^.A.A.A.A.^./.^.^./.^.C.C.A.S.C.A.^.5X^.^.5X7XqXqX7X5X^.^.^.^.^.^.5X^.qXqXqX7X^.^.^.^.^.Z.Z.A.A.Z.C.B.A.S.Z.Z.Z.B.B.B.B.B.B.v.B.B.B.B.V.B.B.B.B.V.V.V.:XV.v.V.v.z.v.V.V.Z.Z.A.A.>X>XA.A.Z.Z.Z.Z.C.B.Z.Z.B.B.Z.A.A.A.Z.A.A.A.Z.Z.Z.A.>X5X>XZ.A.>XA.Z.Z.V.V.B.v.v.z.l.l.z.z.l.l.l.l.z.z.z.B.>X>X>XV.v.z.v.v.v.v.V.:X>X1X,X:XN.x.z.x.N.8XxXAXAXAXAXFXGXFXFXGXFXZXJXFXFXFXJXDXGXFXZXxXxXDXxXxXxXyXyXtX8XpXrX5XA.A.>XZ.>X6X>X>X5X5X:XV.V.V.",
"dXxXzX8Xz.7.l.V.tX1X:X:XV.N.N.N.N.N.z.8.8.8.x.V.N.z.z.N.V.:XV.N.z.N.:X:X<X1X1XV.>X>X5X7X7X7X7X7X7X7X7X7XqXqX7X7XwXrXrXwXrXrXrXrXrXrXrXrX0X9X8X9X1XS.V.N.z.N.1X8X:X>X:X:X>XV.N.V.>X>X>X>X>X<X0XdXyXyX0X8XrXyXrX8XyXrXrX8X8X8X8X8XrX9X8XrX8X7X>XA.Z.Z.V.A.Z.N.Z.<X<X>X<X<X>XA.A.7XwX7X7X7XqX9XqX7X7X7X7X7X7X7X>X>X>X7X7X7X7X7X7X7X7X7X7X^.^.7XqX7XqX7XqXeXeX7X7X^.7X7X7X7X7X7X7X8X8X8X8X7X7X8XwXwXrX7XS.B.A.wXzXzXzXzX8X7X7X9XrXrXwX7X>X>X7X7X7X9XwXwXrXrXrX8X8XwX9X9X9X7X8X8X8X8X8X>XV.V.V.:X>X:X>X1X1X>X>X>X>X>X>X:XV.>X<X8X1X<X5X7X>XV.V.:X>X>X1X1X1X1X1XtXtX1X8XtXyXyXtXtX8X8X>X1X1X>X:XV.V.N.:X>X1X1X1X1X8X8X<X>XV.V.V.:XV.:X1X:X:X:X:X:X1X1X0X8X0X0X8X1X1X<X1X1XV.V.:X:X:XN.l.N.:X1X<X<X8X<X8X>XV.z.z.z.N.V.N.V.:X:X:XV.V.V.>X>X<X1X<X>X>X>X>X>X>X>X>X>X>XA.A.>X7X>XA.S.S.S.A.A.A.A.A.A.A.A.A.5X7X7X7XqX7X7XeXeXeXqXqXqXqXqXqXqXqXqXqXqXqXqXeXeXqXqXqXqXqXqXqXqXqX^.^.^.(.7X7X7XqXqXqXqX^.^.qX^.^.qXqXqX7XqX^.^.^.^.^.^.^.^.^.^.^.(.7X7X7X7X^.^.^.^.^.A.A.A.Z.Z.A.S.A.A.^.^.^.^.^.^.Z.C.Z.C.A.S.A.^.7X7X7X5X7X7X^.^.^.A.A.Z.A.A.^.^.^.^.^.^.^.^.^.^.^.^.A.A.Z.B.B.B.B.B.B.B.v.v.v.z.z.z.z.z.l.l.l.l.z.z.z.z.z.v.V.V.V.V.:XV.:X>X>X>X5X7XwXrXqX6X5X>XA.A.A.A.A.A.A.A.>XA.Z.:XV.B.v.z.z.B.V.V.V.:X:XV.V.V.V.V.V.B.B.V.V.Z.>X>XB.Z.B.v.B.V.V.V.z.z.z.l.b.8.x.z.x.z.l.z.z.z.l.l.z.v.v.V.V.Z.Z.:X>X>X8XtXyXxXxXZXxXZXZXAXxXAXSXCXZXAXZXAXFXFXGXxXFXGXAXZXAXxXfXyXwX7X5X>XA.Z.>X>XZ.Z.>X>XV.V.V.V.",
"7XA.z.l.z.>XA.V.>XV.V.:XN.l.l.N.z.8.7.8.8.8.1.1.N.z.N.N.N.N.l.z.l.8.8.x.N.z.l.z.z.B.A.A.(.(.7XqX7X7X7X7X7X7X7X7X7X7X7X7XwXrXrXrXwX7X7X<X7X7X<X9XA.<X1X8X1X1X1X>XyX:Xz.l.l.N.N.N.z.N.V.>X8XtXfXfX1X0X0X8X1X1X8X8X8X8X<X<X8X8X>X>X>X<X>XA.V.V.B.l.l.l.8.7.l.z.z.N.V.z.l.N.V.<X>X<XA.>X5X7XA.A.7X7XrXrX8X8X7X8X8X8XrXwXwX8X7X7X7X7X7X7X7X7X7X8XwXwXrXwX7XqX7X7X7X^.B.B.B.B.S.A.<XA.A.<X7X9X8X7X7X7X7X7X7X8XrXwX7XA.<X<XV.z.l.l.z.B.Z.B.B.B.S.S.A.A.S.S.V.A.>X<X<X<X7X8X8X8XrXrX8X8X:XV.V.V.V.V.:X>X:X>X>X>X>X>X>X:X>X8X8X7X8X8X8XrXyXdXyX0X0XtXtX0XtX8X<X<X8XtXyX8X0X:X:X:X:X:XV.V.V.:X:X:X>X1X1X8X8X8X1X1X1X1X8X0X<X<X:XN.N.V.:X>X:X:X<X1X1X>X1X1X1X>X:X>X>X1X1X1X:X1X2X:X8.8.x.:X2X2X:XN.z.N.N.V.:X>X1X1X<X:X:X:X1X>X:XV.N.N.V.:XV.V.V.V.V.N.N.V.Z.V.V.A.>X>X>X>X>X>X>X>X>X>XA.A.A.A.A.A.A.A.^.^.A.7XqXqXwXwXqX7X7X7XqXqXqXeXeXeXqXqXqXqX5XqXqXqX^.^.qX^.qXqXqXqX^.qX7X7X7X^.A.S.A.A.A.^.(.(.(.(.^.^.^.^.A.A./.^.^.^.^.^.^.^.(.7X^.^.(.(.(.^.^.^.7X7X^.^.^.A.A.A.^.^.^.^.Z.C./.^.^.^.^.^.^.^.^.A.C.C.C.C.C.C.Z.Z.^.^.^.^.^.^.^.^.^.^.5X5X5XqXqXqXqX7X^.^.^.^.^.A.7X^.A.Z.B.B.v.c.B.B.B.B.B.B.B.Z.Z.Z.A.A.A.Z.B.B.v.B.v.l.l.z.z.z.v.B.B.B.v.v.B.Z.Z.A.5X5X5X5X5X>X6X6X>X>X>XV.V.V.:X:X:X:X:X:XN.z.:X:Xx.8.7.8.z.N.N.N.N.z.z.z.z.z.B.V.Z.>X:X>X:XV.v.x.l.x.x.v.x.l.z.v.V.:X>X>X>XV.V.>X5X>XA.A.5X5X5X6XwX5X>X7X5X>X>X5X8X>X>X5XwXxXxXDXSXFXSXxXAXDXZXAXpXxXAXxXpXyXrXpXpXrX8XwX6X5X6X>XA.V.V.V.V.B.",
"rXzXyXrX7X8X7X8XV.7.1.1.1.7.7.7.7.8.8.x.7.z.l.8.7.1.7.l.x.8.7.V.N.:X:XN.z.N.V.V.B.Z.Z.A.7X7XqXqXqX7X7X7X7X7X7X7X7X7XqX7X8X7X7X8XwXwXrXrXrX9X9X9X9XdXxXdXCXAXZXZXyX1X1X1X1XtXtX1X1XtXfXtX8X1X1X1X>X<X1X>Xz.l.l.l.l.l.l.l.7.8.l.z.Z.z.l.8.1.7.7.7.z.:X0XyXyXyXyXfXfX0X8X1X<X>X>X<X8X8X8X8XwXrX8X8X>X>X>X>X>XV.V.V.V.Z.Z.A.A.A.7X7X7X7X7X7X8X7X7X7X7X7X7XqX7X7X7XS.S.S.S.B.z.B.B.B.S.V.N.N.N.N.V.>X>X>X7X7X>X>X7X7X7X8X8X7X<X>X>XA.Z.B.z.B.B.S.A.A.7X<X>XA.A.A.A.A.A.A.A.A.7X7X8X8X8X7X1X8X>X8X8X8XtX0X8X8X1X1X1X8X0XyXrXrXyXyXrXrX8X0X0X8X8X0XrX9X0X8X8X8X8X>X>X<X>X<X0X<X>X>X:XV.>X>X>X1X1X1X>X:X:X:XV.:X:XV.N.N.:XtXtX1X:X1X1X1X:X:X:X:X:X:X:X1X:X:X<X1X1X>X:XN.:XN.:X2X:Xx.x.x.N.@XN.x.z.N.N.N.l.l.l.z.V.>X1XtX1X1X1X1X1X8X1X:XV.V.V.V.V.V.V.>XV.V.V.V.V.V.Z.Z.Z.Z.B.B.Z.Z.S.S.S.S.S.S.A.A.A.^.5X5X^.^.5X7X7X7X7X7X7X7XqXqXqXqXiXiXqXqXqXqXqXiXiXiXiXiXqXqX7X^.^.^.^.^.7X7XqX7X^.A.A.A.A.A.^.^.^.^.^.^./././././.A.A.A./.^.^.^.7X7XqX7X7X^.^.(.^.^.^.^.^.^.^.^.^.^./.^.C.C.C.C.^.^.^.^.^.^.^.A.A.A.Z.C.C.C.C.Z.A.^.^.^.^.5X5X^.5X5X5X^.^.^.^.^.^.^.^.A.^.^.A.A.Z.A.^.^.^.A.A.A.A.A.^.A.5X>X5X5XA.A.Z.Z.Z.B.B.Z.B.l.z.A.5XB.l.z.l.z.v.v.v.v.B.B.B.Z.A.:XZ.V.B.z.x.l.8.7.7.7.1.1.1.1.1.7.7.8.8.8.e.r.e.w.q.w.w.x.8.x.x.z.l.z.z.N.B.B.v.v.B.B.z.z.l.l.l.z.x.x.x.%XV.z.z.v.>XwX8X>X8X7XwXrXwXiXpXiXwX6XqXwX7X6X5XrXyXtXxXGXtXpXtXtXfXZXZXZXSXSXCXCXfXuXuXuXSXAXxXAXAXAXvXbXpXpXyXyXwX8X5X5X8XwXyXyX",
"qX7X7X^.qX7X7X7Xl.7.7.8.8.7.8.8.8.7.7.8.7.1.7.8.7.7.r.r.r.7.7.8.7.8.x.8.x.z.l.l.z.Z.>X7X7X7X7XqXqXwXwXwXwXqXqXqXqXwXwXwXwXwXwX7XwXwXwXrXrXrXyXzXxXdXtXyX1XtXxXAXfXyXtXtXfXtX:XN.tXyX8X>X<X>X:X<XS.V.V.N.z.l.l.l.l.z.z.l.l.z.l.l.l.l.N.V.:X>X>XV.l.z.N.V.>X8XtXtXtX1XtXfXfXxXvXfXyXtXtX8X<X>XA.V.V.V.>X:XV.V.V.N.B.V.N.Z.A.>X7X7X7X7X8X8X7X7X7X8XwX8X8X8X8XwXwX7XrXwXwX7X8X8X8X9X0X0X<XS.V.>X:XV.B.Z.A.>X<X9XrXdXrX9X8XrXrXrX8X8X7X5XA.A.A.A.A.A.A.>X7X9X7X9X7X7X7X7X7X<X7X7X7X7XA.S.Z.>X7X7X7X8X1X<X<X8X0X0XrXrXyXtXwX8X8X8X8X8X8XrXrXrX9X7X9X9X7X7X7X>X>X>X7X8X8X8X8X8X0X9X8X7X8X1X1X:XV.:X:X:X:X1X1X1XtX3X1X2X1X2X2X:X:X:Xx.8.x.x.N.:X:X:XN.z.x.l.8.8.x.z.N.N.N.%X2X2X3XuX3X2X2X2X3X1X8XtX1X2X,X2X2XN.w.x.x.8.8.x.:X2X1X1X1X1X1X1X<X>X:XV.V.V.B.B.z.z.z.B.B.B.S.S.A.A.A.B.B.B.B.B.Z.Z.S.S.A.A.^.^.A.A.A.^.7X7XqXqXqX7X7X7XqXeXeXeXiXiXeXeXqX7X7X7XqXqXqX^.^.^.^./.^.^.^./.^.Z.Z.A.A.A.A.^././.^.^.^.5X5X^.^.A.A.A.^.^.^./.^.^.^.(.qXqXqXqX7XqX^.^.^.^.^.^.^.5X^.^.A.^.^.^.A.A.A.A.A.S.S.A.^.^.^././.^./.A.A.S.A.A.Z.Z.Z.A.^.5X5X5X5X5X5X^.^.A.A.A.A.A.A.A.^.(.^.qXqXwXqXwXwXwXqX7X5X5X5XqXwXwX7X7X5XA.A.5XZ.z.z.v.B.v.B.B.V.B.V.Z.Z.Z.v.B.A.5XV.B.V.V.v.z.8.7.7.7.8.x.x.x.x.x.x.8.8.w.x.x.q.q.@X#X@Xw.w.0.q.w.e.w.w.q.x.x.z.l.l.v.V.V.V.B.B.z.z.l.l.l.l.8.8.l.z.z.z.l.z.B.Z.Z.^.qXwXiXiXnXiXiXpXiXpX5X7X8X6XwX8XtXtX8XtXuXfXuXCXSXuXZXCXCXZXgXZXCXuXpXuXCXFXSXZXFXFXxXZXxXZXxXxXAXZXZXAXGXFXAX",
"7XqXqXqX(.^.qXeXwX7X7X9X8XV.l.7.7.l.8.7.8.8.7.7.7.8.7.8.7.r.r.r.7.8.x.x.N.:XV.V.V.>X7X8X7XqXqXqXwXeXwXwXwXqXqX7XqXqX7X7X7X7X7X7X7X7X7X7X9X7X>X>X8X7X>X>XV.V.N.N.>X>X8X8X:X:X>X:Xz.N.N.z.l.8.8.l.8.l.l.8.8.l.N.V.B.V.A.>X<X7X<X<X<X8X0X>Xz.z.:X>X1X8X8XtXtXtX1X1XtXtXfXfXtX8X8X1XV.V.V.V.V.V.V.V.N.8.7.7.7.1.1.7.7.l.N.V.V.>X<X>X>X<X7X7X7X7X7X7X8X8X8X8X8X8XwX8X7X7X7X7X7X7X7X8X8X0X0X1X<X>X>X<X8X8X9X8X8X9X0XrXrXwX8X8X8XwX8X8X7X7X7X7X7X7XA.A.A.A.A.A.A.A.>X>X7X<XA.A.A.<X<X<X7X>X>X>X>XA.Z.Z.N.N.V.>X7X8X8X8XyXyXrXrXrXrXrXwXrXrXrXrXwX7X7X7XqXwXwXrXrXrXrX8XrXrXrXwXwXwX9X8X8X8X8X8X8XtX1X1X1X1X2X,X%X%X%X%XN.x.x.x.N.N.x.x.q.N.N.N.%X2XtXtX1X2X:X,X2X,X%XN.x.q.x.N.N.%X1X1X1X1X1X1X1XtXtXtXuX3X3X3X1X2X%X%XN.q.8.8.8.x.:X:X1X1X8X1X1X>XV.V.B.B.B.Z.Z.S.A.7XA.A.A.A.A.Z.Z.Z.A.A.A.A.S.A.A.A.A.A.A.A.A.A.^.^.(.7XqXqXqXqXqXqXqXqXqX7X(.7X7X(.7X(.^.^.^.^.^.^.(.(.(.^.^.(.5X5XZ.A.^.^.^.^.^.^.5X^.^.^.^.5X7X7X^.^.^.^.^.(.7X7XqXqXqXqXqXqX7X7X^.^.^.^.^.^.^.5X^.^.^.^.5X5XA.A.A.A./././././.^.^.^./.^./.A.A.A.A.C.C.C.Z.Z.Z.Z.^.^.5X5X5X5X5X7XA.7X7XA.A.^.^.^.A.^.5X5X5X5XqXqX7X7X7X5X5X5X5X5X5X5X5X5X5X7X8XwXwX8X8XwX8X6X>X>X>X>XZ.V.Z.Z.V.B.B.V.V.V.V.B.v.v.x.z.x.x.x.x.x.x.x.x.w.x.x.x.x.q.w.q.0.0.0.0.q.0.w.w.w.w.x.N.N.V.N.B.v.z.B.V.B.v.v.v.z.z.V.>X>XB.B.Z.B.Z.5X^.Z.5XqXwXiXiXiXiXqXqXqX5X^.^.8X>X8XtX8XuXuXuX3XuXuX3X3XuXCXuXCXuXLXCXCXSXZXKXZXFXSXZXCXCXSXSXZXCXCXCXCXFXSXCXCXZXSXZX",
"qXqXqX7X7X7X7XqX7X7X>X>X<X<X>XA.1X:XN.z.8.8.7.7.7.8.8.7.8.8.7.1.7.8.N.:X2X1X1X8X8X8X8X8X9X7X7X7X7X7X7X7X7X7X7X5X7X5X5X5X5X>XA.A.A.A.A.A.S.S.A.S.S.>X>X<X>X<X>X:X:XV.:X>X<X1X1XV.V.V.:X>X>X:X:X>X<X<XV.z.l.z.A.>XA.>X>X>X7X9X9X9X7X7X7XS.A.yXvXrXrXrXwX9X8X8X<X:XV.N.N.V.N.V.>X<X8X<X<X<X>XV.V.B.z.z.z.z.N.N.:X:X:X:XV.N.z.B.S.S.A.A.>X>X<X7X7X7X7X>X>X>XA.A.S.Z.A.A.A.>X7X8X8X7X<X>X<X1X9X8X1X<X7X<X7X9X8X8X8XwXrXwX8X7X7X8X9X9XrXwXwXwX7X7X7XA.A.A.A.7X7X7X>XA.B.B.B.S.S.A.A.>XA.<X7X8X8X8X7X7XA.A.A.A.A.A.A.A.>X7X8XwXrXrXrXrXrXrXrXiXrXwXwXrXeXrXiXrXrXrXiXrXyXtXrX8X7X7X8X8X7X1X8X8X1X1X1X1XN.x.w.q.q.q.q.w.8.w.w.q.w.7.e.7.w.8.q.q.q.w.x.%X4X2X3X3X%X%X%X4X4X@XN.%X:XN.N.:X:X:X:XV.V.>X<X:X:X2X1X2X%X,X%X%X2X%X%X%X%XN.x.8.8.l.x.V.>X1X1X1X1X<X7X<X>X>XA.A.A.A.5X7X7X5X>X>XA.A.A.A.A.A.A.A.^.^.A.A.^.^.A.A./.^.(.7X7X7X7X7XqXqXqXqXqXqXqXqXqXqX7X7X^.^.^.^.^.^./.A.A.A.Z.Z.A.A.A.A.A.A.A.A.^.5X7X7X7XqXqXqXqX7X7X7X(.7X7X7XqXqXqXqXqX7X(./.^.^.^.^.^.^.^.7X7X7X7X^.^.A.S.Z.A.A.^.^.(.^.^.^.^.^.^.(.7X7X7X7X7X^.7X7X5X5X^.^.^.A.A.^.^.A.A.A.7X7X7X7X5X5X5X^.^.5X5X5X5X5X5X5X7XwXrXzXzXiXrXrX7X7X7X7X>XB.z.z.z.z.z.:X>X>X>X>X:X>X>X:Xv.z.z.z.z.l.8.8.8.l.x.x.x.z.x.x.l.l.z.z.x.x.%Xm.@Xm.@X%X4X%X@Xq.0.q.q.q.q.q.m.m.x.x.z.z.B.B.B.B.B.Z.Z.Z.A.A.5X6X6X5X5X5X5X5XZ.^.Z.^.^.qXwXqX^.qXiXzXzXiXqX6X5X5XZ.V.,X8X3X3X3X2X3X3X4X3X4X%X4X4X3X4X3XCXCXCXuXCXuXCXCXCXCXSXCXgXCXSXLXLXCXSXSXCXSXCXCXuX",
"qXqXqXqXqX7X7X7XA.7X7X7X7X>XA.>XA.<XV.l.l.l.z.z.8.z.N.8.8.8.l.l.N.:X:X:XN.:X:X:X>X>X<X7X7X>XA.S.A.>X>X5X7X7X7X5X7X7X5X5X>X>XA.A.S.S.S.B.S.S.A.A.B.V.N.z.l.8.l.l.8.l.l.8.8.8.l.N.N.N.>XtXdXfXxXxX7X7X8XrXtXtX8X8X8XrXwX8X8X8X8X9XeXqXwXqX7X7X7X7X7X7X7X7X7X7X7X<X7X>X>X:X>X>X8X7X<X>X>X>X>X<X<X<X<XA.V.<X1X>X:X:X>X:X:X>X>XZ.Z.Z.A.A.A.A.A.A.A.A.Z.Z.Z.S.A.>X7X>XZ.A.A.A.>X7X9X8X8X8X9X>XA.A.>X<XA.S.B.N.N.N.Z.A.S.Z.Z.Z.Z.A.A.<X5X7X7X7X7XwXwXwX7X7X7X7X7XD.A.S.S.S.A.A.A.7X7X7X7XwXrXrXrX8X9X<X7X7X7X7X7X7X8XwX7X7X8X8XwXrXrXrXiXrXiXpXpXrXrXpXeXrXrXqX7XwXrXrXwXrX8X7X7X7X7X7X>X>X:XV.l.7.7.1.7.7.8.q.x.N.@X@X@Xx.x.N.x.q.q.x.@X@X@Xq.@X%X%X@Xq.q.q.q.w.9.q.@X@X@XN.N.:X:X:X<X1X>XV.:XV.N.z.z.N.%X%X%Xx.q.x.@X%X%X%X%XN.x.N.:X:XN.x.N.:X:X1X8XyXyXyXyXrXrXrXrX7X7X>XA.A.A.A.A.>X>X7X5X7X7X7X7X^.^.^.^.^.5X(.(.(.(.7X7X7XqXqXqX7XqXqXqXqXqXqXeXqXqXqX7X^./.^.^.A.A.S.S.A.A.A.A.B.Z.A.A.5X5X5X^.^.^.5X7X7X^.^.^.5X^.^.^.^.^.(.7XqX5X^.^.^.^.(.7X7X7X7X^.^.5X7XqXqXqXqX5X^.C.B.B.B.C.A.^.(.7X(.^.^.^.^.^.(.7X7XqX7XqXqXqXqX5X^.^.A.^.A.Z.Z.Z.Z.A.A.A.A.^.^.7X7X7X7X7X7X7X5X5X5X5X7X7X7X7XqX7X8XwXwXwX8X7X7X7X>X>XV.V.v.x.x.x.7.7.x.x.x.x.x.8.8.x.x.x.x.z.x.z.z.x.l.8.7.8.l.l.l.x.x.x.x.x.w.w.w.w.0.w.w.@X=X4X%X@Xq.x.x.:X:X>X8X8X5X7X7X5X5X5X5X5X^.^.A.A.6XwXwX6X6XqXqXwX5X5X5X5X^.qXiXiXqXqXqXqXwX6X5XZ.V.,X,X,X2X@X%X@X%X@X#X0.4.e.e.p.0.p.p.4X#X$X4X4X%X4X4X3X3X4X%X4X4X3XCXCXPXCXuXuXCXCXuX3X",
"qXqXqXqXqXqX7X7X7X7X7X7XwX8X7X8X>X<X>XV.V.V.:X:Xl.l.V.:X>XN.z.N.z.z.x.N.N.:XV.V.>X>X<X>XA.V.S.S.A.>X>X7X7X7X7X<X>XA.A.S.S.S.S.Z.A.>X5X>XA.A.A.A.A.S.N.B.Z.V.>X>XV.V.N.N.V.V.V.8X8X1X8X8X7X8X8X>X8X>XA.5X7X5X5X7XwXwXwX7X7XqX7XqXeX7X(.qXqX7X7X(.^.^.^.A.A.A.A.A.A.A.A.A.A.A.A.S.>X>X>X>X>XA.S.S.>XA.A.<X<X>X>X<X>X>X<X<X<X>X<X8X7X5X>XZ.B.z.l.l.z.B.A.Z.Z.Z.Z.B.Z.S.S.Z.S.A.7X8X7X9X7XA.A.A.A.A.A.A.>X>XA.B.l.l.z.z.z.z.B.B.A.7X7X7X7XqXwXeXrXiXwX9XqXqXwXrXrXeX7X7X7X7X7X7X7X9X9XwXrXrXrXzXpXrXwXwXwXwXwXwXqXwXqXqXqX7XqXqXqXwXiXeXiXiXiXrXrXiXiXrXwXqXwXrXwX7X8X8XwX8X8X8X8X8X7X>XA.V.V.N.z.x.N.:X%X%X%XN.q.q.q.q.q.x.q.q.@X@X4X%X4X4X%Xq.q.d.q.0.q.q.0.0.d.d.q.q.@XN.q.%X2X2X1X1X1X<X<X>XV.N.x.x.q.w.8.8.w.w.w.q.x.x.x.q.x.x.N.N.x.x.x.x.N.N.N.N.:X1X8X0XrXrXrXrXrXwX8X7XA.A.A.A.A.S.S.A.7X7X7X7X7X7X^.A.A.A.A.^.^.^.^.^.(.(.7X7XqX7X5X7X7XqXqXqXqXqXqX7X7X7XA.S.B.B.B.B.B.B.v.B.A.5X5X>X>XA.^.^.^.^.^.^.5X5XA.A.Z.Z.A.^.(.7X^.^.^.^.^.^.5X7X^.^.^.^.A.A.A.A.A.A.A.C.B.c.z.z.B.B.C.A.^.7X7X5XqXqXqX7X7XqXqXqXqXqXqX7X7X5X5X^.S.A.^.A.B.c.B.Z.A.A.A.A.A.A.5X>X5X5X7X6X5X>X>XA.>XA.A.A.5X7X5X7X5X5X5X5X5X5X>XV.V.V.l.7.7.8.x.q.w.w.w.w.w.x.m.,X%X%X,X:X:X:X>X>X>X:XZ.Z.B.z.l.x.x.x.8.w.e.e.w.w.w.0.p.@X#X@Xm.q.q.w.x.x.z.z.B.V.A.A.A.A.A.5X5X5XA.wXbXbXwX5X6X7X6XpXpXwXpXwX5XqX6X5X^.^.^.^.^.^.A.>X>X>X1Xm.,Xm.e.w.2.e.4.4.4.9.6.6.d.d.#X#X#X$Xm.$X$X=Xp.$Xs.p.d.p.0.p.@X@X0.p.d.#X#X$Xm.0.9.w.",
"qXqX^.^.^.7X7X7X7X9XwX7X7XqX8X7XwXA.7XyX9X8X0X8X8X0X0X1X>X>X:X:X>X:X:XN.z.z.z.l.l.l.z.z.B.B.B.V.V.V.A.>X>X>X>X>XA.A.A.A.S.A.A.A.7X7X7X7X7X7X7X7X7X9X<X<X8X>X>X<X:X:X:X:XV.V.V.:X>X>X7X>XA.>X7X7X>X>X>X>X>X>X5X5X8X8X7X7X7X7X7X7X7XeX9X7X^.7X7XA.7X^.^.A.A.A.^.7X7X7X7X>X>X>X<X7X>X7X7X7X7X<XA.A.S.7X8X<X<X8X8X8X8X0X0X8X7X9X9X7X7X8X8X8X7X7X8X8X8XyXzXyX7X>X>XZ.B.B.Z.A.<X9X8X9X7XA.Z.Z.Z.A.>X7XwX8X8X8X7X>XA.A.S.Z.B.B.B.S.<X7XqXqXwXeXwXwX9X9XwX9XqXqXqX7X7X7X7X7X7X7X7X7X7X7X7X9X7X7X7XwXrXwX7X7XqXqXwXwXeXeXwXeXwXwXwXeXeXiXeXeXeXiXiXiXiXiXhXiXiXrXrXrXwXqXwXrXrXrXrXrXwX8X8X7X>X>X>X>X<X>X1X1X,X:X2X2X%XN.@X@X%X%X%X4X3X3X3X3X4X%X@X@X@Xw.0.0.q.q.0.0.0.d.d.q.@X@Xx.q.x.N.%X:X1X1X1XtXtX1X1X2X2X2X%Xx.x.@X%X%X@X@Xx.x.q.q.@X@X%X%X:X:X:X:Xz.z.l.l.z.N.A.>X7X7XwXrX8X7X5XA.B.B.B.B.B.B.S.S.5X7X7X7X^.A.A.A.^.^.^.^.^.^.7X7XqXqXqXqX5X^.^.^.^.^.^.^.^.^.^.^.5XA.A.S.Z.B.v.z.z.z.B.Z.>X5X8XwX7X7X7X5X^.^.^.^.5X^.^.A.A.A.^.^.^.^.^.7X7X^.A.A.^.^.^.^.A.A.A.Z.A.A.A.^.S.Z.Z.Z.Z.Z.S.A.^.^.^.^.^.^.^./././././.^.^.A.A.A.Z.A.^.A.A.A.A.C.C.B.B.z.z.v.v.v.B.Z.V.:X:X>X>X>X>X>X>XZ.Z.Z.A.>XA.Z.Z.Z.B.v.v.c.z.v.v.z.v.x.7.7.w.x.x.0.0.p.m.x.q.w.w.x.x.x.z.v.:X:X>XZ.>X5X>X>X:Xv.l.8.8.8.w.w.w.w.0.9.0.0.0.q.m.%X%Xx.x.N.:X:X:X>XZ.Z.A.5X7X7X7X5X7X6XA.qXrXwX>X5X5X7XA.wXyXwX7XiXqXwXwXwXwX6X^.5X5X>X8X:Xx.x.,Xx.e.r.2.#X=X=X=X;X=X*X$X=X$X*X*X#Xd.=X=X#Xp.p.$X$X#X=X$X=X;X=X3X;Xd.$X=X=X=X$Xa.d.$X",
"7XqXqXqX^.^.(.qXqXeXeXqX7X7XwXwX7X9X7XA.7X7X>X>X8X7X8X8X8XV.z.l.l.l.N.N.N.z.l.l.z.N.N.N.z.l.l.l.z.B.V.A.V.V.A.A.A.A.A.A.A.A.A.7X7X7X7X7X7X7X7X7X7X7X9X9XrX7X7X<X8X<X>XV.V.V.V.V.N.V.7X8X8XwXwX8X8XrXrX9X8X9XwX8X8X8X7X7X7X7X7X(.A.A.A.A.7X7XA.7XA.A.S.S.A.A.7X7X7X7X7X7X7X7XwXwXwX7X7XS.S.A.7X7X7X7X7X9XwX9X7X9X7X<X>XA.7X9XwX7X7X7X7X7X7X7X7X7X7X7X8X8X7X7X8X8X<X9X9X<XS.B.l.l.l.z.A.7X7X7XwXrX7X8XwX8X8X7X7X7XA.S.S.S.S.S.7X7X7XqXqXqXqXqXqXqXqXqXqXqXqXqXqX7XqXqXqXqXqXqX9X9X9X9XwXwXwXwXwXwXeXwXqX7XqX9XwXwXwXwXeXqXqXqXqXqXeXeXiXiXhXzXhXiXiXiXiXrXwXqXwXiXrXrXeXeXwXwXwX7X7X7XrXwX8X8X8X8X1X1X2X2X2X2X2X2X3X4X%X%X@X@X4X%Xx.%X%X4X%X@X%X@X%X@X@X#X@X@Xd.q.0.d.#X#X%X%X@X@Xx.q.x.%X,X%X%X2X2X1X3X2X,X2X3X3X4X4X2X,X%X%X%X%X%X@X@Xx.q.q.q.x.:X:X:X:XV.B.z.z.B.B.B.B.Z.A.A.>X>X>X>XA.S.B.B.B.B.S.^.^.^.7X7X7XA.A.A.Z.^.^.5X7X7XqXqXqXqX7X^.^.^.^.A.A.^.7X7X^.A.^.5X5X5XA.S.Z.B.B.z.z.z.z.z.z.Z.A.^.qXwXeXeXeXqXqX5X^.^.A.A.A.5X^.^.^.A.A.A.A.^.A.A.^.5X^.A.A.A.A.A.A.^.^.5X5XA.A.A.A.A.A.A.A.A.^.^.^.^.^.^.A.5X^.A.A.A.A.5X5XA.A.A.A.7X7X7X5X5X>X>X:XZ.B.B.v.z.z.v.v.B.V.>X>X5XA.Z.Z.Z.B.C.B.v.z.v.v.v.z.z.z.z.v.V.N.%X%X%Xx.@Xp.w.q.m.m.x.x.x.x.m.%X%Xx.x.x.z.z.z.z.V.:Xx.8.1.7.8.w.8.e.e.r.e.e.e.e.w.q.x.8.x.N.:X>X8XyXyXpXyXzXvXvXpX8X7X7XqX>X>X>X5X8XwX>X7XrX8X7XpXrXwXpXnXrXrXwXwX6XwX8X:XN.%X%X@X@Xr.e.a.a.a.5.p.y.a.a.d.d.$X*X$X&X*X;X=X;X;X#X#Xu.a.a.=X$X&X&X*Xf.f.f.=X*Xa.p.p.y.u.a.",
"qXqXqXeXqXeXqX(.qX/.^.7X7X7X7X7X7X7X7X7X7XA.>X7X7X7X7X>X>XV.<X>X:XV.>X<X>X<X<X>XA.V.z.l.z.z.B.B.B.Z.A.>X>X>XA.A.>X>X7X7X7X7X7X7X7X7X7X8XwX7X9X7X7X9X7XA.8X>XZ.z.z.V.V.N.V.V.V.<XrX0X0X8X8X7X8X8XwX8X7X<X<X7X7X<X7X<XA.A.<X<XD.<X7X7X7X>X>X7X7X7X7X7X7X8X8X8X8XrXwXeXwX7X7X7X7X7X7X7X7X7X7X7X9X7X7X7X7X7X7X<X7X7X7X7X>X<X7X9X7X7X7X7X7X7X7X7X7X7X7XA.>X8XwX8X7XA.7X<X7X9X8X9X8X8X8XrXwX7X>X7X7XA.5X7X7X7X7X7X7X7X7X7X7X7X7X7X7XrXeXeXeXwXeX9X9X9XqX7X(.^.^.7XqXeXrXrXeXeXeXeXeXwXwXeXrXrXwXwXwXrXwXwXwXwXeXeXwX9XeXeXeXeXeXiXiXiXiXiXzXiXiXzXiXeXeXeXqXqXqX7XqXwXeXeXwXqXqXwXwXqXwXwXwX7X5X7X8X>X:X:X:X,X%XN.%X%Xx.q.w.q.x.@X#XN.@X4X@X%X%X%X2X@Xq.q.@X%X@Xx.q.q.0.0.@X#Xd.@X%X4X%X4X%X%X%X%X@X@XN.q.w.q.x.q.w.q.x.x.x.x.q.w.8.8.w.w.N.%XN.x.q.q.x.N.N.N.B.B.Z.Z.A.>X7X7X7X7X7X7X8X7X7X7X7XA.S.S.B.S.A.A.A.A.A.A.^.^.^.5X7XqXqX7X7XqXqXqXqXwXwXwXqX7X7X7X7XqX7X^.5X7X7X^.5X7X7X7X5XA.A.A.A.Z.B.B.c.B.C.C.A.^.^.^.^.^.^.^.^.^.^.^.Z.C.Z.^.5X5X5X5XA.Z.C.Z.S.Z.S.A.A.A.A.A.A.A.A.A.A.A.A.A.A.A.5X5X7X7X7X7X7X7X7X^.5X^.^.^.A.A.A.A.A.5X7X7X>X5X7X8X>X>X>X>X>X>X:X:XV.V.v.z.x.l.z.z.B.v.B.Z.Z.V.A.Z.:X>X:XV.Z.5X5XZ.V.V.B.v.x.x.8.8.7.e.w.w.w.w.e.e.w.q.m.m.q.w.x.@Xx.N.:X1X,X,X,X,X:X,X:X:Xx.@X4X3X4X%Xq.w.x.x.N.%X>X8XtXyXbXAXDXFXDXDXAXAXbXzXpXpXpXwXrX8X:X>XyXbXbXvXrX7X:XtXpXpXyXtXuX8X>X,X2X,X,X@Xx.e.w.w.e.e.9.y.9.p.a.p.p.y.y.p.a.p.p.a.d.a.a.a.a.*X;X*X#Xp.d.i.d.u.y.u.f.p.5.5.y.a.*Xa.d.f.",
"qX7XqXqXqXqXqXqXqXqX(.(.(.7X^.^.^.(.(.(.7X7X7X7X7X7X7X7X7X7XA.Z.>X>X>XA.A.>X>X>X>X>X>X>X>XA.A.Z.A.>X>X7X7X7X7X7X7X7X7X7X7X7X7X7X7X8X8X8X7X7X7X7X7X7X7XwX8X7X7X8XyX8X7XrXyX0X>XZ.7X>X>X>X7X5X5X>XA.A.A.A.>X>X>X<X7X<XA.A.A.A.A.A.A.A.A.A.:XA.V.Z.A.>X7X8X8X8X8XrX8XqX7XwXwX8X8X8X8X8X7X7X7X7X7XA.^.(.(.(.7X(.A.(.A.A.A.A.A.A.7X7X7XwXwX7X7X7X7X7X9X9X9X7X7X9XA.7X8X9X7X>X>X7X7X7X8X8X7X>X>X7X7X>XA.7XqXqX7X7X7X7X7X7X7X7X7X7X7XwXeXeXeXeXiXiXiXiXeXeXeXqXqXqXqXwXiXiXrXwXwXwXwXwXeXeXeXeXeXeXeXeXwXwXwXwXwXwXwXwXwXeXeXeXeXeXeXwXeXeXeXeXeXqXqXeXwXqXqXqX7X5X^.qXeXwXzXzXiXiXiXeXwXeXwX7XwXwX8X8X:XV.N.N.N.N.:X2X2X3XuX4X@X@XN.%X2X2X1X2X2X1X2X2X3XuX2X2X2X%X%X@X#Xd.@X@XIXq.d.q.p.0.0.0.q.@X#X%X4X1XuX3X2X%X4X@X@X@X@Xq.w.q.%X@XN.N.x.q.q.w.q.x.N.:X1X8X8XtXyXrXrXrXrXwX8X8X8X8XwXwX8X7X7X7XA.A.A.A.A.A.S.S.Z.Z.A.A.7X7XqX7X7X7X7X5X7XqXqXqXqX7XqXqX7X7X7X7X^.^.^.^.7XqXqXqX7X7X^.7X7X^.^.5X5X5X7X7X7X7X5X7X^.A.A.^.^.A.A.A.A.A.A.A.S.Z.Z.Z.S.S.A.A.5X5X>X>XA.A.Z.Z.A.A.S.Z.S.A.A.A.5XA.5X5X5XA.A.5X7XqX7X7X7X7X5X5X^.^.A.S.B.B.B.Z.>X5X5X>X>X>X>X>X>X:XN.x.x.x.x.N.:X:X>X:Xv.v.v.V.Z.B.B.V.V.V.V.V.V.:X>X>X5XwXwXwX6X>X5X>X:X,X8XuXuXuX3X,Xm.m.m.m.@Xq.m.q.w.w.q.x.w.q.x.x.x.x.x.x.x.x.x.:X1XuX8X1X,X>X8X8X>XV.wXyXtXzXwXzXAXDXvXvXwXpXpXpXpXpXpXyXyX8XwX:X6XwXvXFXGXxX8X8X<X8XuXuX3X4X4X4X%X#X@Xe.r.r.r.4.0.9.0.s.9.9.0.u.9.u.9.d.y.6.u.y.9.0.a.p.9.5.0.#Xp.s.y.a.s.a.y.9.p.a.d.d.d.d.u.a.a.9.",
"eXeXeXeXeXqXeXeXqXqXqXqX7X7X7X7XqXqXqXqXqX7X7XqX7X7X(.^.>X>X>X>XA.A.A.A.A.A.A.Z.B.B.B.B.B.Z.Z.Z.A.A.A.>X>X>X>X>X>XA.A.7X7X7X7X7X7X8X7X7X7X7X7X7X7X7X7X7X7X7X7X7XA.V.V.V.V.A.>X<XZ.A.A.>XA.A.5X7X5X>XA.A.A.A.A.>XA.S.B.B.B.Z.S.S.>XA.A.S.Z.S.A.>X>X>X7X8X8X8XwXrXrXwXwXwXwX8X8X8X7X7X8X7X7X7X7X9X7X9X7X(.7X7X7XA.A.A.A.7X7X7X7X7X7X7X7X7X7X7X7X7X7X7X7X7X7X7X7X9X>X>X7X7X7X>X>X7X5X7X7X7X7X8X8X8X7X7XqXqX7X7X7X7X7X7X7X7X7X7X7XqXwXwXeXeXiXiXiXiXiXiXiXiXiXiXiXiXeXiXrXeXeXrXeXeXeXeXqXqXeXrXiXzXhXzXhXzXzXzXzXzXiXiXiXiXiXrXrXeXeXqXqXeXqXqXqX7XqX7X7X7XqX7X7X7XeXrXzXzXnXzXiXiXiXrXrX7X7X5X5X7X1X>X:XN.N.:XN.N.%X%X%X%X%X%X%X%X%Xx.2X3X1X,X1XtX1X2Xx.x.:X:X:X2X4X4X%X%X4X%Xq.q.@X@X@X@Xq.m.@X@Xw.8.8.w.q.@X%X@X@X%X%X2X%X%X%X2X4X4X2X%X%X%X%X,X2X:X:X1X8X<X>X>X>X>X>X5X5X>XA.A.Z.Z.A.A.A.A.A.A.A.A.^.A.A.A.5X^.7X7X7X7X7X7X7X5X7X^.^.^.A.A.^.^.A.A.A.A.A.^.^.^.7XqXqXqXqXqXqXqXqXqX7X5X^.^.5XA.7X7X5X^.7X7X7X7XA.A.A.Z.C.Z.A.A.A.5X5X5XA.A.Z.Z.Z.Z.S.A.A.A.A.A.5X^.A.A.A.Z.Z.A.A.5X5X5XA.A.A.Z.v.v.v.B.B.Z.A.7X7X7X7X7X7X5XA.A.Z.B.B.v.z.l.8.7.7.1.7.7.7.7.x.x.x.x.x.x.x.m.,X>X>X>X>X>X:X:X>X>X:X:X:X>XV.v.v.v.A.5X5X>X>XV.B.V.>X,X%X%Xx.x.x.q.q.q.w.w.0.d.$X#Xp.IXd.IXq.q.x.x.N.V.V.V.V.V.V.V.V.>X8X6X6XwXwXiX5X7XpXAXAXAXzXvXpXtX8X8X6X8XwX8X8XwXwX<X6XtX:X>X:X1XuXfXtX1X:X,X2X%Xw.4.4.4.3.6.r.r.4.4.2.s.0.4.4.6.6.9.0.0.9.0.9.s.p.u.9.9.s.a.5.w.2.2.w.s.9.9.9.y.3.9.3.5.y.0.0.9.9.9.5.u.s.9.",
"eXeXeXeXeXeXeXqXeXeXeXqXqXqXqXqXqXqXqXeXqX7X7X7XqX7X7X7X7X7X7X7X^.7X7X7X7X7X^.A.7X7X7X7X7X>X>XA.>X>X>X5X7X7X7X7X7X7X7X7XqXqXqXwXwXwX8X7X7X7X7X7X7X7X7XA.A.A.Z.B.Z.S.V.A.>X>X>XV.A.>X7X7X5X>X7X7X7X7X7X5X>X>X>X>X7X>X>X5X7X7XA.A.7X7X>XA.>X<X7X7X7X7X7X7X8X8X8X8X8X8X8X8X9X9X0XrXrX8X7X8X8X8X8X7X9X9XqXqX7XwXrXwXwXwX7X7X7XqXqXqX7X7X7X9XwXwX7X7XA.7X7XA.7X7XA.(.5XA.A.^.7X^.A.A.7X7XA.S.S.A.A.A.A.^.5X7X7X7XwXeX7X7X7X7X7X7XqXqXqXqXqXqXeXqX9XeXeXeXiXiXiXiXiXiXiXiXiXiXhXhXiXeXqXqXqXeXeXrXpXpXrXrXrXhXzXzXzXzXzXzXrXwXwXwXwXeXeXwXeXeXwX7X7X7X7X7XA.A.7XwXrXwXrXrXwXwXeXrXwXrXrXrXwX8XwX7X:XV.N.l.l.z.x.w.w.x.x.q.w.x.%X@Xw.e.q.N.N.x.%X1X2XN.q.x.%X%X,X,X%X2X,XN.x.N.2X2X%X4X4X%X%X@Xq.@X%X%Xx.N.x.x.8.w.w.q.x.q.w.q.x.%X%X2X%X%X@X@XN.x.N.x.N.:X:X:X:X<X<X>X>XA.A.A.A.A.A.:XV.Z.Z.Z.Z.S.A.A.7X7X7X7X7X5XA.A.^.7X7X7X7X5X^.A.^.A.A.^.5X7X7X7XwXwX7X7X7X7X7X7XqXqXqXqXeXeXiXiXqX7X7X7X7X7X7X5X^.A.C.B.C.A.5X5XA.A.A.A.A.A.A.A.Z.Z.Z.S.A.>X>X>XA.A.A.A.A.A.>X>X>XA.A.A.A.S.Z.S.A.A.5X7X7X7X7X7X7XS.B.B.B.B.C.^.7X7X7X7X7X7X7X7X5X^.Z.A.>XZ.V.Z.v.z.v.x.z.z.z.l.x.x.x.x.x.x.x.N.N.v.N.:X:XV.%X,X>X>X>X>X6X6X>X>XV.>X>XV.B.z.z.z.7.7.8.7.1.7.8.x.w.w.w.w.w.w.w.6.6.p.d.q.p.x.8.N.N.:X>X5X8XwXrXrXpXpXpXiXwXiXwX6X5XA.8X0XfXCXZXFXxXtXuXtX8X1X,X,X8X1X1X2X%X2X,X1XuX1X:X2X2X%X%Xx.e.r.r.r.5.6.4.3.u.u.#X9.3.u.9.9.6.0.0.0.p.0.w.w.0.w.0.a.0.w.0.0.0.w.w.0.m.w.w.w.e.2.2.5.2.2.2.2.9.6.2.2.e.6.w.2.",
"eXeXeXeXeXqXqXqXeXiXiXeXeXqXqXeXiXqXqXeXeXeXqXqX7X7X7XqXqXqX7X7XqXqXqX7X7X7X7X7X7X7X7X7X7X7X5X>X7X7X8X8X8XwXwXwXwXwX8X8XqXqXqXqXwXwXwXwX7X7X7X7XA.A.A.S.A.A.A.A.>X>X<X9X7X>X>X7X>X>X>X>X7X7X7X7XqX7X7X7X7X>X>X>X>X5X7X8XrXwXwX7X7X7X7X8X7X7X7X7X7X7X8X8X7XA.B.B.A.V.A.V.Z.V.V.V.:X>X<X<X>XA.7XwX7X7X7XwXwX7X8XwXrXwXrXwXwX7X7X7X7X7X7X7X7X(.(.(.A.7XA.A.D.D.S.A.A.^.^.7X7X7XqXwX7X7X7X7X7X<XA.S.^.^.^.^.5X7X7X7X7X7X7X7X7X7X7X7XwXqXqXqXeXqXqXeXeXeXeXiXiXiXeXeXiXrXeXiXiXiXiXeXeXeXrXiXrXiXpXpXzXzXzXzXnXnXbXbXnXnXnXzXzXzXzXzXiXiXrXrXeXqX7X7X7X7XA.7X7X7XrX8XrXrX8XwXrXrXwXwXrX8X8X8X8X1XV.N.l.z.N.N.x.q.x.x.x.@Xx.@X%XN.@X@X@XN.%X2XuX3X2X,X2X2X1X2X2X1X2X,X%XN.N.:X:X2X2X%X%XN.x.q.x.x.@X%X%X%X%X%X@Xx.@X@Xq.x.x.q.x.x.x.q.w.w.q.x.@X@X@X%XN.%X2X1X1X:XV.A.>X>X7X7X7X>X>X>X8X>X>X>X>X>XA.A.A.>X7X7X7X7X7X7X7X7X5X^.A.A.^.7X5X^.^.^.A.A.A.A.7X7X7X7X7XqXeXeX^.^.^.^.(.qXqXqXqX7X(.7X7X7X^.^.^.^.^.^.5X5XA.Z.A.A.A.A.A.A.A.A.B.B.B.B.Z.A.A.A.Z.Z.Z.Z.Z.Z.B.B.Z.Z.Z.A.A.A.Z.Z.Z.Z.Z.A.A.A.A.>X5XA.Z.Z.C.B.B.S.A.A.S.A.S.A.A.A.5X5X>XA.A.Z.Z.A.:XV.B.v.z.l.x.8.8.x.x.x.8.x.x.8.8.7.8.x.x.z.x.v.v.V.:XV.V.>X>X>X>X>X>X>X:XV.V.V.V.v.v.N.x.x.x.x.x.x.m.@Xq.w.w.w.0.0.p.q.0.@X%X:X:X8XwXwXpXpXnXvXnXnXbXbXnXpXpXpX5X>X>X:X1XtXtXgXZXgX1X2X2X2X,X,X%X@Xw.@X3X%X4X4X@Xw.%X@Xe.r.e.r.e.9.y.a.f.p.f.a.y.y.9.u.9.9.0.0.p.p.w.w.0.q.q.q.q.w.w.p.p.a.m.p.0.w.w.0.m.w.w.w.w.w.5.w.2.2.2.0.w.w.w.6.w.6.2.2.",
"qXqXqXeXeXeXeXeXeXeXiXiXeXeXeXiXqXqXqXqXqXqX7X(.7X(.^.(.7X7XqXqXqXqXqXqX9XwXeXwXwXwX7X7X7X7X7X7X5X>X>X>X>X>X7X7X7X7X>X>X5X7X7X5X7X7X7X7X7X7X7X7X7XA.A.A.A.>X7X8X7X7X7X7X7X>X<X7X>X>X>X7X8XwXwXwXwXwX7X7X7X5X5X>X>X>X>X7X7X8X8X8X7XqXqX7X5X^.7X7X7X7X7X>XA.Z.B.z.B.z.z.l.l.l.z.N.V.V.:X:X>X<X>XZ.S.B.Z.Z.B.B.V.>X7X7X8X7X5X>X5X7X7X7X7X7X>XA.7X7X7X7X7X7X7X7X7X7X^.7X7XqXqXwXwXwXwX7X7X7X7X7X7XwX7X7X7XqX7X7X7X^.5X5X7X7XqX7X7XqXeXqXqXqXqX7XqXqXeXeXeXiXiXiXeXqXqXqX7X7X7XqXqXqXeXeXeXwXwXeXrXiXiXiXiXzXzXzXzXzXvXbXAXAXAXbXbXnXzXpXpXiXrXwX7X7XwX7X7X7X7X>X8X8X7X<X>X8X8XrX8X8X>X>X>X1X:XV.N.N.:X:XN.N.@X%X%X%X%X4X4X4X4X%X%X#X%X@X%X%X%X%X%XN.q.@X%X%X%X%X@Xq.w.8.w.x.x.N.:XN.x.x.x.x.%X%XN.x.q.q.@Xq.q.q.q.@Xq.q.@X@X%X@X%X@X@Xx.q.q.q.q.q.w.x.x.N.:X:X1X8X0X8X8X8X8X8X5X5X8X>X:X:XZ.A.A.A.A.7X>XA.A.S.A.A.>X7X7X7X7X5X^.^.5XZ.B.B.v.z.c.B.B.B.B.B.B.Z.A.A.A.qX5X^.^.7X7XqXqXqXqXqXeXwXqXwXwXwXqX7X5X7X7X5X5XA.A.S.Z.Z.S.A.A.Z.B.B.B.Z.Z.Z.Z.Z.Z.Z.Z.Z.Z.B.B.B.B.Z.Z.Z.Z.Z.Z.S.Z.Z.A.A.Z.Z.Z.Z.Z.Z.Z.Z.B.B.C.C.C.B.B.B.B.Z.Z.Z.S.A.A.Z.Z.Z.A.Z.B.B.Z.V.V.:XB.B.N.x.x.x.z.x.x.x.z.N.N.V.:X:X:Xx.x.x.x.x.z.:X>X>X>X>X>X<X<X>X>XV.V.V.V.x.x.8.8.e.e.w.0.6.0.2.2.2.0.w.w.@X%X,X1X<X8XwXpXvXbXbXvXvXnXnXzXqX5X7X8X>X>X:X2X3X3X3X3XuXLX3X3X%X%Xm.w.r.r.9.u.u.d.9.d.e.4.e.e.6.6.9.a.d.d.#Xp.p.a.6.3.6.0.2.9.9.9.0.9.9.w.w.w.q.p.m.m.m.p.0.w.0.0.0.0.p.0.w.q.p.w.w.w.q.w.w.w.e.w.e.w.e.e.e.e.w.e.2.2.",
"eXqXeXeXeXeXeXiXiXiXiXiXiXiXrXeXqXiXiXqXqXqXqXqX7X7X(.(.7X7XqXqXqXqXqXeX9X9XqXqXwXwXwX7X7X7XA.S.A.A.Z.Z.Z.S.A.A.>X>X7X7X7X7X7X7X8X7X7X7X7X7X7X7X7X7X>X7X<X>X>X7X7X7X8X8X8X8X7X>X7X7X8X8X8X8X8X8XwXwX7X7X>X>XA.V.V.:X>X>X<X7X7X7X7X7XA.A.A.A.A.A.A.Z.Z.Z.>X5X6X>X1X8XtXfXfXyXtXtXyXuXtX1X>X8XyXyX8X8X8X1X>X>X8X8X8X8X5X>X>X7X8X7X7X7X7X7XwXwXwXwXwX7X8XwXwXwXrXwXeXwXwXqXwXeXeXqXqXqXwXwXqX7X7X5X5X5X7X7X7X7XqXqX7X7XqXqXqXqXqXqXqXqX7XqXqXqXqXqXqXqXqXeXeXeXqXqXqX7X7X^.^.^.7X7X7X7XqXqXqXwXrXiXiXiXiXiXiXiXpXpXpXzXnXnXnXzXzXzXzXzXpXzXzXzXzXzXzXzXyXyX9XA.8X8X1X:XV.:XV.V.:XV.V.V.N.2X:X:X:X2X2X%XN.@X%X@X@X%X4X4X@X@X%X4X4X4X%Xq.q.w.w.w.q.w.w.q.w.q.w.e.w.w.w.x.x.q.%X%XN.N.%X2X2X2X3X3X2X%X@Xd.q.0.IX#Xq.q.@X%X%X%X%X%X@X@X@Xx.q.x.@X@X%X%X@X@X@X@X%X2X1X1X8X8X>X>X>X5X5X5X:X:X:XV.Z.Z.A.>XZ.Z.Z.S.A.A.A.A.5X7XeXrXeXqX7X5X7X^.A.S.B.B.B.B.c.z.c.B.B.C.Z.Z.C.C.^.^.^.7XqXeXiXiXiXiXiXeXrXiXwXqXqXwXwXqX7X5X5X5XA.A.A.A.A.Z.B.z.z.z.B.B.V.Z.Z.Z.Z.Z.Z.Z.V.V.V.V.V.Z.Z.A.A.5XA.A.A.5X7X7X5X5X5X5XA.S.Z.Z.C.C.S.S.S.S.A.A.A.5XA.5X5X5X5X5X>XA.A.Z.Z.Z.Z.A.A.Z.Z.>XV.V.V.V.V.B.N.N.N.z.z.z.z.x.x.x.8.x.x.x.x.x.N.x.x.N.:X:X,X:X>XV.v.V.>X:XN.x.w.w.q.6.6.@Xp.0.p.q.q.x.x.x.1XuX1X8X8XwXyXpXpXrXiXzXbXnXiXqX>XZ.>X:XN.2X4X=X4X3X4X4X9.6.0.2.r.r.4.y.a.&X&Xf.u.f.u.u.$X$X#Xd.d.d.#X#Xu.#Xa.0.9.6.2.9.6.6.2.5.2.2.2.6.w.w.0.w.s.0.0.q.0.0.p.a.p.m.p.0.w.w.w.2.w.2.e.e.w.w.2.e.e.e.e.e.e.e.2.e.2.2.",
"qXwXeXeXeXqXeXeXiXiXiXeXeXeXwXwXqXqXqXqXqXqXqX9X9XqXqXqXqXqXqXqXqX9XqXqXqX7X7X7X7X7X7X7X7X7XA.S.A.A.A.A.A.A.A.A.A.>X<X9X7X8X8X8X7X7X>X>X>XA.A.A.A.A.A.A.>X>X>X>XA.>X7X7X7X7X8X8X7X0XrXrX8X7X7X8X7X7X>XA.V.V.N.z.l.z.N.V.:X>X<X<X7XA.A.A.>XA.Z.B.z.z.z.B.:X<X<X>X>X:X:X:X:X:X:X1X1X1X1X1X8XtX8X<XtXtXtX1X8XtX8X>X6X8X8X8X<X<X<X>X7X7X7X7X8X8X8X7XwX8X8X8X8X8XwXrXwXrXrXrXwXwXiXzXiXiXrXwXqX7X7X7X7XA.A.A.A.^.5X7X7X7X7XqXqX7XqXqXwXqXqX9XwXwX9X9X9X9XeXeXwXwXqXqXwXqX7X7X(.^.7X7XqXqXwXeXrXrXyXpXiXiXiXiXiXiXiXiXiXiXeXwXeXiXiXiXpXyXyXzXzXzXzXzXyXyXdXvXrX>X<X>X:XV.V.N.N.x.x.x.x.x.x.8.8.8.8.7.7.w.q.q.m.@X@Xm.q.q.q.w.w.q.0.q.q.N.%X%X4X4X%X4X@Xq.q.q.q.d.@X@X@X@X@X@X%X%X%X4X4X,X@Xx.x.w.7.7.%X=X=X%X@X@Xw.q.w.@Xq.w.w.@X@X%X%X@Xp.q.p.q.0.9.q.q.q.q.q.q.N.:X:X:X>X>X>X>X:XV.:X:XZ.B.B.V.>X7X>X>X7X7X7X7XA.A.>X>X5X7X7XqXqXqX7X7X7X7X7X7X7X7XqX7X7X7X7X5X^.5X7X7XqXwXiXiXzXzXeXeXrXeXeXwX7X7X7X7X7X7X7X7X5X5X5X5X5X5X5X5X5XA.Z.B.B.z.v.B.B.Z.B.B.B.B.B.v.z.z.z.z.z.v.B.B.Z.Z.Z.S.A.>XA.A.A.A.A.A.A.Z.B.Z.C.B.C.C.Z.S.S.A.^.5XA.A.A.5X7XqXwXqX6X5X5X^.^.^.5XA.Z.Z.Z.Z.>X>X5X5X>X>X>X:XZ.V.V.v.z.x.%X%Xx.x.x.x.x.x.x.x.x.x.@Xm.x.x.x.x.x.x.x.x.x.x.x.x.x.@X%Xm.m.#X,X3X4X,X%X,X:XZ.Z.>X5X6XwXwXiXiXiXqXqX5X5X7XZ.x.8.8.w.w.0.5.w.4.0.#Xu.0.=X#X=X=X*X;X*Xh.f.h.u.p.#X*X#Xd.d.#X$X$Xd.0.0.p.9.0.0.9.w.6.6.w.w.9.0.w.w.2.2.2.5.5.w.w.w.w.0.0.2.2.0.9.w.w.w.9.6.w.e.w.w.w.e.e.e.6.e.2.6.e.2.e.e.e.",
"qXqXqXqXqXqXqXqXqXqXqXqXqXqXqXwXiXqXqXeXiXiXeXrX9X9X9X9XqXqXeXeX9X9XqXqXqXqXqXqX7X7X7X7X7X7XA.S.S.S.S.S.Z.Z.B.B.z.B.V.A.A.>X<X<X<X>X>X<X>XA.A.A.Z.B.z.l.z.Z.V.V.>XA.A.A.>X:XV.V.z.B.V.B.B.B.Z.A.>X<X<X>XV.V.N.l.l.N.V.S.>X>X<X>X>X>X<X>XV.V.V.Z.:XV.z.z.v.N.:X:XV.:X:X1X1X1X:X:X:X:X:X:X:X:X:X:X:Xx.7.7.x.N.:X:X1X1X1X>X:X:X<X8X8X8X8X8X8X8X8X8X7X7X7X7X7X7X8XwX8X8X8XwX8X7XA.>X7X7XqXqX7X7X7X7X7X7X7X7X7X7X5X7XA.A.^.^.^.A.^.(.7X7XqX7XqX7XqX7XqXwXeXeXwXqXwXeXqX7X7X7X7X7X7XqXeXeXeXeXwXwXrXrXpXpXpXpXiXiXiXiXiXiXiXeXiXiXiXrXrXwXrXrXrX8X7X7X7X<X>X<XZ.N.A.:XV.N.x.8.l.l.x.:Xx.x.:Xx.x.x.%X%XN.x.q.q.q.q.q.q.q.q.x.w.9.9.6.6.m.q.@X%X@Xq.q.q.q.w.q.q.9.0.9.w.q.m.4X3X=X%X%X@X@Xq.x.4X3X4X%X4Xq.9.q.q.@Xq.w.q.q.q.q.x.%X@Xm.m.@XN.x.@X#X#Xp.w.w.@X%X%X@Xx.x.x.N.:X>X>X:X:XV.B.z.l.l.l.l.v.V.Z.>XA.>X5X7X7X>XA.Z.B.B.C.A.7X7X7XA.A.A.>X>X7X7X7X5X5X5X^.A.A.^.5X^.^.5X7XqXqX7X(.7X7X7XwXrXyXyXwX7X7XwXrXwX7X5XA.A.A.A.A.A.5X5X5X>XA.A.A.A.Z.B.B.Z.Z.V.V.V.V.B.B.v.z.z.v.B.B.B.B.B.Z.A.:XA.A.A.A.5XA.A.A.S.Z.Z.B.B.B.B.B.C.Z.A.A.A.A.>XA.5X7X7XqXqXwXiXpXiXiXqX5XZ.Z.A.A.5X>X>X>X>XA.>X>X>XV.B.v.z.v.v.z.x.x.x.8.8.8.x.x.w.w.q.w.x.q.x.N.x.x.%X%Xx.x.x.@Xx.q.,X,X%Xq.%X4X,X2X2X1X1XV.B.>X6XqXqXqXqXqXqXqXqXqX^.A.>Xx.w.r.e.p.=X$X3XPX3Xs.=X#Xa.*Xf.d.*Xu.a.y.5.y.p.p.6.0.9.u.p.u.a.a.d.p.d.0.0.9.w.0.p.p.@Xp.p.p.0.6.w.2.9.5.5.2.w.2.e.2.6.9.6.w.w.2.w.w.2.6.4.2.2.w.w.w.w.w.6.6.6.e.w.w.2.2.w.2.",
"qXqXqXqX7X7X7X7XqXqXqX7X7X^.^.7XqXqXwXiXeXeXiXhXiXzXzXeX9XeXeXwXwXqXqXqXqXqXqXwXwXeXwXqX7X7X7XA.A.A.A.>X7X7XS.B.l.l.l.B.S.>X1X<X8X8X8X8X8X8X8X<XA.Z.z.z.l.l.z.N.Z.:X>X>XV.V.:X:X>X:X:XV.V.A.A.V.A.A.A.A.7X7X7X7X7X<X7X7X8X7X7X>XA.>X>XZ.V.Z.B.z.N.V.V.V.N.N.B.V.N.x.N.V.:X:XV.N.N.N.:X:X1X1X2X2X,X%Xx.8.8.x.x.N.%X:X2X8X1X1X1X<X1X1X<X>X:XV.V.V.:X:X:XV.z.l.z.N.N.N.N.l.z.V.N.:X>X7XwX>X>X>XA.>X>X5X>X5X7X7X(.7X7X7X7X7X5X7X7X5X7X7X9X8XwX7X7X9X7X8XwXwXeXeXeXwXwX7X7X7X7X7XqXqXqXeXeX9XqXwXeXeXiXiXiXiXpXpXzXvXvXnXpXpXnXpXpXrXwXeXrXrXwX7X>X>X1XA.>X>XV.z.l.l.z.z.x.N.:X>X1X>X:X:X2X2X%Xx.q.q.@Xw.w.q.q.q.IXq.q.q.@Xq.0.d.f.0.@X%X%X@Xx.q.q.x.q.IX@X@X@X%X%X@Xq.%X@Xw.w.q.q.@X@X%X@X@Xm.q.q.w.w.w.%X@Xq.x.q.x.q.@X%X%Xx.w.@X%X%X@X@Xm.@X@X%X%Xm.q.x.%X@Xx.x.N.N.N.V.:X>X>X>X<X>X:XV.B.V.:X>X:X7X>X7X8XwX8X8X8X8X7X7X>X>XA.>X>X>X>X>X:XV.V.A.>X>X>X5XA.A.^.5XqX7X7X7X7X5X7XqX7X7X<X<X>XV.B.z.v.B.B.B.Z.Z.A.A.Z.A.A.>X>X5X^.5X7X5XA.>X7X7XA.Z.Z.B.v.v.Z.B.z.l.l.z.N.V.V.%X:X:X:XV.V.Z.V.B.B.B.B.Z.Z.Z.Z.Z.A.A.A.A.A.A.Z.Z.Z.A.A.A.A.A.A.5X>X5X5X7XwXiXwX6X6X6X5X>X>X5X>XA.A.A.S.Z.Z.Z.A.>X>XA.A.V.B.N.N.N.%X%XN.x.x.x.8.w.w.q.q.w.q.8.w.x.x.x.m.x.x.x.8.8.8.8.8.m.%X,Xq.q.w.x.@X2X:X>X>X7X8XqX7XwXiXiXqXiX^.5X5X%X%Xe.e.=X=X#X#Xa.$X#Xa.p.p.a.p.y.3.u.y.9.5.u.$Xa.0.s.9.u.0.6.6.0.0.0.0.0.s.p.0.w.w.w.0.0.0.w.w.0.p.p.w.0.w.w.w.w.6.w.w.6.2.2.e.e.2.w.w.e.2.2.e.e.2.2.2.2.w.w.6.w.w.0.w.0.0.0.6.",
"qXqXqXqXqX7X7XqXqXqXqXqXqXqXqXqXqXwXiXiXiXiXiXeXeXeXrXrXeXeXeXwXwXwXqXqXqX7X7X7X7XqXqX7X7X7X7X7X5X5X5X7X7X7X>XA.B.z.z.Z.V.V.>XV.:X:X:X<X1X1X1X1X8X7X<X8X0X0X8X<X>XZ.B.B.V.>X:XN.z.N.:X<X>X>X7X8X7X8X8XwXwXwXwXwXrXrXrXwX7XA.A.A.A.A.A.>X<X>X:XV.V.V.V.V.V.V.V.:X:XN.x.z.v.V.V.V.v.z.x.l.x.x.x.w.x.%X4X2X4X2X2X2X2X2X1X1Xx.8.7.8.x.l.z.N.z.z.N.:X1X1X1X1X1X>X>X:X:XN.:X:XV.:X>X:X5X>X>X7X7X7XyX<X8X7X7X7X7X7X7X7X7X7X7X7X7X7X7X7X7X9X7X7X9X7X9X7X7X8XwXqXqXeXeXeXwXwXwXwXrXwXqXqX7XqXqX7X7X7XqX7X7XwXrXrXrXyXiXrXpXpXpXpXpXpXrXrXyXrXrXrXwX8X8X0X8X8X8X<X8X8X>XV.:XV.V.>X1X1X1XN.:XN.N.N.N.N.@X@X%X@X@X%X%X%X%X@X@X@X%X%X%X%Xd.9.6.6.q.@X%X@Xq.x.q.N.%X4X4X4X4X%X%X@X@X4X4X%X@Xq.x.q.w.7.w.q.@X%X%X4X@X%XN.%X2X2X2X2X%XN.@X%X%X%X%Xx.x.x.x.x.q.w.w.w.q.q.w.q.N.N.x.x.:X1X1X>XV.V.:X:X:X>X>X<X>X:XA.7X8X7X7X7X7X7X7X>XA.A.>X>X>XA.A.V.V.V.B.B.B.V.V.Z.>X>X5X5X7X7X7X7X7X5X5X5X5XA.>X:X:XV.N.N.V.:XA.Z.v.v.B.V.V.V.:X>X7X>X>X7X7X>XA.A.A.A.A.A.A.A.A.Z.B.B.B.z.x.z.x.x.8.7.8.x.N.%X:X:X>XV.B.B.Z.Z.Z.Z.Z.Z.Z.Z.Z.A.>X7X7X5XA.B.v.v.v.B.Z.A.5XA.A.>X>X5XwXwXrXrXwXwX5X5X5X5X5X5X5X>X>X>XZ.B.z.B.B.B.z.z.z.z.B.V.V.N.x.x.x.x.x.w.w.q.x.x.x.N.2X3X2Xx.x.m.,X,X>X,X,X%Xx.q.x.x.%X4X4X2X:XN.:X8XyXzXzXzXiXiXiXqXqXqXwX6X1X%Xr.e.9.y.p.a.a.a.s.9.3.9.9.9.9.s.6.6.y.2.4.6.0.6.0.6.9.9.9.0.0.0.0.0.w.6.9.w.0.q.0.0.w.w.w.q.0.0.q.w.q.0.w.6.w.w.q.q.0.p.@X@Xq.w.w.w.w.w.w.w.w.0.0.0.0.6.w.w.w.w.w.w.w.w.w.w.",
"iXiXeXqXqXqX7X7XqXqXqXqXeXeXeXeXqXqXqXeXeXeXeXqXeXeXrXrXrXrXeXeXeXeXeXwXwXqX7X7X^.(.7XA.7X7X7X7X7X7X7XwXwXeX7X7X7X7X7XA.N.l.l.8.l.z.V.>X>X>X8X8X8X8X>X<X<X<X<X7X7X7X7X7X>X>X>X>X8X1X>X<X7X7X7X7X7X8X8X7X7X7X7X7X>XA.A.A.A.Z.Z.Z.Z.B.B.B.l.l.l.z.V.V.V.:X:X>X>X<X:X:X:XV.:X:XV.B.x.7.7.7.8.8.8.w.@X@X@Xx.x.x.%X2X2X2X2X%Xx.8.8.x.x.l.l.8.l.z.:X1X1X1X1X8X8XtXyXyX1X:X<X0X8X<X<XA.>X7XA.A.7X7X9X0X8X8X7X>X>X>X>X7XA.A.7X7X7X7X8X8X7X7X7X7X7X7X9X9X7X7X7X7XqXqXqXwXqXwXeXrXrXrXeXqX7X7XqXqXqXqXqXqXqXqX7X7X7X7X7X7X7XwXeXwX8X7X0XrXrX0X8X8X8X8X8X1X1X1X8X8XtX1X>X8X8X<X8XtX8X>X1X>XB.N.N.V.:X2X1X3X,X4X4X4X%Xx.x.x.@X,X,X4X4X%X#X$X=X@Xq.@X%X4X4X4X4X4X4X4X%X%Xx.w.e.w.w.q.@X@Xq.@X@Xx.@X%X%X%X4X%Xx.@X4X4X4X3X2X1X2X1X4X%X@X@X@X@Xx.@X%X%X%X@X%X@X4X%X%X%X%X%X,X:X1X>X>X>X>X>X<X8X7X>X>XA.V.A.>X>X>X7X7X8XwXrXrXwX7X7X5X>X>XA.Z.B.z.z.z.z.z.N.V.:X:X:XV.:X:X>X<X<X>X7X7X5X5X5X>XV.B.z.l.z.z.z.l.7.7.7.7.7.8.l.x.l.z.x.z.V.V.V.Z.>X5X7X5X7X7X5X5XA.>XA.Z.Z.V.V.:X:X%XN.x.x.%X%Xx.x.x.x.x.x.V.:XV.V.V.B.B.v.z.z.z.B.Z.A.Z.Z.Z.V.V.B.v.v.v.v.B.Z.Z.A.>X>X>X>X7X7X>X5X6X6X8X6X5X>X>X>X>X>X>X:X>X>XV.v.B.v.v.v.z.z.z.v.v.v.V.%XN.x.m.%X%X%X2X,Xx.x.%X,X,X1X2X%Xm.x.x.x.x.x.x.x.@X@Xx.%XtX:Xz.z.Z.7XeXeXeXiXiXqXqX5X5X>X,Xx.r.e.p.3.9.s.0.0.9.6.2.6.9.9.4.0.2.9.2.4.3.0.6.2.9.6.9.9.6.0.p.0.0.s.s.s.0.w.0.w.w.w.0.q.0.0.q.q.m.q.q.0.q.0.w.0.0.w.6.0.q.0.q.w.6.6.w.w.w.w.6.6.w.w.w.w.w.w.w.2.w.6.w.w.w.6.",
"eXeXeXqXeXeXeXeXqXqXqXeXiXiXeXeXiXiXeXqXqXqXqXeX7XeXrXeXeXiXpXpXrXeXwXwXwXwXqXqXqXqX7X7X7X7X9XwXwXwXwXwXeXeXwX7XA.S.Z.B.l.l.N.N.V.V.V.>X1X1X8X>X>X<X8X<X<X<X7X8X5X7X8X8X7X7X8XrX8X0XrX8X7X7X7X7X5X5X>X>X>X>XA.A.A.S.Z.Z.A.A.>X>X>X>X>X>XV.N.V.>X>X:X:X:X:XV.:X:X>X>XV.V.V.A.>XV.V.x.x.x.q.q.x.x.q.w.e.e.7.7.w.x.:X2X2X1X1X2X2X1X1X1X>X>X>X1X1X1X1X>X:XV.z.N.:X1X8X0XyXdXyXyXtX0X>X>XA.A.>X7XV.V.A.>X5X<X7X<X<X7X7X7X8X8X7X7X7X>X5X7X7X7X9X9X9X7X7X7XwXwXwXeXeXwXwXeXrXrXiXiXiXrXrXrXeXqXqXqXqXqXwXqX7X7X9XwX9X7X8XwXwX8X<X>X7X8XtX8X8X1X>X:X:X:X:X1X:X:X1XtX8X8X8X:X>X8X>X:X>XV.:XN.x.8.7.8.%X%X2X2X,X%X2X4X2X4X%X%X%X%X%X%X%X4X=X=X=X4X%X@X@Xq.w.q.@X%Xx.w.w.w.q.q.w.w.@Xd.q.q.q.q.@X@Xq.@X%X%X%X4X4X%X@Xx.q.w.q.q.w.w.w.w.e.e.7.w.q.w.w.w.q.x.x.N.N.N.N.,X1X0X8X8X8X1X>XV.B.V.Z.Z.A.A.A.A.>X>X>XA.S.A.A.A.A.A.A.A.A.A.A.Z.Z.B.B.N.v.V.:X:X:XN.N.%X:X1X1X2X:X:X1X1X<X>X>X6X<X<X1X1X>X:X:X>X:X:Xx.x.x.x.N.x.x.x.x.N.N.N.N.B.V.V.Z.A.>X>X5X7X5XA.A.A.:XV.V.V.N.N.@Xx.8.8.x.N.:X%X%Xx.x.8.l.N.:X>X>X:XZ.Z.B.z.z.B.v.B.B.V.V.V.V.V.B.Z.Z.>XA.Z.B.B.B.B.N.N.N.z.N.V.V.:X,X,X%XN.:X2X:X:X%X:X:Xv.V.>XB.B.v.v.v.v.B.V.V.v.v.v.z.x.x.x.%Xx.x.%Xx.x.x.x.%X,X2X2X1X2X%Xx.x.x.%X2X%X:XN.N.>X>X8XtXwX8XwXqXiXqXqXqX5X^.>X>X%Xq.r.e.5.p.9.s.0.0.0.0.0.9.0.6.9.4.4.2.4.6.y.6.9.2.9.9.0.9.9.w.0.p.a.s.0.0.w.w.w.q.m.p.p.p.m.@X@X0.q.p.p.m.p.w.w.0.0.w.6.w.0.0.p.w.w.w.w.w.w.w.w.w.w.w.w.2.2.e.2.4.w.w.2.e.2.e.",
"qXqXqXqXqXqXqXqXqXqXqXeXiXiXeXeXeXiXiXeXqXqXqXqXqXwXwXwXwXrXrXeXrXwXqX7X7X7X7X7X7X7X7X7X7X7X8X8XrXrXwXwXqXqX7X7X7XS.Z.Z.B.B.B.N.z.l.l.z.v.V.:X:X:X:X>X7X8X8X8X7X7X7X>XA.Z.Z.Z.V.8X8X7X8X8X8X7X>X8X8X8X8X8X7X7X5X>X7X7X7X7X7X8X0X8X8X<X>X:X:X>X>X1X<X<X1X>X:XA.>XA.A.A.A.Z.Z.V.V.N.N.N.x.w.w.w.w.e.7.w.q.x.x.x.N.N.%X,X2X3X3X2X1X1X1X1X1X1X1X1X1X:X:XN.l.7.8.z.V.:XV.:X1X:X1X1X<X>XV.A.A.z.N.z.N.V.V.B.V.:X<X>X:X>X>X<X7X1X8X8X>X7X7X7X>X7X8XrXrX7X7X7X7X7X7X7XqXwXwXeXeXwXwXwXwXeXrXiXrXrXrXpXzXiXiXrXrXdXzXdXyXyXrX8X<XV.N.z.z.N.N.:X:X:XN.l.8.N.%X2X8X1X1XuX8X8X8X8X1X>X1X1X1X1X2X2X2X2X1X1X4X%X%X%X%X2X3X2X%X2X1X1X1X%Xx.@X,X=XIXIX=X=X@Xq.w.q.q.x.x.m.m.@X%X@Xq.IX=X4X%X@X@X@XIX%X%Xq.@X@X@Xq.x.w.w.e.w.x.q.q.x.x.q.w.w.w.q.q.q.q.w.q.q.@X@Xx.x.x.x.z.N.1X1X1X<X>X>X>X>X>X>XA.A.Z.Z.A.A.>X7X7X>X5X5X5XA.A.5X5XA.Z.Z.B.B.v.z.z.l.l.8.8.8.8.8.8.7.8.8.8.8.w.q.w.x.x.%X%X%X%Xx.:X:X:X:X:X1X<X:X,X%X%X:X%X:X:X%XN.N.N.x.z.N.:X>X:X:X:XA.>X>X>X>XZ.Z.Z.V.V.V.N.x.7.7.7.7.8.w.w.q.@X%X:X:X:X%X%XV.:XV.Z.:XZ.B.z.z.V.v.z.l.z.x.N.V.V.B.V.>XZ.Z.Z.V.B.V.V.V.N.z.v.N.x.x.x.x.w.w.w.q.m.w.e.8.m.,X,X:X>X>X>XA.Z.B.V.V.V.:X:X:X>X>X>XV.v.%X%Xx.x.N.x.N.%Xx.z.x.x.%Xx.x.x.:X,X:X1X1XN.:X:X<XwXyXrXwXwXqXqXqXqX5X5X5X6X,Xx.r.r.5.s.m.9.s.0.0.w.0.0.0.0.9.0.0.p.0.9.9.9.0.6.2.9.9.0.9.6.9.w.0.0.w.9.9.9.w.w.w.w.w.q.0.w.6.q.w.q.p.0.0.w.6.6.w.0.0.w.w.0.p.0.0.0.0.0.0.p.0.w.6.w.w.w.w.w.w.w.6.w.w.w.2.2.2.",
"qXqXqXqXqX7XqXqXeXqXqXqXeXeXeXeXwXqXqXqXwXqXqX7XZ.B.B.^.wXwXwXeXrXwXwXqX7X7X7X7X7X7X7X7X7X7X8X8XwXwXwX7X7XqXqX7X7X7X5X8X>X<X>X:X>X>X<X>XV.B.V.V.:X:X>X>X5X8X8X8X8X8X7X>XA.V.>X1X<X>X<X8X8X>X<X0X7X8X7X7X>XA.>X7X7X7X7X7X7X>X>X1X8X7X>XV.V.V.V.V.V.V.V.:X:XV.V.A.>X>XA.A.Z.Z.:X>X>X:X:X:X:XN.N.N.x.x.N.@X@Xx.x.x.x.x.q.w.8.q.x.N.:X1X8XtX1X>X:X:XV.N.:X:X:XN.N.z.:X2X1X1XN.N.2XtX1X0X<X<X:XV.:X1X:X:X>X:X:X:X:X1XV.V.:XV.:X>X<X>XA.A.A.A.7X7X8X8X7X7X7X7X7X7X7X7XqXqXqXqX7X7X7X7X^.7XqXwXwXrXrXiXzXzXrXrXrXyXyXyXrX8X8X>XV.N.z.l.z.x.x.N.N.N.%X%X2X%X%X2X2Xx.x.x.x.x.%X:X2X2X2X%X%X:Xx.q.w.w.q.q.N.N.N.x.N.%X4X3XtX2X%X:X%Xx.x.q.w.d.@Xq.q.@X#Xq.w.q.x.%X2X2X%X@X@X@X=X=X@Xq.q.q.q.q.IX@Xq.@X@X@X@X%XN.%X@X%X4X@Xq.w.q.q.q.q.w.0.q.w.w.w.q.q.@Xx.w.e.8.x.N.:X1X8XyXyXyXyXyXrX8X7X7X7X7X7X7X>X>X>XA.>X>X>X5X7X7X5X5X5X>X>X>X>X>X>Xv.z.z.z.x.x.w.w.q.w.w.w.q.w.w.w.w.w.w.w.w.w.7.e.e.7.7.7.8.8.x.%X%X%X%X@XN.N.:X:XN.N.:X:XN.l.8.l.V.V.V.Z.V.Z.Z.B.z.z.z.z.B.N.z.8.x.8.x.x.x.x.q.x.x.@X%X,X,X:X:X>X:X:XV.V.V.V.B.B.V.V.V.:X:X,X%X%X:X:X,X>X,X:X%Xx.:X:X%X%X%X%X%Xm.w.w.w.w.0.q.d.d.d.@X@Xm.x.x.m.m.V.B.B.z.z.B.V.:X:X:X:X:X>X5X>Xv.:X,XV.N.:X1X1XuX1X>Xx.l.x.x.,X<X:XV.:XV.V.>X8X<X>X:X>X>X>X7X7X5XqXqXqXqX5X5X8X1Xr.r.2.0.s.w.p.s.9.9.9.0.0.0.0.9.9.6.9.2.u.u.6.2.2.2.9.9.9.2.6.9.w.w.6.9.0.w.9.0.w.w.q.w.0.6.w.w.w.0.q.q.6.2.6.0.6.w.w.0.w.w.w.w.w.w.0.0.0.0.p.0.0.p.p.p.s.0.p.0.0.9.w.e.w.w.w.w.",
"5X7X7X7X7XwXeXrXeXwXqXqX9X9X9X9XeXwXqXqXqXwXwXqXwX7X7XwXrXwXwXwXrXrXrXwX8X8X8X8X>X>X5X5X7X5X>X>X5X7X7XqXwXwXwXwXwXwX8X8X7X7XyXyX8X8X5X7X5X>X:XB.B.Z.A.>X>X7X7X8X8X<X>XV.V.N.z.x.l.l.l.V.1X1X8X8X0XrXwX7X>X>X7X8XwX8X7X7X8X>X:XV.V.V.>X>X>X>X>X>XA.Z.Z.A.A.V.V.>XA.>X>X7X>X:X:X:X:X:X:X:XN.N.x.8.7.8.8.w.q.x.x.N.x.x.x.N.:X:X2X1X1XtXtXtX1X1X>X>X1X:X:X:X:X:X:X:X%X2X@X@X@XIX%X@X%X2X%X%X1X2X,X:X:XN.x.N.:X:XV.z.:X:X:X:XV.V.:XV.B.Z.Z.V.A.A.A.>X>X>XA.A.A.>X>X>X8X8X8X8XwXwX8X8XrXrXyXyXyXyXrXrXiXiXrXrXrX8X7X>X>X>X1X1X1X1X1X2X%X:X@XN.N.q.x.x.@X%X@Xx.x.N.,X,X,X,X%Xx.w.w.w.N.%X%X@Xw.7.w.q.@X,X%X4X4X2X3X1X1X3X1X2X%XN.x.8.q.IX0.w.w.w.9.w.p.q.@X%X%X%X%X%X%X4X=X#Xq.N.@X@X@X@X@X@X@X@Xq.q.w.q.w.@Xx.@X@Xq.q.w.w.q.q.m.p.w.w.w.9.6.w.0.9.w.w.e.w.x.N.N.:X1X>X0XtXrXrXrXyXrXrX8X7X7X>X>X>X7X7X8X8X7X7XwXrXwX7X7X7X8X7X>X>X>X>X6X>X:XV.N.N.@X@Xp.q.w.w.w.w.w.w.9.9.9.w.0.q.0.0.@Xq.q.q.x.x.q.8.w.w.w.w.q.x.x.N.:X:X:XN.z.z.z.l.z.N.V.:X>X>X>X>XA.A.Z.Z.Z.V.z.l.7.8.8.x.x.x.q.w.q.q.x.x.%X%X%X:XV.V.N.z.v.B.V.:X:XV.x.x.x.x.x.x.e.e.e.e.e.e.q.q.q.q.w.w.w.p.%Xp.0.9.6.0.d.d.d.@X@X@X@X@Xx.x.x.m.x.x.q.w.8.8.x.x.x.x.x.x.x.m.%X:Xv.V.>X:X:Xv.x.V.v.V.:XV.V.:X>X1X:XV.v.z.V.:X:X>X>X>X5X8X7XwXpXpXiXiXqX6X5XV.1X,Xe.2.9.9.9.y.5.0.9.9.0.u.0.9.9.6.9.6.9.9.2.2.9.6.6.6.9.9.9.6.9.0.9.0.w.9.9.4.4.w.0.9.w.w.s.0.s.0.0.0.w.w.6.6.6.0.w.w.0.0.w.w.w.0.0.0.0.0.0.0.0.w.w.w.w.0.0.0.p.p.0.w.w.w.p.0.0.0.",
"wXeXeXwXwXqXwXrXeXeXeXeXrXeXeX9XwXeXeXqXqX7X7X7X5X7X7X7X5X5X7XwXwXwXwXwXwXwXwXrXrXwX7X7X7X5X5X>XA.7XwXeXeXwXwXwXwXqXrXrXrX8XpXrXrX8X8X7X7X7X8X>X>XA.Z.Z.A.A.A.A.V.:X:XV.N.l.8.7.7.8.8.8.8.x.:X>X>X7X7X7X>X>X>X5X7X7X8XwXtXtX8X8X8X<X>X>X1X1X1X<XV.B.N.V.Z.Z.V.>X<X>X>X>X>X:X:X>X>X:X:X:XN.l.8.8.x.N.:X%X@XN.:X1X8X2X:X:XN.z.x.8.8.l.N.:X:X:X:XV.:X:X:X2X:X:X:X%X%X@X@X@Xd.0.3XIX@Xq.%X@X%X%X4X2X@Xx.8.8.x.N.:X2X:X2X1X1X2X:X2X:X1X>X>X<X>X:X>X<X1X<X<X<X<X<X<X<X7X>X5X7X8XrXrXrXrXrXrXrXrXrXyXyXpXyXwX8X8X8X8X8X>X>X1X:X:X:X:X%X%X@X@X@X%X%X%X%X%X4X@X%X4X4X3X3X4X4X,X2X4X,X%X2X%X%X4X4X%X%X4X4X%X@X@Xq.w.w.q.x.3X3X3X2X2Xx.7.e.w.IXIXq.q.@X@Xp.m.@X@X@X%X4X2X2X%X0.q.@X@X%X%X%X%X@Xq.q.w.e.6.w.q.@Xq.@Xw.e.e.7.w.w.q.q.q.@X@X@X@Xp.w.9.0.9.w.q.q.q.N.2X2X1X>X:X>X>X>X7X7X8XrXrX8X7X7X7X7X>XA.>XA.Z.Z.Z.A.A.5X7X5XA.Z.B.B.Z.:X>X>XV.V.N.x.x.q.q.w.w.w.w.q.q.x.m.0.0.0.0.s.q.p.p.@Xp.0.q.q.q.@X@X@Xx.q.q.x.x.x.8.x.x.N.N.:XN.N.N.x.z.x.V.:XV.:X>X>X>X>X>X>X>XA.:XV.N.z.x.x.x.w.8.8.8.8.8.8.x.x.x.z.N.V.V.:X>X>X>X:Xx.x.8.7.e.e.7.6.2.6.6.2.6.9.3.w.9.9.5.4.3.p.5.6.2.4.6.9.9.6.w.w.7.7.8.w.8.8.x.x.x.x.x.x.x.x.x.x.x.x.x.x.x.x.v.V.Z.5X>X>X>XwX8X6XB.l.8.l.z.V.V.:XB.V.B.z.z.V.8X8X>X5X8XwXwXwXwXwX8X7X5X6X:Xx.r.UXr.0.9.y.y.9.s.0.u.0.0.0.9.0.0.0.0.9.0.6.9.0.0.9.9.9.6.9.6.9.6.2.9.w.2.9.9.6.w.9.6.9.2.0.9.0.0.6.w.w.0.0.w.w.w.0.w.w.w.6.9.w.w.w.w.w.w.0.p.p.0.0.w.6.w.w.w.w.w.w.9.w.2.w.2.2.6.",
"7X7XqXwXeXeXeXeXwXwXwXwXwXwXwXwXeXeXwXwXwX7X7X7X5XA.S.S.S.S.A.7XwXwXwXwXwXrXrXzXrXwX8X7X8X7X7X7X7X7XqXwXwXqXqXqXwXwXwXqXwXwXwX8XwXwX8X8X8X7X7X7X5X7X7X7X7X7X7X>X>X<X>X>X1X1X>X1X:X:X:X:X:X:X:XV.Z.A.A.>X>XA.>X>XA.>X7X7X8X8X8X8X<XN.l.z.V.>X<X7X8X7X>XZ.B.N.N.N.V.:X:X:X>X>X>X>X<X1X1X<X1X1X1X1X8X1X:X:X1X1X1X1X:X:X:XN.l.l.z.N.N.V.V.V.B.V.N.z.x.N.N.x.%X2X:Xx.7.9.@Xd.d.f.d.d.d.$Xx.@X@Xx.@X@Xx.x.x.w.x.N.2X2X2X2X2X:X1X1X1X8X1X1X1X:X:XV.V.>X1X1X>X<X1X1X8X<X8X>X:X>X>X:X:XV.:X>X>X8X8X0X0XtXwX8X8X1X1X>XN.l.N.x.x.x.x.x.x.x.N.x.%X%X4X3X3X4X%X@X0.w.@X%X%Xx.w.%X3X%X3X2X3X1X,X%X@X%Xx.w.x.N.@X0.q.q.q.q.w.q.@X3XgXgXuX2X%X%XN.@X@X#X$X%X@Xq.%X%X4X%X4X%Xx.q.w.w.w.w.w.w.@X@Xm.w.w.e.w.@Xq.@Xq.q.@X0.q.q.x.w.w.q.q.w.q.q.w.w.p.6.6.9.0.0.q.w.w.x.x.:X1X1X1X8X8X8X>X>X>X>X>X7X7X7X8X8X8XwX8X8X7X5X5XA.Z.B.B.B.S.A.>XA.Z.B.z.z.z.N.B.V.N.q.7.e.7.7.w.q.@X@X%X%X$X@Xd.q.0.q.q.w.e.r.r.e.e.6.6.e.w.q.x.q.w.x.N.%X%XN.x.l.l.z.l.7.8.x.x.8.x.N.V.:X>X>XA.A.>X>XA.>X:XV.N.N.N.x.z.x.x.x.x.x.x.x.x.x.N.z.x.x.v.v.N.V.:XV.x.x.w.q.x.q.0.6.5.6.9.p.9.9.u.p.2.2.2.2.y.3.y.s.$X$Xp.w.q.x.@Xx.x.x.z.z.z.z.x.z.v.>X>X>X>XV.>X:X>X>X5X5X>X>X6X6X6X>X>XB.>X5XyXrX6X8X5X>X5X5X7X7XwX8X8XyXwX8XyXyXyXyXrXwXwXwX>X5X>X<X:Xx.r.r.w.s.d.p.p.9.3.6.9.9.0.p.p.p.w.9.9.s.s.2.w.9.w.6.6.2.9.9.0.9.u.u.9.9.4.e.6.6.9.2.9.9.w.9.w.0.w.9.0.w.p.0.0.0.w.0.0.0.0.w.9.6.w.9.6.w.2.2.2.2.2.2.w.w.2.2.2.w.w.w.w.6.w.w.2.2.w.w.",
"wXwXwXrXrXiXiXrXrXrXiXiXpXzXzXzXpXpXiXiXrXeXqXwXwX7X5X5X5XA.5X7XwXrXrXrX8X7X>XA.7X7X8X8X7X7X7X8X7X7XqXwXwXwXqXwXwXwXwXwXwXrXrXrXrXwXwXwXrXwXwX7X7X7X7X7X7X7X7X9X8X8X8X7X8X1X<X1X1X1X1X1X1X1X>X:XV.S.A.>X7X>X>X>XB.Z.Z.B.l.8.1.1.1.7.l.V.<X8X8X0XyXyXrX0X9X8X9X<X>X>X>X>X:X>X>X8X>X1X8X8X8X8X0X0X8XtXtX8X8X1X1X1X8X1X:Xz.l.z.V.>X<X>X:X:XV.V.V.N.z.N.:X:X@Xw.w.x.w.9.d.d.=X=X$X$X4X%X%X%X%X%Xq.w.@Xq.q.@Xx.8.7.w.x.@Xw.x.x.:X,X1X1X2X1X1X:X:X:Xz.N.N.N.:X1X:X:X:XV.V.V.>X>XV.:X:X>X>X:X1X8X1X>X>X1X1X2XN.8.7.7.7.e.7.7.w.w.w.q.w.q.q.@X@Xq.q.@Xd.p.@Xp.0.w.w.m.%X3X3X2X3XuXuX3X3X2X%Xx.N.%X1X3X4X@X4X@X@XN.#XN.q.@X@X3XgX3X3X3X2X4X#X#X@X@Xq.#X%X@Xm.q.7.w.w.q.@X%X%Xm.@Xq.q.x.@Xq.q.@X@X%X%Xq.q.q.m.p.p.w.q.@X@X@X4X%X@X@X@Xq.q.w.s.a.0.w.6.w.e.q.q.w.x.N.:X%X1X1X1X>X:XV.V.>X>X7X7X8XwXwXwX8X8XA.>X>X>X>X>X5X5X7X7X5X5X5X>XA.Z.v.z.z.z.l.7.7.7.q.x.q.q.x.@Xm.x.q.w.7.w.w.w.q.q.q.q.q.q.0.9.6.0.w.w.w.q.@X@X@XN.@X%X2X3X1X,X2X1X2X2X2X2X2X>X>X>X>X5X8X7X5X5X5X5X>XV.V.:X:X:X:X:X%Xx.x.x.x.x.x.v.v.z.x.x.z.l.l.l.x.l.8.8.x.x.x.q.w.6.0.9.9.0.9.9.0.y.9.9.5.3.y.9.u.0.s.m.@X@X%X%X,X,X>X<X8XtXyXpXyXyXyXpXyXpXpXpXpXxXnXpXwXwXwXwXwXwXwX8XzXyXrXwX>X5XwX5XwXzXzXbXAXFXFXAXzXyXyXyXyXwXwX8XyXpXyXwX1X>X1X%X%Xe.r.2.9.4.3.6.3.9.p.y.u.9.9.6.2.6.0.p.s.9.9.0.0.0.0.6.9.9.s.9.9.9.0.6.9.0.9.9.0.9.9.2.9.6.6.2.w.w.w.6.w.2.9.2.2.w.2.w.4.9.9.w.0.0.0.9.w.w.9.6.2.w.6.w.w.w.e.w.9.w.w.w.0.w.w.w.6.w.0.w.",
"7X7X8XwXrXrXrXrXwXwXwXwXwXwXwXwXeXiXpXpXzXiXwX7X5X^.5X5X5X5X7XqX7X7XA.A.>X7X8X8X7X7XwXwXwX7X7X7X7X7X7XqXqXwXwXwXeXeXeXwXeXrXrXrXeXiXpXiXrXeXrXrXrXeXwXwX7X7X7X7X7X7X7X7X7X5XA.>X7X7X7X7X7X7X>XA.A.A.A.A.A.A.A.A.Z.B.z.l.l.z.B.V.V.:X<X8X7X8X8XrXrXrX8X7X7X<X>XA.:XN.z.z.v.N.v.B.>X<X8X8X8X8X8X8X8X8X8X8X8X0X8X<XA.>X<X<X7X1X8X<X>X:X>X>X:XV.N.x.x.x.N.:X@Xx.q.@Xq.w.q.IXPXPXPXPX3X%X2X%X%X%Xx.x.x.@X@X@X@X4X4XN.w.w.e.8.7.7.m.,X2X2X2X,X:Xx.x.x.8.8.8.8.8.8.8.8.z.N.:XN.:X2X1X2X2X:Xx.x.x.8.8.x.N.x.q.w.e.e.e.w.@X#Xp.q.0.6.6.0.0.0.p.p.p.d.@Xd.d.0.p.#X0.p.d.@X@X%X,X@X@X@X%X@X%X%X@X@X,X3X3X%X%X%X%Xq.w.q.x.x.q.N.w.q.4X3X4X1X%X%X4XN.e.w.e.x.@X@X@X@X%X@X@X%X%X%X@Xm.q.x.q.N.%X@X@X@X%X@X@X%X%Xm.q.m.#X@X@Xq.q.@Xq.q.@X@Xx.q.0.0.0.w.m.@Xm.@Xm.q.x.x.x.x.8.x.N.V.V.V.V.:X>X7X>X7X7X7X7X7X7X5X8X8X7X7X7X7X7X5X>X5X7X8XwX8X>XZ.Z.Z.B.N.N.x.N.N.8.x.N.%X:X:X%Xx.x.8.8.q.x.N.@X@XN.%Xm.x.m.#Xp.0.s.a.d.p.0.w.w.w.q.w.e.e.2.q.q.x.q.x.@X:X,X2X2X1X8X8X6X5X5X5X5X6X5X>X:X:X:X:X:XV.:XV.V.:X:X:XV.v.v.v.v.z.z.v.B.B.v.z.z.x.x.x.x.x.x.x.m.x.x.x.x.x.w.w.w.0.0.s.m.#Xu.6.2.6.x.m.%X,X>X6XwXrXyXyXzXzXAXAXAXAXvXvXbXbXbXAXvXzXpXrXyXyX8X>X5X>X8XtXzXpXxXpXAXAXzXxXxXxXvXxXAXAXZXDXxXZXpXtX8X,X1X8X1X1X2X:X%Xm.e.r.r.9.9.6.6.4.4.4.4.3.4.3.9.6.3.6.9.0.w.0.0.p.p.9.6.p.2.9.u.9.9.9.u.0.s.a.p.a.s.y.0.6.2.2.5.2.2.9.w.9.9.2.9.9.9.9.9.0.9.0.w.6.w.9.9.w.9.w.5.5.5.5.5.5.w.0.w.0.0.0.0.w.0.w.w.w.w.w.0.9.",
"8X8XwXwXrXrXrXrXwX8X7X7X7X7X7X7XqXeXiXpXzXzXpXrXiXiXpXpXpXrXrXrXwX7X7X7X7X7X8X8X8X8XwXwXrXrXqX7XqX7X7XqXwXwXwXrXeXrXeXeXeXrXrXiXeXrXiXiXeXwXeXiXeX9X7X7X7XA.A.A.A.^.^.7XqXqXqX7X7X7XqX7XqX7XqX7XwX8X7X7X7X7X5X5X>X7X7X7X7X7X7X7X>X>X8X8X8X8X8X8X7X7X>X7X<X7X7X<X<X>X>X>X>X>X:X:XV.V.:X>X>XA.>X>X8X8X8X>X>X>X>X>X8X7X<X<X<X8X8X<X1X<X8X8X<X>X:X:XN.:X,X%X@Xq.w.w.q.q.w.w.LXKXLXSXgXgXtXgXZXgXtX2X@X@Xp.@Xq.q.q.@X%X@Xw.q.q.x.@Xx.@Xx.q.x.w.8.8.w.x.N.:X%X%XN.N.x.N.%X@X%X%X%X%XN.N.x.w.w.w.q.x.x.@Xq.e.e.e.9.q.q.q.q.d.#Xd.u.d.p.p.p.0.p.p.#X@Xd.p.0.p.0.d.#Xp.d.@Xw.2.w.2.9.0.w.0.@X@X@Xm.q.w.w.w.w.%Xw.w.w.w.@X@XIX%X4X%X4X3X4X4X@Xw.e.q.@X4X4X4X@X0.w.w.q.p.#X%Xm.@X%X4X%XN.N.x.x.q.x.x.w.w.w.w.w.w.e.q.w.q.q.w.q.@X@X@Xx.q.q.w.6.q.w.q.q.w.q.q.w.x.q.@X@X@X,X:X:X2X>X1X>X>X>X<X>X>X>X>X7X8X8X8X8X7X>X5X5X>X>X>XA.A.A.A.A.A.A.Z.Z.Z.V.V.>X:X:X:X1X1X,X:X:XV.%X:X:XN.N.x.@XN.x.x.x.q.x.m.w.2.2.s.d.p.p.p.p.p.p.0.p.0.w.9.6.2.w.w.w.@X%X@Xx.x.x.@X%X:X>X<X>X5X>X>X:X:X:X>X>X:X:XV.V.B.V.:X:X>XV.>X>X>X:XV.V.z.l.l.l.l.z.x.x.%X%XV.v.V.N.%X:XN.x.%X@X%X@X@X@X0.9.9.9.w.0.m.m.x.:X:X>X8XwXrXrXzXzXbXAXAXbXbXbXbXbXbXvXzXzXpXxXxXxXzXpXxXpXtX8XyXxXAXAXyXZXDXZXfXfXZXAXCXCXfXuXtXuXuX1X,X%X%X%X,X,X@Xw.e.r.UXr.9.9.6.5.6.3.9.6.2.3.3.3.6.2.2.9.9.9.2.9.9.6.p.9.6.9.9.0.0.0.9.6.9.9.0.0.9.9.4.3.2.4.2.9.9.5.2.2.2.5.2.4.2.2.2.5.2.2.9.w.w.2.w.6.w.0.w.w.5.5.9.9.9.w.w.w.w.0.w.w.w.w.w.w.w.0.w.6.w.w.",
"wXrXrXrXrXyXyXyXyXrXwX8X7X7X7X8X7XwX7X7XwXiXrXiXpXyXpXiXrXwX7X7XA.A.7X7X7X7X7X7X7X7XwXeXiXiXrXeXiXrXwXrXrXrXwXwX8XwXeXeXeXrXiXiXeXwXqXqXwXeXwXqXeXrXrXwXqXqXqX7XqXqXqXqXeXqXqXqXqXqXqXwXeXrXiXeX8X8XwXwXqXqX7X7X7XqXrXwX8X7XwXrXwXtXrX8X7X8XrXrX8X8X8X8X8X8X8X7X<X>XV.V.:X:X:X:XV.V.B.B.V.V.:X>X>X<X8X8X8X8X<X7X>X>X<X7X8X8X8X8X8X8X8X<X>X:X:X:X:XN.N.N.x.q.w.q.q.w.q.IX4XCXCX4XuXFXFXGXZXgX1X%Xq.d.@X$Xd.#X0.2.6.#X;X4X0.x.q.m.w.q.7.w.q.q.w.x.@X@X@XN.x.@X%X%X%X%X@X@X%X@X@Xq.w.w.w.w.w.w.q.@Xq.9.e.4.6.9.0.0.0.@X0.9.p.p.p.d.0.p.0.p.0.0.0.0.0.e.0.d.9.d.d.0.9.9.0.0.6.6.9.p.p.#X$X$X=X#X#X%X%X,XCX4X,X4X%X%X@X$X#X@X@X@X@X@X#Xx.@Xx.m.q.x.%X@X@X@X@X@X@X@X@Xw.w.@X%X%X%X2X%X%X%XN.@X@X@X=X4X%X@Xp.q.q.q.w.q.@X@Xx.q.w.w.w.q.x.w.q.w.w.q.q.@Xq.q.x.q.q.x.x.%X%X%X%X:X2X:X:XV.:XV.V.V.:X>X>X<X>X7X>X>X>X>X>X>XZ.Z.S.A.A.Z.B.B.Z.A.>XA.A.A.:XV.>X:XN.v.V.V.V.:XV.:X%XN.N.:X%X%X:Xx.x.x.x.q.0.0.p.f.a.p.a.d.d.s.0.0.6.6.0.s.s.p.0.0.m.@Xq.e.e.e.7.8.x.x.x.x.x.V.:X:X>X<X>X:XV.V.>X>X>XV.V.:X:X:X:X>X>X>X<X<X:XV.V.B.B.v.V.%X%XV.V.B.v.v.B.V.N.z.z.x.x.N.@X@X9.6.2.6.6.w.q.x.x.:X:X>X1X8X0XrXrXrXiXiXiXrXiXiXiXiXeXeXwX8XwXyXdXtXuXZXCXCXSXgXtXZXFXFXZXCXuXuXCX1XuX3XuX3X3XuX4X3X4X3X%Xq.w.e.e.r.r.r.r.r.4.9.u.6.u.9.0.9.9.9.9.2.9.2.5.2.4.9.3.3.2.3.0.9.0.w.p.0.0.u.0.9.9.3.3.9.0.9.2.2.4.2.9.2.6.9.9.9.6.3.6.9.6.3.3.2.3.2.2.2.6.9.9.2.w.2.9.9.9.9.2.2.2.9.0.5.9.0.9.0.9.9.9.0.9.9.9.9.w.w.5.5.",
"A.A.A.A.5X7XwXrXrXrXwX8X7X7X7X7X7X7X7XA.7X7X7X7X7X7X7XqXqXqX7X7X7X7X7X7X7X7X7X7X7XwXwXrXrXrXiXpXpXiXrXrXrXwX7X7X7XwXwXwXwXeXeXeXeXwXqXqXqXqXqXqXqXeXeXwXqXwXwXqXqX9XqX9XrXiXiXzXeXeXeXeXiXeXwXqXwXwXwXwXwXeXeXeXwXrXyXrX7X7X7X8X8XtXyXrX8X8X7X7X8X8X8X8X8X8X8X7X>XV.B.B.:X8X8X6X:XV.z.z.v.B.V.V.:X:X:X>X>X>X<X8X8X7X7X7X7X7X8X8X<X>X>X>XV.V.:X:X:X:XN.x.x.N.N.q.d.$X@Xd.d.$Xq.e.%XCXGXZX1X1X2X2Xq.0.0.0.6.4.4.9.9.6.6.@X$X%X@X%Xq.q.d.m.q.@X%X@X@Xq.w.w.8.w.w.q.q.@X@X@X@X$X$X@X$Xq.0.q.p.0.w.9.9.w.9.9.9.0.q.p.p.p.0.6.w.p.d.9.0.p.p.p.q.0.0.q.=X=XIX@Xd.0.6.6.0.#X#X5.d.0.9.6.u.p.0.p.p.w.w.q.%X3XuXCXuX4X%Xq.d.0.6.e.w.0.w.e.w.q.e.@Xq.w.@Xq.@X@X@Xq.q.x.@Xp.@X@X%X4X%X4X4X%X@X%X4X4X=X@X@Xd.0.p.@Xp.q.q.q.@Xq.@X@X@Xq.q.x.@Xq.w.q.x.@X%X@XN.q.x.@X@Xm.q.q.x.x.x.x.N.%X:X:X:X:X:X>X>X>X:XV.V.:X:X>X:XA.A.A.A.>XA.Z.Z.Z.A.A.A.>XA.A.5X>X>X:X:X>X:XV.V.V.B.z.x.v.x.x.x.x.x.x.N.x.x.%Xx.x.@Xx.e.6.p.d.d.m.a.#X#X#X%X#X@X@Xa.p.s.s.0.s.s.s.q.q.0.q.x.x.x.x.x.w.8.8.l.x.z.v.B.V.V.z.v.V.V.V.V.V.V.V.B.B.B.V.:X:XV.V.>X:X:X>X>X>X>X>X:X:XA.Z.V.N.N.N.l.x.q.q.q.w.w.w.w.w.q.@X%X%X:X>X:XV.V.A.>X7XqXqXqXeXeXiXiXiXqX7X7X7X7X8X8X0XtXuXCX3XPXLXCXuXCXSXSXgXuXCX3X4X4X4X4X%X%X%X@X#Xp.p.w.r.r.r.UXr.4.9.6.#Xp.y.u.y.9.6.0.0.6.9.2.9.y.9.9.0.w.9.9.9.3.4.3.6.9.9.9.9.s.9.u.9.6.9.y.0.u.6.9.2.2.2.9.9.9.6.6.2.6.6.3.9.9.6.6.9.9.9.9.9.9.2.2.6.2.0.2.5.w.2.5.2.2.2.5.9.2.2.2.2.5.2.w.w.5.5.5.2.2.9.w.5.9.",
"l.z.v.z.v.Z.>X7X8X8X8X8X7X7X7X7X7X7X7X9X7X7X7X7XwX8XqX7X7XqXqX7X7X7X7X7XqX7X7X7X7XwXqXwXwXeXeXrXrXrXwXwXwX7X7X7XqXwXwXwXwXwXeXeXeXeXeXeXeXeXiXpXpXpXpXyXrXrXrXrXrXrXrXwXrXrXrXrXpXzXpXzXpXrXrXwXwX7X7X7X7X7XqXwXeXeXwX7X7X7X7X7X8XwXwX8X7X7X>XA.B.B.B.Z.A.<X8X8X8XrXyXyXrX8X8X8X8X<X:X:X:X:X:X:XV.:X:XV.z.z.B.:XV.V.A.>X>X>X>X>XV.N.N.N.N.N.:X:X:X%X2X%X@Xx.x.q.0.0.p.d.$X;X=X@X%X2XuX2X%X2XN.@Xd.0.9.0.9.2.3.6.6.0.#X#X@X2.2.w.6.0.0.6.9.w.w.p.%X@X4X4X4X%Xq.q.9.9.0.$X$Xq.0.p.0.p.d.d.0.6.9.0.d.d.d.p.p.d.d.p.@X@Xq.w.@Xm.d.@X@X@X@X@X$X@XIXd.d.q.d.9.q.6.0.0.#X$X0.0.s.p.9.p.6.9.w.q.0.w.q.@X4X3X%X4X4X%X$Xd.9.6.9.u.q.p.s.0.9.p.#X0.w.e.w.w.w.x.N.%X@X%X@Xm.0.0.q.#Xq.w.w.q.%X#X@Xq.p.p.@X$Xp.w.0.6.p.q.q.q.@Xq.w.w.@X2X%X@X@Xx.x.x.q.w.w.e.w.q.q.0.w.w.w.q.q.q.w.q.x.N.N.N.V.:X>X>X:XV.z.z.z.B.V.V.V.:X>X>X>X>X>X7X7X7X7X5X5XZ.Z.A.5X>XA.A.>X>XV.B.B.z.z.x.x.8.7.7.7.8.x.:X1X1X1X:X@Xw.w.9.0.d.p.#X%X@X#X@X%X%X%X3X4X#Xm.#X#X#Xm.p.a.a.p.s.0.0.p.@X%X%X@X@Xx.x.x.x.v.v.v.V.V.:XV.V.B.v.v.z.v.B.B.V.:X:X:XV.B.B.Z.V.B.B.Z.:X>X>X>X>XA.V.V.V.V.B.V.:X%X%Xm.m.%X%X4X4X3XuXtX2Xx.N.:X8X8XwX6X6X6XqXeXiXiXiXiXwX5XA.:X5X>X:X:X1X4X%Xm.4X3X3XCX3X3XuXCXCX3X4X4X#X#X0.p.2.r.r.r.r.r.r.r.r.4.y.a.h.u.y.y.y.5.4.9.9.u.s.w.6.p.0.5.s.5.2.3.2.2.3.2.2.6.9.2.9.s.u.9.u.9.s.9.6.9.u.9.0.2.9.9.6.9.9.9.9.9.9.2.6.9.2.9.6.4.3.2.2.2.3.3.3.e.4.w.w.0.2.5.2.2.5.2.9.w.w.9.5.5.5.2.9.2.2.2.2.2.5.2.2.w.9.w.9.",
"B.B.B.v.B.Z.>X7X7X7X8XrX8X7X7X7X7X7X7X7X7X7X7XeXrXrXeXwXwXeXwXqX7X7X7X7X7X7XwXwXwX7X7X7XqXeXeXeXrXwXqX7X7X7XwXwX7XwXeXwXwXeXeXiXiXeXeXiXiXpXpXpXpXpXpXpXpXrXrXpXrXrXrXwXrX8X7X7X7X8XwXwX8X8X8X8X7XwXwX8X7X7X7XqXqX7X7X7XwXwX8X7X7X7X7X5X>XA.A.A.>XA.A.>X7X8X7X7X7X7X7X7X>X>X1X8X8X<X<X>X>X:XV.V.V.:XV.V.V.:XV.V.A.A.A.:XV.V.V.V.V.N.N.>X1X8XtXtX8X:X@X@Xx.w.w.9.p.d.$X*Xd.d.#X@X4X@X4X4X3X3X@X@Xq.0.9.2.4.6.5.6.5.$Xd.p.q.@X@Xq.p.0.9.0.$Xp.0.p.%X$X$Xd.q.@Xq.q.0.9.0.p.d.0.p.d.p.9.6.4.6.d.*Xp.0.p.0.9.6.9.w.9.9.6.w.@X4Xq.0.d.p.p.@X@X=X@X@X@X9.q.q.@Xq.3Xp.$Xp.q.0.p.0.@X@Xq.q.q.p.q.q.IX%X%X@X%X4X4X%X$Xd.e.4.6.6.5.0.0.w.0.p.q.0.@Xm.x.@X@X%X4X%X%X@Xq.q.q.0.0.9.2.0.@X#X@X@Xq.w.w.q.q.q.@X@X%X@X%X4X@X@X#X@X@X@X@X@X%X%X%X@X@X@X%X%Xq.q.d.@X%X@X@Xq.q.m.p.@X@Xx.x.N.N.x.x.N.N.:X>X>X:XV.V.V.V.:X:X:X5X7X8X7XwXrXwX8X7X7X7X5X5X5X5X5X5X5X7X6X6X>XZ.V.V.V.N.N.N.x.x.N.%X%X,X2X2X,X@X,X%X%X%X@X@Xq.@X@Xw.q.q.m.%X,X%Xx.q.m.p.@X=X=X=X=X=X$X#Xp.m.q.q.q.x.x.x.x.x.x.v.v.z.z.l.z.z.z.v.B.V.V.V.v.v.v.B.B.V.B.N.N.z.z.z.v.v.B.B.B.B.B.B.B.B.V.V.>X>X>X>X>X:X:X%X%X,X2X2X,X2X1X1X1X8XtXyXwXwXwXwXwXwXiXiXiXiXiXpXwX8X6X<X1X2X4X4X4X$X3.0.d.=XPX3X=X$X0.=Xm.4.e.9.r.r.r.r.4.4.u.p.a.p.f.y.t.i.t.i.y.u.3.4.t.5.3.3.0.9.9.9.9.2.5.s.9.2.9.9.9.0.3.2.2.2.0.9.0.9.u.0.0.0.2.6.9.9.2.9.2.9.9.2.9.3.3.6.9.9.9.u.p.s.a.s.0.u.u.0.9.3.9.9.0.w.6.2.w.e.2.w.4.4.4.w.w.4.w.2.9.9.2.5.2.4.e.e.e.2.2.2.5.w.w.5.",
"7X8X8X8XwXwXwXwX7X7X7X7X7X7X7X7X8X8XwXwXwXwXwXwXrXrXrXrXrXwXwXwXwXwXwXwXqX7XqXwXwXwXwXqX9X9X9X9XwXwXwXwXwXwXwX7XwXwX9XwXwXwXrXeXeXrXpXiXiXpXzXzXzXpXpXpXiXrXrXrXrXrXeXwXqXwXwXqXqXqXqXwXeXrXrXrXiXrXeXeXeXwXeXrXwXwX8X8X7X7X>XA.:X:X>X>X>X>X>X7X7X8X8XrXwX8X8X7X7X7X>XV.z.z.B.:X>X7X7X>X5X5X5X>X>XA.A.>X7X>X>X>X1X<X8X<X1X:X<X>X>X>X>X1X8XuXCXCXgXLXFXLXCX3X3X$X5.9.d.d.u.d.#X#X@X@X%X3X4X3X%X@X@X0.2.4.4.r.4.4.6.;Xp.0.q.q.0.9.5.6.u.p.d.#X#X#Xd.d.p.0.0.0.9.0.0.u.5.5.9.f.f.5.6.6.5.y.y.y.i.y.u.6.0.9.2.9.6.4.6.p.@X#X3Xw.p.s.0.0.0.9.e.@X@Xq.w.w.@X@X0.d.9.e.9.6.2.2.q.%X%X4X%X%X@X@X%X%Xq.@X0.9.0.0.9.9.6.6.6.0.q.w.q.@X@Xq.w.%X,X,X4X3X3X3X4X#X@X0.q.q.q.0.9.u.g.g.d.#X$X#Xd.p.0.0.q.q.d.%X2X2X2X2X,X%X%X%X@Xx.q.q.x.IXIX%X@XN.N.w.w.e.9.q.w.6.6.6.6.0.m.%X@Xq.%X@Xx.x.%X%X:XN.x.V.:XV.V.V.A.>X8X8X8X8X8XwXrXwXwXwX7X7X7XwX7X7X7X7X5X5X>X>X>X>XA.A.A.A.:XV.:X:X,X,X%X%X%X%X4X%Xx.x.N.,X,X,X%X%Xx.8.w.x.@X@Xm.m.@X@Xx.m.@Xm.@X@X@Xx.x.x.m.@X%X,X,X:X:X:X:X:XN.V.N.V.v.v.V.v.z.z.V.l.l.l.z.v.z.v.B.B.B.V.B.B.B.z.z.B.B.B.v.v.v.V.V.Z.5X6X5X5X6X5X6X>X>X6X6X8X<X1X1X1X8XtX8X>XV.8XtXxXpXyXpXpXiXwXrXrXpXiXwXwXyX8X:X,X%X%X4X%X6.4.4.y.;Xf.f.i.3.4.p.y.4.6.9.p.&X&Xf.f.*X=X&Xf.h.u.5.5.y.a.a.a.9.3.y.9.3.9.9.9.6.9.9.9.6.6.9.s.s.u.9.9.9.9.9.2.3.2.2.3.6.2.9.9.9.2.6.9.9.2.3.3.2.6.9.3.y.3.9.y.u.p.0.9.9.9.u.u.9.u.p.p.u.0.0.0.s.0.9.9.0.0.0.0.p.w.2.2.2.6.w.w.w.w.0.9.9.5.0.2.4.2.2.2.4.4.2.4.",
"7X7X8X7X7X7X7X7X7X7X7X7X9X9X7X7X7X8XwXrXrXwXwXwXwXwXwXwXrXrXwX8XrXrXrXwXwXwXqXwXeXrXiXiXiXeX9XqX7X7XwXwXwXrXrXwX7X9X7X7X9XwXwXrXrXiXpXpXpXpXzXzXzXpXpXpXiXiXiXpXpXpXiXeXeXwXwXqXwXwXeXeXeXeXeXeXrXeXeXeXeXeXwXwXrXrX8X8X7XA.B.z.z.B.B.Z.A.>X7X7XwXwXrXrXrXrX8X8X8X8X8X>X:X:X:X>X7X<X5X^.5X7X7XwX7X7X>XA.A.>X>X:X:X>X8X8X8X1X8X1X1X8XtX8X1X1XuXuX%Xq.w.w.@X0.d.6.5.i.u.0.u.u.0.$X$X=X$X3XPX4X@Xq.q.p.0.5.5.g.t.4.9.p.0.0.0.=X@X9.5.2.2.6.u.d.$X;X$Xp.9.9.0.9.0.0.u.u.p.y.y.4.5.y.5.f.f.u.a.p.u.5.6.4.2.9.q.d.@X0.p.q.@X0.0.2.9.6.6.e.e.w.@X@X7.x.m.m.w.@X@Xq.w.q.9.5.#X#X=X3X@X@Xq.x.@X4X3X3X@Xq.0.9.0.0.0.0.p.d.p.q.@X%X%X%X,X2X2X2X2X1X1X4X4X%X@X0.q.0.p.q.d.0.p.9.6.9.d.#X#Xq.9.q.q.q.@X%X%X@X%X:X,X,X,X,Xm.e.e.w.7.7.q.N.q.q.N.q.w.IXq.e.e.9.p.0.p.p.p.p.w.w.e.e.e.w.@Xx.w.8.x.N.:X:XV.:X:X:X>X5X8X8XwX8X8X8X5X5X7XwXwXwXwXwX7X7X5X>X>X>X5X5X>X7X7X>X>X<X<X>X:X:X,X:Xx.8.7.w.w.x.@Xx.x.%X,X:X:X,XN.w.8.w.w.x.x.x.@X%XN.:X%XN.N.N.x.x.x.x.x.N.:XN.z.v.V.:X:X:X:X:XV.>X:X:XV.:X:XV.V.Z.>X>XV.V.z.z.z.z.z.z.z.B.B.B.>Xv.v.v.V.B.B.B.V.V.>X>X>X>X>X>X6X>X>X5X8X8X7X8X8X8X7X7X8XwXwXrX8X8X8XyXpXrXwXrXpXiXiXpXwX>X>X1X,X4X4X4X2.r.4.u.h.-XPX*X=X-XLX-X;X;X;X=X&Xf.f.h.f.f.f.a.i.u.i.a.u.9.9.y.y.6.9.3.3.5.9.6.3.9.3.9.y.u.0.9.9.9.9.0.9.0.6.9.9.9.s.0.6.3.0.9.9.9.9.9.0.0.9.6.2.3.6.6.9.2.3.3.6.9.9.y.9.6.9.9.9.9.9.9.9.9.9.9.0.0.2.9.9.0.0.9.2.6.e.w.w.0.6.2.9.w.s.6.9.9.9.w.9.4.9.9.2.2.9.9.2.2.",
"wX0X8X8X8X8X7X5X7X5X5X7X7X7X7X7X7X8X8XwXwX7X7X7X8X7X7X8XwXrXwXwXwXwXwXwXwXwXqXwXeXiXpXzXiXeX7X7X7X7X7X7X7X7XwXwXwX9X7X7X7X7X9XwXrXiXiXpXiXiXpXiXiXrXeXeXeXeXeXeXeXrXrXeXeXeXeXwXeXeXrXrXrXrXrXiXiXrXwXeXeXeXrXrXrXwX8X8X7X7XA.Z.z.B.A.7XwXrXrXrXwX7X7X7X7X9X7X8X8X8X8X8X8X8X1X1XA.>X7X8X7X7X>X>X8X5X5X5X5X>X>X>X:XV.V.B.:X1X8X8X8X1X1X2X2X2X%X@Xw.w.2.6.2.4.2.6.4.5.9.y.0.d.f.f.d.$X;X=X3X@Xq.e.e.4.6.t.5.t.t.g.u.y.u.6.a.3X%X#Xd.p.5.6.q.0.0.d.p.d.d.p.p.p.d.$Xd.d.9.p.p.9.u.9.p.4.6.6.e.0.w.0.@Xq.q.x.@X%X%X@Xx.N.@Xx.w.w.q.9.p.q.w.q.e.w.@X%X4X3X#X%X#Xp.0.0.9.0.9.9.6.0.d.d.@Xq.9.q.q.w.e.w.e.e.q.$X=X$X@Xd.d.@X@XN.%X3X3X2X%X%X2X%X8.e.e.e.e.e.e.2.2.e.4.2.w.d.%X%X@Xq.q.q.q.q.q.x.%X4X,X%X%Xx.x.w.w.w.q.m.m.m.q.x.m.q.w.q.8.x.N.w.q.#Xd.@X$Xp.d.p.p.d.0.0.q.@X4X%X%X@X@X%XN.x.x.x.N.:X:X:X:X:X>X8X7X>XZ.Z.A.A.5X7XwXwXwXwXqX7X7X5X5X>XA.A.A.5X7X7X7X7X7X7X:XV.v.l.7.1.7.q.x.w.w.w.%X:X,X:XV.:XV.V.%X:X:X2X:X:X1X<X>X>X>X>X5X8X8X8XtXyXxXAXxXzXxXZXvXvXyXyXrXpXzXyXxXuX8X8X8X8X6X8XwX8X8X5XwXxXZXyX8X5X>XA.Z.Z.Z.>XZ.A.B.v.B.B.v.B.V.Z.V.A.A.>X>X>X7X8XwXrXrXrXrXyXzXzXzXyXwXrXyXpXrXiXwXiXpXwXwXrXwXwXwXtX1X2X%X@X2.4.r.5.-X;X;X;XPX;X;X*X=X;X;X=X$X$X;X$X*X*X*Xf.$Xd.a.#Xy.u.p.u.y.9.6.6.9.y.y.6.9.9.9.9.0.9.6.9.0.s.0.9.0.s.9.9.2.9.3.4.e.2.9.2.6.3.2.u.2.2.9.9.9.9.9.2.6.9.9.6.2.6.9.u.9.0.9.9.9.9.9.9.9.9.9.9.9.9.9.9.2.6.9.s.6.9.6.6.2.6.9.w.6.2.9.9.6.2.2.w.9.p.a.0.0.s.9.5.0.9.2.5.",
"0XrXrX0XwXwX8X8X8X8X8X8XrXrXrX8X8X8XwXwXwX8X8X8X8X7X7X7X8XwXwXwXwXwXwX7XqX7X7X7X7XwXeXeXrXeXwXwX7X7X7X7X7X7X7X7XwXwX9X7X7X9X7X9XrXiXpXzXzXpXpXpXiXrXrXeXeXeXeXeXeXrXrXrXrXrXiXrXrXrXrXrXrXrXrXrXrXeXqXqXwXwXwXwXrXwX8XrX9X8X8X9X>X>X8XrXrXrXwX8XwXwXwXwX9X8X7X7X7X7X7X7X8X8X8X7X9X7X7X>X<X8X1X<X8X>XV.B.V.:X>X<X1X1X1X1X1X:XN.x.x.@X%X%X@Xq.w.w.4.2.0.6.9.6.y.5.6.i.f.f.9.g.g.u.d.0.d.#X%X3X%Xw.%X9.5.5.4.t.g.;Xi.4.3.2.@X=Xd.$X$X$Xd.d.$X#X#Xd.$X=X=X#Xd.f.p.6.5.9.0.d.=Xd.$Xp.s.p.d.p.0.%X@X@XIX@X@X@X@Xx.%X:Xx.:X@Xx.x.q.@Xd.p.2.s.p.%X@Xm.%X3XLX4X$X=X$Xd.d.0.9.0.0.0.d.9.9.#X$X#X@Xp.p.p.@X%X%X@Xd.d.@X@XIXd.$X=X4X4X4X4X2X2X,X,X%XN.N.@Xq.q.9.9.0.@X@X#X$X%X@Xx.q.x.x.x.x.@XN.@X2X3X3X,X2X%X%X%X%X4X4X4X=X%X4X4X%X%X%X%X%X%X4X%Xx.q.q.@Xd.0.6.6.6.6.6.9.w.q.9.e.e.e.w.q.x.x.x.x.x.x.z.N.:X>X>X>X:XA.Z.Z.A.A.A.A.A.5X5X7XqXwXwXrXwXwX7X5X>XA.5X7X7X7X7X7XA.>X>XV.N.N.N.x.x.x.q.@X%X%XN.:X2X8X8X8X8XtXtXuXuXyXyXyXtXwXrXyXwXrXyXpXpXyXyXzXzXvXvXvXvXzXzXpXzXyXzXyXtXyXyXxXyXyXpXxXwXwX8XwX6X>X8XwX8XyXyXwX8XwX8X7X5X5XZ.Z.Z.Z.Z.B.B.B.B.B.B.V.:X:X>X5X7XrXrXvXzXzXzXzXzXvXvXbXzXvXbXAXvXrXpXrXyXxXyX6X<X1X,X,Xm.r.r.r.5.i.*X&X=X=X;X;X=X;X;X;X;X=X;X;X$X&X$X$Xf.#Xd.#X#Xa.p.s.0.y.s.p.0.9.9.e.2.3.4.4.3.6.6.4.2.9.9.0.0.9.6.2.u.u.s.0.s.a.a.u.9.2.3.u.a.9.9.9.6.9.0.9.2.2.2.3.2.6.9.3.6.9.6.2.9.2.6.9.6.6.2.2.6.6.6.9.9.9.9.9.0.2.2.w.w.6.0.w.6.2.2.2.2.9.9.6.2.2.2.4.4.2.e.4.5.w.2.5.9.9.9.",
"1X8X8X8X8X8XwX8XwXwXwXwXyXyXwX8XrXrXrXwX8X7X7X7X7X7X7X7X7X7X8XwXwXrXrXwX8X8X8X8XrXwXrXwXwXwXwXwXrXrXwXrXwXwX7X7XwXwXrXwX8X7X8X8XwXrXrXyXpXpXpXpXyXyXyXyXpXpXpXpXzXzXzXpXpXpXiXiXpXiXrXrXeXeXeXqXwXwX7X7X8XwX8X7X7X7X8X8X8X8X8X8X0X0XrXrXrXwXwXrXrXrXrXrXrXwX9X9X7X7X>X>X>X<X<X<X<X7X7X7X1X1X1X1X1X1X1X<X2X1X:X%XN.x.z.x.q.8.7.e.w.q.w.w.w.6.e.e.5.0.5.5.9.g.y.5.y.f.i.d.g.g.d.-X;Xd.d.q.4X4X4X%X=X9.u.g.g.5.5.u.;Xd.d.a.#X;X=Xa.f.d.y.9.0.9.0.6.0.u.p.u.p.f.p.4.6.6.u.$X;Xf.;X;X0.p.2.s.m.=X$Xq.q.q.w.w.@X:X%Xx.N.%X,Xx.x.q.w.0.0.9.s.3X$X#X=X4X=X=X$X#Xp.0.u.p.a.p.$X$Xu.9.4.6.d.u.i.$X$X#X#X=X%X@X0.0.q.p.d.0.0.q.@X%X%X%X,X2X%X%XN.q.w.7.e.w.w.w.q.p.@Xp.#X=X%X%X@Xm.x.x.x.x.N.:X2X1X1X1X2X4X4X$Xd.0.0.p.#X#X%X%X%X2X2X2X%X%X%Xw.x.q.w.w.2.w.2.4.4.9.p.p.#Xd.0.q.p.q.m.m.x.x.N.%X,X:X:X>X>XV.V.:X>X:X:X:XA.A.>X>X6X8XwXrXeXwX7XqXeXiXwXwXwXwX5X7X7X7X7X7X7X^.5X>XV.v.:X%X@Xq.q.@X%X@X@X,X,X:X1X8X<X>X<X8X8X8XyXrX8X7XwXrXiXiXzXvXAXAXAXAXAXAXAXvXxXxXAXAXAXxXxXdXyXfXZX8XZXxXuXtXuXuXxXxXAXuXpX8X6X8X8X8XyXFXzXpXpXyXxXvXpX8XwX8X7X5XA.>X>XA.A.>XA.A.>X5X8X8XyXrXpXzXvXbXAXDXDXAXAXvXzXzXtX8X8X2XuXuX2X,X%X%Xe.r.r.p.u.i.g.i.&Xf.f.&X=Xf.d.d.d.&X=X$X#X#X$X$X$X$X#X#X$X#X#Xa.a.p.s.w.0.0.0.w.9.2.6.0.9.2.9.9.3.9.9.9.2.9.0.u.2.9.y.9.9.6.0.0.9.s.9.u.u.s.6.0.0.w.0.0.0.6.2.w.9.9.9.0.3.6.6.4.2.6.6.6.9.9.9.6.3.2.2.2.2.9.9.0.9.2.9.9.6.6.0.w.9.9.w.w.2.4.5.9.w.2.w.9.9.2.5.2.2.4.2.2.2.0.0.2.",
"8X8X8X8X8X8X8X8X8X6X5X7X8X8X8X7X>X7X7X7X7X8X8X8X7X7X7X8X7X8X8X8XwXrXrXrXrXrXrXrXzXrXrXrXrXrXrXrXaXrXrXrXrXwXwXwXwXwXrXrXwXwXwXwX8XwXrXrXyXyXyXyXyXyXpXpXyXpXpXyXzXzXzXpXiXiXiXrXpXiXrXrXrXrXrXeXrXrXwXrXrXrX8X7XA.>X>X7X7X7X7X8X<X<X>X<X5X7X9X8X7X7X7X7X9X9XwXrX7X7X7X>X>X>X<X9X9X8X7X<X>X1X1X2X2X%Xx.x.x.8.8.w.w.w.w.w.w.w.q.q.0.p.0.6.9.9.9.u.u.y.d.t.g.u.f.h.i.f.y.9.9.6.9.g.9.d.d.#X4X@X%Xm.0.d.$X0.6.6.5.6.9.#X=X=X=X3X;X9.y.6.5.y.y.5.5.6.6.6.5.5.6.4.6.6.5.5.6.5.6.3.4.4.4.r.3.u.9.0.w.0.q.%X4X%X%X%X4X3X2X%X%X@Xq.0.IX0.p.#X3X#X$X%X%Xp.w.9.6.0.d.d.5.9.#X@X6.9.6.6.y.9.i.i.9.5.6.a.#X@X@Xm.w.q.0.9.0.q.#X@X@Xq.x.@X@Xx.x.@X@Xq.q.x.@X#X@Xq.w.w.q.x.%X%X:X%X%X%X:X:X2X1X3XuXtX3X1X:XN.q.w.2.2.9.d.@Xp.q.q.w.w.%X2X:X:X2X%X@Xq.m.p.0.a.w.0.9.2.9.0.0.0.9.9.e.w.0.@X@X@X4X@X%X%X,X1X1X>XV.B.V.:X:X>X>X>XA.A.>X6X8XwXwXeXwXwXwXwXwXwXwXwXwXwXqX7X7X7X7X7X7XA.5X>XV.v.x.x.x.w.x.q.q.x.%X:X:XV.>X6X8X8XtXyXyXyXpXrXwXiXiXzXnXvXbXAXAXAXAXDXDXAXAXAXfXfXpXZXZXyXfXxXZXCX1XfXtXuXuXSXSXtXtXCXZXSXSXxXtX8XuX8X8X8XwX8XwX8XyXyXxXyXrXrXwX8XrXrX8XrXtXtXrXtXyXyXyXxXxXAXAXAXZXZXCXCXxXCXuXyXtX8X8X2X4X4X%Xm.p.e.r.r.4.f.a.f.f.f.f.d.i.f.f.a.0.s.s.d.p.d.u.p.p.p.d.d.d.#X#Xd.#X@Xa.m.a.p.0.w.w.0.0.p.9.9.0.9.9.9.4.4.4.3.2.2.4.4.4.9.6.9.2.0.6.0.9.9.p.u.p.p.p.u.s.w.w.0.0.0.0.0.w.0.w.9.0.3.6.6.4.2.6.6.6.9.9.9.6.2.6.9.6.6.6.9.9.9.9.9.2.0.6.6.0.w.w.0.0.9.2.9.9.9.2.9.6.0.5.w.2.w.2.5.0.5.5.w.2.",
"8X8X8X8X8X8X8X8X>X>X>X5X7X8X8X8XwXwX8X7X7X7X5X5X7X8X8X8X8X7X8X8X7XwXrXwXwXrXrXwX7X7X7XwXrXrXzXzXiXrXeXqXwXrXrXrXrXrXrXrXrXrXrXrXrXrXrXrXyXpXyXzXpXzXzXzXyXyXyXyXyXpXyXrXrXyXyXyXyXyXrXrXrXyXyXyXrXrXrXrXrXrX8X5X>X>X>X>X>X>X>X>X<X<X7X7X7X7X7X7X7X7X7X7X7X7XwXwXwX7X7X7X7X7X7X7X8X<X>X>X:X%Xq.w.e.e.r.e.7.e.w.q.q.w.0.6.6.9.0.9.u.u.9.9.f.f.y.5.f.g.g.g.u.t.5.g.f.i.u.i.i.5.d.0.=X=X%X@X4Xx.%Xx.q.@X@Xd.q.6.6.0.p.%Xm.@Xa.9.0.p.y.5.u.u.i.5.5.5.5.4.4.6.3.4.3.4.4.3.u.6.5.3.6.4.4.5.u.9.=X;X=XPX#X=X3X4X%X#X%X;X%Xd.0.9.6.6.d.d.%X3X4X%X%Xm.q.w.w.q.@X@Xq.q.@X$X%X%X4X=X#Xd.6.6.0.u.p.d.p.d.m.@X%X@Xq.w.q.q.d.$Xd.d.@X@Xm.m.@X@Xx.m.q.q.x.@Xm.q.w.q.@X%X%X%X%X%XN.:X:X:X,X,X2X1X3X2X2X2X4X%Xq.w.9.d.@Xd.d.@Xm.x.%X%X%X:X%X1X1X2X%Xm.0.0.s.a.s.d.p.y.5.2.5.5.6.9.6.2.9.0.0.e.6.q.@X@X%X%X%X%X,X1X>X:X:XV.:X>X>X>X>X5X7X8X8XwXrXrXyXyXyXrXwXwXwXwXwX7X7X5X5X5X7X7XrXwX8X>X>X:X:X%X%X%Xx.x.@X%X:X%X,X1X1X8XtXtX8X8X8XyXyXwXrXeXeXiXpXzXzXzXzXvXbXbXvXpXyXuXZXZXpXtXuXfXtXCX1XCXuXuXuX3XCXuX3XuXuXCXuXSXZXuX1XZXCXCXZXfXCXCXSXfXCXfXxXxXZXZXxXZXAXZXZXAXAXZXZXZXZXZXCXSXSXSXCXCXSXSXCXuX3X3X3X4X,X$Xa.u.3.r.r.r.r.4.#X*Xf.u.d.d.p.d.p.d.d.p.p.u.9.9.p.y.d.a.d.p.p.p.p.p.a.a.p.a.@Xa.p.0.0.0.0.w.w.q.w.0.9.9.w.0.p.6.2.9.9.9.2.4.3.9.6.9.9.9.9.2.9.9.0.p.9.9.9.9.p.p.s.0.s.s.0.0.0.0.w.9.6.6.2.6.6.4.2.6.2.2.2.2.2.2.9.9.9.9.9.9.3.3.9.9.9.9.5.5.w.w.w.w.9.0.9.9.9.9.9.2.w.6.0.9.w.w.5.2.9.0.5.2.9.w.",
"7X7X>X>X>X8X8X5X>X>X>X5X5X7X7X8X7X7X5X>X>X7X7X8X8X8X8X7X7X7X5X5X7X8X8X7X7X7X7X>XA.>X>X7X7X7XwXwXrXrXiXrXrXpXpXrXpXpXrXrXrXrXrXrXrXwXwXwXrXrXrXyXrXpXpXrXrXrXyXyXpXpXpXpXpXzXzXzXzXpXrXrXwX8X8X8XwX8X8X8X7X7X7X5X>XA.A.A.A.A.>X7X7X8X8XrXrXrXwXwXwXwX9X7X7X7X7XwXwX7X8X7X7X>X>X>XZ.V.V.N.7.r.r.e.e.6.0.0.0.0.0.9.e.6.0.6.9.9.u.6.9.d.a.u.y.5.5.i.u.u.g.g.g.t.t.j.g.u.5.u.=X0.@X=X%X@X%X4X%Xx.x.@X@X4X@X@X@XIXd.%X@X%Xx.q.6.9.p.y.u.t.t.4.5.3.5.t.t.5.t.t.t.t.t.4.5.6.6.6.6.9.6.9.g.d.f.;XCXg.*Xf.$X#X*X$Xp.u.5.5.d.d.g.u.f.f.i.&X3X4X3X4X%X%X4X,X4X4Xq.e.w.w.q.q.@X,X%X4X4X%Xq.9.0.d.@Xp.0.a.0.e.w.w.w.e.9.q.0.0.d.@X@X@X@X%X,X%Xm.w.q.%X%X@X@X,X2X2X2X2X2X:X:XN.x.x.x.N.%X%X%X%X2X2X%X%Xx.w.w.w.0.d.p.0.0.9.6.w.q.@X%X2X2X,X:X%X$X=Xu.9.9.9.6.u.u.u.f.9.9.0.2.u.p.9.u.p.0.2.6.w.w.w.w.w.q.@X,X,X>X:X:X:X:XV.V.A.:X>X8X8X8XwXrXrXwXrXyXrXwXwX8X8X8X7X7X7X7X5X5X7X5X>X>X>X>XN.x.x.x.x.w.7.8.x.%X,X%Xx.x.x.:X>X>X<X8XyXyXrXrXrXeXpXpXzXpXpXrXrXyXyXpXyXyXpXuXuXuXuXuX3X3X2XuXuX3X3X4X3XCX3X3X3X3XCX3X3X3XLXCXLXCXSXSXSXSXSXSXSXSXSXSXZXSXHXSXZXSXSXCXCXSXCXuXCXCXCXCXCXPXPXCXCXCXPX4X3X=X#Xp.6.4.r.r.r.r.r.5.i.h.-Xf.a.u.u.p.p.p.0.u.f.u.9.0.u.6.p.p.y.u.u.u.u.p.0.s.0.0.0.w.0.p.0.0.0.0.0.s.p.p.w.w.q.w.w.w.w.0.0.0.0.9.0.9.9.6.9.9.9.2.9.y.0.0.9.3.0.9.0.p.6.a.0.0.6.6.0.w.9.w.w.w.w.w.6.2.9.9.2.2.6.2.2.w.2.2.2.9.6.3.4.3.2.3.2.2.2.4.2.5.9.2.w.w.6.6.w.9.5.9.9.9.6.w.9.5.5.2.2.9.w.5.w.5.2.2.4.",
"8X6X5X>X5X5X7X5X:X:XA.>X5X<X5X5X7X>X7X7X7X7X7X7X7X7X7X7X7X8X8XrXwXwXrXrXrXrXrXrXwX8X7X7X7X7X8X8XwXrXrXyXpXpXyXrXyXrXrXwXwXwXwXrXrXwXwXrXyXrXrXrXrXrXrX8X7X7X7X8X8XwXwXwXwXrXrXrXwXwXrXrXrXwX8X8X7X7X7X7X7X7X8X8X7X>X>X7X7X7X7X8X7X8XwXrXrXrXwXwXqXqX7X5X5XqX7X7X8X7X7X7X>X>X>X:X:XB.V.x.7.e.w.0.0.0.9.9.0.0.9.9.9.9.u.9.6.4.6.5.u.5.3.6.u.5.3.3.u.g.h.f.h.g.t.h.g.g.9.d.u.p.4X@X@X@X4XKX%X%X@X%X@Xx.x.@Xx.%X%X%Xx.x.q.w.e.2.a.u.u.u.t.5.5.5.5.t.t.3.t.5.4.t.5.3.5.9.5.5.0.4.4.6.3.g.u.u.u.t.u.4.4.3.6.4.5.6.u.6.4.9.t.i.u.i.y.f.f.0.$Xp.d.#X$X#X@X@X@X2.0.p.d.@X%X%X2X%X%X%X%XN.w.w.w.w.w.q.q.m.@X,X4X@X%X@Xd.p.d.d.@X4X@X@Xx.@Xq.x.@X,X,X,X,X,X,X,X2X1X:X:XN.l.8.x.x.:X%X,X%X%X%X@X@X%Xx.q.q.p.d.d.p.q.p.p.#X#X@X$X4X4X4X%X%X@X*Xd.u.6.6.u.f.9.g.9.d.u.5.p.5.5.5.5.y.u.9.3.9.9.6.6.6.q.w.q.m.@X:X:X1X1X:X>X:XN.V.>X>X5X5X>X5X8X8X8X8X8X8X8X8X8X8X8X8X7X7X7X7X>X<X1X1X:XN.N.%X:X%Xx.%Xx.x.%X:Xx.x.x.x.x.v.V.:XV.>X8X8XrXwXwXyXrXiXrXrXrXwX7X7X9XrXyXyXtXuX1X1X3X4X3X4X;X3X$Xp.3Xd.f.d.*Xd.*Xd.;X=X=X#X3X3X=XCXCX4XLXKXCXLXCXCXCXCXPXCXCXCXLX=X3XCX3X3X$X4X3X;X=X#X$X*X*Xp.=X#X$X$X4.4.4.r.r.4.t.y.i.*X*X&Xa.i.i.a.a.d.u.#Xd.p.d.0.u.a.f.p.i.p.u.9.9.6.9.u.u.d.u.p.9.u.u.9.s.p.s.s.s.0.0.0.0.p.0.0.p.0.w.0.w.6.p.0.6.9.6.9.9.9.3.6.6.6.9.6.2.9.0.0.9.3.0.s.0.p.p.p.@X0.p.0.0.9.w.0.w.0.w.w.w.w.w.w.w.w.e.2.2.2.4.4.2.4.4.e.2.6.2.2.5.4.4.w.2.2.w.2.6.w.w.9.w.6.9.9.6.9.9.9.2.2.2.w.5.2.2.9.9.2.e.",
"5X6X6X6X8X5X>X:X>X>X>X>X<X7X8X9XwXwXrXyXrXwX8X7X7X8XrXrXyXyXyXyXyXyXrXrXrXrXrXrXrXrXrXrXrXwXwXrXwXrXyXrXrXrXrXrXwXwX8X8X8X8X8XwX7X7X7X7X8X8X8X8X7X7X8X8X7X7X5XA.5X7X8XwXrXrXyXyXrXrXrXrXrXrXrXwX8X8X8X8X8X8XwXwXrXrXrXyXrX8X8X8X8XrXrXrXrXrXrXyXrXeXwXeX7X8X7X7X7X7X8X8X8X>X:XN.z.z.x.8.7.w.w.w.6.0.2.6.9.9.9.9.6.9.9.4.6.d.d.5.6.4.6.i.5.t.3.5.4.4.u.g.g.t.t.t.j.g.f.d.$X4XPX4X3X4X,XuX%X4X3X@X@X:X2X2X,X2XN.%X1X@X@Xm.p.w.6.0.6.5.6.5.y.u.f.y.9.i.g.t.t.5.5.y.g.d.g.u.u.0.5.6.6.6.t.u.5.t.t.u.y.i.y.y.5.y.y.5.i.y.f.f.y.u.i.5.5.d.5.5.p.d.0.d.s.2.9.6.w.q.@X@X%X:XN.%X:X:X2X:Xx.@Xx.%X@X@X%X4X%X2X,Xx.q.q.q.0.e.e.q.%X%Xx.w.w.m.%X,X,X%X%X,X2X,X,X:X1X:X:XN.l.:X:X,X2X,X%X@Xx.w.w.q.q.m.%X%X#X$Xd.#Xd.d.d.$X=X$X#X@X#X$X%X#Xm.s.6.5.y.5.u.p.u.6.9.u.u.u.i.9.9.u.f.p.p.u.2.2.6.0.0.9.0.0.q.m.x.x.x.%X%X:X1X:X:XN.V.:X:X:X:X>X>X8X<X8X8X8XtXtXyXyXtX8X8X8X1X8XtXtXtX1X1X1X1X2X1X:X%X%X%Xx.%X,X<X,X>X:XV.V.V.V.V.>X>X>X7XrXrXpXyXiXzXzXzXdXrX9X0X1X0X0XtXtX2X3X4X3X*X=Xd.4.5.5.4.4.6.t.5.t.y.y.y.i.y.i.*X=X9.d.9.#X;X*X3X$X$X$X;X#Xd.#Xd.u.u.4.*Xr.6.5.4.4.5.y.4.r.4.4.4.4.9.3.6.y.5.u.g.g.h.-X*X&Xf.f.u.i.u.y.t.y.9.u.3.p.d.p.2.9.y.9.y.a.u.5.u.5.u.p.u.5.9.u.9.0.9.u.u.9.9.u.u.0.u.u.a.p.0.s.s.p.d.0.w.0.w.9.s.9.6.0.0.9.9.9.9.0.9.2.6.9.9.0.9.9.9.0.s.p.s.u.s.w.s.9.0.6.w.s.@Xs.0.s.a.p.0.w.0.0.0.w.w.6.6.2.e.2.2.2.2.2.3.2.3.2.2.4.4.2.4.e.2.w.2.2.w.5.w.2.2.9.9.w.w.0.0.9.9.w.w.9.9.9.9.2.5.",
">X>X6X8X8X8X8X8X<X1X8X8X8X0X9X7X8X8XwXrX8XrXyXyXyXyX8X8X7X7X7X7XwX8X8X8XwXyXyXyXpXyXrXrXrX8X8XrXrXyXpXpXpXpXyXyXpXyXrXwX8X7X7X>XA.A.>X7X7X8X8XwXrXrXrXrXwXwXrX8X8XwXrXwXwXwXwX8X8X8XwXwXwXrXwXwX8X7X7X7X7X7X7X7X7X8XrXtXrXrX8X8X8X8X5X5X>X7XwXyXyXrXyXyXwXwX8X7X8X8X<X>X:X:X:X:XN.N.x.w.w.w.w.w.w.2.e.0.0.6.6.2.e.2.6.9.0.5.3.6.4.4.f.4.4.3.u.5.h.t.5.t.5.t.g.5.t.j.i.;X=X3X3XPX3X,Xx.@Xw.q.3X=XCXgX3X2X2X2X4X%X%Xm.4X%X=X%Xd.w.9.$Xd.d.d.$X=X$Xd.d.0.9.4.6.0.d.#Xp.9.u.5.p.u.p.u.4.6.3.4.t.t.t.y.u.&X=X=X*X#X=X$Xd.a.u.0.9.0.9.9.f.p.0.9.0.p.0.0.0.q.@X%X%X@X%X:X,X2X1X1X8X8X<X>X,X%X%XN.N.%XN.x.x.8.w.q.q.x.%X%X@Xx.w.x.%X,X%X%X:X:X:X1X1X8X1X1X<X,X:X:X:X,X,X1X1X,X,X2X,Xx.8.x.x.@X%Xx.x.w.w.0.6.w.w.9.e.w.0.d.d.p.d.#X4X=X#Xd.9.0.;X$Xu.0.d.d.$Xp.9.9.6.3.u.i.g.5.6.2.6.6.9.u.i.9.9.w.0.w.w.e.x.%X:X%X%X:X:X:X:X:X:X:X>X<X<X1X1X8X1XuX8X8X8XuXuXuXyXyXtX8X8X:X:X:X:X:X:X1XtXtX8X<X,XV.:X>X>X>X>X8X>X>X>X5X5X5X7X7XwXwXwXrXpXpXpXwXwXwX8XtX8X1X1X2X2X2X%X3X%X*Xa.5.4.4.4.4.*Xi.h.*Xf.*Xf.*Xu.h.g.*X;X;Xh.-Xh.f.&X;X=X*Xd.;X=Xf.f.a.&X;Xh.*X-Xf.h.f.;X*Xg.f.&X;X=X=X=X;X=X=XPX;X=X=X*X*X-X-X*X=X=X*Xd.f.&Xf.a.p.5.6.y.y.s.0.s.f.d.y.y.p.u.5.u.6.6.u.d.p.u.9.9.9.9.u.9.9.9.9.9.y.0.9.s.$X#Xd.a.9.0.q.0.p.p.s.0.0.9.6.9.u.p.9.9.0.0.9.6.9.6.6.6.9.6.9.2.2.6.2.9.2.3.6.9.0.u.s.0.0.0.s.a.p.w.w.0.0.0.0.0.0.w.w.6.2.2.2.2.6.2.2.9.2.2.2.2.2.2.e.2.w.w.2.2.4.4.2.5.2.w.w.2.2.9.2.4.5.5.9.9.9.2.2.9.",
"<X8XtX8X1X<X>X<X1X1X8X8X8X8X8X9X7X8XrXrX8X8X7X7X>X7X7X8XrXrX8XwXwXwXwXwXrXyXrXrX5X>X>X>X5X7X8XrXrXrXyXyXyXyXyXyXyXyXrXrXwX8X7X7X7X7X8XrXrXrXrXrXrXrXrXyXrXrXrX8XrXrXrXwX8X8X8X8X7X8X8X8XwX8X8X8XwXwX8XwX8X8X7X>XA.7X8X8X8X8X7X7X:X>X5X8X7X7X8XwXpXrXwXyX8XwX8X8X8X8X8X1X1X:X%Xx.x.@X@Xx.x.w.q.@X9.p.d.2.6.0.2.0.@Xd.#Xd.0.9.9.d.p.f.9.5.u.9.t.4.g.u.t.f.g.4.3.t.t.f.g.;XCX3X3XCXuX3X3X4Xp.=X;X3XCXCX4X3XSX3X4X$X#X#X#X;XPX;X#X4X$X#Xp.e.6.6.6.6.e.e.9.e.d.3X$X#Xd.#X;X;X$Xp.u.d.u.9.6.4.u.a.f.y.9.0.0.#X%X=X%X%Xq.w.w.w.0.0.q.$X@Xq.$X%Xq.q.@Xx.%X%X%X2X%X4X3X,X:X:X1X1X1X1X1XtXtXtXuXtX1X1X,X2X:X:X:X:X2X2X:X%X:X%X:X,X:X,X2X1X1X>X>X>X:X>X>X:X:X:X>X:XV.:X,X,X<X1X1X:X:X%XN.x.x.x.,X%X,Xx.@X%X2X%X@X%X%X@X%X@Xx.q.@Xx.@X@X@Xq.w.9.e.w.9.q.d.9.0.e.e.e.0.p.2.0.6.6.9.p.2.9.p.9.3.9.9.6.2.9.q.m.@X%X%Xx.@X,X3X3X2X2X1X>X1X1X8X1X:X1X:X:X:XN.:XN.1XtXyXyXuXpXuXtXtX1X:X:X:X:X1X2X1X1X1X1X<X8X6X6X5X8X8X8X7X8X7X8XpXpXyXzXvXzXzXyXyXpXwXtX8X2X2X2X2X%X4X4X4X#Xp.r.r.r.r.y.g.;Xh.-Xh.h.-X-X;X-X;Xh.;X-X;X-X;X-XPXPX-XPXPXPXPX;XPX;X;X=X;X-X;X;X;X;X*X;X;X*X-X-X;X*X*X;X;X3XPX;X;X;X=X=X=X;X;X;X=X&X#X#X$Xd.d.d.a.p.a.p.y.u.3.5.5.y.p.u.9.9.5.u.u.y.5.p.#Xp.5.y.y.y.9.9.u.3.6.p.9.9.y.a.p.a.a.u.u.p.p.@Xp.0.0.p.a.s.0.p.s.p.p.u.2.2.2.9.9.9.9.6.2.6.3.2.6.2.2.3.4.2.6.2.9.9.9.9.s.0.s.0.s.s.0.6.6.w.0.p.@X@Xm.p.m.@Xm.m.p.0.9.2.2.2.2.4.e.e.2.2.2.w.2.2.4.e.e.e.e.2.e.2.2.2.4.2.2.2.9.9.9.9.0.9.5.9.",
"1X1X8X1X2X,X,X:X2X1X1X1X1X8X0XyXyXrXrXwX8X8X8X7X8X8X7X8X8X8XwXyXrXrXrXrXrXrXwX8XwXrXrX8X8XwXwXwXwXwXwXyXyXyXyXpXpXpXrXwX7X7X5X>X8XrXyXyXzXzXyXyXzXzXzXzXzXpXyXrX8X8X7X5X>X>X>X>X5X7X7X8X7X7X5X5X7X7X7X8X8X8X7X7X7X7X8X8X8X8X7X7X:X>X<X8X8X8X8XwXrX8X8X8X<X8X8X1X1X1X2X:X%X@Xx.x.x.m.q.m.w.w.2.6.e.r.e.e.w.@X@X4Xw.w.6.w.p.#X#X$X9.5.5.r.4.5.5.3.3.t.t.u.5.4.5.5.5.g.h.h.;X;XCX3XCXPX3X;X$XCXPXPX%XPXLXCX3X$X$X*X&X=X-X;X;XLX;XPX3X#X$X$X=X;X=X=X3Xd.$Xd.@X@X$X@X$X=X3Xd.d.d.@X%X$X#Xp.2.=X=X#X#X@X#XCX#X%X4Xx.@X%X%X,X4X1X4X3X3XtXfXtXtX1XtXtX8X8XtXyXxXfXxXZXtXfXfXfXfXfXyXZXuXZX8X8X1XtXfX1X8XtXtX1X1X1X<X8X8X1X8X1X:X:X8X1X:X:X:X>X<X1X8X8X>X>X6X8X8X>X<X1X8X<X1X>X:X:X1X8XtX8XgXCXuXgXuXCXuXgXtXtX1XtXtXtXtX1X1X8X1X1X1X1X1X2X3X3X2X%X%X%X@XN.x.q.0.0.0.e.0.2.0.0.0.#Xd.0.0.u.$X%X=X%X%X$X@X%X@Xq.w.q.@X%X2X2X2X2X1X1X2X:X%X:X1X2X1X1X2X1X1X8XuXCXCXuX8X8XuXtXtX1X2X%X%X1X8XpXpXfXuXtX>X>XV.:X>X5X8XrXpXvXbXzXzXxXxXbXxXxXfXtXuX3X4X,X%X%X=X$Xd.f.4.4.r.4.4.u.*X;X-X*Xg.h.h.f.u.f.g.f.f.f.h.*X-X;X-X;X;X;XPX=X;X;X;X;X;X;X;X*X=X=X#X*X;X*X;X;X*X=X=X;X=X*X$X*X$X#X=X$X$X;X3X;X=X*X*X=X*X$X#Xd.p.d.p.0.s.0.p.p.0.p.p.a.u.f.f.p.p.a.d.p.d.a.p.d.a.#X#X9.9.6.u.6.u.9.6.9.p.y.9.3.u.s.u.s.u.0.p.0.0.p.p.p.p.0.9.p.a.0.0.9.s.s.a.0.s.0.0.p.0.6.9.3.3.3.9.9.3.6.6.9.6.u.9.u.u.a.p.w.0.0.0.0.0.0.0.0.w.w.w.0.p.0.0.q.m.m.m.@X@X#X%X%Xm.0.w.w.w.2.w.w.w.w.0.s.9.2.4.6.0.0.9.2.2.9.0.2.6.3.2.6.9.9.9.",
"%X%X%X@X@X%X%X:X2X:X:X1X8X8X8X7X7X7XwXyXyXyXrX8X7X8X8XrXrXrX8X8XrX8X8X8X8X8X8X8X7X8X7X7X7X8X8X7X>X:X>X>X5X8X8XwX8X8X8X8X8X8XwXrX8XrXrXyXyXzXzXyXyXrXyXyXrXrXyXyXrXrXrX8X5X5X5X5X5X5X5X5X7X7X7X7XwX8XwXrXrXrXrXrX8X8X8X8X8X8X8X7X8X>X>X:X>X1X8X8X8X8X8X8X>X1X1X1X1X2X:Xq.w.e.w.m.@X@Xm.p.0.q.p.d.q.q.q.q.w.q.%Xq.q.w.w.0.w.2.0.=X0.r.3.3.u.y.5.5.5.t.u.t.5.i.i.4.t.g.h.g.f.h.f.h.=X&X&X=X-X;X-X*XPXLXPX=Xf.y.t.t.5.h.f.u.PX&XPX;X3XCXCXPXCX=X=XCX3XCX3XPX3X;X=X=X;X=X3X=XCX3X3X4XLX4X3X3X4X3X4X#X%X%XKX4X1X@X%XtXuXCXCXuXZXCXgXtX1XZXfXdXyXyXfXyXvXvXxXzXxXAXAXAXZXfXGXHXFXGXFXJXAXxXyXtXfXyXfXxX8X8X8XtX8X>XtXtXtXyXuXyX8X1X>X8X1X>X>X<X8X0X8X:X8X8X8X8X1X8XtXtX8XtXyXxXZXAXSXAXFXJXfXZXuXCXCXCXAXdXAXfXfXZXfXZXZXFXZXxXpXfXtXtXtX>X8X1X1X>XN.:X%XN.w.w.q.0.0.w.@X@X=X#X@Xa.#X$X#X=X#X#X$X4X=X%X$X4X3X4X4X@X%X3X3XuXuXuX8X1X1X1X1X2XuXuXuXuX:XtXuXgXCXCXtX1X1X1X1X,X,X2X1X%Xx.x.V.>X8X>X<X:X>X<X>X<X8XwXyXpXpXpXyXyXxXfXyXuX8XtX3X%X%X4X4X$Xy.4.r.r.r.r.4.g.h.-X*X-Xh.;X*X-X-X-Xh.i.h.y.i.d.f.f.h.*X&Xf.f.f.u.p.$X$X=X$X;X=X;X;X*X=X$X*X=X3X;X=X=X;X$X=X$X$Xd.p.d.=X=X;X#X=X;X#X=X$X#X#X$X$Xd.p.p.0.0.0.w.0.0.0.p.9.0.p.a.9.u.p.p.#Xp.d.d.p.0.d.9.s.a.a.s.#Xs.9.6.p.6.u.u.3.y.9.u.a.0.9.u.s.u.9.0.0.0.0.0.0.0.0.9.w.9.s.p.a.p.s.p.s.0.w.0.0.6.6.9.6.3.9.9.6.9.9.6.6.0.u.d.d.s.9.9.9.0.0.0.p.p.s.w.0.p.0.w.e.w.p.q.w.w.w.w.w.w.m.w.e.w.w.w.p.p.@X0.0.w.w.5.9.5.5.4.2.2.2.e.e.e.3.2.9.9.2.4.6.9.9.",
"e.e.e.e.e.e.w.w.8.8.x.>XyXyXtXrXrX8X8X8XwXrXrX8XrXyXrXrXrXrXtXyXyXyXrXrX8X8X8X8XrX8X7X7X>X>X>X>X:X>X:X>X5X8X8XwX8XwX8X8X8X8X9XwXrXrXrXrXrXrXwX7X8X8XrXyXyXyXrXrX7X7X7X7X7X5X7X7X7X7X7X8X8X8XwXwX8X7X8X8X8X8X8X8X7X7X>X7X8X8X8X8X8X1X1X1X1X1X8X8XtXtX8X1X>X1X1X2X%X%X%Xq.w.e.2.6.9.6.w.2.e.e.0.0.9.d.6.e.q.q.q.d.w.e.w.0.0.0.9.0.0.p.5.d.5.5.f.y.g.u.i.g.t.t.t.t.t.4.g.g.h.j.-X;Xg.g.u.u.g.t.i.g.g.f.u.g.g.4.t.t.j.j.h.g.g.;X*XPXPXf.=Xf.PX=XPX;X=XKXPXCXPXLXPXf.;XPXCXKXLXCX3X3XCX3X3X3X3X3X4X3X3X3X3X3X3X4XCXSXCXSXCXCXZXFXZXZXZXCXfXZXCXfXSXJXFXCXFXAXZXSXFXAXFXFXZXJXFXgXZXJXFXZXZXZXGXFXAXDXxXvXxXdXrXrXpXrXrXpXpXpXtXyXrX8X8XuXyXyX0XtXyXrXyXyXyXxXdXxXfXfXvXAXAXAXxXZXAXGXZXFXZXZXFXfXAXCXFXZXFXZXZXFXZXFXxXFXZXfXZXFXCXfXyXyXrX7X>X<X>X:XN.N.w.q.q.q.x.x.%Xx.q.q.x.@Xp.w.2.p.s.0.w.w.w.q.p.@X#X%X%Xw.w.m.%X4X2X,X,X,X2X2XuXtXtXtXtX1X2XtXuX8X8X1X1X8XuX1X,X,X,X%X:X:X1X8XuXfXfXfXfXfXfXZXCXZXAXAXAXZXZXxXxXuXuXtXtXuX2X,X3X%X%Xq.r.r.r.r.6.y.i.i.h.h.g.f.f.h.*X-X-X-X-X*X&Xh.=Xf.f.d.f.$Xd.d.p.u.y.p.d.d.p.d.d.d.p.d.d.#X=Xd.=X#Xp.$Xd.$X#X#Xp.$Xd.d.p.p.d.d.d.$X#X#X#X$X$X#X#X#X#X#X$X$Xf.d.d.d.p.@X0.0.q.d.0.0.0.s.p.p.s.a.0.p.a.d.0.#X0.s.0.p.0.0.0.p.9.s.9.u.0.2.9.6.9.s.u.9.9.9.p.0.9.0.p.a.p.0.0.0.w.0.p.s.0.9.0.0.0.w.0.w.0.0.9.0.9.9.9.u.u.9.6.6.2.2.9.6.9.9.6.6.p.u.0.0.0.0.0.w.p.0.6.6.w.w.w.w.w.w.w.w.w.w.p.$X%Xq.q.w.w.w.w.w.w.q.p.p.p.0.9.9.2.2.2.2.3.2.6.6.s.a.s.9.2.2.6.9.",
"6.6.9.0.q.m.q.w.x.x.:XtXyXtXtXyXyXrX8X8X8X8XwX8X7X8XrX8X8XrXrXtXrXrXrXrXrXwXrXyXyXrXrXyXyXtXwX8X6X6X6X8X8X7X8X8X8X8X8X8X8X8X8X8X7X8XrXrXyXyXrX7XrXrXrXrXrXrXrXwX8X8X8X8X8X8X8XwXyXrXrXrXrXrXrXrX7X8X8X8X8X8XwXwXwX7X7X7X7X8X0XtXtX8X1X1X1X1X1X1X1X1X:X%X@X%XN.x.N.q.w.e.2.6.9.6.0.9.w.m.q.q.q.q.#X=X3X=X%XPXCX$X#X$X=X$Xd.d.d.f.f.d.*Xi.f.&Xf.h.f.h.g.t.t.i.5.t.t.t.t.i.i.h.h.g.g.h.f.g.h.h.h.g.h.;XPXh.h.g.h.h.h.h.h.h.-X;X=X-Xf.h.=X&X;X*X6.y.*XPXf.u.&X&X&XPXLXPXPX;XLX;XCX3X3X3XPXCX3X3XCXCX3X3X3X3X3XSXSXCXSXSXCXJXCXFXSXFXSXFXFXFXSXKXCXZXFXFXJXZXSXSXSXJXCXZXCXFXZXFXCXSXFXCXZXtXfXZXxXFXCXxXyXAXxXxXxXzXbXbXbXbXvXxXxXAXZXZXFXAXAXAXDXAXAXAXAXDXvXZXDXFXAXFXAXGXFXGXZXZXFXJXSXfXGXfXJXSXSXSXSXFXFXZXSXSXFXFXZXgXFXZXZXAXAXFXvXbXyX8X8X:X:X:X:Xx.x.x.w.x.x.@X%Xx.w.w.w.m.w.q.0.p.@X%X@X%X%X%X%X=X=X@Xw.x.4X3X3X3X,X,X%X%X2XtX1X:XuX1XuXuXuX2X8XuXtXuXuX1X1X1X8XtXuXtXuXCXuXfXfXfXZXAXZXFXFXSXSXZXCXCXCXCXuXuXuX3X3X4X%X@X%Xe.r.r.r.e.u.$X&X=X&Xf.f.g.i.f.f.f.f.&X&X=X&X;X=X=X*X$X&Xp.p.d.p.0.p.p.9.0.d.p.@Xp.d.d.d.p.#X#Xd.#Xd.p.a.p.p.p.d.0.d.u.p.$Xp.p.0.p.u.p.p.d.p.d.p.9.0.a.d.p.p.d.#X$X#X#Xa.#Xd.m.@Xp.0.9.p.6.0.9.s.s.0.d.p.#Xp.0.p.a.w.p.w.p.0.6.9.0.u.6.9.p.0.9.6.9.0.0.9.6.6.4.4.6.9.9.9.0.s.p.0.0.s.s.s.0.a.0.w.6.0.0.0.0.9.9.9.9.9.6.6.9.6.6.3.6.9.3.9.u.6.9.6.6.2.6.9.9.9.0.s.0.0.w.6.6.6.w.w.q.w.w.w.w.w.0.q.w.w.w.w.w.w.w.w.w.q.p.p.p.s.9.s.0.9.6.9.9.6.2.4.3.2.4.2.2.2.6.",
"p.=X$X9.6.q.q.m.,X2XuXuXtXtX6X8X8X8X8X0X0XtXtX8X8X8XwXyXtX8X8X8X8X8XyXwX8XrXrXyXrXyXtXtX8X<X>X<X>X8X<X8X8X8X8X8X8X8X8XyX0XrXrXyXrXyXtXyXtXrXtXtXtXtXtXyXtXrXrXrX0XyXrX8X8X8X8XwXwXwX8X8X7X8XrXwX7X8X8X8X8X7XwX8XwX8X8X8XtXtXtXtX1X2X:X%Xq.q.x.@X%Xq.w.2.e.6.q.w.e.e.6.9.0.p.p.0.w.9.w.w.p.#X%X4X3X4XLX@X;X3X0.p.6.$X;X;Xf.f.;X=Xf.g.f.-Xh.i.g.i.t.3.5.t.t.t.t.i.u.t.t.t.g.i.i.i.g.h.PX*Xg.f.g.f.*X;X;X-X=Xf.*Xh.*Xh.&X*X;Xh.=X=X=X$X;Xi.PXf.h.f.-X-Xu.u.h.u.*X-Xf.f.g.g.g.*Xf.t.6.;X;XLX3X;XPXCX3XPX4X3XPXLXCXCXCX3XKXCXLXLXCXSXCXLXSXLXCXKXLXLXCXLXLXKXSXFXLXSXCXCXSX3XCXCXCXCXuXSXuXLXuXuXuXCXFXCXCXHXSXFXSXZXFXZXSXSXZXFXGXFXJXJXGXGXGXGXJXFXFXJXZXFXGXFXSXZXSXSXZXZXSXSXLXFXSXCXFXuXCXCXCXCXLXCXFXCXKXSXCXCXKXFXFXFXJXHXFXJXSXJXFXFXHXZXfXtXfXuX8X1X2X2X2X3X2X2X2X2Xx.q.N.@Xx.x.w.%X%X@Xx.w.w.e.e.w.w.q.w.q.@X%X4XuXuX3X2X2X8X1X1XtX8XuXuXfXtXuXtX8XtXuXfXxXfXZXAXZXZXFXSXSXSXZXCXCXZXZXCXCXCXCXCXuXPXuX3X4X%X4X#X@Xw.w.e.e.r.r.3.p.d.p.i.a.d.f.p.u.i.f.f.f.d.a.a.f.f.f.d.f.&Xf.$X*Xd.#X$X$X$X$X$Xa.#X#X#X$X$X=Xd.p.d.d.#Xp.a.p.m.#Xp.0.d.a.a.p.p.p.p.#Xp.p.0.p.p.0.0.p.p.0.p.#X@X0.p.p.0.0.0.p.a.@Xa.@Xa.a.a.p.p.s.d.s.0.6.9.u.9.u.p.0.0.9.a.p.0.p.p.p.s.s.a.a.a.s.s.p.u.u.6.9.9.6.9.6.6.9.0.s.0.9.a.s.0.p.p.p.p.0.0.0.0.9.0.0.0.0.0.0.6.9.w.0.0.6.9.6.9.6.9.2.3.p.6.9.6.3.6.3.3.6.9.9.9.9.0.s.0.0.w.0.w.6.w.w.q.w.w.w.w.6.0.0.0.w.w.w.w.w.w.w.w.w.w.0.p.p.0.0.p.w.0.w.0.0.6.9.0.w.9.9.0.s.",
"3.u.0.6.2.w.@X3XuX1X1XtXuX8X8X8X8X8X8XtX0XtXtXtXtXtXtXyXtXwX8X8XwXwXwXwX8XwX8X8XrX8X8X>X1X>X>X>X<X8X8X8X8X<X>X:X>X8X8XtX0XrX0XyXyXtXyXtXtXyXyX8XyXtXtXtXrXrXrX0X8X8X8X8X8X8X8XwX8X7X8X7X7X<X8X8X8X8X8XwXrXrXrXwXrXyXyX8X8X1X1X:X%X@Xw.e.7.2.6.9.9.u.0.4.s.=X#X0.d.$Xd.0.9.9.u.d.9.0.p.@X%X;X=X#X=X#X=X#X;X=X$Xf.&Xf.h.f.h.h.h.t.u.i.i.t.4.4.t.t.t.t.i.g.t.t.u.t.u.i.u.t.t.g.i.t.5.u.*Xf.5.g.g.g.p.a.f.f.f.f.f.&X&Xf.i.f.*X&X$Xd.p.$Xf.d.&Xf.h.-Xh.-X;X-Xh.g.h.;X;X-X*X*X*Xh.f.g.h.g.h.f.i.&X=X&Xi.d.d.u.$Xp.$XPX=X=Xd.$Xd.d.=X3X3XCXPXLXCXCXCX3XLXLXCXLXCXLXCXLX3X3X#X%XLX3X=X3XCX4XLXPXPX3X3X3X=X3XCXLXCXLXKXLXFXFXSXJXKXSXFXFXFXKXJXFXFXFXFXFXFXFXSXSXFXSXSXCXLXCXSXCXKXLXLXCXSX3XLX3XPXCXCXCXCXLXKXCXCXLXCXPXLXKXLXKXLXFXLXFXSXKXFXFXSXFXFXFXSXSXZXZXCXSXSXSXSXFXSXZXFXCXCXuXuXuX3X3X3X2X4X4X4X4X4X%X4X%X%X%X#X@X@Xm.%X4X3X1XtXtXtX1X2XtXuXtXuXfXuXfXCXZXSXFXFXSXZXSXSXSXCXSXCXCXCXuXuXuX3X3X3X3X=X=X=X=Xs.e.4.r.r.r.4.6.3.y.f.f.i.i.f.f.f.f.&Xf.f.d.p.i.p.u.u.y.u.p.p.p.a.a.p.a.#Xa.p.a.#Xp.#X#X#Xa.#Xa.d.d.p.#X#Xd.d.p.d.d.@Xp.0.@Xa.a.#Xd.d.p.p.p.p.d.p.p.p.p.a.p.p.p.p.0.0.p.0.0.p.p.p.a.p.p.p.@Xa.m.p.m.d.a.d.a.d.a.a.a.s.p.9.u.u.9.0.u.p.p.p.a.p.m.a.#X#X$X#Xd.a.s.p.u.u.p.0.6.9.9.w.9.6.6.2.9.0.s.6.9.9.0.0.0.0.0.9.9.6.6.9.6.9.0.9.9.w.9.9.9.6.9.0.9.3.2.3.9.4.3.6.6.5.6.6.3.3.3.6.9.s.0.9.w.s.p.w.2.6.w.q.w.w.w.w.w.0.0.w.w.w.w.6.w.w.w.w.w.w.w.w.w.w.w.q.q.p.0.0.w.0.0.0.0.s.p.9.4.",
"s.d.0.w.p.%X4X4X3X1X1XtXuXtXuXuXuXtXfXxXxXfXfXyXuXyXyXyXwX8X8XwX8X8X8X8X8XrX8X0X8X8X8X8X8XtXyXuX8X8XwXwXwX8X8X8X7X7X>X7X7X8X8XrXtXrXxXtXwXrXpXpXrX8X8X7X7X8XwXrXtXtXrXrXyXrXrXyXpXrXrXrX8X7X7X7X8X8XrXrXrXrXwXrX8X8X1X1XtXtX8X2X,X@Xq.p.#X$X#Xp.6.3.9.5.u.9.6.9.d.f.9.6.5.y.u.i.u.u.f.*X*Xh.f.f.=Xf.f.PX-Xg.-Xh.g.h.-Xg.g.t.5.t.t.5.t.t.g.f.t.t.t.i.5.t.t.t.t.t.t.u.f.i.t.t.i.u.i.u.u.f.i.t.t.u.f.p.i.y.u.f.a.&Xf.f.y.p.f.$Xp.9.d.$X#Xd.u.y.y.y.t.u.h.h.f.h.f.g.*Xg.f.h.-X*X-X*X;Xf.f.h.5.;X&X&Xf.h.t.t.u.g.g.g.j.g.9.u.6.5.f.;Xh.6.5.u.PX9.5.$X=Xf.*X;X;X-X=X;X5.4.5.g.f.5.u.u.;X9.f.u.5.i.5.;XPXCX;XCX*XPXLXCXLXLXLXLXLXCXLXLXLXLXLXLXLXKXLXLXSXCXCXCX3X3XCXCX3XPXCX3XCXCXCXCX3X=X;X3X=X2.#XPXPX3XPXPXPXPX=X3XCXPXCXCXCXPXCXCXCXLXKXFXFXFXFXFXSXJXJXJXKXSXCXLXSXKXKXLXLXLXCXLXCXLXLXLXLXSXLXLXCXLXCXLXLXSXKXLXKXLXCXuXCXuX3XtX3X4X3XuX3X3X3XuXCXCXCXLXSXSXCXCXCXCXCXCXPXCXPXPX3X3X4X$X#Xd.p.9.4.6.3.4.4.4.4.4.4.6.*Xh.g.g.f.h.g.f.f.f.i.i.p.p.9.5.y.p.p.u.p.p.a.a.a.a.p.p.p.a.a.u.p.$X$Xa.u.u.a.a.a.a.#Xp.@Xp.@Xp.p.q.p.@Xd.d.d.p.p.d.p.p.d.p.p.0.p.0.p.p.p.p.p.s.p.a.p.m.@X@Xa.a.p.p.@Xp.p.#X#X@Xp.#X@X@Xp.@X#Xa.$X#Xp.#X#X$X$X$Xd.#X#Xp.a.p.0.9.0.d.%X4X%X%X#X*X#X#Xd.s.d.s.0.a.p.p.a.0.w.2.0.0.w.w.s.w.9.0.p.0.9.0.9.0.0.p.0.a.#X#X#X#Xa.d.p.9.9.0.6.0.p.0.9.9.9.0.u.p.u.9.3.3.6.3.3.5.5.3.9.9.9.9.9.6.w.0.9.w.w.9.w.0.0.w.6.6.6.w.w.w.0.m.s.p.0.w.w.w.w.2.w.0.p.w.6.e.w.0.6.0.p.p.s.s.s.0.",
"6.w.q.#X4X%X4X3X1XuXtXtXtX8XtXtX8X1X1X8XtXtXtXtXtX8X8X8XtXtXtXuXpXuXuXtXtXtX8X8X0X0X8X8X>X1X<X1XuXtXyXuXtXtXyX8X8X8X8X8X8X8XrXtXtXwXwXwXyXrXwXrXrXyXrXrX8X8XwXrXrXrXwXrXyXyXpXzXyXrXwXrX8X8X8X8X0X0XyXyXrX8X8XtXtXtXtX1X1X3X1X4X@Xw.9.#X0.p.u.9.5.t.i.&X$Xp.;X;X*X;X&Xh.*Xh.g.t.g.h.-X-Xg.t.t.g.t.g.t.i.g.t.3.t.t.3.t.3.t.t.i.t.i.i.u.u.5.5.u.u.u.i.t.g.4.6.u.u.i.t.u.u.g.y.i.i.h.h.i.t.i.5.y.i.f.f.$Xi.d.i.a.f.f.f.d.i.f.d.d.0.p.0.p.9.p.0.i.5.5.0.i.g.i.g.g.9.5.f.f.f.&Xf.f.*Xf.i.h.u.f.f.&X&Xf.*Xg.h.u.h.-X;X-X-X;X;X;X-X-Xh.g.h.PXh.u.g.f.-Xu.h.h.h.t.9.4.3.5.3.t.t.t.t.5.5.5.u.i.t.t.i.u.-X;Xf.i.*Xh.LX;X;X;Xf.PX;X;X3XCXPXPXLXCX3X;X3X;X=XCXPX;XPXPX;X*XPX3X3X;X;X;X3X3X3X;X=X;X;X$X6.9.=Xu.4.5.5.5.9.4.3.;X=X*X;X3X;XPXPX=XCXLXCXCXKXKXLXKXLXCXLXLXCXLXCXLXLXCX3XCXCXLX3XPXPXCXCXCXCXLXLXKXKXCXKXLXLXKXKXKXKXKXCXLXKXSXFXCXCXCXCXCXPXCXCXCXPXCXPXPX3X3X3X3X*X#X$Xd.u.6.9.3.6.4.r.r.4.4.3.f.f.f.*X;X-X-X*Xh.u.g.t.t.t.g.u.g.y.y.i.f.i.i.p.d.a.d.$Xd.p.p.a.p.p.p.p.p.p.a.d.p.p.p.p.p.p.a.d.#Xa.s.a.a.s.#Xp.p.0.d.d.d.d.p.p.d.d.@X#Xd.p.p.p.d.p.d.a.d.p.p.d.#X@Xp.s.0.p.p.p.p.a.p.p.p.0.p.#X#X@Xm.@Xa.a.d.#X#Xa.$X$Xs.#Xd.#Xd.#Xp.9.0.0.p.0.p.0.d.d.p.@X0.p.s.a.0.s.u.0.p.s.s.0.0.a.@Xp.s.s.0.0.0.w.s.0.p.d.p.a.a.#X#X#Xp.0.s.p.s.9.9.9.9.p.w.w.0.p.0.p.0.6.2.6.9.9.9.2.2.6.9.9.9.5.3.3.3.2.6.2.2.2.2.2.6.w.w.w.6.6.0.q.0.6.w.0.0.w.w.w.9.6.s.p.0.0.w.w.w.w.0.w.w.w.w.w.6.2.w.6.w.6.6.w.5.5.",
"p.@X@Xq.m.%X%X@X,X%X2X2X2X:Xx.N.:XN.x.x.x.x.x.w.7.8.x.:X1X1X1X8X8X8XtX8XtXtX1XtXtX1X1X1X1X1X1X>X8X8XpXtXwXyXuX1X8X8XtXyXpXyXuXtXyXyX8XtX8X8XwX8X8X8X8X8X8X8X8XtXyXtXtXtXrXwXwXtXtXtXyXtXtXtXtXtX0X0XtXyXyXyXtXtX8X2X,X,X4X%X#Xw.r.r.6.f.5.6.y.y.-X*Xh.*X;X-X;X;X&X-X&Xh.&X*Xh.h.h.h.h.i.5.3.3.3.t.t.t.t.t.t.t.t.i.h.j.j.h.i.t.t.t.t.i.5.u.h.t.i.g.g.5.i.i.u.y.y.t.f.g.i.t.u.u.g.g.t.u.i.f.t.5.f.p.d.#Xs.p.9.i.u.p.p.d.6.0.9.p.9.d.0.w.0.w.p.p.0.p.d.p.u.p.p.0.d.d.p.p.p.u.p.y.6.9.i.5.y.u.y.i.f.f.*Xg.t.f.f.g.i.i.f.h.h.=Xg.*Xf.-XPX-X-Xh.-Xh.h.-XPX;Xh.PX;Xh.h.;X-Xh.h.-Xh.g.h.h.-Xh.i.g.t.-X-Xh.g.g.g.i.g.i.g.i.i.f.t.*X*Xh.*Xh.h.*X;X*X5.3.t.i.t.5.4.f.4.4.5.y.9.u.9.d.u.u.u.9.5.5.5.5.f.-X*X*Xh.-Xh.h.-Xh.h.*Xh.5.h.i.5.u.y.9.f.*XPX;XCX3X3X$XCXPXPX3X3XPX3XPX;XKXp.3X=X;X;X;X$X=X*X;X;X=X=XPX*Xp.&Xd.PXPXPXLX3X=XPXPXPXPXCXLXCXCXCXCX3X;X;Xd.0.s.0.9.9.2.6.3.5.5.t.y.f.i.u.i.h.*X*Xh.h.-X;Xh.&Xh.f.h.f.h.f.u.h.g.u.i.t.i.f.f.d.u.u.p.p.p.d.d.p.p.p.u.0.u.9.s.s.u.p.p.p.p.a.p.a.a.s.u.y.p.$X$X#Xa.d.@Xp.#Xp.d.0.p.p.0.p.p.d.p.p.p.d.@X@Xd.p.$X#X@X#Xd.a.p.d.p.a.d.d.p.@Xd.s.d.d.d.p.p.0.s.p.p.a.p.p.0.p.p.p.#Xa.$X$Xa.$Xa.a.p.$X#Xd.#X#X#Xp.p.0.a.p.s.@X0.@Xp.p.p.p.s.p.p.d.d.s.w.0.w.6.w.w.0.0.w.0.w.s.0.0.a.a.p.0.p.d.d.a.p.0.0.p.d.p.w.0.0.0.0.6.9.0.0.9.9.0.0.9.u.2.6.0.6.2.3.3.3.6.9.0.6.3.2.6.9.9.6.6.0.w.9.9.0.0.0.6.6.0.0.w.0.0.0.w.0.0.s.0.w.w.0.0.p.p.0.0.w.w.w.s.0.w.e.6.w.e.w.2.",
"q.q.q.q.q.q.@X%Xw.w.q.w.w.q.x.@X%X@X%X%X4X4X3X4X4X%X2X4X3X2X,X,X2X3X1X2X2X,X:X,X1X:X1X2XtX1X1X1XtX1XtX8XtXtX8X8X1X8XtXtX1X1X8XuX8X8XyXyX8X1X8X:X:X:X1X8XtX8X1X:X>X>X8X8XtXtXyXyXuXyXpXfXyXyXuXuXgXtX1X1X1X1X2X4Xx.x.%X%X#Xa.a.u.5.t.i.u.f.g.*X-X;Xi.h.h.f.f.f.f.i.f.u.t.u.i.i.t.i.t.t.t.i.g.g.t.t.i.i.i.j.j.i.i.g.t.3.i.t.t.t.t.t.u.i.i.t.t.g.t.u.t.u.h.u.y.i.u.i.f.u.t.u.i.u.t.t.5.i.f.u.f.i.5.p.#Xu.u.y.y.u.9.p.p.f.y.p.p.p.u.0.p.p.@X0.p.p.d.d.0.0.9.p.d.9.d.d.#X@Xd.d.d.p.$Xd.p.u.f.f.d.d.$Xi.f.f.4.4.6.u.g.f.u.u.*X&Xh.u.t.i.t.f.g.u.i.*Xf.f.f.t.g.-X*Xh.PX-Xh.h.h.g.t.h.h.-Xh.h.PX;Xg.h.h.h.h.h.h.-X;X;X;XPX-Xh.-Xh.*X-Xh.-X-Xh.h.-Xh.-X-Xh.h.h.g.h.g.g.h.&X=X;X;XPX;X;XPX;XPX;XPX;X*X-Xh.=X-X;X-Xh.*Xh.h.-X-Xh.;XPX=XPX-X*X*X*X;Xf.f.u.;X;X;Xu.9.6.9.;X&Xu.;Xp.6.4.9.u.u.d.u.f.f.=X*X$X$X$X&X;X;X&X=X;X=X&X=X=X;X$X;X;X;X;Xd.p.p.a.u.u.p.p.i.#X*X$X$X$Xf.=X&Xh.;X-Xh.h.*Xh.h.f.g.g.g.g.f.h.*Xf.f.f.h.h.i.u.h.u.i.f.i.u.u.9.u.i.u.u.u.u.y.s.s.p.p.p.d.$Xd.a.p.p.p.p.p.p.p.d.u.u.a.a.u.u.p.d.a.p.a.@Xp.d.p.p.0.d.#Xd.p.q.0.p.p.d.d.d.@Xd.d.@X#X#X$X$X=X;X3X;X=X=X#Xd.#X#Xd.$X#Xd.a.d.d.a.p.p.m.p.p.0.a.p.p.a.s.d.d.a.$X#Xd.d.#Xd.p.d.d.d.d.@Xs.0.p.a.#Xp.p.d.p.p.p.p.p.s.p.p.p.s.s.0.p.m.p.s.p.s.0.w.0.0.0.w.0.s.9.9.9.0.0.0.9.9.w.p.p.w.0.6.w.0.9.s.0.9.6.9.9.9.9.s.u.0.0.9.6.2.6.9.3.3.3.3.9.9.9.9.9.9.0.2.9.w.w.w.0.0.0.0.0.0.0.0.w.9.0.w.0.0.0.w.w.w.w.0.w.w.w.0.q.w.6.6.w.w.w.w.2.w.w.",
"w.q.@X@X%X%X@Xw.w.%X3X3X4X3X4X%X$Xp.0.2.0.@X3X3X3X4X#Xp.@X%X%Xm.@X4X4X%X%X4X4X3X3XuXCX4X4X3X4X3XgX3XuX1XuX1X3X3XgX1X2X4X3X3X3X3XuX1X3X:X2X,X2XuXuX2X2X%X:X%X:X:X2X,X2X2X2X1XuX1X1X1XtXuXuX3X3X3X3X3X4X4X%X@Xx.q.%Xp.s.0.9.9.u.9.u.i.i.i.h.h.h.f.t.4.h.f.5.5.5.u.i.f.i.f.&Xf.i.t.i.t.t.i.a.i.i.t.i.t.t.g.g.g.g.t.g.g.t.g.h.g.u.g.i.g.h.h.f.g.u.g.i.u.y.i.d.f.p.d.i.i.f.y.i.t.u.u.g.u.u.i.u.g.i.i.9.p.u.p.d.d.p.0.0.u.p.p.p.d.0.0.p.d.#X#X@X0.0.p.d.p.d.d.q.q.w.@X@Xq.q.d.@X#X$X#X#Xu.d.d.#Xp.d.d.p.9.$X$Xp.6.9.u.u.y.u.&Xi.f.u.f.h.h.*Xh.f.&X&X;Xd.$X;X;Xh.y.i.u.h.h.f.i.g.i.h.h.PX-X-Xg.*Xg.g.g.g.h.t.h.i.g.-X*X-Xh.h.-Xh.h.h.f.-X;X-X=X;X;X;X;X;X;X-X;X-XPX;X-X;X;X=X-X-X;X*X-X;X-XPX-XPX;Xh.*X-XPXPX;X-X-X-Xh.-X-Xg.h.h.*X;X-X-X;X-X*X;XPXPX;XPXPX;XPX;X*X;X;X=XPX;X=X;X=XPX;X;X;XPX;X;X;X;XPX;X3X;X;X;XPXPX;XPXPX=X=X3XPX;X=X;X=X*X*X*X=X*Xf.$X&X=X;X&Xf.f.a.a.f.i.f.a.a.d.f.i.u.t.u.f.f.i.i.a.#Xa.u.y.u.a.p.p.p.9.p.y.y.u.6.9.9.9.9.u.a.p.u.u.y.u.u.0.u.s.u.s.s.s.s.p.p.p.a.u.9.6.6.9.a.d.0.0.0.p.p.p.0.0.0.p.d.#X#X0.0.d.d.p.d.$X#Xd.d.p.d.#X$X#X#Xd.a.d.d.#X$X=X=X=X;X=X$X#Xd.p.d.d.#X#Xd.@X#Xa.d.p.@Xp.p.a.a.a.p.a.d.#Xd.$X*X*X*X$X$X#X#Xd.#X#X$X@X#Xa.@X#X#Xd.d.d.p.p.d.p.p.0.0.w.0.p.w.w.w.s.0.0.9.s.s.w.0.0.0.w.9.9.0.6.9.0.p.p.p.0.0.0.w.0.0.0.0.0.0.6.0.0.w.w.w.6.6.9.9.9.0.0.0.9.9.3.2.3.3.2.9.9.w.2.6.9.9.9.0.u.u.0.0.w.6.w.w.w.w.w.w.9.9.9.9.w.w.w.9.2.9.2.6.6.0.0.p.w.0.0.w.q.w.",
"@X@X#X#X@Xq.0.w.d.=X;X=X=X$X$Xd.9.6.9.5.p.p.d.6.9.d.$Xd.p.#X$X#Xd.$X%X#X=X;X3X3X3XCX3Xd.d.3X4XPX=X3XPX4X3X3X3X4X=X4X3X3X3X3X3X3X3X3XCX3XLX3X4XKX4X3X3X3X3X4X4X3X3X4X4X4X4X3X3X4X3X4X3X3X4X@X@X@X=X=X3X3X3X3X3X3X3X;X;X=Xf.f.*X&Xh.h.g.h.i.i.5.4.5.t.h.h.f.u.y.f.i.d.u.d.f.u.y.i.9.5.p.a.u.u.p.0.y.u.u.i.u.g.g.j.f.g.f.u.g.g.u.y.t.u.g.f.u.u.f.u.u.y.i.i.u.i.d.p.u.i.i.i.5.i.i.u.t.i.t.5.&Xf.i.p.p.u.d.0.d.p.0.u.u.0.p.0.p.p.0.p.p.d.s.@Xp.@Xp.p.p.d.q.@Xd.@X$X%X@X@X#X@X#X$X%X#X#X#X#X#X$Xd.#Xf.$Xa.$X9.p.p.y.u.d.f.a.&X&Xa.$Xp.a.h.a.a.&Xy.#X*X;X*X*X*X&Xf.&X&XPXh.f.a.-Xh.i.g.-Xh.h.*X*Xh.g.h.i.g.i.h.i.u.*Xh.h.u.h.i.f.f.h.-X;X;X*X$X;XPX;X=X;XPX;X;X&X*X;X;X;X;X;X*X*X*Xh.*X;Xh.-X-X;X-X;Xh.=X-X-X-X;X-X-Xh.-X*Xh.h.h.f.i.h.g.g.*Xf.f.f.=XPX;X-X;X;X=X;X;X;X;X;XPX;X-X-XPX;XPX;X;X;X=X;X=X=X=X3X$X=X;X;X;X3X;X=X#X#Xa.#X#X#X$Xf.d.*Xf.f.d.f.f.f.f.f.a.f.-X=X*X=X*X*X#X$X$Xd.d.d.p.p.f.d.f.d.d.a.a.d.d.u.p.d.p.p.p.p.p.p.u.0.u.u.u.s.u.u.p.#Xp.s.p.p.p.a.d.d.a.p.p.p.p.p.p.p.p.0.0.0.9.0.p.s.p.d.@Xa.d.s.0.p.p.s.0.a.0.p.@Xp.0.0.d.d.d.d.0.0.w.a.#Xd.#Xd.$X#X@Xa.d.d.#X$X=X=X=X%X$X$X#Xd.d.d.$X#Xp.d.p.d.p.p.#X#X#Xs.a.p.d.a.p.$X$Xp.p.d.d.d.#X#X@X@X0.0.s.a.d.#Xp.d.p.0.a.a.p.s.0.p.q.p.m.0.0.w.w.a.s.0.2.w.w.w.w.s.0.0.0.0.w.0.0.6.0.p.s.0.d.0.0.p.9.9.0.0.0.9.6.9.w.9.9.9.9.9.9.2.2.5.5.2.3.2.2.2.9.0.0.9.9.9.9.9.9.0.0.9.0.p.0.6.2.9.9.6.w.w.6.2.6.6.6.9.9.w.w.0.w.9.w.9.w.w.6.w.0.6.w.w.",
"4X%X#X#Xd.0.d.p.p.#Xd.9.6.5.9.g.y.t.i.y.f.y.y.u.;X*X*X*X$X=X=X$X*X;X*Xf.;X;XPXy.PXPXPX-X$Xf.;Xf.f.f.$X;XLXLXCXPXCX=X&XPX*X;XPX=XPXPXPXPXCX$XPXPXPXPXPX;X$X$X=X=X3X3X3X3XPXPXPXPXPXPXPXPXd.9.p.d.f.;X;X;X;X&X;X;X*Xf.&Xf.u.i.t.t.t.5.5.5.3.t.i.u.g.f.g.f.d.y.y.u.9.9.0.5.0.9.0.p.9.s.d.s.p.s.a.p.9.u.f.9.9.f.u.9.y.g.i.f.f.u.i.u.t.t.i.y.i.y.f.u.i.y.i.i.p.u.d.d.f.f.u.d.i.i.u.t.t.f.g.i.f.f.f.d.#Xd.d.0.a.p.0.a.p.p.p.d.0.p.p.0.p.0.9.0.p.p.p.d.d.d.@X@X#X#X#X#X%X@X#X#X%X4X%X=X=X%X#X@X#X#X#X#X$X0.#Xp.p.d.a.f.d.a.a.y.*Xp.p.f.a.*Xy.i.i.i.&Xd.f.f.f.$Xp.5.i.u.t.u.i.u.i.g.i.u.i.u.i.h.h.g.h.f.g.g.i.f.h.*Xh.h.h.y.t.y.f.y.f.f.#X$X=X#X$Xd.$X$X;X$X=X=X$X$X=X=X*X&X&Xf.f.f.&X=X&X&Xf.f.f.&X;X&X&X;X;X-X;X;X*Xh.=X=X=X=X*Xf.h.t.u.i.g.h.g.=X=X=X=Xf.=X;X;X=X=X;X;X;X3X;X;X$X*X=X*Xf.$X&X;X=X=X=X*X=X$X=X=X%X=X#X#X=Xp.d.@X$X@X@Xd.a.a.p.p.u.u.u.p.d.f.f.f.f.u.p.#X=X$X#X=X#X$X#Xd.d.#X#Xd.d.#Xd.d.f.d.d.$Xd.p.d.a.d.p.s.s.p.p.u.p.u.p.p.u.0.u.p.u.p.a.s.s.p.d.#X#Xp.s.p.u.p.a.p.p.p.0.0.0.9.9.u.0.a.s.0.p.a.p.p.0.a.d.p.d.0.a.0.u.a.p.d.p.p.u.p.d.#X$X$Xd.p.s.u.s.p.p.p.0.0.9.s.s.s.p.p.p.s.0.p.p.0.w.w.d.p.a.d.d.a.s.s.a.p.s.a.u.p.s.p.u.9.p.p.w.0.p.0.w.w.w.w.0.0.0.0.p.s.a.a.p.0.s.@X0.0.0.0.w.0.w.0.w.0.9.0.0.0.9.p.0.9.9.w.6.9.9.p.s.0.0.p.0.s.0.u.u.9.9.9.0.w.6.0.9.9.6.9.9.2.5.9.9.0.9.9.9.9.6.2.2.6.9.3.6.3.4.u.0.0.9.0.0.s.s.0.0.9.9.9.0.9.w.9.w.w.0.0.s.s.9.9.9.9.w.6.w.2.6.w.6.w.q.0.",
"#X;X*X=Xd.9.p.u.p.u.u.9.PX;X*XPXu.h.f.-X;Xh.f.*X-Xf.a.i.a.&X*Xf.f.g.u.t.f.u.f.u.*Xu.u.t.3.PXPX5.t.t.y.5.;XPXh.u.f.h.f.f.h.h.h.i.*X&X4.f.y.PXLXLX&Xi.;Xh.5.;XPXg.PX=XLX$X=X;X;X;X*Xf.f.f.y.t.i.i.h.&Xa.h.&Xi.5.6.y.t.u.5.5.t.t.3.5.t.u.g.t.t.u.u.i.f.f.f.d.u.u.0.d.0.q.0.q.q.0.9.0.0.p.w.p.w.p.0.u.u.d.0.0.p.u.0.i.9.u.f.u.u.g.9.t.t.i.t.i.u.u.u.i.d.f.i.u.d.d.p.i.d.u.p.y.y.t.y.t.u.f.u.y.i.f.d.p.@X#Xd.d.#Xd.d.d.p.0.p.p.d.p.0.9.u.u.u.s.p.p.a.d.#X#X#X%X$X#X#X#X@X$X=X3X3X4X3X4X;X=X$X#X@X@X@Xd.s.#Xd.p.p.i.p.i.i.f.f.5.5.i.f.g.i.y.y.i.i.y.i.f.=Xa.f.y.f.f.f.u.5.g.u.g.g.u.f.t.u.g.f.i.y.u.g.g.g.y.y.5.u.g.f.h.g.f.f.f.t.u.f.u.a.*Xd.$Xd.*X$Xf.d.=X$X$Xp.$X#X$Xf.f.f.$X$Xf.f.d.d.d.&X$Xf.=X=Xf.=X;X-X;X;X=X=X=X&X&X=X*Xf.f.f.f.i.i.&Xf.f.d.f.$Xd.f.f.f.$Xd.d.$Xd.d.a.d.d.d.d.d.d.$Xf.d.p.d.u.#Xd.p.d.#X#X#X0.p.#Xd.$X#X$Xa.d.#Xd.d.d.a.p.p.d.d.d.d.f.d.f.p.d.d.#X#Xp.a.0.p.p.p.p.d.d.p.d.@Xp.9.u.p.f.u.d.d.u.p.y.9.u.p.0.0.0.s.0.u.u.0.u.p.a.d.p.s.s.p.p.a.#Xd.p.p.a.p.a.d.d.d.a.p.d.d.d.#X$X0.d.d.p.p.p.p.#X#X#X#Xd.d.p.#X#Xs.0.6.p.d.p.p.d.#Xa.a.p.s.u.s.p.p.p.p.p.s.p.0.a.d.s.s.p.p.p.s.s.p.s.s.0.p.s.a.#Xa.a.s.0.s.p.p.a.p.p.a.d.d.0.s.0.p.0.0.s.0.0.0.0.2.0.0.s.0.0.s.s.0.s.p.p.w.s.p.p.s.0.w.w.9.0.0.s.0.p.0.a.s.0.0.s.u.s.0.p.u.3.4.2.6.9.9.0.u.0.9.9.0.w.0.p.s.0.0.0.s.s.p.s.s.s.0.9.2.2.3.6.2.2.2.9.9.6.2.9.9.9.9.9.0.y.s.0.0.9.3.9.5.5.2.2.4.4.2.2.2.2.2.2.2.2.6.9.0.9.w.w.6.w.q.0.",
"PXf.$X$X&X-X$Xf.*X*X&X*Xf.-XPXu.g.f.f.h.i.*Xh.-Xf.h.h.h.f.f.f.i.f.i.t.t.i.t.g.g.g.5.g.t.i.t.f.g.t.h.g.g.g.u.;Xt.g.g.g.g.g.i.i.t.t.5.4.-Xi.h.g.t.u.i.t.4.t.t.u.h.4.-Xf.t.i.y.5.3.4.4.6.i.u.t.t.t.t.t.u.g.f.y.y.i.f.g.f.g.i.g.u.g.u.t.y.u.y.t.y.u.y.u.u.p.p.0.u.p.d.w.0.0.0.q.p.9.0.0.a.0.a.0.d.d.9.9.u.0.s.u.i.p.a.i.i.g.u.g.i.g.i.y.i.y.f.i.9.i.g.f.d.u.u.d.#Xd.p.d.p.u.y.i.a.i.y.i.f.i.h.f.y.u.#X#Xd.@Xp.p.0.p.p.p.0.p.p.a.d.u.9.p.a.p.s.s.p.d.d.#X@Xs.d.a.d.d.#Xd.#X$X$X%X$X#X@X$X%X%X4X%X%X%X$Xd.d.p.d.#Xd.y.y.y.y.f.6.f.&X&Xu.f.f.f.&X=Xf.y.u.u.i.5.f.y.f.i.i.g.g.h.h.u.f.f.y.f.f.*Xh.f.y.y.u.i.i.g.u.i.u.u.i.g.f.h.h.f.h.*Xf.g.i.u.i.f.&Xf.&Xf.d.f.f.*X&Xf.d.d.#X$X#Xd.d.#Xd.p.p.f.p.9.d.$X=X=X=X=X=X=X=X=X*X$X&X=X=X=X$X=X;Xf.f.i.p.d.d.#Xd.$X$X$X$X*X#X#X#X$X$X$X$X#X#Xd.#Xd.#Xd.0.#X=X#Xd.f.a.p.u.9.#X#X0.u.u.d.d.#Xs.@Xd.@X@X@Xp.q.p.p.p.p.d.p.p.p.d.#X0.u.#X#X#X#Xa.s.a.p.p.p.p.p.p.p.d.d.d.d.9.p.d.u.d.u.9.u.p.u.0.u.p.u.u.u.u.u.s.s.s.u.9.u.s.p.p.p.u.u.s.p.a.d.d.#X#Xd.d.#X#Xd.d.d.d.#Xd.p.a.a.p.d.p.p.d.#Xd.0.p.p.d.#Xu.p.d.$X#Xp.s.p.p.p.p.d.d.a.d.#Xp.0.0.p.0.d.p.0.p.p.0.0.9.9.9.s.a.a.d.p.p.p.s.p.p.p.p.p.0.0.u.9.u.p.p.p.p.a.d.0.0.p.a.p.0.s.p.m.p.0.0.p.p.0.0.0.0.p.0.s.p.a.s.s.w.9.6.w.9.0.0.s.0.p.0.0.0.0.9.u.0.p.s.0.9.y.p.s.s.0.s.s.0.0.9.9.0.w.0.w.s.s.9.9.s.s.9.s.y.y.y.9.2.2.2.2.3.9.9.6.6.2.3.9.9.3.5.9.9.9.9.9.6.6.9.9.9.6.2.6.6.6.4.2.3.2.2.2.9.9.2.2.9.9.2.w.w.w.",
"f.u.u.y.f.y.i.f.i.h.5.i.y.5.f.f.f.f.i.f.5.i.h.f.u.u.t.t.i.i.t.5.u.t.u.t.g.g.i.t.u.g.i.t.t.i.h.g.h.t.g.i.i.-X-Xi.i.g.i.i.i.i.t.i.i.g.t.i.i.h.h.g.g.g.g.i.i.5.g.t.g.t.-Xh.u.f.h.i.i.i.u.i.t.t.t.g.u.t.i.u.i.y.u.f.f.u.u.t.u.t.t.g.u.t.t.t.i.d.i.y.y.i.d.#X#Xd.p.p.p.0.@Xp.0.p.@Xd.p.0.p.0.p.9.9.9.p.p.p.u.p.9.p.y.i.u.u.y.u.f.u.g.f.y.y.5.i.i.y.g.f.d.u.u.p.d.#Xd.p.a.u.u.u.u.a.a.y.t.f.f.g.i.i.u.p.p.p.@Xd.p.0.d.p.d.0.p.0.s.d.p.p.i.y.u.d.$X#Xd.p.d.@Xp.@Xd.p.0.d.p.d.#Xd.@X%X@X#X=X=X;X4X=X4X3X;X;X=X#X#Xd.d.u.f.f.f.4.u.3.i.y.f.5.u.6.5.u.9.d.d.d.#Xd.d.y.i.d.g.d.9.g.u.p.=X#X$X$Xi.i.y.d.y.f.t.u.i.i.t.5.5.5.i.t.5.5.u.i.t.t.t.i.f.h.u.f.f.f.&X&Xf.f.y.f.f.d.$X$X#X$X=X=X=X=Xd.p.u.d.d.p.f.d.f.f.d.d.d.d.d.d.=X=X=X*X#X$X$Xf.$X$X$Xp.d.#Xd.p.d.#X#Xd.p.d.p.#X0.0.0.0.9.0.d.#Xp.p.d.#Xs.d.#Xp.$X$Xd.d.d.p.p.0.d.u.0.d.#X$Xd.$X@X@X@X@Xd.p.p.p.p.p.#Xa.d.a.#X#X*Xd.#Xa.#X$X#X$X$X$X@Xd.d.d.p.p.p.p.d.#Xp.d.d.u.d.p.0.0.u.p.p.0.u.0.u.u.u.0.9.9.9.u.u.u.u.p.p.s.9.u.u.u.p.p.p.d.d.d.p.p.p.p.d.#X0.p.p.p.d.d.d.d.#Xd.d.@Xd.p.p.d.p.u.9.9.0.9.u.s.a.u.0.u.p.u.u.a.p.d.p.0.s.d.p.d.0.9.p.d.0.0.0.0.a.d.d.a.#Xd.#X#X#X#Xp.p.p.p.p.p.a.9.u.s.0.s.0.p.p.9.6.0.p.s.0.0.m.#X@X#X#X#X#Xd.$X#X#X%X=X$X@Xa.a.a.p.0.0.s.0.0.0.0.0.p.0.0.p.a.d.#Xp.p.s.0.y.s.u.0.0.9.9.y.9.0.s.0.0.6.2.2.w.w.5.5.0.0.9.9.9.9.9.9.9.9.9.9.2.3.9.6.9.9.2.9.3.3.3.3.3.3.9.9.9.9.6.9.9.9.6.6.9.9.9.9.2.2.2.2.9.9.9.0.s.s.0.9.w.w.",
"a.u.g.u.i.t.f.5.g.f.f.9.y.u.f.*Xf.u.i.f.y.y.6.i.5.u.y.9.y.y.y.f.f.t.5.6.t.t.y.t.u.g.f.PXu.t.5.t.5.i.i.u.f.h.g.g.t.t.u.t.5.t.g.t.i.h.i.t.t.h.i.u.u.5.u.t.i.i.t.5.u.3.i.5.u.t.u.i.t.t.5.i.g.i.u.i.5.6.u.y.i.d.d.f.i.g.i.t.u.i.u.u.y.t.y.6.5.u.d.#Xp.p.p.d.d.d.p.p.0.s.p.s.0.p.0.p.9.0.s.d.d.u.u.u.0.s.u.9.p.u.f.i.f.5.y.y.y.f.i.t.f.u.u.u.i.g.f.i.i.i.u.9.y.y.p.u.#Xp.u.p.u.5.y.f.y.f.i.i.d.5.9.u.p.p.u.9.0.0.0.w.p.0.0.p.p.d.#Xd.i.u.u.u.u.u.0.p.0.s.p.0.a.p.p.0.p.u.p.d.p.d.#X#X$X%X$X@X#X#X$X=X%X=X=X=X;X=X=X=X*X=Xd.p.d.#Xp.#Xp.d.p.f.$Xp.$X$X#X$Xd.#X6.9.0.p.$Xu.d.#Xd.=Xd.d.d.$X$X*Xd.&Xu.f.y.y.u.i.f.h.h.f.h.f.g.i.h.g.f.g.i.f.f.h.f.f.i.u.f.f.$X&X=X*X#Xs.$X$X#Xd.d.#X$X#X$X#Xd.d.d.#X#Xd.d.#X$X#X#X$X$X$X#X#X#Xd.p.d.=Xd.#Xp.#X#X$Xd.d.$X0.p.#X$X$X#Xp.d.#X#X#X#X#X$X$X#X0.p.d.#X#X#X#X@X@X@X@Xd.q.q.@X@X@Xq.q.@X#X$Xd.$X%X#X#X@X@X@X#X#X#Xp.d.p.d.d.d.p.s.p.#Xa.#X#X0.d.p.p.p.p.#X#Xd.d.$X@Xp.0.d.d.#Xd.#Xd.a.s.p.d.a.u.0.0.p.p.0.u.0.0.0.p.p.0.0.p.p.0.s.p.u.u.u.u.u.p.u.p.#X$Xd.p.s.u.d.#X#Xd.p.s.s.p.d.p.p.p.0.p.p.p.u.p.p.d.a.u.u.u.u.a.p.0.u.p.p.p.s.a.d.a.a.d.p.a.#Xu.u.s.s.#X$X*X*X=X=X*X=X=X*X$Xd.d.#X$X$X#X@Xd.p.9.s.p.p.p.p.a.p.0.0.s.p.a.a.a.0.m.#X#X#X#X$X=X=X*Xd.s.p.a.p.0.p.p.s.0.0.u.s.y.0.0.0.0.9.3.6.9.9.0.9.9.0.9.u.u.u.u.p.s.s.s.9.u.s.s.y.y.9.0.0.9.0.9.w.9.9.9.9.9.9.9.9.5.2.2.9.0.6.2.6.9.4.2.4.2.3.3.3.3.3.3.3.9.0.0.u.u.u.0.0.w.3.3.4.3.2.2.3.3.9.3.3.3.3.6.9.9.",
"*X&Xh.i.i.i.y.i.y.u.i.u.u.g.u.g.d.9.5.u.9.6.0.0.9.9.9.9.i.u.5.5.9.u.u.y.y.i.y.t.u.u.h.u.5.t.t.u.5.u.t.5.y.f.t.t.t.u.u.3.f.t.t.u.i.t.t.f.i.u.t.t.u.3.3.t.i.5.t.i.u.u.t.y.i.a.t.i.i.a.y.i.i.i.u.u.y.y.f.d.i.p.p.p.p.d.d.p.d.d.u.u.y.i.f.f.d.d.u.#Xd.p.p.p.p.d.p.p.@X@Xp.p.d.@Xs.q.a.@X@X#Xd.d.p.p.#X#Xd.0.d.d.f.u.d.u.d.i.y.f.i.u.u.9.9.i.g.i.i.5.u.f.f.p.u.u.$Xp.a.d.a.s.y.9.i.i.y.u.5.i.i.y.$Xd.d.p.d.d.#X#X$X#X@Xd.d.#Xp.a.p.p.f.d.#Xd.p.0.p.#Xd.d.0.0.p.d.d.d.d.d.d.#Xd.d.#X@X@X$X$X$X$X$X$X$X=X$X#X#X$X#X#Xd.$Xd.a.d.=X$X$X#X$X*X=X=X*X*X=X=X=X#X*X*Xd.d.$X$X;Xf.f.$X#X=Xd.d.a.d.a.d.d.$Xa.d.f.g.f.f.f.g.i.u.4.t.i.t.i.t.g.-Xu.i.h.f.f.i.&X=Xf.$X$Xf.p.p.p.d.d.$X$Xd.d.$X=X*X#Xd.p.p.u.0.u.p.p.p.d.p.u.d.#Xd.#X$X$X=X=X$X3X=X=X$X;X3X;X#Xp.d.$Xa.d.d.$X#X#X$X;X;X=X$Xd.#X#X#X#X#X@X#X@Xa.s.p.0.0.p.@Xd.q.q.q.q.q.d.@Xd.q.q.@Xd.d.d.p.p.p.p.p.#Xp.p.p.p.d.d.p.p.#X$Xd.#X#Xd.3Xd.d.d.#X*X*X*X$X%X%X$Xd.$X$X#Xp.#X#X@X@Xm.#Xm.a.p.p.p.p.0.p.d.p.d.d.d.#X#X#Xd.p.p.p.s.u.u.u.u.p.9.u.s.s.s.a.#X$Xd.d.d.d.d.d.#X#Xp.d.d.d.p.d.0.0.0.d.$Xd.a.u.0.3.3.s.s.9.9.s.u.9.s.s.s.s.0.p.s.a.p.s.#X*X*X$X#Xa.#X$Xd.u.s.s.a.#X#Xd.d.#Xd.#X#X#X=X*X*X$X#Xd.d.#X#X#X@Xp.p.a.@X#Xa.m.p.a.p.0.d.@X$X#Xa.u.p.s.p.a.u.s.p.u.s.s.s.u.0.9.0.0.y.9.9.p.0.s.u.0.s.0.0.9.0.0.0.0.0.9.2.9.9.9.3.9.5.9.w.5.0.w.5.9.9.0.9.0.9.9.9.0.0.2.2.6.6.6.2.9.4.2.2.9.3.2.4.4.3.3.3.3.2.2.6.9.9.9.9.9.9.u.u.u.y.9.9.9.9.6.3.2.3.9.9.s.",
"-Xf.i.h.g.u.i.u.i.f.5.d.9.p.d.u.p.9.d.d.0.d.d.0.0.d.d.d.u.9.9.9.9.p.p.u.y.p.f.p.u.h.;Xg.i.f.f.f.f.i.i.i.y.$Xi.i.i.y.y.i.i.5.u.y.u.u.u.u.5.5.u.u.y.i.5.u.i.6.u.9.y.u.y.9.u.y.u.y.u.p.u.i.u.p.a.p.u.0.u.p.p.d.d.d.p.0.p.d.p.u.u.u.i.i.i.9.9.u.9.d.d.d.#X#X$X=X#Xd.#Xd.p.d.p.@X0.q.q.p.m.@X@X@X@X@Xq.q.0.0.d.d.d.0.0.d.d.p.u.d.u.d.f.f.d.f.$Xf.u.i.9.i.p.u.u.9.d.p.u.a.p.0.y.y.a.u.g.h.u.y.0.5.u.d.d.d.#X=X$X@Xd.p.0.0.d.#Xp.d.d.$Xs.u.9.0.p.@Xd.d.p.p.0.p.p.d.0.p.0.p.s.p.a.p.@Xp.@X#X$X$X$X$X#Xd.p.0.d.s.0.9.p.d.p.i.p.$Xd.$X$X$X*X&Xf.*Xf.5.d.d.$Xp.#X*Xf.i.u.d.d.f.u.f.d.i.d.s.d.p.y.p.a.#Xf.f.u.g.f.i.u.5.i.f.f.f.f.i.h.g.f.h.5.t.u.t.f.i.i.i.i.g.d.$X=X;X*X$X=X$X#Xd.f.$Xf.p.d.d.$X$X$Xf.f.$X&X$Xd.f.p.f.*X$X$X*X=X;X;X$X$X#X@Xp.@Xd.p.d.#X#X;X#X#X#X$X#Xd.d.d.$X$X*Xd.a.p.d.a.p.d.$X$Xd.d.d.#X$X=X$Xp.0.p.#X@X@X@X@Xd.p.@X#X#X#X$X$X#Xd.d.d.#Xa.d.#Xp.#X#X#X#X#X#X@Xa.@Xa.=X$X#X#X#X#Xd.d.d.#X#X#Xd.#X$X$X#X#Xd.a.a.a.p.p.p.p.a.d.p.0.0.p.0.0.0.p.d.d.p.p.u.p.p.p.p.s.s.p.a.s.p.p.p.p.p.d.d.$X#X@Xd.#X#Xd.p.a.d.#X@Xp.d.p.a.a.a.p.u.p.9.u.p.u.9.6.5.5.4.4.9.9.2.9.0.9.s.p.a.#Xd.d.a.p.p.p.d.s.p.p.u.p.s.p.p.p.a.d.d.d.d.d.p.p.#Xa.p.p.p.a.#Xp.a.p.0.0.0.0.0.m.m.p.a.a.p.0.9.9.u.d.$X$Xp.u.p.d.d.$X#X$Xa.d.d.d.p.d.u.u.6.3.3.9.0.0.9.y.9.9.2.6.3.4.2.9.6.9.u.p.y.y.s.0.0.0.9.0.9.0.0.0.y.0.9.a.0.2.5.w.w.w.w.2.2.4.2.4.4.2.3.2.2.4.2.6.9.3.2.3.2.6.6.9.9.0.9.9.0.0.0.9.3.5.6.9.y.9.3.3.2.2.3.",
"f.t.f.y.i.f.y.d.d.u.d.f.d.p.p.d.p.d.0.p.p.0.0.p.p.p.d.d.d.u.u.0.p.s.0.d.p.0.p.f.f.i.&Xf.f.g.*Xy.i.f.i.f.f.f.p.d.y.i.9.d.6.i.f.i.u.h.u.u.y.p.y.u.f.u.u.i.y.y.y.6.u.u.d.p.u.s.s.u.a.d.p.d.s.p.p.u.9.9.0.d.u.p.q.q.0.p.d.a.0.p.#Xp.i.d.f.5.5.p.p.d.d.p.p.0.s.d.d.#X$Xd.$X%X0.q.p.@Xp.p.m.p.p.p.m.@X@Xq.q.d.d.d.0.q.d.d.d.d.p.#X#Xd.#Xd.d.p.$Xd.6.f.f.f.i.p.d.u.f.d.$Xs.u.p.f.i.i.f.u.i.i.f.f.$X#Xa.p.#Xd.d.0.p.#Xp.p.0.p.p.u.d.u.d.p.d.p.u.u.p.p.p.d.d.p.@Xp.#Xd.#Xd.#Xa.p.d.p.@Xd.d.d.d.p.d.@Xd.@Xp.0.d.a.p.a.#Xd.#X$Xs.d.p.$Xp.p.i.f.f.f.u.d.f.d.u.f.&Xf.f.d.d.f.f.$X$X9.u.y.d.d.#Xa.p.d.a.p.f.i.d.u.u.9.d.f.$X$Xf.f.i.i.i.y.t.i.g.h.g.g.*X*Xf.f.h.$X-X$X=Xf.$X$Xd.f.f.f.f.$X*X=X#X$X$X$X$X$X$X=X$Xf.d.$X$X$X$X#Xd.*X$X$X$X$Xs.#X@Xp.#Xd.p.#X#Xp.p.0.p.d.p.d.d.d.d.d.a.d.p.p.u.s.#Xs.d.d.p.a.#Xd.d.s.p.a.d.d.p.p.p.d.d.d.d.p.f.d.d.d.d.p.p.d.$X*X$Xd.d.#Xa.$X#Xd.@X@X@X$X#X#Xp.p.p.0.p.d.d.d.d.d.d.a.#X=X$X#X#X#X=X=X$X#Xd.d.#X#Xp.d.#Xd.p.p.p.0.u.d.d.0.9.0.p.d.p.p.a.d.p.p.a.p.p.p.p.u.u.p.d.a.#X#X$X#Xd.p.p.0.p.d.#X$X#X$X#X$Xa.$X$Xa.d.a.#Xa.p.d.d.f.#Xd.p.d.s.0.a.$Xa.#Xa.s.d.s.u.0.s.p.p.d.p.s.u.u.d.p.s.u.p.d.d.p.0.d.@X0.0.#Xp.s.p.0.0.p.0.0.0.0.0.w.w.0.0.p.p.p.p.p.d.p.u.p.a.u.p.u.p.a.a.p.d.a.a.p.d.$X#Xd.$Xa.a.p.u.y.u.s.s.9.u.0.0.9.3.2.e.6.0.6.9.9.9.3.9.0.0.9.0.9.2.5.0.9.9.0.0.9.0.9.9.5.w.0.w.9.0.w.9.0.9.6.9.3.2.9.y.y.y.9.3.6.0.u.u.9.9.9.9.6.2.2.4.2.3.3.5.3.3.3.3.2.3.3.2.2.",
"p.d.p.p.d.#Xd.#X#X#X$X$X#X#X@X#Xd.p.d.d.p.p.d.q.d.d.d.p.d.p.p.u.p.u.9.d.p.p.d.f.f.f.f.y.f.i.d.g.p.u.d.$Xp.d.d.p.y.y.f.y.i.y.u.5.i.t.5.y.y.y.i.y.u.i.p.i.u.9.9.0.p.u.u.p.0.p.@Xp.p.d.@Xp.p.@Xp.p.d.d.@Xq.0.q.0.p.p.0.p.d.p.d.@Xp.p.p.p.p.d.d.d.p.0.p.p.p.d.0.d.d.p.d.p.d.d.d.s.p.a.@X@Xp.p.d.@Xd.d.@Xd.d.@Xd.d.d.@Xd.0.d.#X#X#Xd.p.p.#X#Xp.d.u.u.y.$Xa.a.i.f.i.a.u.y.u.y.y.i.i.i.y.u.5.5.p.#Xd.p.d.d.#X#X#X#X#Xd.p.u.p.9.s.d.p.p.a.#Xu.i.u.u.p.d.d.#Xd.0.p.d.#X#X#Xd.p.p.#Xd.p.@Xd.p.d.p.d.d.#Xd.$X=X$X#X=X=X%X#X$X$X#X$X=X$X;Xf.=X=X=X;X;Xu.f.f.f.f.f.f.f.i.i.u.i.5.y.i.f.i.f.d.f.f.d.f.d.u.f.f.f.h.g.5.i.i.f.f.f.f.h.f.h.g.i.f.h.f.f.h.*Xh.f.f.f.f.=Xd.d.$Xu.$X*X#X$X*Xd.a.d.d.d.$X*X*X$X#X$X$Xd.d.d.d.f.d.f.f.d.a.p.d.d.d.p.d.d.#X#Xd.p.0.d.p.p.d.d.#X@X@Xp.#Xa.p.a.@X@Xd.d.#Xd.#X$X$X#Xd.p.p.@Xd.#X#X#Xa.p.d.#Xp.d.@Xa.d.a.p.d.d.p.a.$X$Xd.0.d.p.a.p.0.d.d.p.d.d.d.d.#Xd.d.p.d.d.p.d.d.u.d.u.p.p.p.p.d.#X$Xd.@X@X@Xm.p.p.a.d.p.a.d.p.s.p.p.0.0.p.p.d.d.s.d.#Xd.p.s.d.p.p.u.p.a.p.p.s.s.p.d.a.d.a.p.#Xa.a.d.d.#Xd.d.d.p.p.p.p.0.d.p.s.p.p.0.w.s.d.#Xd.@X#X@Xd.0.p.9.0.2.6.0.p.p.d.p.0.p.p.0.0.s.u.s.d.0.a.d.p.p.0.0.p.d.#Xd.a.p.p.d.d.d.d.d.d.p.0.a.9.p.s.p.p.m.q.0.0.0.0.0.w.s.a.p.0.s.#X$X#X#Xa.d.p.a.y.p.d.a.a.p.#X#Xp.p.u.p.0.9.9.a.9.6.0.0.0.9.9.6.w.s.w.u.y.s.a.a.s.0.0.0.y.u.9.0.9.0.9.9.9.2.9.9.6.6.6.9.6.0.4.6.4.9.6.2.9.s.9.9.9.6.2.e.3.3.9.4.2.y.6.2.2.6.3.2.6.9.9.6.3.4.9.3.2.2.3.",
"p.d.0.d.0.@Xp.d.0.d.@X0.9.q.0.0.0.u.d.d.p.p.p.0.d.p.0.p.p.p.u.u.d.u.9.p.u.u.y.y.i.i.d.y.d.u.9.9.p.p.u.f.u.9.p.9.i.y.i.i.y.y.y.u.5.t.y.u.y.y.y.y.u.f.u.d.0.6.9.p.p.p.s.s.0.0.p.@Xp.p.p.d.q.@Xq.p.d.d.d.d.p.p.0.p.0.p.d.p.p.q.0.0.p.d.d.p.u.p.p.p.0.p.p.p.#Xp.p.0.0.#X0.d.d.a.#Xs.p.d.#X#X#X@Xd.d.@X@Xd.@X@Xd.q.q.q.q.0.0.0.0.0.9.a.a.#X#Xa.#Xs.d.9.d.p.u.p.a.u.y.i.5.y.y.i.y.i.u.i.f.p.d.d.#Xa.d.d.p.p.u.p.p.s.9.p.0.p.a.d.a.u.a.u.p.u.p.p.d.p.p.p.d.p.0.p.a.p.p.p.p.0.0.p.q.0.p.$X#X$X#X$Xd.d.#X#X#X#Xp.p.#X$X=Xp.p.p.#X#Xf.g.0.i.i.u.u.f.u.i.6.5.y.i.a.i.y.5.5.i.g.g.u.f.f.f.$Xf.i.p.u.y.u.i.y.y.9.5.y.g.u.y.f.&Xi.u.i.f.g.i.i.u.i.f.h.*Xh.f.i.f.&Xf.$X$X*Xf.d.=X$X$X$X$X$X$X$X$X*X$X$Xd.p.a.d.$Xp.d.$Xf.f.$X*X=X&Xd.d.d.$Xd.p.0.d.d.d.d.p.@X@Xd.#X@Xd.@X#X@X@Xd.d.#X$X#Xd.d.d.#X#Xd.d.d.d.#X$X#X#X#X#X#X#X#X$X#X#X#X#X$X$Xd.d.$X#Xa.p.d.#X#X#X@Xp.d.p.p.d.p.p.a.d.#X#X#X#X$X$Xd.d.#Xd.f.#X#Xf.p.d.d.$X#X#X$Xd.#X@X#X=X=X$X$X=X$X$X%X$X#X#X#Xp.p.d.d.#X#Xp.p.p.d.d.d.#Xp.s.p.a.d.a.#Xa.a.a.u.u.a.p.p.a.p.a.$X$Xd.d.p.p.p.p.p.p.0.p.p.p.p.0.0.a.p.p.p.p.a.d.d.p.a.p.w.9.9.6.9.6.9.0.0.0.0.s.p.p.p.u.u.s.d.#X#Xd.w.w.0.a.p.s.s.p.p.p.p.p.p.d.#X$X#Xp.d.0.0.0.w.p.p.q.0.0.0.m.@X@X0.0.0.0.0.s.p.p.y.u.a.a.$Xp.a.p.a.a.a.p.#Xd.#Xu.9.p.d.9.0.0.s.6.0.0.0.w.w.0.0.0.9.6.9.9.0.0.0.u.9.9.0.9.0.9.0.9.5.0.9.9.9.0.u.9.3.6.s.9.0.3.9.6.9.3.6.2.6.6.6.9.9.6.6.9.3.6.6.3.2.3.0.0.9.9.0.p.p.y.2.9.3.4.2.3.",
"p.p.0.0.0.q.q.0.9.0.0.w.0.p.0.0.d.p.p.p.p.d.@Xp.@Xp.0.d.a.a.s.p.9.a.a.a.u.d.f.u.y.u.u.g.d.f.u.u.d.#Xd.d.#Xd.p.d.p.u.u.d.u.g.y.y.5.u.i.y.5.y.i.u.5.u.9.d.p.6.u.p.9.s.p.p.a.p.p.d.d.0.p.d.p.d.p.p.d.d.d.d.d.d.p.p.0.p.0.p.d.p.0.p.p.p.p.p.s.a.@Xd.p.p.p.p.#Xd.d.p.p.#Xp.#X@X#X$Xa.#Xd.d.p.q.p.p.d.p.p.p.p.@Xd.d.d.q.d.p.d.p.d.#X#X#Xd.p.0.0.d.p.$X#X$Xf.p.f.p.i.y.i.y.i.f.&Xi.i.9.u.d.0.d.0.d.0.p.u.p.d.#Xd.p.p.p.p.a.d.p.p.p.9.u.p.p.p.u.9.i.i.p.d.f.p.9.s.p.p.d.@X#X#Xd.d.d.d.#X@X#X$X#X#Xp.d.*Xd.p.%X=X=X;X;X3X;X$X#X$X#Xf.d.f.f.i.f.f.f.i.f.f.&X&Xh.h.f.f.f.&Xf.f.i.i.f.f.u.d.d.d.&Xd.y.$Xf.f.$X=X&X&X&X=X&X&X&X&X*Xf.g.f.h.f.h.f.i.u.f.i.f.h.f.&Xf.=Xd.p.p.u.d.d.f.d.p.p.d.d.f.d.f.p.p.p.f.$Xf.f.d.d.i.p.f.f.d.d.i.p.p.d.p.p.p.@Xd.#X@X@X#X#Xd.#Xd.p.p.#X@X#Xd.#X#X$X$X$X%X=X#Xd.d.#Xd.p.d.#X@X#X#Xd.#X#X#X#Xd.d.d.p.#X#Xp.#Xd.d.d.d.d.a.p.p.d.p.d.d.d.d.p.p.d.d.s.p.p.d.d.p.d.p.d.p.p.f.d.f.d.d.d.#Xd.p.#Xd.$Xd.d.#X$X#Xa.d.$X$X#X@Xd.#X$X#Xd.#X@X@X#X@X#Xd.d.p.p.p.p.p.a.p.p.9.p.u.p.p.y.p.u.p.u.a.s.s.p.a.d.p.p.p.p.d.d.d.d.d.0.0.p.p.p.s.p.p.p.p.p.p.p.p.s.s.p.p.d.u.u.9.0.0.u.0.0.s.a.#Xa.s.u.9.p.p.#X#X#Xd.p.p.s.0.u.p.d.d.d.d.d.d.d.d.#Xd.#X$X$X#Xp.d.@Xp.p.p.0.0.0.0.s.0.0.0.u.0.u.p.u.s.d.a.$X#X$Xa.d.d.$X9.u.u.d.s.p.s.d.p.s.9.0.9.6.9.9.9.w.w.9.w.9.9.9.0.0.0.s.a.s.y.9.9.9.2.9.6.5.5.5.9.9.4.6.9.9.9.9.2.9.2.6.3.9.6.9.9.u.9.6.3.9.6.6.6.3.2.4.4.2.2.9.9.6.3.3.9.2.2.e.4.4.3.3.9.",
"p.0.p.0.0.0.p.0.d.p.p.p.d.p.0.w.d.0.9.6.6.0.p.0.@Xp.p.d.d.d.a.d.$Xa.u.p.u.u.d.f.9.9.9.u.0.d.u.p.d.0.d.p.9.d.9.9.d.i.9.y.5.u.5.6.5.5.6.6.6.5.y.y.6.u.9.u.p.u.p.0.d.d.a.p.a.a.p.p.a.0.p.d.0.d.@Xd.d.d.d.p.p.p.0.0.d.d.p.p.d.p.q.d.p.0.0.s.0.a.#Xd.d.d.d.d.d.d.d.@Xp.0.0.0.9.d.#X@X#Xp.0.0.p.p.d.@X#X@Xd.p.p.p.0.0.d.d.d.d.0.p.#X#Xp.p.p.p.a.d.u.p.u.u.u.9.p.9.u.y.u.y.y.i.i.i.i.i.i.d.d.$Xp.p.p.p.d.d.p.u.p.d.p.p.p.0.s.d.d.u.9.d.u.u.f.d.u.$Xd.d.f.*X#Xp.d.d.p.d.d.#X#X#X@X#X#X$X$X$X$X$X=X#Xd.$X=X$X=X=X=X=X$X$X#Xa.p.#Xd.d.g.d.$Xf.f.f.f.y.y.i.f.f.f.&Xf.f.f.&Xf.f.i.i.u.u.u.$X$X&X*X$Xp.$Xf.f.$Xh.d.d.f.f.y.5.f.y.u.f.i.t.u.i.g.u.i.u.f.f.f.f.f.y.p.f.$X&X$Xf.&Xf.d.d.f.$Xf.p.p.d.p.i.d.d.p.d.d.$X*X$X&X*X*X$Xf.f.f.f.d.#X$X*X#X#Xd.d.p.p.p.d.$X#X#X$X%X$X$X=X$X$X#X#X#X#X#X#X$X#Xd.d.a.p.d.#X#X$X=X=X=X=X$X#X#Xp.p.p.d.p.p.#Xd.a.a.d.d.d.d.d.p.p.a.d.d.d.p.d.p.s.0.p.d.#Xd.p.p.p.d.d.d.#Xd.#X0.d.d.$X#Xd.#Xa.d.a.p.p.a.d.d.d.#X#Xd.d.d.#X#X@Xd.#Xd.d.d.d.#Xd.d.p.p.0.p.p.d.s.u.9.0.0.u.p.u.p.p.a.p.a.u.u.s.s.a.p.p.d.d.d.d.d.d.#Xd.p.p.d.#X#Xp.a.d.d.p.0.0.p.a.d.a.a.#Xd.$X$Xd.s.u.s.0.0.0.0.0.0.0.0.p.p.p.p.0.p.p.p.p.p.p.p.a.p.p.p.d.d.d.d.p.0.s.p.a.p.s.0.0.w.w.p.p.0.p.p.s.0.0.0.0.0.u.p.0.u.s.u.s.s.p.s.d.a.=X#X$Xp.p.p.9.9.9.6.9.9.0.9.w.0.0.0.p.s.w.s.9.9.9.9.6.6.9.0.y.0.9.s.a.s.9.2.w.0.9.9.2.2.9.9.9.9.6.9.0.y.0.9.0.6.2.3.6.9.9.9.6.9.6.6.2.3.4.2.9.9.y.9.3.9.9.6.9.9.3.9.3.6.2.2.",
"p.0.0.p.w.p.p.0.p.0.9.0.p.p.q.0.p.p.p.p.0.0.p.p.p.0.p.s.p.p.d.d.a.d.a.p.i.d.d.9.d.u.u.9.0.p.p.d.p.p.p.w.p.#X9.d.u.9.9.6.6.u.u.y.u.9.5.u.i.p.a.u.p.p.p.u.p.d.u.0.p.u.s.p.u.p.p.u.p.p.p.p.0.d.#Xd.d.d.p.p.d.d.p.p.0.0.p.d.p.p.#X$Xp.p.d.d.0.p.@X@Xd.@X#X#X#X#Xd.d.d.p.d.#Xa.#X@X#X$X#Xd.d.@X@X#X#X#X#X#X#X#X@Xd.d.d.d.@X@Xp.#X%X%X=X=X#Xd.d.d.0.d.d.p.s.p.#Xd.d.d.d.d.d.d.p.p.d.d.d.p.d.#X$X$X#X@X0.d.#X@Xd.p.p.d.p.d.d.u.u.d.p.u.f.d.g.i.y.f.i.9.u.d.i.u.p.d.d.d.#X#X#X#X#Xd.d.d.0.d.d.d.$Xd.d.#Xd.f.d.#X$Xd.d.d.p.d.d.#X#Xu.d.u.y.i.f.i.i.f.f.f.d.f.f.h.h.f.f.f.f.f.g.f.d.&X$Xd.f.d.y.d.f.a.i.d.f.f.f.i.f.f.i.y.a.i.f.f.i.i.i.5.u.u.u.y.f.i.f.f.f.u.f.d.f.&Xf.$X$X&X*X*X$Xf.d.f.f.$Xf.f.&X$Xd.f.=X$Xf.$Xf.f.d.f.i.i.u.u.9.9.y.f.$X$X$X=X$X=X=X;X=X#X#X$X=X$X#X$X#X$X#X#Xd.a.p.s.p.p.d.@X@Xd.d.d.d.d.#X$X$X#Xd.d.p.0.p.d.d.#X#X$Xd.p.p.d.p.d.#X$X#X#X#X#X#Xp.d.#Xp.p.d.d.$X$X$X$Xf.$Xd.f.d.d.d.f.f.$X#X#Xd.d.#Xd.$X$X#X#X#X#X#X#Xd.d.#X#Xd.d.p.0.p.p.p.d.d.d.d.d.p.p.d.p.p.s.d.p.p.$Xa.$X#X#Xa.p.9.u.9.u.u.p.d.$X*X$X#X#Xd.p.p.0.s.s.u.p.p.s.a.d.d.a.p.a.a.p.p.p.a.a.p.d.a.a.p.s.p.u.s.a.p.s.u.9.u.9.9.u.0.p.s.9.s.a.a.0.9.9.s.p.a.s.0.0.u.s.p.a.p.s.p.u.a.s.a.0.0.0.0.0.0.9.0.0.0.0.0.0.0.0.u.s.s.s.p.p.p.s.s.p.p.9.u.u.p.p.p.d.#Xd.s.0.p.0.6.6.6.6.9.9.0.0.6.0.0.0.y.0.9.9.9.9.s.0.6.0.y.0.0.9.w.9.9.9.9.0.s.u.9.9.9.9.6.9.9.0.6.3.6.0.s.6.3.3.3.9.3.3.2.4.3.3.3.3.9.2.2.9.9.9.4.2.2.3.3.6.3.4.",
"p.0.0.0.0.0.p.p.d.#X#X#Xd.p.p.0.p.d.d.@Xd.d.@X#Xp.p.p.0.p.s.a.p.#Xu.y.p.p.9.p.$Xf.u.d.u.p.p.#X#Xd.d.p.d.d.#X#X#X#Xp.d.#X$X$X$X&Xf.u.9.i.p.i.i.9.p.u.d.p.p.p.9.0.u.0.a.d.p.d.$Xp.p.d.d.d.0.p.d.p.p.0.w.p.d.u.u.d.d.u.p.d.p.d.d.p.p.p.d.d.p.p.d.d.p.0.p.d.p.d.p.0.p.p.p.$X@Xp.d.#Xp.p.p.d.d.d.#X$X$X$X#Xd.d.p.p.d.p.p.#X#X@X#X#Xp.0.p.p.d.d.#Xd.#Xd.p.0.p.a.a.u.9.u.u.$Xd.$X$X*X$X#X#X$Xd.a.0.a.#X3X;X#Xp.d.d.p.p.$Xd.p.p.i.u.9.y.u.u.y.9.5.i.f.f.f.f.i.u.d.$X$X$X$X#X#X$X#X#Xd.d.d.$X$Xd.d.p.d.d.f.#X9.0.f.d.$X$Xd.#Xd.d.d.9.d.0.i.d.$Xf.u.i.u.f.i.y.y.y.y.i.d.d.f.d.i.f.f.$Xf.i.u.d.u.d.f.f.a.p.y.y.i.y.i.i.f.f.i.y.u.&Xf.g.f.f.h.f.i.f.f.&Xf.f.&X*X&X=Xd.d.d.$Xf.d.d.d.$Xf.i.u.i.f.d.p.f.p.p.d.f.p.u.u.g.d.f.f.f.&Xf.f.f.$Xd.d.$X$X$X$X#X#Xp.p.d.p.p.p.p.p.a.p.d.d.d.d.d.d.d.d.#X#Xd.p.p.d.#X$X#Xd.d.d.p.p.d.#Xd.d.$X#Xp.#Xd.u.#X#X$X$Xd.d.#X#X$X$Xd.d.d.p.d.#X#Xd.$X#X$Xd.d.a.p.$Xp.f.f.f.i.u.6.9.p.p.d.#X#Xd.d.d.d.#X#Xd.d.d.a.d.#X#X#X#X#Xd.d.p.d.d.d.d.d.#Xp.p.d.d.a.p.p.u.u.$Xu.p.p.p.u.9.p.p.9.0.9.9.9.u.p.u.u.0.0.0.p.p.#Xa.p.d.#X#Xd.s.a.p.p.a.a.p.a.#Xp.$Xd.$Xa.a.p.u.u.u.p.a.a.a.#X#X#Xs.0.u.6.0.s.w.6.9.p.p.p.p.p.s.a.p.s.s.u.0.0.u.0.s.a.u.a.u.a.0.6.w.0.0.9.0.0.9.9.0.0.0.0.s.s.s.u.0.u.u.u.9.0.u.y.y.u.s.u.u.0.s.0.w.6.0.d.s.6.0.9.9.9.9.0.0.9.0.0.0.0.9.9.3.3.6.0.u.u.p.y.9.9.9.s.5.2.9.s.u.s.u.u.u.0.9.9.6.6.9.9.9.9.9.0.6.6.6.3.9.4.3.9.4.6.3.2.2.9.6.2.4.4.6.9.3.3.3.3.6.4.3.",
"d.0.p.0.@X0.p.p.0.p.p.d.d.a.d.p.p.0.0.p.p.0.p.@X#Xd.p.p.p.a.a.p.d.u.u.p.d.s.s.9.0.9.p.0.p.p.d.d.#X=Xd.#X#Xd.d.d.#Xp.#X#Xd.p.0.0.d.p.u.u.y.y.u.9.u.p.a.d.d.p.0.s.u.0.u.0.9.u.p.p.d.#Xd.d.p.p.p.u.d.p.p.@X#Xp.f.$Xu.u.y.u.d.d.d.p.p.0.0.0.p.p.p.p.p.0.p.p.0.d.p.p.p.d.0.p.s.p.#X$X$X=X=X=X#Xd.p.s.s.p.s.0.0.0.p.@Xq.0.#X$X@X%X%X@X@X#Xp.p.p.d.d.#X#Xd.p.#X#X#Xd.p.#Xu.d.u.p.s.0.p.#Xp.9.9.#X$X#X#Xp.@X#Xd.#Xd.p.d.9.p.d.d.d.i.y.5.y.g.i.i.u.u.i.i.i.i.f.p.s.p.p.s.p.u.p.d.d.#X$X$Xd.d.d.p.#X$X=X$X=X=Xf.d.#X#Xd.0.d.$X$X=X=X$X;X$Xf.p.d.d.d.p.u.p.u.d.d.d.f.*X=X=Xf.f.d.i.0.5.u.$Xp.d.$Xf.a.f.f.y.f.u.u.i.i.y.i.f.f.f.a.i.i.f.a.y.f.d.5.5.9.i.y.u.i.f.u.f.d.f.f.f.f.f.f.f.f.f.i.d.f.h.h.f.f.f.f.f.f.&X&X&X=X&Xh.h.$X=X$X$Xh.&Xf.d.p.p.#Xa.p.a.p.a.#Xa.a.a.d.a.$X#Xd.d.d.d.d.p.d.d.#X#X#X$X#Xd.d.d.$X#Xp.p.p.d.d.#Xp.d.#X#X#X$X$X#X#Xd.#Xd.0.u.p.p.p.d.p.p.p.0.p.d.d.a.p.d.$X$Xf.d.f.$Xy.y.u.d.d.*Xd.#X$Xp.d.$Xd.$X=X=X=X=X=X$Xd.d.d.#X#X$X$X%X=X=X$X#X$X#Xd.#Xd.d.$Xd.d.d.d.#Xa.u.p.#Xs.u.p.p.a.a.u.p.u.p.a.a.p.p.$X#Xd.p.u.p.d.d.a.#X#Xd.a.a.#Xs.s.a.a.a.s.u.p.d.p.p.u.y.9.9.p.a.p.p.u.u.p.p.p.a.a.a.#X#Xs.y.u.0.s.u.9.9.u.s.u.0.s.s.s.s.s.u.u.u.a.a.s.9.0.9.s.0.0.u.p.p.s.p.p.0.9.9.0.0.0.0.p.0.p.p.0.0.0.0.0.0.p.d.p.0.6.6.0.p.9.p.s.0.p.d.s.9.p.0.0.0.0.0.0.9.0.0.0.0.9.9.9.5.2.9.2.2.2.2.5.9.0.s.w.5.9.u.s.9.3.4.3.6.9.6.6.2.3.6.6.3.6.6.0.9.9.s.9.9.u.9.p.9.s.y.p.p.y.3.2.9.6.3.2.2.3.9.3.2.",
"q.q.d.#X$Xd.p.@X#Xp.0.p.d.p.#X#X$X#X$X=X$Xp.d.$X$Xd.0.a.d.#Xd.#X#Xp.p.d.$Xs.d.#Xu.0.d.f.d.d.d.d.d.p.q.d.q.q.0.p.p.0.p.p.0.p.p.p.u.p.p.u.y.u.p.u.p.d.p.s.a.#X$Xd.0.p.p.p.#X$X#X#X#X$Xp.d.d.a.d.d.p.d.p.0.0.0.i.u.6.u.u.9.9.9.9.p.p.d.d.d.p.p.p.d.d.p.@Xd.0.p.0.0.p.0.p.s.p.#Xp.$X$X#Xp.0.s.p.d.d.a.d.#X#Xd.p.p.@X@Xp.#X@Xp.@X@X0.0.0.0.p.0.s.p.p.a.d.a.d.p.0.p.p.p.6.s.p.d.$Xp.#X0.d.d.p.a.a.0.d.#X$X#X#X$X#Xp.0.d.d.i.u.u.5.9.d.u.u.6.5.y.i.u.y.9.u.d.d.9.u.$X$Xa.d.$Xd.p.d.$X$Xd.d.$X#Xp.0.p.d.$X$X$X$Xd.$X$X#Xp.d.d.f.d.f.d.d.d.#X$Xd.0.9.p.p.d.f.d.p.p.d.d.d.u.i.u.9.d.u.p.f.d.9.f.&X$X$X&Xf.f.f.f.f.i.f.a.y.y.f.f.i.i.f.f.&Xu.d.y.i.5.i.p.*X&X=X*X*X&Xd.f.&Xf.f.f.i.f.h.f.d.f.f.&X&Xf.f.&X&Xh.h.h.=X=Xf.h.;X;X;X$Xf.f.f.d.$X#X#X$Xp.p.d.$X$X$Xp.a.d.#Xa.$X$X$X#X#X$X$Xd.d.d.p.u.p.#Xd.0.0.p.#X#Xd.p.d.#X#Xd.d.d.d.#X*X#Xp.d.#Xd.#X#X#X$X$Xd.d.#Xd.d.#Xd.d.d.p.p.s.a.p.d.d.f.p.f.f.d.d.$Xy.p.p.s.d.p.d.$Xp.$Xd.#X#Xd.d.#Xd.p.p.p.d.d.a.p.p.p.d.#X$X#X$X=X$X#X*X$X#X$Xd.#X#X#Xd.d.d.y.d.p.a.#Xd.$Xp.p.d.#Xa.a.d.p.s.s.u.p.#X$Xa.s.u.a.a.#X$X#X#X#X#X#Xa.a.p.p.s.u.y.y.p.u.p.y.6.9.9.u.a.d.p.y.a.d.#Xd.$Xa.a.a.a.u.0.u.s.s.s.a.a.a.s.s.u.0.u.s.a.p.9.s.a.p.p.u.a.u.s.p.s.0.0.s.p.s.0.0.0.0.0.0.9.0.0.9.9.0.0.9.9.0.w.0.0.9.0.0.0.0.0.a.s.0.s.p.d.d.s.p.0.0.p.9.0.0.s.s.s.s.0.9.0.0.9.0.9.0.9.w.9.0.0.9.6.3.6.9.9.6.6.2.6.2.6.9.2.6.9.9.9.2.3.4.3.9.9.6.6.3.9.2.9.3.3.3.9.3.2.4.3.2.3.6.2.9.3.2.",
"d.@X@Xp.#X=X#X#X@Xq.p.0.a.a.0.0.p.p.p.p.p.d.d.d.q.p.0.p.#Xd.d.$Xa.#Xd.p.p.p.p.a.#X#Xp.0.0.0.9.0.0.p.p.p.a.p.#Xa.p.p.d.p.0.d.a.d.p.p.u.u.u.u.p.d.d.y.a.p.u.a.d.0.0.p.@X#X#X#X%X%X=X$X%X$X$X#X#X=Xd.d.d.p.p.p.y.6.r.6.u.i.d.$X$X#Xp.@Xs.@Xp.@Xp.p.p.@Xp.0.p.0.0.@Xd.p.d.p.p.p.p.d.#X#X#Xp.p.#X#Xd.p.d.#Xd.d.p.p.p.@Xd.d.d.#X#X#Xp.p.a.#Xd.d.a.#Xd.p.a.#X#X$X#X=X3X$X#Xd.d.p.p.d.p.0.s.d.p.#X#X$Xd.0.0.d.d.#Xd.p.p.d.d.p.p.#Xp.i.5.6.u.y.u.u.d.5.5.i.6.y.f.y.6.a.&X$Xd.$Xd.$X=X$X$X$X=X=X=X=X=X$Xd.d.#X$X$Xf.$X#Xp.$X#X#X#X#X#X#X=X$X$X$X$X=X*X$X#X$X=X=X$X#X#X$X#Xd.d.d.$X#Xd.$Xp.p.#X#Xu.u.u.y.f.f.i.f.i.i.f.u.f.f.i.5.f.u.i.i.y.g.h.g.f.d.i.p.$Xd.d.&Xp.y.f.f.f.h.f.f.&Xh.*X&X=X=X=X=X&Xf.f.f.f.f.f.y.u.f.f.f.t.u.y.f.f.d.d.i.$X*X*X*X#X#X$X$X#Xd.d.d.$X$X$X#X#X0.p.p.p.p.d.d.p.#Xd.p.p.d.d.d.d.$X$X#X#X#X#X#Xd.d.p.d.d.p.#X$Xd.#X#Xp.p.#X#Xd.d.p.p.#X#Xd.d.$Xd.f.d.f.f.d.f.f.f.f.f.i.i.d.d.p.f.$Xd.p.d.$Xd.a.d.d.s.p.a.d.d.d.p.p.p.p.a.a.p.d.d.d.d.p.p.#Xp.d.d.d.$X#X$Xd.#X#Xp.$Xd.$X*Xa.$X#Xp.p.p.p.d.d.p.a.a.p.a.d.#Xd.a.a.#Xp.d.d.d.p.s.d.p.p.p.s.a.d.a.d.u.u.p.p.y.y.3.y.u.y.p.p.y.u.p.y.u.a.s.p.d.s.u.p.s.p.a.#X#Xa.p.u.0.s.p.a.p.a.#X#Xp.u.0.d.a.p.0.#Xp.0.0.0.u.u.0.0.u.p.s.u.0.u.p.p.d.p.s.s.0.s.s.0.0.0.0.p.p.a.s.9.0.y.u.u.u.0.u.9.u.a.s.9.0.0.9.9.6.9.s.0.s.0.5.9.9.0.a.s.0.5.0.9.2.0.s.s.9.9.3.9.0.0.9.0.9.9.0.6.6.6.2.0.3.3.2.4.2.6.u.9.0.u.6.9.0.y.9.3.3.9.3.9.3.9.9.2.3.2.6.3.2.",
"p.p.p.0.0.0.0.0.p.p.p.0.p.0.p.p.d.p.p.p.d.d.d.p.#X@Xd.#Xd.p.u.s.s.a.p.d.a.d.p.a.0.p.p.d.@X#Xp.p.d.a.p.p.#X#X$Xp.p.p.a.0.w.0.0.p.d.u.u.p.9.u.d.d.a.s.#X$Xp.p.#X#Xd.%X%X$X%X=X%X$X%X=X%X%X@X#X#X%X@Xp.p.d.#X$X$Xu.y.f.d.f.d.d.d.d.#X%X#X=X$X%X%X%X$X#X@X@X#X@X@X@Xd.d.$X$X#Xd.p.d.$X%X$Xd.p.d.d.p.p.d.#Xp.p.p.p.d.p.0.0.p.p.p.p.0.p.p.d.p.p.d.d.s.s.p.@Xd.@X0.0.0.p.d.#X#Xp.s.p.p.d.d.@Xp.p.p.d.@Xd.d.d.d.p.q.p.#Xp.d.p.p.u.u.d.&X$Xf.f.i.y.i.y.5.i.i.f.h.i.u.p.i.d.$X*X#Xp.d.p.#Xd.d.d.p.p.@X#X#X$Xd.d.$X$X$X=X;X=X=X=X#X$X$X#X$X#X#X#X$X=X=X=X=X$X$X#X$X%X$X#Xd.u.u.u.d.d.p.d.p.d.$Xd.p.p.i.a.f.i.u.u.f.h.f.f.i.i.f.i.f.f.h.a.f.h.f.f.=X;X=X$X$Xf.i.f.p.i.f.f.f.f.f.f.f.u.i.f.$Xf.i.f.f.i.f.f.f.f.f.f.*Xh.i.g.f.f.f.f.f.f.f.i.i.d.#X$Xd.d.$X$X$X$X$Xd.d.a.$X$Xd.d.d.#X#X#X$X$X*X$X#X#X#X$X*X$X*X$X$X$X#Xd.d.#Xd.d.p.p.p.d.d.d.p.d.d.d.d.d.d.#Xd.d.p.d.#Xp.d.#Xd.f.f.d.f.f.$X$Xf.$Xf.p.u.p.f.$X*X=X$Xa.d.#Xd.d.a.*X#Xa.d.d.d.#Xd.d.d.d.d.d.a.p.p.d.d.s.p.d.p.d.p.d.d.0.u.0.p.d.a.s.u.u.p.u.d.a.a.d.d.a.#X$Xd.d.d.u.p.a.p.u.u.s.p.p.a.p.p.p.p.p.s.d.p.u.u.u.0.u.0.y.p.p.p.u.u.p.p.y.y.u.y.y.p.y.y.a.s.p.d.p.s.a.s.0.s.s.0.u.a.a.u.u.y.s.p.s.u.s.p.0.9.u.0.s.6.9.9.0.0.0.0.y.u.u.u.s.0.9.9.9.9.9.9.0.0.w.0.0.0.0.9.0.0.0.9.w.0.9.w.0.9.p.p.9.s.u.9.s.9.u.9.0.0.0.9.9.0.9.9.9.5.9.5.9.0.5.0.0.s.s.9.2.5.5.9.0.9.3.0.6.9.p.9.6.6.2.6.9.2.9.6.6.9.9.9.9.9.6.9.9.9.9.9.3.3.9.0.9.3.9.9.0.9.9.2.6.6.2.2.",
"p.p.d.d.p.d.#X#X#X#Xp.d.$X@X@Xp.d.d.d.@X@Xd.p.p.d.0.p.a.p.u.u.p.s.a.p.d.p.p.0.p.p.d.p.p.0.p.a.a.0.0.p.d.p.p.#Xd.9.0.p.d.p.0.p.p.a.p.s.p.p.s.a.a.p.a.a.d.d.$X$X@X#X4X=X=X3X3X=X3X3X;X#X=X=X=X%X%X$X#X#X#Xd.d.*X$X$X*X*X=X=X$X$X$X=X=X$X#Xd.@X#X$X$X#X#X#X@Xd.d.p.p.p.d.#Xp.d.d.$Xd.#X$X#X@X@Xd.a.d.#X#X@Xa.d.@X#X@X@Xd.d.d.u.0.0.p.p.d.a.d.#X#Xp.#Xd.p.p.#X@X#X=Xp.#X$X#Xd.a.#X@Xp.p.d.d.@X@X$X=X#X@Xp.d.d.p.0.p.#Xd.u.p.#X*X#X$Xp.5.f.p.p.d.f.y.f.i.y.5.t.i.a.u.9.p.$X$Xd.#Xd.d.p.d.#X#X#X#X$Xd.d.p.d.d.d.d.d.d.$Xd.p.d.$X=X=X3X4X=X=X=X=X=X=X=X#X%X=X;X;X=X;X;X=X;X=X;X=X$X$X$X$X#X*X#Xd.f.p.d.y.i.f.h.f.i.a.i.f.f.&Xi.h.f.i.i.h.f.f.g.p.d.$X$X$Xp.f.f.f.&X&X=X$Xf.f.f.f.=X&Xf.h.f.f.$Xg.f.f.i.f.f.i.&X*Xf.g.f.f.f.f.f.f.f.&Xf.d.f.$Xd.f.d.a.p.$Xd.p.*Xd.#Xd.=X=X$X#X#X#Xd.d.$X$X*X$X#X#X#X#X#Xd.d.#Xd.d.#X$X#Xd.d.p.p.#Xd.p.p.p.d.#X#Xa.d.$Xd.d.d.d.#Xp.#X#Xd.d.d.d.d.d.$X#Xa.*X$X=X$X$X#X*Xd.$Xd.d.d.d.d.d.d.d.d.p.d.$X#Xd.d.#X$X$X$X#Xd.#X$X#Xd.p.d.d.d.d.p.d.p.0.p.p.d.#Xd.u.s.u.u.p.a.s.a.s.s.u.p.d.d.$Xd.p.#X#Xp.s.a.d.a.p.p.s.u.d.$Xd.a.p.0.u.0.p.y.u.u.u.d.p.p.p.a.p.p.p.y.p.p.u.u.9.9.9.6.9.0.9.0.u.0.p.a.a.s.s.d.a.0.6.9.p.#Xa.0.s.a.u.9.9.9.p.9.0.0.s.p.p.y.9.9.9.6.9.0.u.s.p.p.p.p.0.0.0.0.0.0.0.0.0.0.0.9.0.p.0.0.9.0.0.p.a.p.9.a.0.6.a.0.s.u.0.u.u.0.9.9.9.0.0.9.9.0.0.s.y.0.s.a.a.a.0.9.y.9.9.p.p.w.9.6.6.9.2.2.9.9.9.0.6.6.9.9.9.6.6.2.2.6.6.6.9.3.3.6.2.3.3.9.0.9.6.2.2.6.3.2.",
"p.d.d.@Xd.#X$Xd.d.@X@Xd.#Xp.#X#Xs.p.p.d.@Xd.d.@Xq.w.d.#Xa.p.p.d.a.#X@X#Xa.p.p.#X#X#X#Xd.p.d.d.d.#Xp.p.p.0.9.0.9.d.d.p.p.0.9.d.#X$X$X$X#X#Xp.s.s.d.$Xd.p.a.$X=X$X=X4X=X=X4X%Xp.p.@X0.p.d.#Xp.d.$X#X@X=X3X;X=X;X=X=X=X=X=X=X$X#X#Xp.#X#X$X$X#X#Xd.#X@X$X#Xd.p.@Xd.@X@Xd.$Xd.#Xp.d.#Xd.p.s.p.d.d.p.p.a.p.@Xp.d.d.d.0.p.p.p.p.p.0.p.p.p.d.d.p.p.d.d.0.s.0.p.#X#Xd.d.p.d.d.#X#X#X$X#Xd.#X#X#X#X$X$X#Xd.d.d.#X#X#Xp.p.d.p.p.d.d.$Xp.d.#Xp.=Xf.d.f.d.i.y.y.y.y.y.u.u.p.p.f.d.f.d.$X#Xd.#Xd.#Xd.s.p.d.p.d.p.d.$X$X@X#X$X$Xd.d.*X=X$X#X$X%X$X$X=X=X=X=X=X=X;X=X=X=X=X=X=X$X=X$X=X=X$X*X;X=X;X=X=X$Xd.&Xi.f.i.h.f.i.f.f.f.y.5.i.i.6.i.f.d.f.f.=Xf.d.$X*X$Xd.$X;X*Xi.i.f.;Xf.f.f.f.f.f.f.f.f.f.&X*Xf.f.f.f.i.f.i.f.f.g.g.f.f.h.f.&X&X&X*X&X*X&X$Xp.u.d.d.$X$X$X#X$X$X*X$X*X*Xd.p.d.d.d.p.d.d.d.d.p.d.d.d.d.#Xd.d.d.p.d.#Xp.d.d.d.d.d.d.d.d.d.d.d.d.d.#X$Xd.#X#X#Xd.p.d.d.p.$Xd.d.d.d.d.d.a.p.p.d.p.a.a.#Xd.u.a.$X$Xd.d.d.d.f.f.d.d.$X#Xp.p.p.p.p.d.d.d.d.d.d.d.d.d.p.#Xd.p.p.p.p.d.d.#X$X#X#X$X$X#X$X$Xd.d.p.a.p.p.d.a.d.p.0.p.d.a.p.a.a.p.#Xd.a.p.#X$Xu.u.#Xd.$Xa.d.p.p.a.u.p.s.p.a.#X#X$X$Xp.p.u.0.y.y.u.s.u.s.s.s.a.a.p.s.s.p.p.a.p.p.p.d.a.d.$Xa.0.u.p.a.s.0.u.d.s.p.p.p.p.p.9.6.9.p.d.d.a.p.p.d.a.s.0.0.0.0.0.0.0.0.0.9.9.u.p.p.9.9.u.0.u.u.0.6.0.0.9.0.2.u.0.s.0.9.y.u.9.9.9.9.y.0.9.0.0.9.u.u.9.0.0.w.9.9.0.p.s.s.a.p.s.0.9.9.9.9.9.2.6.9.w.6.9.0.0.9.6.9.9.2.2.6.6.0.9.9.3.2.6.2.9.6.2.2.2.2.2.4.2.",
"p.d.d.d.p.p.@X0.p.d.#Xd.d.p.q.p.p.0.0.0.p.@X@Xd.p.0.d.d.p.a.a.$X#X#X#Xp.p.0.p.d.#Xd.a.d.s.u.u.u.d.u.f.d.u.9.d.d.u.p.p.d.d.u.p.p.d.s.s.s.9.9.s.0.u.d.$X=X=X*X*X$X$X@Xa.p.p.d.#X#Xp.p.a.p.p.s.a.a.d.0.p.p.0.0.p.p.0.u.p.p.p.d.d.d.d.@Xd.d.p.p.d.d.q.d.#Xd.#Xd.@X#X%X$Xp.d.q.@Xd.@X#X$X$X#X@Xd.d.#Xd.d.d.#Xd.#Xd.d.p.d.u.u.u.f.p.d.i.u.u.u.y.u.p.d.#Xd.p.p.d.d.p.d.d.d.d.#X#X@Xd.p.d.@X#X#X$X%X$Xd.p.d.p.@Xd.@Xp.@Xs.0.d.p.a.d.p.d.d.p.#Xd.d.d.f.f.&Xf.f.i.f.a.a.f.f.d.d.d.p.d.#Xd.$X#X#Xd.p.d.=X=X=X;X=X#Xd.$X#X0.p.d.#X$X$X$X#Xd.p.d.$X=X*X*X$X$X*X=X$X#X#X#X$X#X$X=X$X$X=X#X#X$X#Xd.*X#Xp.f.f.i.u.u.*X-Xh.*Xf.f.f.y.i.i.g.i.&Xf.$Xi.$X$Xf.p.d.$X#Xp.f.d.f.f.f.f.&Xf.f.f.f.f.=X;X&X&Xf.f.$Xf.f.f.f.&Xh.f.f.g.f.f.f.f.g.f.f.f.f.f.f.f.f.f.f.f.$X&X&Xd.p.p.$X#X#Xd.$Xd.p.a.d.d.a.a.a.d.d.a.d.d.d.d.#Xd.#Xd.d.d.d.p.p.p.#X#Xp.p.d.d.p.#Xd.a.d.d.d.a.a.p.d.p.p.d.$X$X$Xd.d.d.d.#X$Xd.p.d.a.a.a.#X#X*Xa.d.$X$Xf.d.p.u.u.d.p.u.i.d.a.a.d.p.a.$X*X$Xd.p.d.#X#X$Xd.#X#Xd.#Xd.#Xd.d.d.d.p.d.d.d.p.s.d.d.p.a.a.p.a.d.p.p.u.p.p.p.p.a.a.f.#Xp.p.p.p.#X$Xp.a.#X#X#Xy.u.p.u.p.a.s.p.s.d.d.#X*Xa.u.a.a.p.s.s.p.p.0.s.u.u.s.y.9.9.9.9.9.9.0.0.p.p.u.u.p.p.p.a.a.a.u.p.p.p.u.p.9.9.9.9.9.3.3.9.y.s.u.u.u.0.0.0.0.9.0.0.u.u.u.0.0.9.9.u.u.9.6.2.9.d.u.y.a.u.9.0.s.s.9.9.u.y.9.0.u.9.9.9.9.9.y.0.0.0.y.0.0.0.9.0.9.9.9.0.0.6.6.9.2.2.6.w.9.2.2.2.6.2.6.6.6.6.9.0.6.6.6.6.9.2.2.9.4.9.6.9.6.9.u.9.9.3.3.6.6.2.3.4.3.",
"p.d.d.#Xp.0.p.p.d.d.#Xp.d.d.0.q.0.w.9.9.0.d.#X#X0.0.p.a.p.a.d.#X#X#Xd.0.d.p.p.u.d.p.u.a.a.d.#X=Xf.9.y.u.u.u.0.6.0.9.9.u.p.p.p.p.p.a.d.#Xd.d.=X=X*X*X*X$X#Xp.p.p.d.d.#Xd.0.d.#X0.#Xd.s.d.a.@Xp.u.p.q.p.d.p.p.p.p.u.p.d.p.p.#X#Xd.0.p.d.d.d.d.@X@Xq.q.p.0.d.p.d.@X#X#Xd.#X$X%X$X#X=X$X#X$X;X=X$Xp.d.p.p.@Xd.d.d.d.#Xd.0.u.9.u.u.d.p.u.u.d.p.p.p.d.p.p.p.d.d.#Xd.d.p.p.q.d.d.d.d.d.@X@Xd.#X@Xd.d.d.d.d.p.d.@X@Xd.@X#X@X#Xa.#X#Xd.p.d.@X#X#X#X#Xu.u.5.5.5.5.5.5.6.3.6.5.u.a.p.i.d.p.d.d.#X$Xd.d.#X#X#Xd.@X$X$X$X$X=X$X$X=X;X=X=X=X=X=X;X;X=X$X$X$X#X=X=X$X$X$Xd.#X#X#X$X$X$X$X$X#X$Xd.$X$X$Xf.f.*Xf.*Xf.g.i.t.t.f.;X*Xf.6.i.5.i.i.d.f.i.f.f.p.y.u.p.u.0.p.p.i.a.f.f.f.f.f.&X;X&X*Xf.;X=Xf.f.f.h.f.f.f.f.g.i.f.f.f.g.g.g.i.f.f.f.f.f.$X$X*X$X$X$Xf.$Xd.u.p.p.#Xu.p.#X#X$X$X#Xd.a.a.d.#X$X#X#X$Xd.a.a.p.a.d.#X#Xd.#X$Xa.d.$X$Xp.p.d.s.u.#Xd.d.#Xa.a.d.$X#X#Xp.p.s.a.d.d.d.d.d.d.d.d.a.p.$Xa.#Xd.d.u.p.d.#X#Xd.f.p.p.p.d.d.f.u.p.d.$X$Xd.a.d.d.a.s.u.u.p.d.d.d.p.d.d.p.p.u.d.d.d.#X#Xd.d.a.#Xa.a.d.$Xa.u.u.u.d.d.p.p.p.d.p.u.s.p.p.p.a.d.d.d.a.d.a.u.p.p.#Xf.p.a.d.a.a.d.a.a.p.a.s.s.a.u.u.a.#X#Xd.p.p.p.0.p.u.u.u.6.9.u.p.s.u.s.a.a.s.u.u.u.a.d.d.p.u.p.u.u.p.u.u.p.9.9.9.9.u.p.p.p.p.y.y.s.p.p.u.9.9.s.u.u.u.u.0.9.9.9.9.u.0.9.0.9.9.2.s.9.9.u.s.0.u.u.0.9.p.s.0.0.9.9.y.0.0.0.u.u.y.9.y.s.0.9.3.0.0.9.9.0.0.2.6.0.9.9.6.9.9.9.6.6.6.9.9.9.2.6.6.9.6.6.2.4.2.2.2.w.4.3.6.9.3.2.9.9.9.2.2.9.9.9.2.4.9.",
"p.p.a.p.s.0.w.p.p.d.@Xp.p.p.@X$X;X;X=X#X@X@X@X@X#X=X=X;X;X=X*X$X#X#X#Xp.$X$X$X$Xd.d.p.d.f.p.u.d.d.i.f.d.f.$X$Xf.$Xf.$X$X$Xf.d.d.s.#Xd.d.d.a.a.#Xu.d.$Xd.s.p.p.d.p.p.d.p.s.p.a.u.a.p.p.#Xa.p.s.d.#X@Xp.0.p.p.0.p.p.p.#Xd.a.#X@Xp.d.@Xq.p.0.p.q.p.d.q.d.q.p.p.@Xd.d.d.p.p.p.p.a.a.d.#X#X@Xp.0.p.d.#Xa.#X#Xd.d.$X#Xd.d.u.d.i.f.i.f.i.i.u.f.p.d.u.9.d.p.p.#Xd.#X#X@X$X#X@Xp.0.0.p.p.p.p.p.@Xd.d.#X$X#Xd.d.d.%X$X#X@X@X#X$X#X#Xd.p.p.p.d.p.d.d.d.p.i.i.f.f.i.u.i.f.&Xf.a.d.*X&X$X=X$X$X#X$X=X;X=X;X3X;X;X;X=X=X%X$X#X#X@X#X=X=X$X=X=X;X;X=X*X$X$X$X$Xd.d.p.f.=X=X;X=X$X=X%X#X$X$X#X#X$X$X=X*X$X$Xf.f.f.f.g.f.f.i.u.5.5.y.i.f.f.i.d.f.&Xf.u.u.p.$X=X*X=X*X$X*X&X&X&Xf.&X=X&X&Xh.f.&Xf.f.f.f.f.f.&Xf.f.h.f.&Xh.f.f.f.f.f.f.&X&X&X&Xf.f.$Xf.d.u.9.u.u.d.d.#X$Xd.d.a.#Xd.d.#X#X#Xd.d.d.$Xd.d.d.#X$Xd.d.#Xd.d.d.d.$Xd.p.#X$Xd.$X$Xd.a.a.p.p.d.$X$X#Xd.$X$X$Xd.a.a.a.p.p.d.#Xd.d.d.d.d.d.p.d.d.p.d.d.d.p.#Xd.d.d.d.p.i.p.d.f.f.d.d.i.i.p.p.#X#Xd.d.p.u.p.d.a.d.#Xd.d.d.d.d.d.p.d.p.p.d.p.0.p.p.d.p.#Xd.p.a.d.a.p.#X#Xp.p.p.$Xd.d.$X&Xf.p.p.p.p.p.a.a.p.p.p.y.#Xa.d.a.d.u.u.s.u.p.s.a.a.p.a.d.p.p.p.a.d.p.d.p.0.p.u.u.u.9.u.9.9.0.9.9.u.0.9.u.9.0.s.p.p.d.d.p.u.u.s.u.u.d.d.$Xa.u.u.u.s.s.y.0.9.0.s.#X$Xa.0.s.u.9.9.9.9.9.9.9.9.u.u.y.p.s.9.0.6.9.p.0.9.u.0.9.9.u.0.0.9.9.6.0.s.0.9.9.9.u.0.9.9.3.2.9.9.9.3.2.5.0.s.9.9.9.9.0.9.6.6.6.2.6.9.6.6.9.6.9.6.6.0.6.6.2.6.6.6.9.6.9.9.9.6.2.6.9.9.2.2.9.9.9.2.4.3.",
"p.p.a.0.d.#Xd.d.#X=X;X;X3X=X$Xd.d.#Xd.d.d.#X@X0.0.@Xs.0.p.s.p.u.d.#Xd.p.p.p.d.p.d.f.f.d.d.f.d.$Xf.d.$Xd.d.f.d.f.$Xd.p.9.9.9.0.p.d.d.#X#Xp.a.$X$X$Xs.p.d.d.d.p.d.s.u.p.#X#Xp.p.#X#X$X$Xa.a.p.s.9.0.#X$X#X#Xd.@X%X$X#X$X#X@X#X@X@Xa.#Xp.#Xd.#Xd.d.d.0.p.p.0.p.#Xd.d.#X#X#X#Xp.#X#Xs.p.@X#X#Xd.a.a.a.s.d.a.p.0.p.0.9.0.u.d.y.i.9.6.6.5.5.y.9.f.d.d.$Xd.p.@Xq.@X#X#X#X$X#X#X#X=X;X%X#X#Xd.d.q.d.d.d.d.p.p.p.#X@Xd.p.@X$X#X$X#X@X@X@X#X#X#X$X$X$X=X=X=Xf.i.f.*X;X*Xf.f.f.&X;X=X$X=X$X=X#Xd.d.d.p.p.d.@X@X#X#X#X$X=X=X#X@Xp.p.s.d.$Xd.d.d.d.f.f.f.d.d.f.*X=X$Xf.f.#X#X$X$X#X@X#X=X=X=X=X=X=X;X;X&X$X$Xf.f.f.y.i.&Xf.f.*Xy.u.f.9.f.d.i.y.u.u.f.d.d.$Xd.*Xd.d.d.f.f.f.f.f.&X&Xf.f.f.&Xf.i.f.&X*Xh.f.f.f.h.f.&Xf.y.i.f.i.u.t.y.5.5.i.p.d.d.#X*X$X$X$X&X=X&Xd.p.p.d.#X$X$X*X#Xd.d.d.d.d.d.$X#Xd.d.d.p.p.d.$X$Xp.p.$Xd.s.d.#Xa.p.a.#Xd.a.d.$Xd.d.$X#Xd.*X*X=X*X#X*X$X#Xd.$X#Xd.d.d.d.#X#Xd.#Xp.a.#X#Xd.#X#X$Xd.d.d.d.f.p.i.p.u.d.d.f.d.#X$X$Xd.a.$X*X*X$X$Xp.p.d.p.d.d.p.p.d.p.d.9.p.#X$Xd.a.p.p.u.#Xp.u.$X#Xa.p.d.a.u.p.a.*Xd.p.p.p.p.p.p.y.y.9.y.y.9.u.u.p.$Xp.#Xd.d.p.p.0.u.s.s.s.#Xs.a.s.s.p.p.d.d.u.u.p.0.p.u.9.9.6.p.p.p.p.u.9.9.9.p.u.0.u.p.u.0.u.p.u.s.u.p.a.u.u.p.p.a.a.p.s.s.u.9.9.s.p.0.2.2.0.a.s.0.9.9.9.9.9.0.u.9.0.9.6.9.0.9.6.9.3.6.9.9.0.s.u.0.d.2.2.0.p.p.s.a.0.9.9.6.y.9.9.9.9.6.0.9.s.0.9.9.0.0.9.6.6.w.9.6.6.9.9.6.6.6.9.6.6.9.0.0.4.9.6.6.9.2.4.2.2.2.6.9.3.9.9.6.9.2.3.4.2.3.3.2.4.2.",
"*X=X*X=X=X#X$X$X=X$X#Xd.d.d.p.=X;X#X$Xs.d.p.s.d.a.d.d.d.p.p.p.0.p.d.d.d.p.p.p.9.y.p.d.d.f.$X$Xf.p.d.u.u.i.i.i.y.i.u.d.f.f.$Xf.$X&X$Xd.d.p.d.a.0.s.#X$Xp.u.u.p.d.p.$X*X#Xa.p.p.f.f.$Xd.p.a.d.=X=X;X;X=X#X#X#X#X$X$X#X#X#Xd.d.d.@X@Xd.a.s.p.d.@X@X#Xd.a.p.p.d.#Xd.p.d.#Xd.p.d.d.d.@Xp.#X#X#X#X#Xd.p.0.p.0.p.d.#Xu.p.p.p.p.0.u.p.u.9.9.p.a.#X$Xd.$X$Xd.s.p.#Xd.d.d.p.p.@X#Xp.p.d.p.d.d.d.p.p.p.d.@Xp.p.d.#Xp.d.d.#Xd.d.#Xd.p.#X#Xd.@Xd.#X#Xp.9.5.9.i.y.i.f.f.f.i.i.u.y.u.y.y.y.i.9.u.f.*Xd.$X#X$X$X%X%X=X;X=X%X=X%X=X4X3X;X$X#X#X#X#X$X#X=X#X$X#X#X#X#Xd.d.#X=X;X=X*X$X#X#X=X$X#X$X$X$X=X$X#X$X$X#X=X*X=X$X=X#X$X$X#X=X*Xp.p.d.d.d.a.*X=X&Xp.p.u.f.i.p.f.f.p.f.$Xf.f.&Xf.&Xf.*X&Xf.$X$X*X&Xd.f.f.p.d.*Xp.i.u.i.i.i.f.f.=X$Xf.f.p.d.f.&Xf.i.f.f.p.u.p.i.f.f.f.f.#X$X*Xd.$X*X$X$Xp.d.d.#Xd.f.$X*Xf.#Xf.f.$X&Xd.d.$Xd.p.#X#X#X$Xa.p.d.d.$X*Xd.p.p.d.d.d.d.d.d.d.#X$X#Xd.d.d.d.#Xd.p.p.#X#X$X#X#X#X#Xd.#X#Xd.p.d.=X=X#Xd.d.#X$Xd.d.#X#X#Xd.s.9.9.d.p.$Xp.d.#Xp.#X#Xd.a.d.d.d.d.d.d.d.d.d.#Xd.#Xd.p.#X#Xp.p.#X$Xd.p.s.9.p.a.d.d.d.d.d.$Xa.p.$Xd.p.a.p.p.d.0.s.u.0.u.u.p.p.p.p.p.s.d.s.0.u.y.a.s.a.p.u.p.a.d.a.#Xp.p.9.s.s.u.p.u.u.9.u.p.p.y.p.p.y.9.p.$X*X$Xa.#X*Xa.9.y.p.d.u.u.y.0.s.p.p.9.0.s.u.y.y.0.9.9.p.0.u.u.u.0.6.3.6.u.u.u.6.u.9.u.p.u.u.9.9.9.6.9.9.u.p.0.p.p.p.s.u.u.u.y.u.u.s.u.0.9.6.u.9.9.9.9.9.9.6.9.9.9.y.0.6.9.9.6.9.3.9.0.5.w.a.5.2.2.2.2.5.5.5.5.w.9.9.9.9.6.6.2.6.9.9.3.2.3.2.2.2.2.",
"$Xd.p.d.p.0.p.#Xd.d.d.0.9.d.p.p.d.u.d.d.d.d.p.p.d.p.p.p.a.p.p.p.q.0.q.p.d.d.i.9.9.9.9.i.f.f.d.0.u.d.d.p.y.9.y.9.y.9.i.6.u.y.u.9.p.f.$X0.u.u.a.9.9.p.a.a.a.d.p.p.p.p.p.p.d.d.p.p.f.d.p.d.a.p.p.p.0.p.a.a.p.0.0.p.0.0.0.p.d.d.d.p.#Xd.a.a.d.d.p.p.d.p.p.d.d.d.p.0.@Xp.0.p.$X;X$Xp.@X@X$X#Xa.a.$X;X#X#X$X#X#Xa.d.p.p.p.d.p.p.d.#X$X#Xp.a.a.#Xp.s.p.p.d.p.d.#Xd.d.#Xp.p.@Xd.q.p.d.d.d.$X%X$X$X@Xp.p.#X@X#X$X#X#Xd.#Xd.u.d.#X#X#X$X$X#X#X#X#X#Xf.d.d.f.i.y.i.f.f.f.f.a.f.=X;X;X-X=Xf.&X&X;X3XPX;X;X;X%X$X$X$X#X$X$X$X=X=X=X$X$X#X#Xp.d.d.p.$X#Xd.#X$X=X$Xd.#X=X$X#X#X#X$X;X;X;X=X$X=X;X;X=X#X#X=X$Xq.#Xd.#Xd.$X#X=X;X$X=X*Xd.d.#Xd.$X*X=Xd.i.9.u.p.d.$Xd.d.$Xf.f.f.d.f.a.i.f.i.f.a.a.&X&X$Xd.d.f.$Xd.d.*Xf.d.$X=X=Xf.i.f.f.f.f.d.f.f.i.f.f.a.f.f.f.$Xd.p.a.p.f.f.a.p.#Xp.a.p.a.d.d.$X*X=X=X&X&X&Xf.$X=X$X$X&X$X*X*Xa.$X*X#Xa.d.a.p.d.#X*X=X*Xd.d.#Xd.a.d.d.a.p.p.a.d.d.d.d.p.d.d.d.#Xd.d.d.d.d.d.#X#X#X@X#Xd.p.p.p.d.#X#X#X$X#Xd.#Xd.$Xd.d.#X$X$Xu.a.p.$X*Xp.p.p.a.p.d.a.p.p.p.p.d.d.d.d.p.p.0.0.p.p.u.9.u.#X#Xp.p.a.#Xs.u.d.p.9.9.p.d.u.u.0.9.9.u.a.d.p.d.a.a.a.u.p.a.p.a.#Xp.u.0.a.d.a.#Xs.p.p.a.d.a.a.a.a.p.p.u.p.u.p.p.9.9.u.p.p.p.u.p.u.y.y.u.9.9.9.3.3.3.3.3.p.p.p.s.0.9.9.9.9.9.9.0.0.9.9.9.9.u.0.p.u.u.u.y.9.6.3.9.6.9.9.9.9.9.9.6.2.6.6.9.s.9.9.0.u.p.9.s.u.s.9.9.9.y.s.s.u.u.y.u.0.y.p.u.y.0.0.u.y.9.0.y.u.0.0.6.9.9.6.9.3.9.0.9.9.0.5.5.5.5.2.5.2.2.2.2.9.3.9.9.9.6.2.2.6.9.9.2.3.4.2.2.2.",
"p.p.a.s.0.u.p.d.p.0.p.d.0.p.p.p.a.a.a.s.p.@Xp.#Xa.p.d.#X$X#X#X#X$Xd.p.d.d.d.f.$X*Xf.d.f.f.f.d.f.#X*X$X$Xf.f.i.u.f.f.f.5.u.u.i.y.f.f.d.d.a.d.p.p.=X*X#Xp.p.p.p.p.d.d.$X$X$X$X$X$X*X$Xp.d.p.p.p.a.#Xd.p.d.#Xd.d.#Xd.p.p.d.p.p.p.p.#Xd.d.d.d.p.p.d.d.p.d.#X$X#Xd.p.p.p.@Xp.p.d.d.#X;X$X#Xd.=X=X$X#X#X@X#X#X#X#X$X$Xd.d.d.d.p.p.0.6.p.9.y.9.p.9.s.d.p.#X#Xd.#Xd.#Xd.$X#X#X#X$X=X=X=X$X=X$X$X#X#X#X$X#Xa.a.s.p.d.d.d.d.d.#Xd.p.d.d.d.$X#Xd.d.d.d.p.u.p.f.&Xf.f.i.f.f.a.a.f.f.f.f.*X$X&X$Xf.#X#X#Xd.0.p.f.#X#X#X#X#Xd.#X#X#X#X=X;X=X=X#X$X=X;X=X=X;X=X=X*Xd.$X;X$Xd.$Xp.#X=X$Xd.0.p.p.d.d.d.d.p.p.@X$X#X$X=X;X;X$X#X$X$X$X#X$X*X$X#X$X#Xd.s.p.f.*X$Xf.*X$X$X&Xd.f.&X=X=X&X&X=X&Xf.f.f.&X$X$X&X*X$Xf.&Xd.p.i.p.f.g.a.y.i.f.y.f.d.f.f.$X=X&Xf.a.f.f.f.f.f.p.u.y.p.a.f.p.p.d.$Xd.$X*X$X*X#Xd.f.d.f.f.p.f.f.f.$Xp.p.*X=Xd.#X$Xa.s.a.#X$X$Xd.$X*X$Xd.d.d.a.d.d.#X#Xd.p.a.#Xd.#X$X$X#Xd.d.d.d.d.d.d.d.#X#X$X%X#X#X#X#X#X#X=X$X#Xd.#Xd.d.#X#X$Xd.d.d.d.d.p.$Xp.d.d.a.d.d.#X$Xp.a.p.d.d.d.d.p.p.d.d.p.p.d.d.d.d.p.p.a.a.d.d.a.d.p.p.#X#Xd.#X$Xd.#X*X$Xp.#Xd.u.p.u.s.9.9.u.9.u.s.p.a.#Xa.#Xu.0.a.a.$X$X#Xa.p.s.a.a.#Xa.a.s.0.u.0.p.u.u.0.p.s.0.y.9.9.u.u.u.y.9.y.p.p.d.d.p.9.y.9.6.9.6.9.u.9.u.u.s.u.u.p.p.u.0.9.6.9.9.u.y.9.0.9.6.9.2.9.y.y.9.9.9.9.u.u.9.6.3.u.u.s.s.s.9.9.9.0.9.9.9.0.0.u.u.p.u.s.0.0.0.9.9.9.9.0.0.9.9.0.9.9.9.9.9.9.2.9.9.9.9.9.2.2.3.2.6.9.9.9.9.6.3.2.9.2.6.0.s.u.9.3.3.9.9.9.3.4.6.6.2.",
"u.d.*Xd.u.p.d.#X0.p.d.d.p.d.p.p.a.s.a.a.0.p.d.p.p.d.d.a.a.d.#X=X$X#X#X$Xf.d.d.&Xd.d.p.f.d.i.p.f.d.#Xp.d.d.f.i.u.f.g.i.u.u.p.p.f.&X$Xp.d.p.p.6.6.s.a.$X*X*X$X#X$X*Xd.d.d.#X$Xf.d.p.p.p.d.a.d.a.d.d.p.0.p.d.d.d.#X#X@X@Xd.d.d.d.p.p.d.#Xd.p.p.d.#Xp.0.p.d.d.a.p.p.0.0.d.$X=X;X=X=X#X#X$X#X$X#Xp.a.d.d.#X#X$X$X$X@X#Xd.d.d.$X=X=X$X#Xp.p.p.#Xd.$X*X#X$X#X$X$X=X=X=X$X=X$X#X#Xd.d.d.#X$X#X#Xd.a.p.p.p.d.#X#X$X$Xd.d.d.#X$Xd.p.d.$X$X#X$X$X=X;X=X$Xi.f.i.y.y.a.f.i.y.f.a.f.i.f.f.f.d.*Xd.9.u.0.0.p.d.p.d.d.#X$X$X#Xd.d.#X=X$X#Xd.#X=X;X$X$X*X#Xp.p.d.d.#X#X#X$Xd.d.d.#Xd.#X#X#X$X$Xd.$Xd.d.#X#X@X$X$X=X=X$X$Xd.#X#X=X$X$X$X#Xa.p.$X=X*X$Xd.#X*X=X=X&X*X$Xf.f.u.i.p.d.f.f.f.f.i.i.i.i.&X$Xd.p.d.p.i.f.&Xp.f.&X=Xf.&X&Xf.f.f.=X;X&Xf.f.&Xf.i.i.f.f.f.f.p.d.d.f.&Xf.f.p.u.d.d.a.#X$Xd.d.$Xd.d.d.&X*X$X$Xd.p.p.d.p.s.d.*Xa.d.p.p.$X$X$X*Xd.d.d.d.p.a.a.p.#Xd.$X*X$Xd.d.$X#X#X#Xd.#X#X#X#Xd.d.d.d.d.d.d.d.#Xd.d.d.d.d.d.d.p.p.p.d.#Xd.d.p.d.d.d.d.d.#Xd.$Xa.a.a.p.a.p.a.d.p.a.p.p.d.d.#Xd.d.d.#Xd.d.d.p.p.d.d.d.p.a.d.d.d.s.u.p.d.p.p.a.p.p.a.$Xd.p.$X$Xu.p.a.a.s.s.p.u.s.9.u.s.0.9.p.p.a.#Xa.d.a.s.s.p.p.9.0.p.a.p.s.0.p.p.a.p.u.9.9.s.d.p.p.p.p.u.9.6.9.9.y.9.p.p.p.y.p.0.9.0.9.9.0.9.u.9.u.s.s.s.0.9.9.9.6.6.9.9.6.6.9.9.9.6.9.9.y.6.6.u.9.2.3.9.u.u.0.9.9.u.0.y.9.0.u.9.0.0.0.9.9.9.0.0.9.0.0.u.9.9.9.9.9.9.6.2.6.9.6.2.9.9.9.6.3.2.6.9.9.0.0.2.0.9.0.9.9.9.6.9.9.9.0.9.6.9.0.u.9.6.2.9.9.9.3.3.9.9.6.",
"p.p.#Xd.u.0.u.#Xp.d.d.p.p.p.u.p.9.s.p.0.d.0.s.p.0.d.@Xd.d.p.a.d.d.#X#X#Xf.f.f.&X&Xf.i.y.y.y.9.y.p.a.u.p.d.f.d.d.f.f.f.g.d.d.d.$Xd.f.p.y.$X$X$Xa.$X$X$X$X$X$X$X=X#Xp.p.p.p.d.f.d.u.p.d.d.d.p.p.p.p.p.d.#X#Xp.p.d.d.d.#Xd.d.d.d.p.p.d.d.d.p.a.d.d.#Xd.p.p.p.d.$X$X$X#X$X#X@Xp.0.9.p.p.a.0.d.d.p.a.#Xd.d.d.#X#Xd.d.p.p.p.0.0.u.p.p.u.y.0.u.p.p.p.p.=X*Xf.d.d.u.p.d.d.p.p.u.p.p.p.p.#X#Xd.p.p.p.p.d.d.@X#Xp.d.d.d.#Xd.p.p.d.d.p.d.$Xd.d.d.d.d.$X$Xf.d.f.f.f.y.5.y.f.p.a.d.f.$Xf.f.f.d.d.f.p.p.$X=X$X$Xd.p.a.*X*X#Xd.d.d.d.#X#X#X@Xd.d.$X=X=X=X=X$Xp.d.f.#X#Xd.d.$X#Xa.#X*X=X=X;X;X=X#X=X=X*X#X$X#Xp.p.d.p.#Xd.#Xd.#X#X#X#X#Xd.d.a.a.d.#Xd.p.p.p.d.f.u.9.5.9.9.p.p.u.f.f.f.f.f.f.f.f.f.$X$Xf.*X=X;X;Xf.f.f.f.f.&X&Xf.*Xf.f.f.f.i.i.f.&X*X=X*Xf.i.p.f.f.f.f.d.d.i.f.f.f.$Xf.d.f.d.d.$Xf.d.d.d.d.d.a.d.d.d.d.p.d.*X*Xd.$X#X$X$X$X$X#X#X#Xd.d.a.a.d.d.p.p.p.d.$X$X#X#X$X=X=X=X*X*X*X*X*Xd.d.d.d.d.d.a.p.a.a.#Xa.a.a.p.s.p.a.p.a.a.a.a.a.p.d.#Xd.#X#Xd.d.0.#X$Xp.0.p.d.a.a.d.p.p.a.p.d.p.d.d.#X#X#X#Xd.d.u.u.p.d.d.s.u.p.d.u.a.$Xd.p.p.p.a.y.y.p.s.u.s.0.u.a.a.s.p.a.p.p.p.u.u.a.s.a.a.*Xp.0.s.a.s.0.s.s.d.p.u.a.s.u.9.p.u.u.s.s.p.u.s.s.y.a.d.p.s.p.p.p.u.p.p.p.u.u.9.9.9.0.9.9.s.0.s.s.0.0.9.9.9.6.6.u.0.9.6.0.9.3.3.9.y.u.y.p.y.y.9.y.a.a.u.9.9.y.9.3.u.y.p.y.y.9.y.p.9.9.6.6.6.3.5.9.3.3.9.y.u.3.9.9.0.9.9.9.9.9.9.6.9.9.0.u.0.9.9.9.s.0.u.s.9.9.2.3.9.9.9.9.9.9.6.9.9.6.3.2.6.6.6.9.9.9.2.2.6.9.9.9.",
"p.p.p.p.p.p.p.p.d.d.0.p.p.0.9.#Xd.a.d.a.d.p.=X$Xp.d.d.0.p.d.a.d.d.#Xd.d.d.d.f.$Xf.f.i.i.i.f.$X$Xs.u.9.u.d.d.f.p.f.f.h.y.p.p.d.u.p.d.i.y.s.p.d.d.p.a.p.p.a.a.a.#Xs.p.#Xd.p.d.d.$X&X$X$Xp.p.p.a.p.d.d.d.#X#Xp.p.d.d.d.#Xd.p.d.d.d.#X#Xd.p.p.d.d.d.@X@X#X$X=X=X$Xd.d.p.p.0.p.d.d.d.p.p.d.p.p.p.a.d.@Xp.p.d.#Xp.p.#Xd.d.d.d.p.p.d.p.p.p.u.u.p.d.$X#X$X*Xd.d.p.u.d.$X$Xd.0.p.d.d.p.9.0.p.d.#X#X#Xd.d.d.d.#Xd.d.d.p.a.f.d.s.p.d.p.p.a.u.p.d.d.d.p.u.u.f.$X$X$Xf.i.u.y.a.a.f.f.$X$X&X&X*Xf.$X*X*Xf.$X=X$X$Xd.d.$Xd.p.d.0.p.$X*X$X$X$X%X=X$X#X#X$X$X$X=X=X$X$X$Xd.p.d.u.p.$X=X*Xd.d.#X$Xd.d.p.p.d.$X#X0.#X$X#X$X$X$X#X#X=X$Xd.#X*X=X=X$Xp.d.#Xd.$X$X$X$X*Xf.d.d.i.$X&Xf.f.f.&Xf.f.&X=X&X&X&X*X&X=X&X*X*Xf.f.f.f.&X*X&Xf.f.f.&Xi.i.f.f.f.f.f.f.f.i.u.a.d.d.f.$X$X&Xf.f.f.d.$Xd.f.d.a.d.$Xf.f.f.f.p.d.a.a.d.d.d.$X*X=X*Xd.$X$X$X*X$Xa.a.d.d.d.d.d.d.#Xd.p.a.a.a.d.#X#Xd.d.$X*X*X$Xd.p.p.d.d.d.d.d.d.d.#Xd.#Xa.p.p.a.#X#X$X$X$X#X#X#Xa.#X#Xd.p.p.d.#Xd.d.#Xd.#X$X#Xp.#X$X$X$X$X$X$X$X$X#Xd.p.u.p.p.p.p.p.p.u.p.p.p.p.u.u.p.u.y.p.d.p.a.d.p.d.p.p.d.d.p.s.u.u.p.a.s.u.p.p.p.s.u.u.p.a.d.0.9.a.u.9.u.0.0.s.a.a.s.9.a.d.$Xp.#Xp.u.0.9.u.s.a.p.p.a.d.a.d.d.a.a.s.s.0.u.9.p.p.p.u.p.s.0.s.3.9.6.0.0.s.#X$Xp.9.9.u.0.9.u.9.6.6.9.3.9.9.3.9.9.9.2.9.p.p.9.6.9.y.y.p.y.u.9.y.9.9.u.9.9.3.3.3.3.6.9.3.9.9.9.9.3.9.9.u.0.0.u.y.u.y.9.9.9.9.u.p.s.u.9.9.2.6.9.2.3.2.3.9.9.9.6.9.9.6.6.3.2.6.2.2.2.6.9.9.2.3.6.9.9.9.9.",
"p.d.d.p.p.d.d.p.p.d.p.0.0.p.p.p.u.a.s.p.d.0.d.@X0.p.p.s.@X@X0.s.p.d.d.f.f.f.y.i.i.i.i.f.f.i.f.f.d.p.y.p.$Xf.d.p.i.p.f.u.d.f.f.p.i.p.u.d.u.p.p.$Xd.#Xd.a.d.d.d.d.u.u.p.s.d.$Xf.p.d.p.d.a.d.$Xd.d.d.d.p.d.#X$X$X$Xd.d.d.d.d.#X=X$X$X#Xd.p.p.d.d.#X#Xp.p.d.d.d.#Xd.p.p.d.p.p.p.p.p.d.p.d.a.d.p.p.u.p.p.d.d.#Xp.0.p.p.p.0.0.u.d.#Xd.d.a.u.9.0.u.$X$X$X&Xf.d.f.p.d.d.p.u.s.p.s.p.d.#Xd.a.p.p.p.s.s.p.#Xa.p.p.u.p.p.d.p.f.d.d.f.d.d.d.i.p.d.d.p.p.p.d.p.d.d.p.d.&Xf.u.u.u.i.i.f.d.d.p.d.f.g.i.y.a.f.f.f.&X*X&X&Xf.d.$X$X$X$X$X$X$X#Xd.p.#Xd.d.d.=X#X$X=X$X$X=X=X$X=X=X=X=X=X*X*X*X*X*X$X$X#X#X#X#X$X$Xp.d.d.d.#X#Xa.d.p.a.#X$X#X$X$X#X$Xd.d.p.$X$X$X$X$Xf.d.d.u.f.$X&Xp.a.$Xd.d.f.*X*X*Xf.h.f.h.a.*X=Xf.f.f.f.g.f.u.i.i.f.f.y.y.i.f.f.a.i.i.i.u.a.f.d.f.p.p.u.p.p.f.d.f.f.f.f.d.f.f.f.f.p.f.d.d.$X$Xd.d.=X=X$X$X=X*Xd.#Xd.#X#Xd.a.a.#Xd.d.d.#Xd.d.d.p.#Xd.d.d.d.d.d.d.p.d.d.p.p.d.#X$Xp.d.d.a.a.d.#Xd.$Xa.p.s.p.a.d.$Xd.$X$X*X*X#Xa.a.d.p.p.d.#Xp.d.d.$Xd.p.$Xd.d.p.d.p.p.s.p.p.a.#X$X$X#Xd.p.p.0.p.p.u.d.d.s.p.a.d.d.p.a.d.p.u.d.$Xs.p.a.s.p.d.p.a.p.p.d.$X$X$X#Xd.p.a.#X#Xa.s.a.s.s.0.s.s.a.a.p.s.s.a.p.u.s.p.a.u.u.9.u.d.d.p.9.u.p.u.y.u.p.d.p.p.$Xa.p.9.9.9.u.9.6.9.0.u.9.u.9.u.u.s.u.s.p.0.9.0.p.p.p.0.p.y.6.3.2.3.6.3.3.9.9.y.2.3.y.u.9.6.3.3.6.9.3.6.3.9.9.9.u.y.9.9.6.3.3.9.y.3.9.6.9.9.9.u.p.9.9.9.9.0.y.u.9.6.6.6.9.0.9.0.9.s.u.u.0.6.3.2.3.6.6.9.3.3.6.2.3.2.9.9.9.6.9.6.2.6.2.2.6.9.6.6.6.",
"$X#Xp.d.p.0.p.d.#X#Xd.$Xa.d.$Xd.d.#Xa.$X#Xp.#X@Xp.d.p.p.m.p.s.d.p.d.p.p.f.u.y.i.f.y.y.i.f.f.f.f.$X#Xf.d.f.d.p.f.f.p.d.f.f.$Xd.i.p.f.$Xp.u.p.d.u.u.p.a.p.p.p.a.d.u.a.d.s.a.#Xp.p.d.i.p.d.#X*Xd.d.d.#X$X*X=X$Xd.p.d.#X#Xd.p.#X#Xd.p.p.d.d.p.s.p.d.u.u.d.#Xd.p.p.d.p.p.d.p.p.d.d.d.d.p.#Xd.d.d.d.p.d.d.p.9.p.d.#Xd.p.d.#Xd.p.p.d.p.p.p.u.9.p.u.$X$Xf.&X$Xf.$X&X$Xd.a.s.p.a.u.s.#X$Xd.d.a.a.d.p.p.a.$Xp.p.#Xa.d.d.d.u.p.i.d.u.3.9.p.d.f.d.#Xd.d.d.d.p.#X$Xf.f.=X*Xd.d.d.d.i.f.d.d.d.f.&Xi.i.y.f.f.f.p.f.f.d.*X=X*X*X=X=X$X#X#X$X$Xd.#X$X#X*X=X=Xp.$X#X$X#X$X$Xd.#X#X=X;X;X=X=X=X*X=X;X;X=X$X=X;X=Xd.d.d.d.d.d.d.d.#X*X#Xd.#Xa.d.d.a.#Xd.d.p.d.d.#X#X*X$X$X*Xf.a.u.y.y.y.a.u.u.u.d.f.i.a.&Xi.f.h.;X&Xf.*X=Xf.g.=X*X-Xf.&Xf.h.f.i.y.y.5.y.i.i.y.i.f.p.$Xf.&Xf.f.f.d.f.f.f.i.i.p.a.$Xf.f.f.$Xf.d.#X#Xd.a.d.d.d.#X#X#X$Xd.d.#X#Xa.a.a.d.d.d.$X$X#X#X#Xa.d.d.d.d.#X#Xd.d.a.d.d.d.$X$Xd.p.p.#X$Xd.d.#X$Xd.#X$X=X$X#X#X$X=X$X*X$X#X$X#X#X$X#X#Xd.p.d.d.d.d.d.p.p.$Xd.#X#X#X$X*X$X$X$Xd.#Xd.s.a.u.u.u.p.d.p.a.d.d.d.#Xa.p.a.$Xd.d.p.9.p.#Xp.p.d.s.a.d.0.9.u.p.p.p.p.u.u.p.u.a.s.s.a.a.a.0.0.s.#Xs.s.s.a.a.#Xa.a.a.u.u.s.s.a.#Xp.u.$Xd.s.9.u.p.a.p.u.0.9.9.u.0.u.0.0.9.u.u.9.0.9.s.6.9.9.0.p.s.u.p.p.0.9.9.9.9.0.9.p.y.y.9.6.2.9.9.p.9.6.5.9.9.9.9.y.u.9.9.y.p.9.y.9.u.p.u.u.u.9.3.9.y.y.y.9.3.9.6.y.9.9.6.3.9.6.9.9.9.9.u.0.0.u.u.u.9.6.9.y.6.u.s.0.u.u.a.u.u.s.s.9.6.9.6.9.0.0.9.2.2.9.9.6.6.6.6.6.6.6.2.2.",
"d.d.p.d.p.p.d.d.d.$X#X#Xd.u.9.p.a.p.d.#Xd.#Xd.p.p.0.p.p.0.p.p.d.d.d.f.d.$Xd.f.=X&Xi.a.f.f.f.i.i.p.s.d.$X$Xd.p.p.d.d.$X$Xd.f.f.$Xf.f.d.p.d.d.#Xp.d.u.d.$X$X*X$Xa.p.a.p.a.#Xd.d.f.d.f.d.$X*X*X*X$X#X#X#X#X$X$Xd.u.0.p.d.d.d.d.a.u.p.#Xd.p.p.d.p.s.d.d.d.d.p.d.u.d.#Xd.d.p.d.d.d.#X$Xd.d.p.#Xd.d.p.p.p.a.d.p.p.u.u.u.a.d.d.p.s.s.p.d.d.d.s.a.s.f.;X$Xf.i.u.d.f.p.p.u.p.d.$Xd.f.f.$Xf.d.p.d.$Xi.u.y.u.a.f.f.u.u.y.u.y.f.f.f.d.f.f.$X$Xd.$X$X$Xd.p.d.p.$Xd.d.p.$Xd.p.d.$X*X*X$X$Xf.f.$X*X&X;X$Xf.f.f.$X*X;X*X;X=X$X$X$Xf.d.p.#X=X$Xd.d.$Xd.d.d.#X$X=X$X$X=Xd.d.d.#X$X=X*X$X9.p.#Xd.p.a.a.a.p.d.$X#Xd.d.d.d.$X$X$X#Xd.a.d.d.*X*X=X$Xd.$X$X$X$X$Xd.p.p.d.d.p.u.p.p.a.*X&X&Xd.d.&X*Xf.a.h.*X-X*Xh.f.f.f.i.i.5.u.t.5.u.f.g.i.u.f.i.f.f.=X*X&X&X$X&X&Xa.i.i.f.f.a.i.f.i.i.y.i.a.f.f.f.f.f.f.u.d.d.f.d.d.$X$Xp.d.$Xa.$X$X*X*X$X$X$X#X#X$X*X*X*X*Xd.d.a.d.a.d.d.#X#Xa.p.d.$X$Xd.d.a.#Xd.*X*X=X*X$X$Xa.d.$Xd.d.#Xd.#Xa.a.a.#X#Xa.a.d.d.d.a.a.p.p.p.d.p.0.s.p.$Xp.a.d.d.a.p.$Xd.a.a.p.a.p.d.d.d.#X#Xs.u.u.p.s.y.s.p.6.0.u.0.0.a.p.u.u.p.0.p.p.p.9.u.d.#Xp.s.p.p.s.u.9.9.y.0.9.s.p.9.#Xa.s.u.a.s.d.p.p.0.p.s.a.s.p.a.p.p.p.d.u.p.a.p.s.p.#X#Xp.p.p.s.s.a.p.p.#Xd.d.s.9.9.u.s.0.y.9.0.0.s.a.p.#Xa.s.u.u.s.s.0.0.p.a.y.2.3.9.y.p.y.u.y.y.5.3.9.5.9.9.9.9.3.9.y.9.6.9.3.y.9.u.y.p.y.y.9.9.9.9.6.3.5.9.y.9.9.6.3.2.9.9.9.9.6.6.9.u.u.y.a.p.y.3.6.u.y.9.6.y.y.9.9.a.9.u.u.p.p.p.p.y.0.9.3.4.2.0.9.2.3.2.9.9.9.9.9.9.",
"d.d.d.#Xp.p.p.p.#X=X#Xd.$X#Xd.p.d.p.d.a.a.#X@Xd.#Xd.#Xd.p.d.p.p.p.#Xf.d.d.f.i.f.a.i.i.y.y.f.&X*X=X*X$X*X*X$Xa.p.d.f.f.f.f.d.f.d.d.u.y.f.a.d.p.p.a.$X#X*X=X*X*X#X#X$X#Xd.d.a.d.f.d.f.#X*X*X*X*X$X#Xd.d.d.p.p.d.#Xp.d.d.d.d.d.d.a.#Xd.p.p.p.p.p.a.d.p.d.p.p.p.9.0.0.p.#X$X*X$Xd.d.d.d.$X$Xd.u.p.p.p.d.d.$Xp.p.d.d.p.p.s.p.p.p.p.p.a.a.s.u.d.d.f.*Xp.d.d.i.d.d.d.d.&Xd.p.d.p.f.p.u.u.p.p.f.f.u.i.p.p.p.f.$Xd.f.*X$Xf.f.a.u.i.p.i.i.d.p.$X*Xd.p.p.p.9.p.d.#Xd.$X$Xf.p.p.p.p.p.d.d.f.u.f.&X$Xf.f.*Xf.f.f.*X$Xf.d.f.$Xd.f.#Xd.d.#X$X#Xd.$X=Xd.#X#X$Xp.#X#X$X$X$X$X#X$X$X$X$Xd.$X*X#X#Xu.p.#Xd.s.u.d.;X$X$X$X$X$Xd.d.#Xp.d.$X*X*X*X*X*X=X=X$Xd.#X#X#X$Xd.d.d.d.$Xf.a.f.d.f.d.d.f.p.a.p.h.f.f.a.a.a.f.&Xh.h.f.f.f.h.*X*X*X&Xf.f.f.f.i.f.$Xf.f.a.d.d.a.f.f.f.&Xf.f.f.f.f.f.f.f.f.f.f.f.f.f.a.p.p.d.p.f.f.#X#X*X=X$X$Xd.$X*X$X$X#X$X$X$X$X*X*X$X#Xd.#X$X$X$X$X#X#Xd.d.a.d.#X#X*X*X*X$Xd.a.#Xa.#X*Xd.a.d.d.a.a.d.$X#X#Xp.p.a.d.d.a.p.a.d.#Xd.d.d.#X#Xd.p.p.d.d.$X$X$X#Xd.#X#Xa.p.a.$X$Xd.a.d.d.d.s.a.p.d.p.u.s.p.9.0.9.u.p.u.u.u.0.p.u.d.a.p.s.u.9.u.#X#Xu.9.9.9.9.9.9.9.6.s.p.0.a.p.p.a.$Xs.u.d.u.#X0.p.0.p.a.d.a.u.9.p.s.a.p.p.p.a.d.d.d.p.s.p.p.p.p.u.s.u.p.p.p.p.p.p.s.y.9.s.s.s.s.9.0.u.u.p.p.s.u.9.9.y.u.y.y.9.y.u.u.9.9.y.y.9.3.6.3.9.9.9.6.3.5.9.3.6.3.3.y.3.9.9.9.9.9.3.3.6.6.9.6.9.9.3.3.6.9.9.9.3.3.3.6.3.6.9.y.6.6.y.y.y.9.9.y.9.p.a.y.u.y.y.y.9.9.6.9.y.9.y.9.9.s.s.9.6.9.9.9.9.6.2.2.9.9.9.9.",
"d.d.p.d.p.p.d.d.$X$X#Xd.d.$X*X$Xd.p.p.p.a.#X#X#X#X#X#Xp.p.d.d.p.d.p.d.$Xu.$Xf.y.f.f.f.a.f.f.f.d.$X#Xp.s.u.u.p.p.s.u.a.$X$Xf.f.f.d.=X*X&X#X=X=X$Xd.d.p.d.*X$X$X$X$X$X#X#X$X$Xf.d.u.d.#X$X#Xd.d.d.d.#X#Xd.d.d.#X#Xa.d.#Xd.d.d.d.d.a.p.p.p.d.p.p.p.p.u.p.p.$X=X;X;X=X=X=X*X$X#Xd.#X=Xd.d.d.d.d.d.#Xa.#X$X$Xp.d.d.d.$X$X$X*X*Xd.p.u.u.p.u.u.s.p.s.p.p.p.p.i.p.p.i.p.p.p.f.f.f.f.f.d.$Xf.d.d.p.u.p.i.d.5.u.p.y.i.f.y.i.i.t.t.i.f.f.d.f.u.9.a.u.p.d.s.p.q.d.#Xd.#Xf.d.$X#X#X$X#Xd.d.d.f.d.&X=X=Xd.d.d.$Xp.d.d.f.*X;X;X=X$X=X$X$X$X$X#X$Xp.d.=X=X$X=X;X=X*X$X$Xd.d.p.d.#X$X$X$X#X$X$X=X*X#Xd.a.#X$X#Xp.a.p.p.p.d.d.d.d.d.$X$Xd.d.d.f.$X$X*X=X$X$X$X$X$X$X#Xp.u.d.$Xd.a.f.p.f.f.p.u.p.p.i.u.i.a.i.a.f.h.f.y.u.f.-X*Xf.u.i.f.g.f.f.f.i.i.f.f.f.d.d.d.f.&Xf.f.f.i.a.y.f.i.y.u.y.5.a.i.i.f.&X&Xf.f.&Xf.f.f.$X$Xf.$X#X$Xd.a.d.a.a.d.$X*X*X$X$X$X$X=X*X*X#X$X$Xd.p.p.d.$X*X*X#Xd.#Xd.a.d.p.d.d.p.d.$Xd.d.d.d.a.a.p.d.d.#Xd.d.d.#Xd.p.d.d.d.d.$X$X*X$Xd.d.a.#X$Xd.#Xd.$X#X#Xd.a.p.p.a.d.d.d.#Xp.p.$Xp.d.s.d.#X#Xd.$Xd.$X#Xp.p.p.u.d.s.d.p.p.u.p.s.p.p.p.u.p.d.p.u.0.0.u.s.s.u.u.u.9.p.a.#X#Xs.a.u.u.u.p.u.u.0.0.s.s.0.u.s.#Xs.p.s.u.p.p.p.p.p.d.p.p.u.0.s.s.s.9.0.u.u.9.9.9.u.u.0.p.u.u.u.9.0.s.0.0.9.9.u.s.d.u.9.y.s.9.9.y.9.9.9.y.y.y.9.9.5.9.9.6.6.6.9.y.9.9.9.y.y.3.9.p.9.9.y.9.5.9.9.y.u.y.9.9.9.6.6.3.3.3.3.3.3.3.6.9.9.y.y.y.9.9.y.9.9.9.u.p.y.u.y.9.9.y.9.9.y.9.6.9.9.9.9.0.9.6.6.6.9.9.9.6.2.2.6.9.9.",
"d.#Xd.d.d.d.#Xd.p.p.p.d.p.u.a.a.$Xd.d.d.a.d.a.a.p.p.p.p.p.@X#Xd.p.#Xa.p.d.f.i.u.a.a.i.u.f.f.p.d.d.#X#Xd.d.d.#X$Xd.p.p.p.d.f.&X&X*X*X*Xd.d.p.p.p.a.d.d.u.a.=X*Xf.p.d.d.d.d.p.p.p.p.d.d.#Xd.p.d.#Xp.#Xd.d.$X$Xa.a.$X$X$X$Xd.d.d.#Xd.#X$X$X*X*X$X#Xd.d.d.#X$X*X&Xp.d.d.d.d.p.p.p.d.p.0.d.d.d.d.d.a.d.$X#X#Xa.d.p.u.p.p.d.d.d.a.a.d.p.a.s.p.p.a.u.p.a.d.d.p.i.u.u.u.y.p.&Xf.d.f.$X$X$Xd.d.d.i.p.d.i.p.u.f.*Xf.f.f.y.y.y.y.u.i.i.p.f.f.d.p.$X$X#Xd.0.d.0.d.d.p.d.d.d.d.d.d.$X$X#X#X#Xi.p.d.d.f.f.&X$X$X$X=X=X$Xp.d.d.f.f.#Xd.$X$X$X$X*X;X;X=Xd.=X#Xp.p.p.d.d.p.#X#X$X#X$X*X=X=X$X#X$X$X*X$X#X$X=X;X;X$X#Xd.d.#X#X$X#Xu.p.d.p.$X#X$Xd.#X$X$X#Xp.u.u.p.p.d.$X$X$X=X=X;Xf.p.a.d.f.d.d.p.f.f.f.f.y.a.f.h.f.u.&X;X-Xh.f.f.f.f.g.i.i.f.f.f.f.f.f.$X$Xd.f.&Xf.f.a.i.f.i.&Xf.f.f.f.i.&Xf.f.f.f.f.f.f.f.f.i.y.p.d.d.f.*X*X$Xd.d.#Xd.a.d.#X$X#X#X$Xd.#Xa.d.d.#X*X$Xd.a.d.$X$X$Xd.d.$Xd.p.$Xp.d.d.$X$Xd.#X*X$Xa.#X$Xd.d.p.d.#X$Xa.d.p.p.#Xd.p.a.p.p.d.s.u.p.u.a.d.p.a.$X$X#Xp.p.p.p.p.a.p.s.a.$Xp.p.$Xa.#Xp.#X$X$Xd.p.u.p.p.u.u.p.s.d.u.p.u.u.9.s.s.p.a.p.p.p.0.s.u.u.p.d.a.s.0.9.s.#X#Xa.a.#Xa.p.p.9.p.0.a.s.a.a.0.9.s.a.0.s.s.u.p.p.u.u.s.p.u.p.u.d.d.p.p.s.u.u.u.u.u.9.6.9.s.u.u.s.u.u.s.u.u.s.0.0.9.9.0.0.0.a.u.s.p.9.9.9.y.9.3.9.6.9.9.9.9.y.9.9.3.3.9.9.9.6.3.6.3.3.2.9.6.2.9.9.9.y.5.3.3.3.6.9.u.9.9.6.9.y.y.y.9.y.y.y.9.y.9.3.3.3.9.9.9.u.9.3.y.y.y.9.u.6.3.6.y.y.y.u.y.u.9.6.9.9.9.6.9.9.9.9.6.6.6.9.9.",
"p.d.#X$X$X#X$Xd.d.d.$X=X$Xp.a.a.$Xa.d.d.p.p.p.d.p.p.p.d.#X#Xd.a.d.d.d.p.u.y.p.u.9.a.f.p.d.d.d.d.d.a.s.u.s.p.p.p.p.p.u.9.9.p.d.d.d.p.u.u.$X$Xd.p.a.u.$X$X$X*Xf.f.#Xd.p.p.d.d.d.p.u.d.d.d.d.d.#X$Xd.p.d.#X#Xa.p.$X$X#Xd.d.a.a.#X$Xd.$X#X#X$X$X#X$X$X$Xd.$Xf.&X$Xp.p.p.d.d.d.$X$X$Xu.p.d.d.p.a.p.a.p.d.f.d.p.d.p.0.p.#X$X*X$X$X#Xa.d.a.u.d.#X$Xa.d.a.d.#Xd.a.p.a.#Xd.d.*Xd.d.d.$X#Xa.d.$X*Xd.#Xd.a.p.d.d.d.9.y.u.u.y.y.u.i.f.f.f.f.&X*Xd.f.#Xp.#X$Xd.#X$X#X#X#Xu.p.#Xd.d.d.d.d.#X$X$X$X#X#Xd.#Xd.d.$Xf.d.d.#Xf.#X$Xd.#X#X#X*X$X#X=X=Xd.*Xd.d.d.#X$Xp.d.$Xd.$X*X=X=X=X$Xd.d.$X#X$X#X#Xd.#X*X=X=X$X#X#X#X$X#X#X$X*X=X*X*X*X$X&X$X&X$X#X$X$X$X$X#X$X;X*X$X$X$X=X=Xf.i.f.p.p.f.d.$X$Xi.f.f.&Xf.a.f.&Xh.u.i.*X-Xf.f.h.*Xh.*X&X&X&X&Xf.f.*X$Xf.d.f.d.f.&Xf.&Xf.f.f.f.f.f.f.f.f.a.f.f.i.y.5.5.y.i.f.f.f.f.p.$X$X$Xf.d.f.f.$X$Xf.f.a.d.#X#Xf.$X$Xp.a.f.f.f.&X$X$X$X$X$Xf.d.d.f.*X$Xf.$Xi.a.i.f.&Xf.f.*X&Xp.$X*X$X$Xa.d.p.p.u.a.a.p.a.s.p.d.d.p.d.d.*X=X#X#Xa.a.p.#Xp.p.p.$Xa.p.a.#X$X#X#X$X$Xa.d.p.$Xd.$Xd.d.d.#Xp.u.p.p.p.d.p.d.0.s.p.p.a.a.p.s.y.9.u.a.a.a.a.a.d.d.p.p.p.y.u.a.p.y.p.#Xa.9.u.p.y.y.s.p.s.y.p.a.u.p.u.p.y.p.p.a.p.u.p.p.p.p.u.p.a.p.p.u.u.u.u.u.p.p.u.u.p.0.u.u.u.u.s.u.0.9.9.0.0.u.p.s.s.u.s.y.y.y.9.9.p.y.9.9.9.9.5.9.9.9.9.9.5.3.6.9.9.y.3.3.6.y.3.3.u.d.#Xp.9.9.3.3.6.3.6.6.9.9.9.9.u.6.6.6.3.3.6.3.3.y.9.6.9.3.9.6.y.9.9.3.3.3.y.y.9.y.6.9.9.9.9.3.4.y.9.9.9.9.3.3.6.9.3.3.3.9.9.9.3.",
"p.d.#X#X#X#X$Xp.d.d.d.$Xd.p.#Xd.$Xa.d.d.p.p.p.#Xd.d.p.d.#Xd.d.#Xp.d.p.0.$Xd.u.d.f.f.p.u.u.u.u.f.d.a.p.s.p.p.p.a.p.d.d.d.p.d.$Xf.&X=Xf.d.f.*Xd.u.d.p.$X=X$Xp.d.p.0.p.p.p.p.u.p.d.u.d.d.d.d.d.#Xd.#Xp.d.$Xp.p.#Xd.a.a.a.d.d.a.d.d.a.p.p.d.d.p.s.p.#Xd.u.i.u.f.f.f.$Xd.$Xd.a.d.d.d.u.a.d.d.$X*Xp.p.p.f.f.d.s.p.p.p.p.p.p.u.p.$X$X$Xd.p.p.d.d.d.d.#Xd.d.d.d.d.f.#X#Xd.a.d.d.d.d.#Xa.d.f.$X$Xd.*X$X$Xd.$Xf.$Xf.f.i.y.f.y.t.t.y.y.y.5.u.p.p.u.d.p.d.@Xp.@X#Xd.#X#Xu.u.d.d.p.d.d.d.#X$X$X$X;XPX3X;Xd.d.u.$X$X;X=X$X#X$X*X=X=X$X;X*X#X$X#Xu.p.#X$X$Xd.d.d.d.$Xp.d.$X*X$X$X#X$X$X$Xa.#Xd.=X*X$Xd.d.#X$X=X=X=X$Xd.d.#Xd.d.d.$X$Xd.d.$X*X*X$X$X$X*X=X$X#X$Xd.#X$X#Xd.f.$X&X$X$X$Xf.d.$Xf.i.i.i.f.i.h.f.&Xa.f.a.a.h.f.&Xh.h.f.f.f.f.f.f.&X&Xf.f.u.p.f.f.f.&Xf.&Xf.f.i.a.i.i.i.i.i.i.f.f.i.y.&Xf.f.i.i.f.i.f.*X*X$Xd.f.i.d.d.&Xf.f.p.a.#X#X#Xd.$X*Xd.f.f.&Xf.f.f.f.f.f.$X&X&Xf.f.$Xd.p.d.p.d.a.f.&Xf.d.d.d.d.d.#Xd.#Xd.$Xd.p.s.p.p.p.p.p.p.$Xd.p.d.d.$X*Xp.p.p.#Xa.*X#X*X&X#X#Xa.a.d.#X$X$X#X$Xd.a.p.d.a.a.p.s.p.#X#Xp.d.a.p.p.p.a.p.p.p.p.s.0.y.a.#Xp.u.u.p.p.p.p.p.y.9.y.p.p.y.9.9.y.d.a.p.a.$X*Xa.a.p.a.p.y.y.y.p.#Xp.p.a.p.u.p.p.p.p.p.p.p.u.s.u.u.u.s.a.u.0.9.u.p.u.u.s.u.0.0.0.u.u.u.u.p.p.s.9.6.9.u.p.0.0.9.2.9.9.9.y.u.u.y.p.y.9.y.9.9.9.y.y.9.9.9.9.9.6.3.3.y.6.3.y.3.9.9.9.y.9.9.9.9.9.3.6.5.9.6.3.5.9.9.6.6.9.9.3.3.3.3.9.3.3.2.3.3.6.9.3.3.6.9.6.3.6.9.6.3.9.9.y.3.9.9.9.6.6.3.3.9.5.3.3.3.9.9.6.",
"#X#X#Xp.d.p.d.0.d.#Xd.p.p.d.*X$X$X#X$Xd.p.p.p.p.p.d.p.p.p.p.d.d.d.p.p.d.d.#Xf.d.$Xp.d.&X&X$Xf.f.p.p.d.*X*X#Xd.d.#Xd.d.a.u.u.d.d.d.d.p.d.p.u.9.d.*X=X=X$Xd.d.$Xu.p.d.p.p.d.d.d.p.p.d.d.d.d.d.#Xd.d.p.d.d.p.d.d.u.a.d.#X#X#X#Xd.a.#X$X#X$X$Xd.a.a.p.p.f.p.p.f.p.d.p.p.#Xd.a.d.p.u.s.$Xa.s.p.d.u.$Xf.f.f.d.u.p.p.a.d.d.p.p.d.d.a.s.d.a.#X#Xp.u.d.$X$Xp.a.d.#X#X#X#Xd.d.d.$Xd.a.p.p.p.p.d.p.d.$X$X$Xd.d.u.i.f.f.g.g.f.u.y.u.i.f.f.i.d.u.p.p.p.p.p.p.d.#Xd.#X$X$X$X$X*X$X$X$X$X$X#X#X$X$X$Xd.p.$X$X@X$X*X$X=X=X=X=X$X#Xd.#X#X$X$X$X#X*X$Xp.$X$X$X#X$Xp.p.d.$X=X=X=X=X=X=X=X=X#Xd.$X=X$X=X$X$X=X3X3X3X=X*X$X$X*X*X*X*X$X=X=X=X*X=X$Xd.*X$Xd.$X$X$X#X$X$X$X=X=X$X$X$X&X$X*X*X$Xf.f.d.p.f.f.f.i.f.f.f.u.f.a.i.h.f.a.f.f.i.i.f.f.&Xf.a.p.i.a.p.f.&X&X&Xf.f.f.f.f.i.f.f.f.f.f.f.f.i.f.f.a.=X&Xf.g.u.f.g.f.f.p.f.f.$X$X$Xd.=X&Xf.f.d.d.f.f.$X$X$Xa.f.f.&Xf.$Xf.d.f.d.$X$Xf.f.d.f.f.$Xf.f.f.f.f.f.d.a.i.a.f.f.f.p.d.d.$Xf.d.d.d.d.d.d.f.f.$X$Xd.a.a.a.p.u.s.p.p.9.y.p.p.a.u.a.a.p.u.u.p.a.a.p.d.a.d.p.p.p.p.#Xa.d.d.p.#Xd.d.$X$X$X*X$X#Xd.d.a.a.a.s.u.a.a.y.p.p.a.d.a.p.u.p.u.p.p.p.u.a.p.#Xp.a.a.p.9.y.y.0.y.p.s.y.a.p.p.y.u.u.u.p.p.u.y.u.u.u.p.u.s.p.s.p.p.u.9.9.0.u.u.p.0.9.9.9.9.9.u.p.9.0.u.9.6.9.9.s.u.y.9.2.3.9.y.y.9.p.9.a.y.9.9.3.y.y.y.y.9.3.3.3.3.9.9.3.9.9.3.3.3.y.6.3.9.3.3.3.9.6.3.3.9.5.6.3.3.6.3.3.3.9.9.3.3.3.9.9.y.9.6.6.9.3.9.9.9.3.9.9.9.y.u.9.6.3.3.u.3.9.9.9.9.9.9.6.9.9.5.3.3.3.6.6.",
"p.p.d.p.d.d.#Xu.d.d.d.p.s.s.a.d.p.p.d.a.p.d.d.p.p.#Xd.d.d.p.p.u.p.a.d.d.u.u.p.f.u.u.d.d.i.f.d.f.d.u.9.u.p.p.s.s.p.s.a.$Xd.d.d.$X$X*X&Xd.$Xd.$X=X;X*X$X$X$Xd.9.p.#X#Xd.p.p.p.p.d.u.p.0.0.0.p.d.d.p.#Xd.p.*X*Xd.$X$X$Xd.a.a.d.#Xd.#X$Xd.s.p.d.a.p.i.u.d.i.d.p.y.d.p.p.#Xd.a.#X#Xd.s.$X#Xd.d.p.9.$Xd.d.p.f.p.f.a.a.d.a.p.a.d.d.d.a.d.a.#Xp.p.u.d.d.#Xp.a.#Xa.#X#X#X$Xd.p.d.p.d.a.d.d.$X*Xa.a.p.u.p.f.d.f.i.i.u.f.f.f.i.a.f.i.a.i.y.u.y.$X*Xp.#Xd.p.#X@Xp.$Xd.@Xf.d.d.d.d.d.#X$X#Xd.#X$X3X;X;X;X=X$X=X;X=X;X$X$X=X$Xp.p.$X#Xd.#X=X=X$X*X*X*X=X#X*X*X$Xp.s.d.#X*X$X*X*X$X#X;X*X$X*X$X$X$X#X$X*X$Xd.p.p.$X=X*Xd.d.#X*X=X=X$X$X$X=X$Xd.*X*X*X$X$X#X#X$X#Xd.#X$X#X#Xf.f.#X$X&X$Xf.f.d.f.f.f.f.=Xf.f.i.i.y.f.f.u.i.u.f.f.f.a.f.f.*Xf.d.f.a.$Xf.&X&Xf.f.f.f.f.f.i.i.f.f.f.f.f.i.f.y.f.f.a.f.f.i.g.i.g.f.i.f.9.f.p.p.p.p.p.$X$X&X*X$Xd.f.$X&X*X$X&X&X&Xf.f.d.a.a.d.$X$Xf.p.f.a.a.a.$Xd.f.f.d.a.p.f.f.f.a.d.f.f.f.$Xd.f.f.d.p.d.$Xf.p.p.f.$X*Xa.p.a.#X#Xa.a.a.a.a.a.*Xp.f.p.d.#Xa.p.p.a.a.p.p.a.p.d.p.d.p.p.a.p.d.#Xu.p.u.p.d.#Xp.d.p.p.d.$Xa.p.a.#Xa.9.5.9.p.y.9.p.d.a.u.y.p.p.y.p.y.a.0.a.9.9.y.y.0.0.0.0.9.y.p.y.p.y.y.u.p.p.p.p.p.p.u.9.9.u.u.9.u.p.p.d.p.u.9.9.0.u.u.s.9.9.y.s.u.9.u.s.p.p.p.u.0.u.u.u.0.0.0.9.6.u.p.6.6.u.6.d.y.9.9.3.3.3.6.9.6.6.9.9.9.3.5.9.9.3.4.3.2.9.9.6.y.9.3.5.9.9.9.3.3.3.5.3.6.6.3.3.3.9.9.3.9.9.y.6.y.y.9.3.3.3.3.6.4.3.6.6.9.9.6.3.9.9.2.9.9.9.9.y.9.3.3.9.9.9.3.2.3.9.9.6.",
"#Xd.p.p.#Xd.a.0.d.d.p.$Xf.$X$Xf.p.d.d.u.d.d.p.p.p.9.d.0.p.d.p.p.p.p.d.p.0.0.u.u.i.d.f.y.y.i.i.i.f.i.u.i.u.u.p.d.#X#X#X$X$X#Xd.d.f.d.d.d.d.u.d.d.$X$X$X$Xd.d.d.u.d.d.f.p.d.d.p.p.p.p.s.0.p.$X$Xd.s.d.d.#X$X$Xd.p.a.d.$Xd.p.a.d.p.p.d.#Xd.d.d.p.y.u.p.d.p.p.i.y.$Xp.d.d.d.a.a.d.d.p.#Xd.s.p.u.u.d.p.d.f.i.i.f.p.p.d.p.p.f.d.d.d.d.p.a.a.a.d.p.p.d.d.p.p.a.d.a.p.a.d.d.p.a.d.#Xd.a.d.#X$X$X&X*X$Xd.f.i.u.i.p.p.d.f.d.u.y.u.i.5.u.p.f.$X&X&Xd.#Xd.#X*Xd.p.$Xd.d.d.p.p.d.#X#X$X#Xd.#X#X#X#Xd.d.$X=X=X$X#Xd.d.p.p.d.d.d.#X#X$X=X=X=X$X$X#X#X#X$Xd.$X=X=X=X=X=X;X=X*X*X*Xd.a.p.$X$Xp.$X$X$Xd.p.d.d.d.d.f.$Xp.d.a.d.a.s.p.s.u.u.p.p.a.a.d.d.#Xd.d.a.p.p.a.$X$X$Xd.d.#Xd.a.p.a.a.a.d.d.f.f.f.=Xf.f.p.p.u.u.y.g.f.f.f.f.f.a.i.i.f.h.f.f.f.f.f.f.p.p.a.u.p.p.d.f.&X&X$X&Xf.f.f.f.a.u.a.f.i.i.i.f.f.f.i.f.f.f.f.*Xp.d.a.f.f.d.$X$X$Xf.p.p.i.f.d.f.f.f.$Xd.d.f.$Xf.f.*Xf.$Xf.f.*Xp.a.$Xd.f.d.f.p.p.u.f.f.$Xf.&Xf.f.$Xd.d.$Xd.p.d.f.d.d.d.f.d.a.a.a.$X#X#Xy.p.y.p.u.p.p.p.a.d.*X#X#Xa.f.*Xd.a.p.d.d.#Xd.$X#Xd.#Xp.#Xp.a.d.d.p.p.$Xd.d.p.a.a.a.a.u.a.y.p.p.p.p.y.y.9.9.y.y.u.9.y.y.p.a.a.p.u.a.u.f.p.u.u.y.5.y.9.5.9.u.i.y.p.u.p.a.a.p.s.p.p.p.p.u.u.u.u.u.s.a.a.u.u.9.s.p.u.9.u.u.p.p.u.9.9.9.9.u.p.u.d.p.u.9.9.u.9.0.y.9.0.6.9.9.9.9.9.y.y.y.u.p.9.9.6.6.6.9.5.9.9.y.y.6.6.9.y.y.u.9.u.3.3.6.9.9.9.3.2.3.6.9.6.9.9.9.9.y.3.9.u.9.6.3.4.3.9.2.2.3.2.2.2.2.3.3.9.9.3.3.9.6.6.2.9.9.3.6.3.9.6.6.9.9.5.9.9.9.9.9.",
"p.p.0.0.d.p.a.a.d.a.a.d.f.d.f.f.d.d.d.u.p.p.d.d.d.p.$Xd.d.d.d.#Xa.p.p.p.p.p.p.p.d.f.f.f.f.f.f.f.f.f.f.i.i.f.f.d.d.d.p.p.d.d.d.d.$X$X$X$X$Xf.$Xf.f.p.i.f.$Xf.f.f.u.d.f.d.d.d.p.p.d.d.#X#X$X#X#X#Xd.#X#X#Xa.d.$X#X#X$X*X$X#X#Xd.p.a.d.$X*Xd.u.u.p.d.d.d.a.f.d.f.$X#X$Xd.#X$X*X*X#Xd.#Xa.p.d.d.a.d.f.d.f.f.p.p.u.p.d.d.d.f.d.f.f.f.d.#Xd.d.#Xa.p.#Xd.d.p.p.d.d.d.a.a.d.d.p.p.d.d.a.d.p.a.d.d.d.d.$X&X$Xd.i.d.f.d.i.$X$X$X&X&Xd.d.d.p.a.a.a.s.d.a.#X*Xd.p.p.d.d.#Xp.d.d.u.0.d.#X#Xd.d.d.#X$X*X=X=X=X$X$X;X;X;X;X;X;X=X*X*X=X=X$X#X#Xd.d.#X$X=X$X$X$Xd.#X$X#Xd.a.p.p.a.d.*X*X=X*Xp.$Xd.a.p.p.#X#Xd.p.d.d.a.#X*X*X$X#X*X*X$X$X$X#Xd.d.*X$X$X$X$X$Xd.d.d.$X#Xd.d.d.$X$X*X$X*X=X=X;X*Xp.d.p.f.f.d.d.f.d.&Xh.h.f.i.u.f.a.f.f.i.f.h.f.i.a.f.d.d.p.f.f.f.&Xf.$X$Xf.f.a.f.f.f.f.f.f.f.f.&Xf.&Xf.f.f.f.f.f.f.f.h.*Xf.d.&X=X=Xf.$Xd.d.p.p.f.$X&X*X*X&X$Xd.d.p.f.d.d.f.$Xf.$Xd.f.&Xf.f.$Xd.f.f.*Xf.f.p.d.f.f.f.$Xf.d.f.f.p.f.p.&X=X&X*X$X$X$Xd.d.#X#X#Xa.#Xp.p.9.u.y.u.a.a.#Xd.d.p.p.y.p.a.a.a.d.d.a.d.#X$X#Xd.p.p.a.d.d.d.#Xp.a.$Xa.a.a.d.#X#Xp.p.$Xa.p.y.0.0.#Xd.p.p.p.p.p.u.u.y.u.9.5.9.9.p.y.p.u.9.9.5.9.a.9.9.9.y.u.u.a.p.a.y.y.u.u.u.s.p.p.p.s.u.s.p.p.u.y.s.a.p.p.a.s.u.p.s.u.s.p.p.p.a.9.0.u.p.p.p.6.9.y.y.6.9.y.y.y.9.9.9.y.p.p.p.y.u.y.9.9.9.9.3.3.y.y.y.9.y.p.p.y.9.9.y.9.3.6.3.2.3.4.4.4.3.3.2.3.9.9.9.9.3.2.6.3.3.3.3.9.9.3.6.9.3.3.9.3.6.3.3.5.3.9.9.3.3.2.2.6.6.3.3.3.9.6.9.6.9.5.9.5.y.9.9.9.3.",
"0.p.0.0.d.0.p.d.*Xd.#Xd.d.d.p.p.d.$X=X*X=X$Xf.d.d.p.d.#X#X#X#Xd.d.p.d.d.p.p.p.a.p.f.d.$Xf.y.y.i.f.f.f.i.p.d.d.d.#Xd.p.p.d.d.d.#Xu.u.p.u.d.f.&Xf.*X*Xf.d.f.p.p.u.p.d.#Xf.d.d.p.p.d.d.d.#X#Xd.p.p.d.a.d.$Xa.$X;X=X*X*X*X$X$Xa.p.s.p.p.$X*Xd.d.*X=X=X=X=X=X*X$X$X$Xd.$X$X$X$X#X$Xd.$X$Xd.d.$X$Xf.f.d.d.d.f.d.f.f.$Xd.d.f.f.f.f.d.d.d.d.d.d.#Xd.d.#Xd.d.d.p.a.d.d.a.d.#Xd.p.u.p.p.p.d.d.d.$Xd.a.p.a.d.f.$X=X;X=X$Xp.d.i.u.i.d.u.u.9.u.i.p.f.p.d.d.$X$Xd.d.d.#Xp.f.i.d.d.d.p.p.p.p.p.#X#X#Xd.d.d.d.d.d.d.$Xd.d.d.$X;X=X$X#X$X$Xd.d.$X#Xd.d.#X$X#X#X#Xd.$X=X*X$X$X$X$X$X*X*X*X#X#Xs.$Xa.d.d.#X$X$Xd.p.d.d.d.f.*X$Xd.d.u.s.p.p.p.p.a.d.*Xd.d.#Xd.$X#Xd.$X=X=X=X=X*X*Xd.a.#X$X#Xd.$X&X$X&Xf.$Xf.f.f.f.f.f.&Xf.f.f.i.f.i.f.f.i.f.f.f.a.f.d.d.f.d.f.f.p.d.u.f.f.p.p.f.$Xf.f.f.f.f.f.f.f.f.f.a.i.a.f.f.f.f.f.a.u.f.u.a.p.&Xd.f.f.f.d.f.f.i.p.a.p.u.p.u.$Xf.*X*Xd.d.f.f.d.d.f.&Xd.f.*X*X;X;X;X=X&X&X$Xf.f.f.f.f.f.d.d.f.f.f.&X*X$X$X$X$X*X&X#X#X*X*X#X*X*X*X#X#Xa.p.p.p.p.p.u.y.p.p.a.#Xa.a.p.a.d.d.d.p.d.d.p.a.u.a.a.p.#X#Xd.$Xd.d.d.a.a.d.p.a.a.a.u.p.y.u.3.y.p.a.a.i.i.u.p.u.u.y.y.u.y.y.6.u.i.u.u.9.9.u.y.u.u.u.i.p.f.f.p.u.p.p.a.p.s.s.p.p.u.u.u.s.u.9.9.u.p.p.u.a.p.p.s.p.p.p.u.u.u.s.u.u.u.p.u.u.9.u.y.y.6.9.y.9.9.9.y.y.p.y.9.y.9.9.9.u.y.3.9.9.p.9.6.9.9.3.3.9.9.y.6.y.9.3.9.9.3.2.3.9.9.6.3.3.3.3.3.3.6.3.4.2.4.2.3.2.3.6.3.9.y.9.5.9.9.9.9.6.6.3.3.9.5.3.2.2.3.6.3.6.6.9.6.9.6.6.3.9.3.5.6.9.6.3.",
"p.p.p.p.d.0.0.d.p.u.#Xa.f.f.p.d.d.d.d.u.u.p.d.d.d.p.u.p.p.p.#X#Xp.s.d.d.p.p.p.d.d.f.d.i.y.y.f.&Xf.i.i.i.d.i.u.d.d.d.d.d.d.d.d.d.d.p.f.i.p.f.f.f.p.$Xf.f.d.f.f.$X*X$X$X$X#X#Xd.p.d.p.u.p.d.#X#X#X$X$X$X$Xa.a.#Xa.$X$Xd.d.#Xd.p.a.#Xd.$Xd.u.p.#Xd.d.#X#X$Xf.i.d.d.f.&X*X$Xa.u.p.a.a.p.d.d.f.d.f.d.d.i.i.d.d.i.i.d.d.f.f.d.i.p.f.f.d.d.d.p.p.p.p.s.a.d.d.d.a.d.d.a.a.d.d.#Xd.p.s.u.p.#X$X$X$X$X$X#Xf.f.d.d.p.u.y.u.p.f.f.d.u.y.i.p.$Xf.i.f.$X=Xd.s.s.d.d.$X$X#X$X&Xp.d.d.d.#X$X#Xd.$X$X$X#Xd.#X$X=X$Xf.=X$X=X=X#X#X#Xd.d.#X#Xd.#X$X;X=X=X;X;X*X#Xd.d.#X=X*X$X$X$X#Xa.#X$X*X#X*Xa.$Xp.d.$X#X#X#Xd.$X&X$X=X$X*X$Xd.d.$X*X*X$Xa.p.a.$X*Xd.d.d.d.$X$Xd.=X*Xd.a.p.d.$X$X#X$Xd.$X$X$X$Xp.f.p.f.f.$X$Xf.d.f.&Xf.f.f.f.f.i.f.f.f.i.f.f.&X&Xf.d.p.i.i.a.f.f.d.$Xf.f.$Xf.$Xd.f.f.f.a.f.a.i.i.f.f.f.f.f.f.f.f.f.a.i.&Xf.f.y.i.f.f.p.d.f.i.p.p.f.d.p.a.d.p.$X&X&X*X$X&Xf.f.f.f.*X*Xd.f.&Xf.$X&X*X&Xd.f.f.f.p.d.d.d.a.d.f.d.d.d.f.d.p.p.d.f.&X&X$Xd.$X$Xa.a.#Xa.#Xd.p.u.p.p.a.p.p.p.a.a.d.#Xd.a.d.p.a.p.#Xp.d.p.p.d.d.*X*X$X#X$Xa.$X#X$Xd.s.p.a.p.p.p.p.u.p.p.a.u.u.y.9.9.y.i.a.p.u.u.u.a.d.u.6.5.y.9.9.y.u.p.d.p.i.u.i.u.i.i.u.p.d.#Xp.s.p.a.a.p.u.u.u.s.u.0.u.u.u.u.y.0.p.s.a.d.a.p.p.a.p.0.2.0.u.p.y.u.u.u.u.9.y.y.y.9.6.9.y.p.p.p.9.9.9.9.9.3.9.6.9.u.y.9.2.4.3.6.6.9.9.6.2.y.y.9.3.3.9.9.9.6.9.9.3.2.3.3.3.6.6.9.u.9.3.2.3.y.3.3.3.2.3.3.2.3.3.3.6.6.6.5.3.2.3.3.3.3.3.2.2.6.6.3.2.2.6.3.3.3.3.3.2.3.6.9.3.",
"p.p.p.p.d.p.p.d.a.p.$Xa.d.i.u.d.d.d.f.f.f.f.d.f.p.f.$X=X$Xp.d.f.p.d.#Xd.s.p.u.u.y.p.f.d.f.f.i.a.f.f.f.f.f.f.p.d.u.p.d.#Xd.a.p.p.$X$Xd.d.u.d.f.d.d.f.d.f.f.d.f.=X*X#X$X$X$X$Xd.d.#Xd.p.p.d.$X$X#Xp.a.p.d.#Xd.$X$Xf.f.p.d.f.d.p.d.a.a.$X$Xa.d.$Xd.p.a.d.$Xp.i.f.d.d.f.f.f.d.a.d.p.p.p.a.d.p.d.d.p.i.p.p.d.f.f.f.f.d.f.f.f.f.f.f.d.d.d.d.d.d.d.d.p.p.d.#X#Xd.d.d.#X$Xd.a.#X$Xd.d.d.p.a.p.u.u.p.p.u.u.p.d.d.d.$X$Xd.d.f.f.f.p.p.u.u.i.a.d.f.p.f.d.$Xp.#Xd.p.f.&X*X$Xd.$X*Xf.i.i.d.$Xd.$X*X$X$X*X=X=X*X$X$X#X=X*X$X$X*X$X$X=X*X*X*X$Xd.d.d.$X$X*X*X*X$X$X*X=X$Xd.d.d.a.$X$X$Xd.$Xs.p.$X*X*X$X$X#Xd.$X$X$X=Xf.f.f.$X$X$X$X$X$X#X#X$X=X$Xf.d.f.f.f.d.d.f.$X$X*X=X*X*X&X$X$X$X=X=X&X$Xp.$Xf.$X&Xf.f.d.f.$X&Xp.f.$X*X$X&X&X&X&Xf.f.f.f.i.i.a.f.&X&Xf.f.i.f.f.f.f.f.f.i.i.f.f.f.f.&Xf.f.h.f.f.i.a.y.i.a.f.f.f.&Xf.f.&Xf.a.$Xd.p.f.f.i.d.f.&X&Xf.*X&Xf.f.f.d.d.d.$X$X&Xf.$X$Xf.f.&X*X*X&Xf.f.a.u.f.d.d.f.*X*X*X*X=X=X&Xf.f.f.d.p.i.i.p.f.f.f.a.f.f.a.a.d.p.p.i.a.i.p.d.$Xf.#X#Xd.a.p.p.d.d.d.p.d.d.$Xd.d.d.y.y.p.d.a.d.u.a.p.p.p.d.d.s.p.a.p.a.a.p.p.y.y.p.p.p.p.a.f.p.u.9.p.p.u.y.i.d.p.9.d.d.f.a.p.u.u.u.f.p.u.a.y.i.9.9.u.a.d.p.u.p.d.d.p.p.p.p.p.u.u.p.a.p.a.p.p.u.y.p.u.p.a.a.p.p.p.p.9.9.p.y.s.y.y.0.9.y.y.y.0.9.9.u.p.9.u.p.p.6.6.y.y.y.3.2.5.y.y.9.6.9.9.9.9.9.y.u.9.9.9.9.9.9.3.3.y.6.3.6.6.3.6.9.y.6.6.y.9.6.9.y.6.3.3.3.2.2.2.2.2.2.2.3.6.6.9.9.3.3.3.3.3.3.3.2.6.9.3.2.4.3.3.6.3.3.3.4.9.9.9.3.",
"p.p.p.p.#Xd.d.d.d.p.p.s.d.$Xf.=X$X&X&Xf.&X$X$Xf.d.d.i.p.y.y.d.f.#Xd.#Xd.p.d.p.u.d.u.f.i.i.f.y.a.a.&X&Xf.$X$Xd.d.p.d.d.d.d.a.a.d.d.f.d.p.9.d.p.f.d.d.d.d.f.$X*X=X#Xa.$X$Xd.d.d.d.p.a.d.a.p.p.a.a.$X$Xa.a.#Xa.d.#Xf.f.d.d.f.d.f.f.d.a.#X#Xp.u.p.d.$Xd.d.d.p.i.p.u.d.f.p.d.$X#X#Xa.$Xd.a.a.d.d.f.p.d.d.f.d.d.d.d.y.p.p.i.i.i.d.f.g.p.p.a.a.p.a.a.p.p.d.$X#Xd.d.#X$X*Xd.p.d.d.d.d.$Xp.p.p.a.#X$X$X*X=X*X$X$X&X*X$Xf.d.d.p.d.d.d.d.d.i.i.i.f.d.*Xd.f.*X=X&X&Xf.&X&Xf.d.p.i.p.f.$X&X$X$X*X*X$X$X&Xf.d.=X=X=X$X#Xp.p.d.=X*X*X$X$X$X=X*X$X#Xd.#X#X$X$X$X$Xd.$X*Xd.a.d.d.d.$X$X$Xd.*X=X=X=X=X*X$X$X$X$X$Xd.$X&Xd.f.d.d.d.$Xd.d.$X*X$X$X*X$X$X$Xf.d.f.f.f.d.d.d.f.$X$X&X*Xd.d.f.$Xf.d.f.$X*X$Xf.d.u.u.u.f.p.p.u.d.p.d.f.&Xf.f.f.i.f.f.=Xf.&Xf.f.f.f.f.&Xf.f.f.f.f.f.f.f.&Xi.f.f.f.f.f.f.f.f.f.f.f.f.f.f.f.f.f.&Xi.i.f.$X&Xd.f.f.&X&Xd.d.d.f.f.a.$Xf.f.p.f.&Xf.f.d.d.$X$X&Xf.d.a.f.f.f.d.p.f.f.$X*X*X*X&X=X&X$Xd.$Xf.d.d.p.f.f.d.d.d.i.p.i.a.f.f.f.f.f.*Xa.a.p.f.d.p.f.d.p.a.#Xa.a.p.p.d.d.p.p.d.d.a.p.p.d.p.u.p.p.p.f.p.#Xp.p.s.p.d.a.p.p.p.d.a.p.a.u.y.u.p.p.a.p.u.u.i.f.i.a.u.y.9.y.u.y.9.9.y.y.9.9.u.d.u.y.9.i.y.p.y.u.y.u.p.a.a.s.u.u.y.u.p.p.p.p.p.p.p.s.a.a.p.y.u.p.s.0.9.9.u.p.p.p.p.y.y.p.y.y.9.y.9.9.y.9.y.y.y.p.p.9.u.y.p.6.6.9.3.p.y.9.9.a.u.3.3.9.u.p.y.9.9.u.3.9.9.y.9.9.3.3.3.3.3.2.3.3.3.3.3.3.2.3.2.6.y.9.3.2.2.3.2.3.3.6.3.3.3.3.3.6.9.6.3.3.6.6.3.3.2.3.3.9.9.9.2.3.3.6.3.4.3.2.9.6.9.3.",
"p.p.a.d.d.a.$Xp.$X$Xp.p.f.$Xf.$X$X$X$Xf.$Xf.f.d.$Xf.u.f.f.$X$Xf.p.p.a.a.p.d.d.d.p.p.f.f.f.f.f.&Xi.f.f.f.f.f.d.d.d.d.d.d.a.p.p.a.d.d.f.f.i.f.f.f.d.$Xd.d.f.$X=Xf.*X#X$X$Xd.$X#Xd.u.p.#X#Xd.a.d.$X$Xd.p.p.p.u.d.d.f.d.d.f.d.f.f.f.f.d.#X#Xa.p.d.*X$Xd.d.d.p.f.d.p.i.p.p.d.d.f.d.d.f.f.p.p.p.f.d.u.u.p.s.a.f.$X&Xf.d.f.f.f.d.f.f.f.*X$X*X*X#Xd.d.p.a.#X$X#Xd.#X$X#Xd.d.#X$X$X#Xp.s.d.a.d.#X$X$X$X$X&Xd.d.d.d.i.u.u.u.i.d.f.p.d.p.&Xf.f.f.h.d.f.p.p.f.f.f.&Xd.d.f.f.d.d.f.f.d.d.f.f.d.f.d.d.d.p.p.i.$X=Xd.$X*X*X=X;X#Xd.#X#Xp.d.$X#X$X$X$X=X=X;X$Xd.$X#X*X=X$X$X*X$Xp.f.$Xd.p.f.$Xf.f.$Xf.f.$X&X$X$X$X&X&X&X$Xf.d.d.#Xa.a.$X*X$X$X$Xd.f.d.p.f.f.u.d.d.d.p.p.p.p.d.f.f.f.f.f.f.$X$Xd.$Xd.d.f.f.$X$X=X$Xd.*X$X$X$Xf.&X&Xf.f.f.u.f.&Xf.f.f.f.h.f.f.&X&Xf.f.f.f.f.i.i.i.h.h.&Xh.f.f.f.f.&Xf.f.f.f.f.i.u.y.y.f.f.i.y.y.a.p.p.p.d.d.f.f.$X&Xf.$Xf.d.f.d.&X*Xf.$Xf.&X$Xf.f.d.f.f.p.p.f.*X*Xf.$X&X*X=X$Xf.d.$Xd.f.d.a.a.$Xf.d.f.d.d.f.i.d.p.d.f.d.a.d.p.f.p.p.u.d.f.i.d.a.u.p.a.a.d.#Xd.#Xa.p.p.u.p.p.d.p.u.p.y.a.p.a.a.a.p.p.a.p.p.d.p.a.p.a.#Xu.a.#Xa.p.p.p.a.d.i.9.y.u.d.y.p.u.y.5.5.u.y.y.u.p.a.i.u.i.p.5.6.y.y.y.u.u.u.a.p.s.u.u.u.u.u.y.y.y.y.u.p.p.y.y.u.p.u.y.p.p.a.u.y.y.y.y.y.u.a.a.y.y.p.y.u.y.s.9.y.y.9.9.y.y.u.p.p.a.9.y.9.y.9.9.y.9.9.y.9.9.9.9.9.3.6.9.y.9.9.9.9.3.3.2.9.9.9.3.9.9.3.6.y.y.6.3.6.3.6.2.3.9.3.y.9.3.2.2.3.3.3.3.3.3.3.6.3.3.2.3.3.9.9.6.3.2.3.2.3.5.9.2.2.4.2.3.2.3.3.3.3.3.3.",
"d.d.#Xd.a.p.d.0.p.$Xa.d.d.p.i.d.i.d.f.i.d.d.f.f.f.d.i.d.d.*X$Xf.p.p.d.d.p.s.i.f.d.p.u.9.u.d.d.f.a.f.p.i.d.f.d.$X#Xf.#X#X#Xd.p.p.p.i.f.f.f.f.d.f.f.f.d.$Xf.f.=X=X=X#Xd.d.d.$X$Xd.$X*X*X$Xd.a.a.p.f.p.p.d.p.d.$Xf.f.f.d.f.p.p.f.p.y.p.d.a.a.a.a.p.a.p.d.p.u.u.u.p.p.p.p.d.d.f.d.p.d.d.d.f.f.d.i.u.d.d.u.u.y.y.i.u.u.i.f.f.d.f.f.g.d.d.$X*Xd.d.d.d.a.$X*X#Xd.#X#Xp.d.$X$X$X#X#X#Xd.d.#Xd.p.p.#X#Xa.d.f.$Xf.f.f.d.f.d.u.p.$X$X*Xa.p.i.a.f.f.a.f.d.&X*X&Xf.a.f.f.&Xd.p.y.u.p.i.p.i.u.f.d.f.$X$Xd.$X=X$X;X$X=X$Xa.p.a.#X#X=X=X*X$X$Xd.d.d.d.*X=X=X#Xa.d.#X=X=X$X$X*X#Xp.d.f.d.d.$X*Xd.f.$X*X&X$X$Xf.$X$X$Xf.=X*X$Xf.f.#Xd.#X*X$Xd.d.#X$X=X*X$X=X=X$X=X$X$Xf.$X$Xf.f.f.f.f.&Xf.f.&X$X&X=X$X$X*X$X$Xd.d.p.u.$Xd.$X&X&X$Xf.d.i.$Xf.&X*X*Xf.f.f.&Xf.a.f.f.&Xf.f.f.f.a.i.y.f.f.f.f.i.f.f.f.f.i.a.i.i.y.i.i.i.y.i.f.f.f.f.*X=X;X*X$Xf.d.$X$Xf.f.=Xf.d.f.f.f.&Xp.d.f.&X*X*X*Xd.f.$Xa.y.p.d.d.d.f.d.p.d.f.f.f.$Xd.f.&Xf.a.f.f.d.d.f.d.f.i.p.p.f.a.u.p.d.u.d.f.$Xf.$Xd.p.f.d.u.p.p.u.a.f.d.#Xa.p.a.p.d.a.$X#Xd.a.a.p.p.a.p.#Xu.s.a.d.d.#Xp.a.p.s.#Xp.#Xa.a.y.p.a.u.p.u.u.p.y.y.u.p.u.u.u.p.f.f.$Xp.u.y.9.y.p.d.u.u.f.u.p.u.u.9.u.a.a.u.0.u.p.u.p.9.9.9.p.p.p.p.y.p.p.y.y.d.p.u.u.9.9.y.p.u.y.p.y.9.p.p.p.p.y.6.9.y.p.9.9.y.9.y.y.9.u.9.p.y.u.y.y.u.9.3.9.9.y.3.3.3.3.3.9.9.6.3.9.y.y.y.9.p.u.9.u.p.u.y.9.9.9.9.p.y.9.9.4.4.3.3.9.9.y.6.2.2.3.3.2.3.3.3.6.3.3.2.3.2.3.3.6.5.3.3.3.3.3.6.3.6.3.3.9.3.3.6.2.3.2.9.",
"p.p.d.d.f.f.d.i.f.f.u.9.p.p.s.$Xf.f.p.p.d.d.f.f.f.p.p.p.i.u.p.p.a.u.p.d.p.p.u.f.f.d.p.p.f.p.f.f.&Xd.&Xf.$X$Xf.f.d.d.p.d.p.d.$X#Xd.f.d.&Xf.$Xf.d.d.f.d.d.f.#X#X$X$X$Xd.a.d.$Xd.=X#X*X=X$Xd.p.$X$X$Xd.d.$Xd.d.$Xf.f.d.d.d.f.f.f.u.f.p.#Xa.a.d.p.d.p.p.p.u.u.i.p.d.d.d.d.d.f.f.p.f.d.f.d.d.$Xd.i.i.d.d.d.#Xd.f.*Xd.f.;X=X;X=Xf.i.i.d.d.f.f.d.f.f.f.f.$X$X$Xf.d.f.d.$Xd.p.p.d.p.d.d.#Xd.s.#Xp.*Xf.d.$X$X=X*X*Xd.f.i.f.f.$Xd.y.p.p.d.f.&Xf.i.f.f.a.p.d.u.y.p.u.f.f.f.$X$X&X*X*Xd.$X$X=X=X*X=X=Xf.;X=X=X;X=X$X#Xd.#X*X*X=X=X*X$X$X$Xd.d.a.p.d.*X*X*X$X$X=X$X*X$Xa.$X*X*X*X$Xf.$X*X$X$X*Xd.d.f.f.$X$Xf.d.$Xf.$X&X$X$Xf.#X#X$X$Xp.a.#Xd.&X=X=X=X=Xf.p.u.d.f.f.f.$X$X$X$Xf.h.&Xf.i.f.f.f.=X&X*X&Xf.f.a.p.d.a.*Xd.f.f.f.=Xf.d.f.f.*X;X=Xi.i.f.f.f.f.a.f.a.a.f.f.f.f.f.f.i.f.f.a.&Xf.f.a.f.f.f.&X&Xf.f.f.*X&X&Xf.f.f.f.f.f.f.i.y.y.f.f.=X=X*Xf.$Xf.$Xp.f.f.d.f.d.*X=X=X$X&Xd.d.d.f.i.d.$Xd.a.d.f.p.f.$X$Xf.u.f.d.&Xd.f.a.a.p.d.$X$X$X&X$Xd.p.u.f.f.f.f.f.f.f.a.p.a.a.f.f.f.d.d.p.a.a.$Xf.a.p.a.d.d.d.i.f.f.p.a.p.p.a.a.#Xa.a.a.p.a.a.p.p.d.p.a.a.a.p.a.p.p.p.u.i.i.u.i.u.5.u.p.p.i.d.y.u.6.u.u.9.p.u.y.y.i.u.9.9.y.6.6.y.6.3.9.9.5.u.i.u.u.u.5.5.y.y.u.p.i.u.u.9.5.y.u.u.u.a.u.p.p.u.u.p.p.p.p.y.y.u.u.y.9.y.9.p.p.9.9.u.p.y.9.9.y.u.9.u.p.p.9.9.9.y.9.y.9.9.3.6.9.3.3.9.9.3.6.y.u.9.3.6.9.y.3.3.u.u.6.3.6.9.6.3.4.3.3.6.2.2.3.6.3.3.3.9.9.3.3.2.4.3.2.2.2.2.3.2.4.2.3.3.6.3.3.4.6.3.4.4.2.2.3.2.3.2.3.3.6.",
"f.d.f.d.d.d.d.f.f.u.5.9.p.d.d.$Xp.f.d.d.d.d.$X&Xd.f.f.f.d.d.d.f.$X$X#Xd.d.p.f.f.f.f.u.i.i.u.p.p.$Xu.p.i.f.$Xd.f.d.p.p.d.#X=X=X$Xf.$X&X$Xd.d.d.d.f.d.d.d.d.d.d.d.#X#Xd.#X#X$Xd.*Xa.d.$Xd.p.u.#Xp.p.u.p.d.d.p.d.i.p.f.f.f.f.f.f.f.d.f.d.#X#Xd.p.d.d.a.f.u.u.d.f.f.f.f.d.d.f.f.p.f.f.f.f.f.$Xf.f.d.d.#Xd.a.p.f.f.u.*X&Xd.d.i.i.d.f.$X$Xf.f.f.d.f.d.f.d.d.f.f.f.$Xd.d.$X#Xa.d.p.d.p.d.d.d.$Xd.$Xd.f.f.f.p.i.p.p.d.i.u.y.p.p.p.f.p.u.f.f.f.&X&X&X&Xf.d.d.&X*Xf.f.&X=X&X$Xd.$X$X$X&Xf.d.f.d.$X&Xd.$X*X=X=X*X$X*X$X#X$X*X$Xd.d.#X$X$X$X=X=X*X*X$Xd.a.a.a.#Xa.$X$Xd.$X$X*X*X$Xf.*X*X$Xf.f.d.f.d.d.$X$Xf.$X&X$Xf.d.d.f.$X$X#X$X$Xd.d.$Xd.p.f.$X$Xf.f.f.f.p.d.$X$X&X&X*X*Xf.f.f.f.f.&Xf.f.f.d.f.a.f.d.d.d.=Xd.d.p.d.&X$X=Xd.$X=Xf.f.f.f.i.a.i.f.&Xa.i.f.&X&X*Xh.f.f.f.f.f.i.f.f.f.f.f.&X=Xf.f.i.i.a.a.f.f.f.f.f.f.f.i.a.f.f.f.$Xf.$Xf.d.d.u.u.a.f.&Xf.f.$Xd.&X$Xf.i.p.d.&X&Xd.f.d.f.&X*X$Xd.d.d.f.f.f.d.f.f.$Xf.&Xf.f.f.$X&Xf.f.i.u.i.f.d.p.a.d.i.i.a.f.a.i.u.i.i.u.u.p.p.a.p.p.f.d.d.f.f.d.d.d.f.d.f.&X$Xa.#X#X#Xa.u.p.p.a.d.a.p.p.a.p.p.p.p.p.a.a.#Xp.p.a.u.d.u.9.u.u.p.p.a.p.u.f.u.d.i.u.u.p.f.y.u.a.a.6.y.p.a.u.y.p.a.a.u.u.a.u.i.d.p.p.u.u.p.u.y.u.i.p.u.y.u.a.f.i.u.u.y.u.p.u.u.u.u.d.a.p.u.u.u.y.u.u.u.y.u.y.9.y.9.9.y.y.y.y.u.p.y.9.9.y.9.u.9.9.9.u.9.9.9.6.3.5.9.3.9.9.6.6.9.6.3.y.y.9.5.9.y.y.9.3.3.3.3.3.3.3.6.3.2.3.3.3.3.6.9.9.3.3.3.3.2.4.2.3.3.3.2.2.3.9.5.3.3.2.3.3.2.3.6.3.3.4.4.4.2.3.3.",
"$X&Xf.f.$Xd.u.f.p.i.d.d.d.d.p.d.p.d.p.p.a.p.p.p.d.d.p.f.$Xf.d.f.p.$Xd.$Xd.i.d.u.9.u.9.u.u.d.d.f.d.d.f.d.$Xf.u.d.p.d.$X=X$X*X$Xd.f.f.f.d.f.d.$Xd.$X$X$X$Xf.d.p.p.$Xd.d.d.a.a.p.$X$X$X&X$Xd.f.$Xf.d.f.f.f.f.f.f.f.f.f.d.f.d.f.d.d.u.f.d.p.a.d.d.u.p.p.f.p.f.f.f.d.f.f.p.p.p.d.p.d.p.d.d.a.f.f.d.d.f.f.f.d.f.d.f.f.d.f.f.&X&Xf.u.i.f.d.f.f.d.f.f.d.d.f.f.d.f.$Xf.d.d.#Xd.p.d.d.$Xd.f.d.d.d.u.i.p.f.d.p.i.p.f.p.d.p.f.f.f.p.i.y.a.a.&Xf.&X=X*X&X*Xf.d.d.d.$Xf.f.f.f.f.$Xf.$Xf.d.d.u.i.f.f.$Xf.$X$X$X*X*X*X=X=X$X$X*X*X#Xa.a.d.#X$X$X$X*X$X*X*X$X$X$Xa.#X#X*X*X#X*X&X$Xf.d.f.$X$X$Xf.f.f.$Xf.d.$X&Xf.f.d.f.f.d.d.$X$X$X$X$X$X$X$X#Xd.p.f.&X$X$X$Xf.p.p.d.f.f.f.p.p.p.f.f.f.f.f.f.i.f.i.f.&Xf.*X&X&X&X$Xp.d.f.d.f.u.d.f.f.f.i.y.i.i.a.f.&Xf.i.i.i.i.f.a.f.f.f.a.i.a.i.i.f.f.i.u.u.f.f.u.y.y.i.f.f.f.f.f.f.f.f.f.f.f.&X&Xf.$Xa.p.u.a.f.d.d.f.$Xf.a.p.d.p.a.f.$X$Xp.u.a.a.p.f.f.f.d.a.i.&X*X&Xf.f.$X&X*Xf.d.f.&Xf.d.d.a.f.f.&X=X=X$Xd.f.u.a.i.u.u.a.d.f.d.a.a.p.i.a.d.f.u.y.p.a.d.f.d.f.f.f.f.f.a.a.d.d.#Xd.a.a.p.p.p.a.p.a.a.p.d.$Xd.p.a.p.u.p.p.d.i.i.f.u.a.y.9.a.u.f.u.i.i.u.a.y.a.p.i.y.i.f.u.d.*Xd.5.u.u.p.d.p.p.p.i.u.y.a.9.5.y.9.5.y.p.u.9.u.p.u.u.u.u.y.u.u.u.i.u.y.u.p.i.p.u.u.a.p.u.y.y.y.y.p.p.a.9.u.p.y.p.y.y.p.u.y.u.p.p.y.9.y.9.9.u.9.9.y.y.y.9.9.9.6.3.5.6.9.3.3.9.y.9.2.9.5.6.9.9.9.3.3.3.3.6.9.3.3.3.9.9.3.2.3.3.3.3.3.3.2.3.3.3.3.3.2.3.3.3.3.2.3.9.3.2.4.3.2.4.2.3.9.2.2.4.3.6.6.6.9.",
"p.d.u.d.f.f.u.f.u.i.$X&X$Xd.d.$Xu.p.p.p.a.d.d.d.d.f.d.$X&Xd.p.d.d.$Xp.$Xf.f.d.f.p.d.d.f.d.$X$X&Xp.f.$Xd.&X$Xf.f.d.$X&X$Xp.p.p.d.d.f.d.p.p.p.p.u.u.d.d.f.f.d.d.f.#Xa.d.d.a.p.p.#Xf.f.*X&Xf.f.$Xf.d.d.f.f.d.f.f.f.f.d.d.p.d.d.d.i.i.f.d.d.a.d.#Xs.u.p.d.d.f.$Xf.f.f.f.f.d.d.$Xd.d.a.d.d.d.f.f.f.f.f.p.d.$X$Xd.f.=X&Xd.i.i.d.f.i.f.f.$X*X$Xd.d.f.f.f.d.f.d.f.d.f.f.#Xp.y.s.d.d.f.d.f.d.f.f.f.f.f.d.d.f.d.$Xf.f.f.d.f.f.p.d.$Xf.f.i.f.y.a.f.f.d.f.a.*X&Xi.f.f.*Xf.f.p.f.f.$Xd.d.f.f.i.f.d.i.y.f.d.f.d.f.f.f.#Xa.d.$Xd.#Xd.a.a.d.d.s.d.#Xd.$X=X=X=X*X$X*X*X=X=X$X*X*X*X$X$Xf.$Xf.$X*X$Xf.*X$Xf.$X$Xf.f.f.f.d.d.f.d.f.$X$X#X#X$X#X#Xa.f.f.d.i.i.f.f.f.f.$X&X&X$X$X$X&Xf.f.f.a.u.f.f.f.a.f.h.f.$Xi.u.f.d.p.$Xf.d.d.i.d.f.f.f.&X&X&Xf.i.i.&Xf.y.f.f.f.f.f.f.f.=X*Xf.f.f.f.f.a.f.i.i.u.i.i.i.i.f.f.f.f.f.&X&X&Xf.a.u.i.i.f.f.f.f.d.f.f.d.d.f.p.f.p.u.u.f.&Xa.a.d.&Xd.d.f.d.d.f.f.a.p.f.d.;X;X;Xf.d.f.f.f.&Xf.a.d.d.d.f.f.i.p.p.d.f.p.u.u.a.f.p.f.a.i.i.p.d.a.p.p.a.d.d.p.i.p.d.u.i.u.i.u.u.p.a.d.p.a.p.p.#Xp.a.p.a.#Xa.d.p.a.a.d.$X$X$Xd.a.p.p.p.p.p.u.a.d.u.p.u.u.f.p.f.u.i.p.p.p.9.u.u.y.5.y.u.5.u.a.6.5.y.y.u.y.5.5.9.6.a.y.u.9.5.5.5.y.u.p.u.y.u.u.y.i.p.u.y.u.u.p.d.p.u.u.p.p.a.i.p.y.y.y.y.u.y.y.p.p.a.9.9.u.u.p.p.y.9.9.9.9.9.y.u.y.y.y.9.y.9.9.y.9.y.9.6.9.9.3.9.6.6.9.y.9.3.9.y.p.9.6.y.u.9.9.u.9.9.9.9.9.9.9.9.9.3.3.3.3.3.3.3.2.2.3.3.2.3.9.9.3.6.3.3.3.2.3.2.3.2.9.3.3.3.3.6.3.3.3.y.6.2.4.2.",
"u.p.i.f.d.$Xd.d.*Xd.d.d.a.p.p.d.p.a.d.a.s.p.d.$X*Xd.d.#Xp.d.f.f.$Xf.d.$Xd.*Xf.$Xp.d.$Xf.f.d.d.d.d.d.d.y.d.#Xf.f.d.f.p.p.i.f.f.f.$X*X$Xd.p.p.d.$X$X=X=X=X*X$X#Xd.d.p.$X*X$Xd.a.#Xd.p.$Xf.d.f.f.f.p.d.#X$X$X$Xd.d.d.f.d.f.f.f.$Xd.f.f.d.f.d.u.p.a.s.p.d.p.p.d.f.f.d.d.f.d.$X$Xd.a.d.a.d.d.d.f.d.f.$Xd.p.d.f.p.d.&Xf.u.i.p.f.d.u.f.d.f.&X$Xd.d.f.$Xf.d.f.d.p.f.d.f.f.f.i.d.$Xf.d.f.f.u.f.d.f.g.f.d.f.d.f.f.f.f.$Xf.d.f.5.u.i.p.f.d.f.a.i.f.a.a.d.d.d.d.i.f.f.f.d.f.p.f.d.d.p.d.$Xd.p.d.f.f.d.f.p.f.*X&X$X$X$X&X&X$Xf.&X*X&X$X$X$Xd.$X$Xf.$X=X=X*X*X*X&X$X*X*X*X&X&X&X$Xd.d.d.f.f.f.*Xf.$X$Xf.f.f.d.d.f.f.$X&X&X*X*X$Xf.f.d.#X$X#Xd.d.d.d.$X&X*X*X*X$X$X$Xf.d.d.f.d.&X&X&Xf.&X&X=Xf.&X&X&Xf.&Xi.f.=X&Xf.i.u.f.&Xf.f.f.f.f.=X=X*Xf.f.&Xf.f.&Xa.i.f.f.f.f.i.f.f.f.f.f.&Xf.a.f.f.f.i.i.f.f.i.i.f.f.f.f.a.i.f.f.f.a.f.f.a.a.f.f.f.d.d.p.i.u.f.f.f.i.f.f.f.f.f.i.f.f.f.a.f.f.f.i.f.f.f.f.f.i.i.a.f.i.y.i.a.p.p.f.$Xd.d.u.u.p.f.f.$X$Xf.u.p.f.f.$Xd.d.d.f.$Xf.$X&X&X&X$Xd.f.f.&Xf.f.f.f.d.u.u.p.d.p.f.a.f.d.a.&Xd.a.d.p.u.p.p.a.d.f.d.f.d.p.p.p.a.p.p.u.d.u.p.a.a.i.i.f.d.p.i.u.u.u.9.y.y.y.p.d.a.u.y.p.y.y.y.y.u.u.y.y.5.5.d.i.a.i.u.u.u.a.i.u.u.u.9.9.u.u.y.5.5.u.u.u.u.p.u.y.i.i.a.u.p.9.0.y.u.p.u.y.p.p.u.u.9.y.u.y.a.y.9.5.y.y.5.y.u.p.y.y.p.y.y.y.6.y.p.y.9.y.9.3.9.9.3.5.y.y.9.9.u.y.9.9.9.y.y.y.y.6.6.3.3.9.9.9.6.3.3.3.3.3.3.3.3.2.3.3.3.2.6.9.6.3.6.3.6.9.3.2.3.2.4.6.2.2.2.2.2.2.3.3.6.2.2.3.3.",
"i.d.f.f.u.f.f.f.$Xi.u.p.d.d.d.#X#Xa.a.a.p.p.s.u.a.p.d.a.u.d.*Xd.d.d.*Xd.f.f.f.f.d.f.$Xd.f.f.d.d.d.p.i.y.d.u.u.p.d.d.i.d.d.$Xf.d.d.$X$X$X$X*X$X=Xd.d.#X$X$X$X$X#X#Xd.*X$X$X#Xd.#Xf.f.$Xd.f.d.d.d.$X#X$X$X#Xd.f.f.p.i.i.p.f.$X$Xd.d.f.d.f.p.u.p.p.p.a.f.f.p.f.d.f.f.p.f.f.$X$Xd.d.$Xd.d.d.f.f.d.f.$Xf.d.f.f.d.p.f.$Xf.f.$X$Xf.f.d.i.d.f.f.d.d.f.$Xf.f.d.d.d.$Xf.p.f.$Xf.f.d.$X$Xf.$Xf.&Xf.f.i.f.f.f.f.d.f.p.f.d.d.u.f.u.d.a.u.u.i.f.f.i.i.f.a.p.d.d.f.f.d.$Xf.f.f.&X=X;X=X*Xf.&Xd.f.$X=X=X&X*Xf.d.f.f.f.d.d.d.f.d.f.d.$X$X#X#X#X$X$X$Xd.f.f.d.$X*Xf.d.d.f.f.f.f.f.&X$Xd.f.$X*Xf.f.$Xd.f.$X$X$X$X*Xf.$Xf.f.d.p.d.f.&X&Xf.d.#X#Xd.#Xd.p.p.f.d.f.$X&Xf.f.f.f.f.d.f.$Xf.f.f.f.*Xf.f.f.i.i.f.a.f.a.a.f.f.i.y.y.a.f.f.u.u.i.y.y.i.i.i.f.y.5.i.f.u.i.f.f.f.f.f.i.a.f.f.f.f.f.f.f.f.a.f.i.f.f.f.f.a.i.i.i.f.f.f.&Xf.f.f.&Xf.f.f.f.$Xf.$X&Xa.i.f.f.a.f.f.f.f.f.f.i.i.f.&Xf.a.h.&Xh.&X&Xf.f.f.f.a.a.f.f.f.f.f.p.a.a.d.f.f.a.&X&Xf.d.d.f.d.i.9.p.p.f.f.d.f.d.d.d.d.d.p.f.d.d.u.y.i.p.p.u.p.d.f.a.a.p.u.p.p.f.f.a.f.a.i.d.d.u.a.p.p.a.d.p.f.f.a.p.p.a.a.a.u.a.u.a.u.i.p.u.f.a.u.u.u.u.u.y.y.9.9.u.i.u.p.y.u.i.f.u.u.a.d.a.i.5.9.9.9.y.6.4.6.6.9.u.9.6.5.y.i.p.p.i.y.y.u.i.i.p.u.u.y.u.u.p.y.u.y.u.y.y.u.u.y.p.u.y.p.u.y.i.y.a.9.u.u.u.u.u.u.u.p.9.9.p.9.y.p.9.y.u.y.9.9.9.6.9.9.5.3.9.u.u.y.9.6.9.6.3.5.9.6.3.3.3.6.3.3.3.5.3.3.3.6.3.2.3.3.2.2.3.3.3.2.3.9.3.3.9.3.9.9.3.2.2.3.3.6.3.3.3.2.3.9.9.3.6.3.3.2.4.",
"u.p.p.u.y.i.f.f.f.d.d.d.#Xd.u.d.#Xp.a.a.d.$Xa.u.9.0.a.$X$X*X$Xu.f.d.*Xp.d.u.$X&Xf.d.d.p.d.p.i.p.d.i.f.f.f.u.d.f.d.f.d.f.d.$Xf.$Xd.d.d.#X$X#Xa.d.d.d.f.#X#X#X#Xd.$X$X$Xd.$X#Xd.#X&X$X$Xp.f.f.p.d.*Xd.a.d.p.u.p.p.p.p.i.p.f.f.f.p.p.d.f.p.p.d.d.d.#Xd.$X$Xf.d.g.f.f.a.$X$X=X$X#X$X*X$X#X$Xd.d.#Xd.d.f.f.f.d.f.d.d.$Xf.$Xf.f.p.f.p.$Xf.d.d.d.d.d.$Xd.d.f.$X$X&X$Xd.p.d.p.f.f.f.f.f.=X=X;X;X=X$Xf.f.f.$Xf.f.d.d.f.u.d.a.y.i.d.a.a.a.i.f.d.f.&X&X$X$Xd.p.d.d.d.d.d.p.f.$X*X*X$Xd.$Xf.$X$X$Xi.p.f.$Xd.&X&X=X=X&X&X=X=X$X$X$X$Xd.d.$X&X$X$Xf.f.d.p.f.$Xf.f.$X&Xf.d.d.f.f.f.p.f.d.&Xf.d.f.d.$X$X$X&X*X=X&X*X$X$X$X$X=X=X&X&Xf.d.d.f.d.d.d.f.f.$X$Xd.f.f.f.f.f.f.d.d.f.f.f.&X*X*X*Xf.f.f.f.f.&Xf.f.f.f.i.y.u.i.f.f.f.f.f.f.f.i.i.&Xf.a.f.f.*X&Xf.f.&X&X=X&X*Xf.f.f.i.a.i.f.f.f.f.f.f.h.f.f.f.&Xf.i.y.y.y.a.i.a.f.f.f.f.&Xa.i.a.f.f.f.d.d.a.i.f.f.y.f.&Xf.f.a.f.*X*X&Xf.i.i.f.f.f.i.i.f.&Xa.f.f.y.i.$X&Xf.f.f.&X$X&X&X*Xd.i.p.a.d.$X&X&X*Xp.d.d.i.p.d.d.d.d.f.d.p.u.p.d.f.f.i.u.a.u.y.y.u.a.u.a.u.u.p.f.f.f.a.p.a.a.d.$Xp.p.p.p.p.a.a.f.f.#Xa.a.d.p.d.i.a.p.a.u.u.p.p.p.u.p.p.a.a.a.a.p.u.i.u.y.u.p.y.u.u.u.p.u.i.u.5.9.y.f.u.u.y.9.6.9.6.9.p.u.6.5.u.u.y.y.u.y.9.9.5.y.u.u.u.9.u.y.i.5.u.u.p.u.9.y.y.y.s.u.9.u.u.y.u.y.u.6.u.u.u.y.u.u.9.y.9.9.u.9.y.p.u.5.y.9.9.9.9.9.9.3.y.u.y.9.9.9.y.p.y.9.9.9.9.9.9.3.6.6.3.3.3.3.3.3.3.6.3.3.3.3.3.3.3.3.2.3.3.3.3.6.3.3.6.2.2.3.4.2.3.4.2.3.3.4.3.3.3.4.6.3.3.2.2.",
"d.f.p.y.f.f.f.f.$Xf.d.d.#Xd.u.$X$Xd.$Xa.u.p.p.a.$Xs.9.u.p.p.d.d.f.f.d.p.d.d.$Xp.&Xd.d.d.f.$Xf.&X*X$Xf.f.$Xf.$Xd.p.f.f.f.$X&Xd.d.$X#X#Xa.d.p.a.$Xd.d.d.p.d.d.d.d.a.d.$Xd.*X$Xd.$X$X$Xf.i.f.f.d.f.$Xp.p.#Xp.p.a.d.p.d.f.f.d.d.f.d.f.p.f.f.d.#Xa.d.$Xd.f.f.d.d.i.f.d.d.*X*X=Xd.d.*X$Xa.a.d.a.d.#Xf.f.f.f.f.$X$Xd.f.f.d.d.d.f.y.f.u.f.d.d.d.f.p.d.*Xd.f.$X$Xf.$X$X$Xd.d.p.&X&X&Xf.f.&Xf.f.f.f.f.f.i.p.$X$X$Xd.d.d.p.p.a.p.p.d.u.u.p.f.f.$X&X$X$X#Xp.p.p.u.d.5.p.p.d.d.p.9.u.u.d.f.d.f.d.d.p.$Xf.$Xd.$Xp.d.*X=X=X;X=X$X&X$Xd.d.$X$Xd.f.f.f.*X*Xf.&X*X;X=X=X=X=X&Xf.d.f.&Xd.d.u.f.d.$Xd.d.&X$Xf.d.$X$Xf.d.p.f.f.f.f.p.f.$Xd.p.f.$X#X#Xf.d.d.f.p.f.d.d.d.f.d.f.$X&X&X*X;X;X*X&Xf.f.h.f.i.f.f.y.t.f.h.f.&Xh.h.h.f.f.f.&X=X&Xf.f.&Xf.i.f.a.i.i.u.i.f.f.f.a.i.i.f.f.5.y.f.f.f.f.f.f.&Xf.f.f.f.f.a.i.f.f.f.f.f.f.f.f.f.f.&X&Xf.f.f.&Xf.&X&Xf.f.f.&X5.f.&Xi.i.i.i.i.y.f.i.y.i.a.i.a.f.f.f.f.f.*X&Xf.f.f.f.f.p.f.d.p.a.f.&Xf.f.f.$X&X&Xd.f.&X$Xd.d.p.f.f.d.f.d.d.d.f.f.$Xd.u.d.d.f.f.p.a.p.u.f.a.$Xa.f.p.p.p.d.d.$X*Xf.i.d.u.u.p.p.p.a.f.f.f.#X#Xf.d.a.f.f.&Xf.d.d.p.p.a.u.p.d.d.a.i.u.a.a.f.u.y.u.p.a.y.a.f.u.p.9.6.y.5.9.a.d.f.p.6.p.u.u.u.p.u.9.u.i.9.6.5.9.y.y.y.u.9.5.6.u.u.5.9.5.u.6.u.i.p.p.0.y.p.p.p.d.i.u.i.u.u.u.5.5.u.i.u.u.u.u.9.9.9.y.p.9.y.9.9.9.y.y.9.y.y.y.u.9.y.9.9.9.9.9.6.6.9.9.9.y.9.9.3.2.4.4.3.3.3.2.3.3.2.3.9.3.3.6.6.3.3.2.3.3.2.4.2.3.4.3.3.e.3.y.4.4.3.4.2.6.3.2.3.2.2.4.6.3.2.2.3.",
"d.f.d.f.d.d.d.f.f.f.f.i.p.f.d.f.#Xp.d.u.s.f.f.i.5.f.p.y.p.d.d.d.$X$Xf.d.f.$X&Xu.d.f.f.p.f.f.f.=Xf.f.*X=X=X&X$Xd.u.f.$Xd.$X$Xi.$Xd.f.f.d.$Xp.f.*Xi.d.f.p.d.p.f.$Xd.d.a.d.d.#X$Xd.d.d.$Xd.;Xf.p.$Xa.$Xd.d.f.f.f.$X$Xf.$X$Xf.d.f.$Xf.f.f.d.f.p.f.f.f.f.f.d.f.d.f.$Xd.*X*X$X&X$Xd.d.d.$Xu.p.p.u.f.f.f.f.=X$X$Xf.i.u.p.p.f.f.f.d.d.p.d.f.f.f.d.f.f.$Xf.f.f.f.g.f.&X&X*X$Xf.$Xd.f.f.f.f.d.f.$Xf.$Xf.f.d.f.f.d.f.d.f.f.f.u.i.a.u.u.a.p.a.$X$Xd.f.f.d.d.f.f.d.u.i.f.$Xd.f.$X*X&Xf.$X$Xf.f.f.f.=X=X$X&X&X=Xf.f.$X&Xf.d.f.d.f.$Xf.f.f.p.i.d.$X&X&Xf.=X&Xa.d.f.$Xf.i.f.&Xf.d.$X$Xf.*Xf.d.&Xf.&Xf.f.f.f.f.h.$X$X&X$X$Xf.f.d.$X$X$X$X$Xf.d.d.d.d.d.$X&X$X&Xf.d.$Xf.d.$Xf.i.d.f.a.i.f.f.f.f.f.f.y.i.a.i.f.&Xf.f.f.i.i.i.i.i.i.i.y.f.i.5.u.f.f.f.i.f.f.f.i.f.f.i.f.f.f.i.i.a.a.f.f.f.f.f.f.f.f.f.f.f.f.h.f.f.f.&Xf.f.h.f.a.f.y.y.i.y.i.y.5.y.f.p.u.p.i.i.f.d.p.&X*X$X$Xf.$Xf.f.f.i.i.f.a.f.f.f.f.f.&Xf.f.f.i.f.u.a.f.f.y.f.f.d.a.*Xf.d.f.u.i.f.f.p.p.a.f.f.f.f.f.f.&Xf.*X&X&X&Xf.u.d.u.u.i.u.u.d.u.u.p.i.p.u.u.f.f.f.&Xf.i.a.p.p.p.f.f.f.d.f.a.f.a.a.f.f.f.$Xf.a.a.a.f.d.p.p.f.i.u.d.a.$X$Xd.f.f.d.u.u.9.y.y.u.u.y.p.9.u.6.y.u.u.y.i.5.y.5.5.4.3.9.y.u.9.u.y.y.9.9.y.y.p.p.u.y.u.u.y.y.u.p.p.p.s.p.p.u.y.y.u.u.f.i.i.u.y.i.f.i.u.u.u.u.u.u.y.9.y.i.9.u.i.u.a.y.u.y.9.u.9.u.9.u.y.9.3.9.u.y.u.9.3.9.9.9.9.9.3.9.3.3.3.3.2.3.9.9.5.6.y.5.3.3.9.3.2.2.2.2.3.3.3.3.6.2.2.3.9.2.3.6.6.2.3.3.3.3.3.9.y.3.3.3.3.3.3.3.",
"f.d.u.d.$Xf.f.f.u.p.f.d.d.f.d.d.i.i.f.d.d.i.p.d.p.p.y.5.p.p.p.i.f.f.d.f.$Xd.$X*X=X$X&Xd.f.d.f.f.d.f.f.f.d.i.p.p.d.i.i.p.f.d.p.d.d.f.f.f.d.d.f.d.u.d.f.d.d.p.d.$Xd.#X#Xa.d.d.$X$Xf.$X$X$X;Xf.d.$Xd.=X$Xp.p.p.d.f.d.f.f.f.f.d.$Xd.d.d.f.u.d.f.f.i.f.f.f.f.f.f.d.f.d.d.f.f.$Xf.i.u.d.&Xd.p.p.d.d.i.$X&X$Xd.f.d.i.i.d.p.f.d.d.$X&X&Xd.f.$Xd.d.f.f.d.p.d.f.$X&X&Xh.f.$Xf.d.f.d.d.f.$X*X*X*X=X=X;X&X=X$X$Xf.f.f.d.d.f.f.d.d.p.u.d.&Xf.a.$X$Xd.f.$X$X$X*X&X=X=X*Xf.d.f.d.d.p.p.f.f.f.u.p.d.f.f.g.f.f.i.d.f.=X*Xf.f.d.d.d.f.$Xf.d.f.f.f.p.f.$Xf.f.f.f.f.d.f.f.f.f.&Xf.p.p.f.d.a.&X$X$X&Xf.&Xf.f.&X=X&Xf.f.f.$X$X$Xp.f.*Xf.f.$X*X=X=X&X$Xf.$Xf.*X=X*X$Xf.f.f.f.f.f.f.d.i.i.i.f.f.f.f.&X*X&Xf.f.&Xf.f.f.f.f.f.f.f.a.y.u.f.i.i.&Xf.i.f.f.u.f.f.f.f.&Xf.f.a.f.f.&X&X&Xf.f.a.f.f.f.f.a.i.i.i.f.f.f.f.&X&Xf.f.f.a.i.f.i.y.f.f.a.f.f.f.f.i.i.f.f.p.f.d.p.f.d.d.i.a.a.u.u.i.p.d.f.i.i.f.f.f.f.f.f.f.f.f.f.f.f.f.f.f.f.f.f.f.&X*Xd.f.p.u.p.a.u.d.p.i.p.a.a.p.u.y.f.f.f.f.$X*X*X$Xd.p.f.d.d.p.p.a.d.p.p.u.u.p.p.d.a.i.f.f.i.u.i.p.u.y.u.i.f.f.f.a.a.p.p.f.f.f.f.p.f.u.9.u.f.f.a.a.f.u.p.u.f.i.u.i.a.p.y.u.u.a.u.y.f.y.u.5.p.5.u.u.5.9.p.y.y.3.5.5.6.y.p.u.y.9.u.u.y.9.y.p.p.u.u.p.i.u.9.y.u.p.d.d.y.y.y.y.y.9.9.9.y.u.i.i.p.p.p.i.a.a.p.u.y.y.y.9.u.u.9.u.i.u.p.a.p.y.9.y.p.f.u.y.9.9.3.6.9.6.9.6.6.9.5.2.3.6.6.6.3.3.3.3.3.3.3.6.5.3.3.6.3.6.6.2.2.3.3.3.3.2.3.3.3.6.6.3.3.2.3.3.3.4.3.3.3.3.2.9.3.2.3.3.3.3.3.3.",
"p.p.u.d.f.p.d.d.d.f.d.d.f.d.f.d.f.p.p.p.d.u.p.d.u.y.6.9.d.f.d.d.i.f.f.i.u.5.u.f.$Xp.d.d.d.d.f.d.f.f.f.f.f.f.f.$Xd.f.f.f.p.f.$Xf.&X$Xd.&X$X=X$Xi.i.f.f.p.d.p.d.f.d.$X$X#Xd.d.f.f.f.$Xd.f.&Xf.f.*Xd.d.p.d.f.d.f.f.f.d.d.d.d.f.$Xp.d.f.f.u.p.p.p.i.p.p.p.f.$Xf.f.=Xf.d.f.d.d.i.u.f.f.$Xf.f.d.$Xf.f.f.f.d.p.i.f.f.f.f.f.d.d.d.f.$X&Xf.$Xf.f.p.f.$Xd.i.f.f.f.=X&Xf.f.f.d.f.f.d.d.d.f.f.f.f.f.f.f.i.f.f.d.d.f.d.i.d.f.d.d.f.f.$Xf.f.d.f.*X$Xd.d.d.d.f.$X$Xd.i.f.&Xf.f.d.d.d.d.p.d.d.d.d.f.f.h.f.h.f.i.i.d.*Xf.f.d.$Xf.&X$Xf.p.u.d.p.f.f.&X*Xf.d.p.a.d.f.f.f.f.$Xf.f.&X*X*X&Xf.f.$X&X&Xf.f.a.f.&X$Xf.i.p.d.f.$X$Xd.$X$X*X&X$X&X&X$X*X;X&Xf.u.i.p.d.f.d.d.f.f.f.f.f.f.d.i.f.f.f.f.f.&X&X&X&X&Xf.f.f.f.&Xf.f.f.f.i.i.f.;X*Xi.i.f.f.f.f.f.d.f.f.f.&Xf.f.f.f.f.f.&X&Xf.a.i.f.f.f.f.f.f.f.f.f.f.f.i.i.f.f.f.f.f.f.f.y.y.f.&X&Xf.i.i.f.a.i.y.p.p.d.d.i.i.i.p.p.i.a.a.f.y.i.d.f.f.i.i.f.f.f.f.f.f.f.i.i.f.f.f.f.f.d.f.*X*X*X&Xd.p.p.u.u.a.u.u.u.i.p.d.f.d.i.i.y.u.i.y.a.f.d.u.f.f.a.d.f.i.i.p.d.d.f.u.u.u.i.f.f.f.f.f.u.u.u.u.u.u.p.a.a.f.d.a.f.d.d.f.f.i.i.u.$Xa.u.p.a.i.u.i.f.u.u.u.p.i.u.u.p.i.9.9.9.p.u.y.u.3.5.6.a.y.f.a.p.3.6.u.f.6.6.5.9.y.a.p.p.y.u.y.u.y.y.p.u.9.9.9.6.6.5.y.y.y.u.p.y.9.y.u.y.y.9.9.9.i.u.y.i.i.u.i.u.u.y.y.y.u.u.y.p.u.i.i.u.y.9.u.u.y.i.y.u.y.y.9.9.6.2.3.y.u.u.9.3.9.9.9.9.y.9.9.6.9.9.9.p.9.9.y.5.3.2.9.6.9.3.3.3.3.3.3.3.3.3.3.2.3.3.2.3.2.3.3.3.2.3.6.3.3.2.3.3.2.3.3.3.3.3.3.",
"f.$Xf.d.d.i.p.p.f.f.f.d.i.f.$Xd.f.d.f.f.&Xu.9.9.f.$Xd.f.f.p.p.d.p.$Xf.y.9.u.d.d.$Xd.f.d.d.f.d.p.$X$X$X$Xf.f.f.d.d.&X$X&Xd.d.=Xd.d.p.i.d.d.d.i.y.u.f.f.p.$X$Xf.d.d.$X$X#Xd.#Xf.p.p.f.u.d.d.p.f.$Xf.d.f.$X$Xf.d.f.f.d.f.$X$Xd.f.$Xf.$Xf.p.p.p.p.p.d.p.f.f.$Xd.d.&X$Xf.f.f.d.u.d.*Xd.f.d.f.d.d.f.&Xp.d.d.p.d.$Xf.d.$Xf.$Xd.p.a.p.f.f.&Xd.p.d.d.d.f.g.f.f.i.f.f.d.f.f.p.d.f.f.d.d.u.u.f.f.i.d.f.f.f.$Xf.d.$X$Xu.p.d.d.u.u.f.&X$X$X=X*X*X$Xf.f.f.f.d.f.d.d.f.$Xd.d.$X*X$X$X$X$X&X*X*X=Xf.$Xh.f.&Xf.&X$Xf.$Xf.$Xf.$Xf.;X$Xd.f.;XPX;X=X*Xf.d.d.=X=X&Xf.f.$Xf.f.$Xf.$X=X&Xf.$Xf.f.f.&X$X&Xf.f.&Xf.f.f.f.$X$X&Xf.&X*X=X*Xd.f.d.f.d.p.d.f.f.f.p.f.d.f.d.d.f.&X$X$X*Xf.p.p.f.f.f.f.f.f.f.f.y.f.&Xf.f.&Xf.f.f.f.f.f.f.f.f.&Xf.f.f.&Xf.y.y.f.f.f.a.f.i.i.i.f.f.f.f.f.f.i.i.i.f.i.i.f.f.f.&Xf.i.f.f.f.i.i.f.f.i.f.f.i.5.y.f.f.i.a.f.f.&Xf.f.f.$Xf.f.&X&X$Xf.f.=X*X*Xf.$Xf.f.$Xi.p.i.i.i.i.a.f.f.a.f.i.u.i.f.f.f.;X;X*X*Xf.d.d.f.f.d.p.u.f.a.u.$X&Xf.d.d.f.i.f.f.f.i.y.u.a.d.f.a.d.u.i.i.a.i.d.f.a.f.p.u.u.u.u.i.i.p.f.a.p.p.a.a.d.f.a.u.p.d.a.f.f.f.a.p.u.u.u.d.d.a.a.p.u.i.f.u.y.u.u.p.d.a.u.p.d.i.y.5.u.i.p.p.u.a.u.p.9.u.u.u.9.u.u.u.5.5.6.p.y.9.3.9.0.y.y.3.9.9.9.y.y.y.9.y.y.y.5.5.6.9.p.y.9.9.u.p.p.p.p.u.p.u.y.u.u.y.u.u.u.u.u.i.u.y.9.5.y.u.y.9.y.y.9.9.9.u.y.5.6.5.u.p.y.3.6.u.p.y.9.y.6.3.9.5.3.6.9.9.y.p.9.y.3.3.9.y.y.9.y.6.3.2.3.6.6.3.3.3.3.3.3.4.4.2.3.3.4.3.3.3.3.3.9.6.3.2.3.3.3.6.3.3.3.3.3.",
"f.u.u.f.$Xd.f.f.f.f.$X$Xd.d.f.d.p.d.d.p.d.9.d.f.u.d.i.f.p.f.f.f.f.i.p.i.9.y.p.d.$X&Xf.d.f.f.f.f.$Xf.$X$Xf.f.d.i.d.f.p.f.$Xf.f.p.d.f.$Xd.d.u.i.f.d.$Xf.d.*X&X&Xf.#X$Xd.f.d.f.d.u.y.p.y.$Xf.f.f.d.i.f.&Xf.f.f.$X&Xd.i.d.d.f.p.p.d.*X$Xf.p.f.d.u.u.a.d.d.d.d.d.d.$X$Xd.f.f.d.d.f.$Xp.f.f.a.i.f.d.d.f.f.f.f.f.d.d.p.i.p.&Xf.f.f.d.d.a.*Xf.f.$Xa.i.f.f.f.f.f.f.f.f.f.f.a.f.i.f.f.f.f.f.f.&Xf.f.f.f.f.&X$Xd.&X=Xd.d.$X=X=Xf.f.f.f.a.f.f.f.a.a.f.f.f.f.f.&X&Xf.&Xf.i.f.f.f.a.a.p.a.f.$Xf.i.i.f.f.f.f.&X&X&X=X&Xf.f.f.f.a.a.f.a.f.f.&X*X*X=X=X&X*Xf.d.$X$Xf.f.f.&X$Xf.&Xp.u.d.$X$Xf.f.f.f.h.&Xf.f.&X=X&Xf.f.f.u.i.a.f.&Xf.f.i.f.f.f.f.a.a.f.a.a.a.a.f.f.&X&Xf.f.f.f.f.f.i.a.i.i.i.f.f.f.f.&Xf.i.f.*Xf.f.f.f.f.f.f.f.f.i.i.f.f.f.f.f.f.y.i.f.f.f.i.i.i.i.i.f.f.a.i.u.u.a.f.f.f.f.a.f.f.i.f.f.f.f.f.a.f.f.y.i.f.f.i.f.*X*X&Xf.f.a.y.y.u.f.f.f.p.d.$Xf.f.d.p.&X&Xd.p.f.a.y.y.i.i.i.i.y.y.i.i.i.a.f.a.f.f.a.f.$Xf.u.f.f.a.u.a.f.p.f.d.d.$Xp.&Xf.p.u.i.u.y.i.f.f.f.f.f.a.f.d.a.a.i.y.y.f.i.f.a.y.i.f.i.p.d.u.y.u.i.a.f.p.p.p.f.f.f.u.u.f.$Xa.p.f.p.i.p.a.d.d.d.f.a.a.f.a.a.f.p.i.u.i.i.a.p.9.u.f.f.p.y.u.u.i.6.9.u.p.u.p.d.a.y.u.f.i.y.6.9.9.p.p.y.p.p.a.p.y.3.9.y.y.y.u.u.u.u.u.u.u.u.y.9.9.9.9.6.9.9.y.y.u.u.u.u.p.u.p.p.y.9.9.u.i.i.u.9.5.9.u.6.6.6.6.u.y.9.5.9.y.y.y.y.a.y.y.y.9.9.y.9.9.9.3.9.p.u.5.3.3.9.6.9.3.3.3.9.3.3.3.9.6.9.9.9.9.9.9.6.3.3.3.3.2.3.3.3.3.5.2.2.4.6.3.2.3.3.3.3.9.3.3.3.3.3.2.3.3.",
"f.p.p.f.d.d.d.p.p.u.p.d.p.y.u.d.f.f.$X$X$Xd.f.f.&X*Xf.$Xd.f.d.f.$Xd.d.$Xp.p.d.f.f.$Xf.p.f.d.d.f.f.d.f.d.d.f.d.p.d.d.u.$X&Xi.i.d.f.$X$Xp.f.d.f.f.d.$X$Xf.$Xf.$Xd.*X$Xd.f.f.f.d.i.i.f.i.$X$X$X&Xf.i.i.f.f.f.d.f.f.f.$X*Xd.f.f.a.d.&Xd.p.p.i.p.y.u.u.f.d.f.f.f.$X$X$Xf.a.f.d.f.f.p.a.d.f.a.f.f.f.d.f.f.d.p.f.p.d.f.f.$X;X&Xd.f.u.u.p.*Xf.f.&Xp.i.f.f.f.f.f.i.i.f.i.i.f.f.f.i.a.f.f.f.i.f.a.i.i.f.f.$Xf.d.$X*X$Xf.=Xf.$Xd.d.f.d.a.a.f.f.f.f.&X&X&Xf.f.f.&Xi.f.f.f.i.f.f.$Xf.p.p.f.*Xf.f.&X&X*X;X-X&Xf.&X&Xf.f.&X=X&Xf.f.&Xf.&X&X*X*X&Xf.d.d.&Xf.f.$X&X$Xf.f.d.d.f.&Xf.p.f.$Xf.i.a.p.f.f.f.f.f.&X&Xf.f.a.f.f.f.f.f.f.f.f.i.i.f.f.a.a.f.&X&X=X&Xf.f.f.f.f.&X;X=X*X*Xf.a.f.f.f.f.f.f.f.f.h.&X&X&Xf.i.f.f.f.f.i.f.f.f.f.i.f.f.f.i.f.f.f.i.i.f.f.a.f.f.i.f.&X&X&X&X&X&X&Xy.u.f.f.f.f.&Xf.f.f.f.f.f.f.f.&X&Xf.f.f.y.y.u.i.f.f.f.f.i.f.i.u.f.f.p.a.f.f.$X&Xp.$X&X&Xd.d.i.a.f.f.f.d.&X&X&X*Xf.f.a.f.&X&X&Xf.f.*X*Xf.f.u.y.a.f.a.9.f.$Xp.$Xa.i.u.u.u.i.i.i.i.i.a.a.f.f.i.i.i.f.a.f.i.i.f.u.i.a.y.u.f.i.i.d.i.i.a.p.a.d.d.p.a.a.d.f.d.f.$X$Xa.i.d.p.i.f.d.d.d.d.f.d.d.d.d.p.p.f.p.u.p.u.u.p.u.u.p.i.u.y.u.y.9.9.y.y.p.y.f.f.i.u.6.5.u.u.5.5.y.u.s.9.y.9.y.9.y.9.9.u.u.9.6.9.p.p.y.6.6.9.y.u.p.p.p.u.u.u.u.p.p.u.y.p.f.p.p.f.u.6.5.y.u.u.u.y.9.u.u.6.9.9.6.y.y.u.9.9.u.u.p.u.f.9.9.y.9.9.y.y.y.p.u.y.y.y.9.9.y.6.2.3.3.6.9.p.9.9.9.9.3.9.3.3.2.3.9.9.3.3.3.3.3.3.3.3.3.3.3.3.4.3.2.4.2.3.2.3.3.3.2.3.3.2.3.3.2.",
"d.f.d.f.d.f.$Xp.d.d.f.f.p.u.d.&X;X=X=X$Xf.f.f.f.f.p.f.p.i.d.i.p.i.i.p.f.p.d.f.f.p.d.f.d.d.p.f.d.d.f.$Xd.i.p.p.u.f.d.f.*X&Xi.d.$X&Xf.f.f.f.$Xf.f.p.p.f.d.f.$X=Xf.*X$X$Xf.f.d.d.f.f.d.f.f.d.$X=X$Xf.y.i.f.f.f.u.u.f.*X*Xd.a.f.a.p.a.a.a.u.5.y.9.f.i.d.f.f.d.f.d.f.f.f.f.f.f.f.f.i.f.f.f.f.*Xf.f.f.f.f.a.a.d.f.d.f.d.i.&X$Xf.&Xa.f.d.&Xd.d.f.p.f.f.f.f.f.f.f.i.i.i.i.f.f.f.i.f.f.a.f.i.f.g.f.f.=X;X*X$Xf.a.f.f.i.f.$Xd.a.p.p.u.u.f.f.i.f.f.f.f.f.i.y.i.f.h.&Xf.f.f.&Xd.a.p.f.f.h.f.&X&Xf.f.f.f.&Xf.f.f.f.f.a.&X*X&Xf.f.&X&Xf.f.i.i.$Xf.f.d.a.f.f.d.*X*X*Xf.a.f.$X&X$Xa.a.p.f.p.f.f.f.f.f.h.&X&Xf.&Xf.i.a.f.&Xf.f.f.f.f.f.&X&Xf.f.f.f.&Xf.f.f.f.f.f.f.f.&X&Xf.f.&Xf.f.f.&X&Xf.f.f.f.f.f.f.f.f.i.i.&X&X&X&X&X&Xf.f.f.&Xf.i.f.f.a.u.t.i.i.i.i.a.a.f.f.u.f.f.f.f.f.f.f.u.i.f.f.i.f.f.i.i.a.f.f.f.f.f.f.f.i.a.a.y.u.u.a.i.i.f.i.5.y.i.i.d.$Xp.p.f.f.f.$X&Xf.d.f.a.u.p.*X*Xh.f.f.i.i.i.a.f.f.i.f.f.f.f.f.u.d.d.d.d.a.u.p.f.a.u.d.d.u.a.a.a.i.p.a.f.f.f.i.f.f.u.i.u.i.f.f.i.y.f.f.f.f.f.f.i.a.i.i.i.u.f.i.u.p.i.i.f.f.f.f.u.a.$X$Xd.a.a.p.i.a.y.y.i.u.u.a.i.f.f.d.d.d.d.f.f.p.u.f.y.u.a.p.f.a.u.u.y.i.u.u.a.u.u.f.u.d.f.i.6.9.y.9.5.y.y.9.9.u.u.u.9.9.6.9.9.9.y.y.9.9.9.u.9.9.9.u.u.u.y.y.u.p.u.y.9.y.y.9.u.u.i.i.u.i.p.p.i.i.i.i.u.y.9.9.9.9.5.u.u.9.u.u.y.y.u.y.y.i.u.p.p.9.u.y.3.9.9.3.9.u.y.9.9.3.2.3.9.3.3.6.9.9.9.6.6.6.3.3.9.3.2.3.6.9.6.3.2.3.6.6.2.3.3.2.3.3.3.4.2.2.4.3.3.2.2.4.3.3.3.6.3.2.2.2.",
"f.u.u.d.d.f.f.9.p.f.f.y.9.y.p.f.f.i.f.d.u.u.d.f.u.9.$Xd.f.d.p.d.f.d.u.p.f.$Xp.f.d.f.f.f.d.f.&Xd.i.f.&Xf.i.p.d.f.f.f.d.&X$Xd.f.f.f.p.d.&Xf.d.d.$Xd.p.i.i.d.$X&Xi.d.f.$X$Xf.d.d.f.&Xd.f.f.f.$X&Xf.p.i.f.i.y.f.f.f.p.&Xf.f.#Xa.f.d.f.a.p.9.6.u.u.$Xp.f.$Xf.$X$Xd.f.f.i.a.f.a.f.f.f.f.&X&Xf.h.i.&Xf.f.f.p.f.$Xd.d.f.&Xi.f.f.f.f.u.f.d.f.f.$Xd.d.*Xf.f.f.f.f.f.f.i.f.f.f.a.f.i.f.f.f.f.f.h.g.h.f.f.*X=X&X$Xp.d.$Xu.d.p.f.$Xf.p.f.a.p.f.f.f.&Xf.f.&Xf.f.f.f.i.a.f.&Xf.d.f.a.a.p.d.f.f.f.f.f.&X=X&X&Xh.&Xf.f.&Xi.f.i.f.&Xf.u.i.y.f.i.f.f.a.p.f.f.&X$Xd.&X&X*X&Xf.$X&Xf.f.f.f.a.f.$Xf.f.f.f.f.f.f.&Xf.&X=X&X&Xf.f.f.f.f.f.f.f.f.f.&X&Xf.f.f.f.f.&Xf.f.i.a.f.f.i.i.f.f.f.f.f.f.f.f.h.h.h.f.a.a.f.f.f.f.f.f.f.f.f.f.f.i.i.y.f.f.f.f.f.f.i.f.f.f.f.f.i.f.f.f.&Xf.i.f.f.a.f.y.i.u.y.a.f.f.f.f.f.&Xf.i.a.f.f.f.i.f.f.i.f.i.i.i.u.f.a.i.f.f.f.f.&Xa.p.f.f.f.f.f.d.f.d.f.a.f.d.f.f.f.f.y.y.i.i.f.f.i.i.y.5.i.i.p.f.a.p.i.f.a.p.a.d.f.d.p.u.p.a.d.p.p.f.a.f.f.a.f.f.y.f.a.f.&X&Xi.u.f.h.f.i.f.f.u.f.a.u.i.i.i.i.i.p.u.u.i.u.y.u.p.u.p.a.p.p.p.p.d.a.9.y.p.y.u.f.a.f.f.a.d.f.d.p.u.p.i.a.9.u.i.5.i.u.y.u.u.i.u.i.a.y.y.p.u.u.u.y.9.9.y.y.9.u.u.9.y.9.9.6.9.6.9.u.p.p.u.u.p.p.9.3.6.9.u.p.y.5.5.y.y.p.p.u.y.y.y.9.5.u.u.u.i.u.u.p.u.u.u.u.y.5.5.9.u.u.u.9.5.9.9.y.u.y.y.6.9.i.p.u.9.5.p.y.2.6.9.3.9.9.9.9.y.5.6.p.9.9.9.9.y.6.3.9.3.6.3.9.5.3.2.9.u.9.3.2.2.6.9.6.3.3.2.2.3.4.2.2.2.2.4.2.3.2.3.3.3.2.3.3.2.4.4.3.",
"d.d.f.f.f.f.9.i.f.d.p.f.u.u.p.f.p.f.p.p.d.d.p.f.d.u.d.f.i.d.d.f.f.*X$Xu.f.$Xp.f.d.d.&Xf.p.u.$X$Xd.f.f.f.*X$Xf.d.f.p.d.f.p.f.$Xp.f.d.a.f.f.f.f.$X$Xf.f.f.f.f.f.f.d.p.d.d.&Xf.$Xf.d.f.f.f.f.f.$Xh.f.h.f.u.f.f.&Xf.f.$X$Xa.d.i.$Xd.a.a.i.u.i.i.f.f.&Xf.f.f.f.f.&Xf.f.u.u.y.a.i.f.f.a.a.f.f.f.f.f.f.f.&X$X$Xd.p.5.u.i.p.a.f.f.$Xf.a.d.$Xf.f.f.f.f.f.f.f.f.f.f.f.a.f.f.i.i.f.f.f.f.f.i.h.f.f.i.f.g.t.i.a.f.i.a.a.d.i.i.f.f.f.f.f.i.f.f.f.i.&X&X&Xf.y.i.i.f.f.f.f.f.f.a.p.f.f.f.f.f.f.f.f.&Xf.f.&Xf.&Xf.f.f.&Xf.f.a.a.i.f.f.f.&X&X*X;X&X*Xf.f.u.a.p.d.d.f.&Xf.f.f.f.f.a.i.f.f.f.f.f.f.f.&Xf.f.y.f.f.f.f.f.a.f.a.f.&Xf.f.f.f.f.&X&X=X&Xf.h.&Xf.f.f.f.f.f.f.i.a.a.f.f.a.f.i.f.&Xf.f.f.f.i.i.f.f.f.f.f.f.f.f.f.f.f.f.f.f.f.f.f.f.f.i.f.f.i.f.*X=X&Xf.f.&X&Xf.&X&Xf.a.f.f.i.i.a.f.f.*X&X&Xf.f.f.u.f.i.f.f.i.f.i.f.u.;X;Xf.f.i.p.f.f.f.f.i.i.i.i.y.i.i.f.y.i.i.a.f.f.y.y.i.i.y.i.u.y.i.i.u.f.f.f.f.a.y.f.i.u.f.d.u.i.a.a.a.f.f.f.p.d.d.u.p.f.d.d.d.f.f.a.a.f.f.y.f.f.i.f.f.a.f.f.f.f.u.i.p.u.u.i.i.i.y.i.i.i.u.i.9.u.u.9.9.y.y.i.p.y.u.9.9.u.p.i.u.a.y.u.a.p.f.d.u.f.f.f.u.d.d.u.f.i.a.y.u.f.p.d.u.i.a.a.p.y.u.u.f.i.9.5.u.i.u.u.f.u.y.9.5.5.y.5.u.u.u.y.u.9.9.5.5.5.5.5.5.5.y.y.5.y.y.i.y.9.y.u.p.9.9.9.9.6.5.5.y.y.i.y.y.5.u.u.y.9.y.9.y.p.9.5.u.u.y.5.u.u.y.5.6.u.y.9.9.9.9.5.i.y.3.5.6.3.u.9.9.u.u.6.y.9.9.9.3.9.y.y.9.p.9.3.5.9.3.3.9.u.9.6.6.3.5.9.3.3.6.6.3.3.2.2.6.2.4.2.3.3.2.3.3.3.2.3.2.2.4.4.2.",
"d.d.p.p.d.p.9.9.u.9.9.u.d.y.p.d.i.d.f.$Xd.f.f.f.d.i.f.f.d.f.p.p.d.d.9.p.f.f.d.p.d.$X$Xf.d.p.d.f.d.d.f.d.$Xd.f.p.$Xf.d.d.i.d.$Xd.d.d.a.f.f.d.f.f.d.f.&Xf.f.f.f.f.f.d.d.d.&X&X&Xf.d.d.f.f.f.f.&Xh.f.h.f.f.f.f.f.f.&Xf.f.f.d.a.d.d.f.f.f.f.f.f.f.f.h.f.f.f.f.f.&Xf.f.i.i.f.f.f.f.i.f.f.f.f.&Xf.f.f.f.f.$Xd.d.d.u.p.d.f.d.d.i.f.f.&Xf.d.f.f.f.f.f.f.f.f.f.i.i.i.f.f.f.i.y.i.f.f.f.f.f.f.i.t.t.f.f.f.f.f.i.i.f.f.f.y.i.f.i.i.u.i.i.f.f.f.i.f.f.f.f.i.i.f.&X=Xf.a.f.f.d.f.f.f.f.f.f.f.f.i.f.f.&X*X&X&Xh.f.f.f.f.f.h.&X&X=X&Xh.f.f.a.f.$X&X$Xf.p.i.i.p.a.a.f.f.d.f.d.a.d.f.f.f.f.i.f.a.f.f.f.f.f.f.f.h.f.f.f.f.f.f.&Xf.f.f.f.i.a.i.f.f.f.f.f.f.f.a.f.f.i.a.f.f.f.a.f.f.&Xf.&Xf.f.f.f.h.&Xf.f.f.f.f.f.f.f.f.f.f.&X&Xf.f.a.f.f.f.f.i.i.u.f.f.i.f.f.f.i.i.i.y.i.i.f.f.i.a.f.i.f.a.a.f.f.f.f.f.f.f.f.f.f.f.f.f.i.f.f.f.i.f.i.i.i.f.f.f.f.i.f.f.i.y.y.y.u.y.u.f.f.a.a.a.i.i.i.i.f.f.f.*X*Xf.f.f.f.&Xf.f.h.f.i.f.$Xf.a.d.f.f.d.d.d.f.d.$Xa.a.p.f.&X$Xf.i.u.i.f.f.i.i.i.y.f.f.i.i.i.u.i.y.y.y.u.y.i.i.a.u.i.f.p.u.u.u.u.u.y.u.5.y.p.d.u.9.6.u.u.u.9.u.i.p.u.f.y.d.f.u.p.u.i.a.$Xf.i.9.9.9.u.a.i.u.d.u.u.y.a.a.p.d.p.p.u.u.y.6.9.y.p.d.i.u.9.5.5.9.6.9.y.y.y.u.u.y.5.6.5.9.9.9.5.5.6.6.5.y.p.i.y.9.5.9.9.y.9.9.y.y.y.y.u.i.u.u.p.a.p.u.y.y.y.y.u.y.u.u.i.u.y.u.u.y.9.6.u.9.6.5.u.y.y.u.i.6.y.5.5.u.9.3.5.9.5.5.6.9.9.9.9.y.9.y.9.9.5.9.9.6.3.3.y.9.9.9.6.6.5.6.2.3.3.3.6.6.3.3.2.4.3.2.3.4.4.4.3.3.3.3.2.4.4.2.",
"f.&Xd.d.d.d.f.p.d.i.p.f.d.9.i.f.d.f.$Xf.i.p.d.d.p.u.p.i.p.p.u.p.d.p.d.f.f.d.d.d.d.f.d.p.d.d.i.d.y.p.f.d.d.i.d.d.u.u.d.d.u.p.p.u.d.d.f.f.$X&X&X&Xf.f.&Xf.h.f.f.i.p.d.f.f.f.f.f.f.u.d.f.f.f.f.&Xh.f.f.i.f.h.f.f.f.f.a.i.&X$X$Xp.d.f.f.i.i.f.f.f.f.f.f.&X&X&Xh.f.f.f.f.f.h.f.f.i.i.f.f.&Xf.&Xf.f.f.d.d.f.u.a.d.u.d.d.d.f.f.f.p.f.f.f.f.f.f.f.i.f.f.f.f.f.i.f.f.f.f.i.i.i.i.i.i.f.f.f.f.f.u.g.f.h.f.&X*X&X&Xf.f.f.f.f.f.f.f.i.i.f.f.f.f.f.f.f.f.a.f.f.i.i.f.i.f.f.f.f.f.f.f.&X&X=X=X&Xf.f.f.*X=X=X=Xf.a.i.i.&X&X&Xf.f.&Xf.f.f.f.f.f.*X*X&Xf.d.f.$X*Xf.f.f.&Xf.f.f.f.a.f.f.i.f.a.f.f.h.f.f.f.f.f.f.f.f.f.f.f.f.&Xf.f.&Xf.f.f.f.f.f.f.f.&X&X&Xf.f.f.&Xa.f.f.f.h.i.f.f.&Xf.f.f.f.&X=X=X*X&Xf.f.f.f.&X&X&Xf.f.f.a.i.i.i.f.f.i.i.i.a.f.a.f.f.f.&X&Xf.f.f.i.f.f.f.f.a.u.f.i.i.u.y.i.u.y.f.a.i.i.f.i.f.f.f.f.=Xf.&X&Xf.i.f.f.f.i.i.f.f.f.f.u.y.y.i.i.u.y.u.y.f.i.i.u.f.f.f.f.f.f.f.f.i.i.i.y.u.i.i.i.u.i.i.f.f.f.i.p.d.f.$Xf.a.a.&Xp.f.a.a.a.d.f.p.i.u.u.i.f.f.f.f.f.i.i.y.i.i.i.y.i.y.u.i.a.y.u.i.f.u.i.f.a.i.y.a.u.i.i.p.y.u.i.p.u.y.5.p.y.i.y.f.a.f.i.d.u.a.a.y.p.i.p.a.f.p.d.p.p.9.u.u.i.i.p.u.u.y.p.i.f.p.u.u.u.i.y.5.9.u.a.p.i.u.u.y.u.y.9.9.y.9.u.y.9.y.y.p.f.f.y.5.y.9.5.y.5.5.y.5.9.u.y.9.6.9.9.u.u.y.u.y.u.u.u.u.u.y.y.y.6.6.5.5.u.u.p.9.9.5.9.y.y.u.y.9.u.5.3.3.9.5.y.5.u.5.y.y.6.9.y.6.y.5.5.6.9.u.9.y.6.u.9.y.3.5.9.9.9.9.9.3.3.3.3.3.6.3.3.9.3.2.3.3.3.6.5.3.3.2.3.3.6.3.3.4.9.2.4.2.3.3.4.4.",
"d.f.d.d.i.p.f.f.i.p.u.d.u.u.i.d.f.f.d.p.p.d.d.d.f.f.p.u.p.d.u.d.d.u.$X$Xd.d.d.$Xp.f.u.i.p.d.p.d.f.f.$Xd.d.i.p.p.d.p.p.i.u.p.f.f.f.f.f.f.$X*X*X&Xf.f.f.f.h.f.f.i.f.&X=X&X$Xf.f.f.u.i.f.i.f.h.h.f.f.f.i.a.f.f.h.h.i.i.a.&Xd.f.i.f.&Xf.y.i.f.f.f.f.f.f.&X&X*X&Xf.h.f.f.f.f.f.f.a.f.f.f.&Xf.f.f.f.f.$Xf.*Xp.d.f.d.f.$Xd.d.p.f.p.f.f.f.f.f.i.i.i.f.h.f.f.i.i.f.f.f.i.i.i.f.f.a.i.f.f.f.f.&Xf.*X*Xh.f.&X&Xf.f.i.f.i.a.d.&Xf.f.f.f.f.i.f.f.f.f.&Xf.i.i.i.i.f.f.f.f.f.f.f.&X&Xf.f.f.h.h.f.f.f.f.f.a.f.f.;X=X=Xf.*X&X;X;X;X;X&Xh.f.f.f.f.d.d.$Xf.&Xd.f.d.i.d.p.$Xf.d.f.f.h.&X&Xf.&X&X&X&X*Xh.f.&Xf.f.f.f.f.f.f.f.f.&Xf.i.f.f.h.f.f.f.f.f.f.f.f.f.f.f.f.f.&X&Xf.&X&Xf.f.f.f.f.i.f.f.f.&Xf.f.a.i.f.a.a.f.f.y.y.i.f.f.f.f.f.f.f.a.a.f.a.i.y.t.i.f.f.f.a.i.f.y.a.f.f.a.i.i.&Xi.u.y.5.i.i.y.i.i.i.i.f.i.i.i.i.a.i.u.i.u.f.f.i.a.f.a.f.f.f.i.f.f.f.u.a.u.i.i.f.a.f.i.i.f.f.f.f.f.i.f.f.u.5.y.i.u.i.i.y.u.i.u.i.f.u.i.u.p.d.p.d.f.p.p.f.i.a.p.f.$Xd.i.u.i.f.f.f.f.f.&Xf.f.f.u.u.i.i.i.i.a.u.i.f.f.i.i.f.f.i.f.f.f.f.i.f.i.p.a.u.d.f.p.u.u.i.5.y.6.u.i.$Xd.d.u.a.p.i.u.y.a.p.u.y.u.p.d.d.a.u.u.a.u.y.6.u.f.d.d.y.d.p.u.p.u.u.y.u.u.u.u.9.u.y.u.p.p.u.i.u.u.9.i.y.u.9.9.u.a.u.6.5.9.5.5.u.5.y.y.5.3.y.y.9.3.3.3.y.y.9.y.9.u.u.u.9.9.6.9.y.5.5.y.y.u.u.i.6.3.3.6.5.u.u.y.5.5.6.3.6.y.5.9.3.y.9.6.6.5.6.y.u.p.y.5.5.9.9.2.9.2.9.3.3.9.9.9.6.6.6.3.2.6.6.3.3.5.3.6.u.9.3.6.6.3.3.5.6.3.3.3.2.3.3.6.3.3.2.3.2.2.2.4.2.",
"d.p.f.p.u.i.y.y.d.f.p.f.p.f.d.d.d.f.p.f.$X$Xf.i.f.$Xd.d.f.d.i.d.f.u.9.f.$Xp.f.$Xd.d.d.f.p.f.f.f.&X&Xf.a.f.f.f.a.a.p.a.d.f.$Xf.p.$X&X&X$X$X&X$Xd.f.f.f.f.f.f.&Xf.f.i.i.i.&X&Xf.i.i.a.f.i.i.f.f.f.f.f.f.f.f.f.&X&Xf.f.f.f.a.f.a.f.f.f.i.a.f.i.i.f.f.f.f.f.f.f.f.h.f.i.i.i.f.f.f.f.a.f.f.f.f.f.f.f.f.f.*Xf.f.f.i.f.f.f.f.i.a.a.f.h.f.f.f.f.f.f.f.h.&X&Xf.f.f.f.f.f.f.a.f.f.h.f.f.i.i.u.a.u.a.a.a.f.f.&Xf.f.i.f.y.u.g.&Xi.i.&Xf.f.f.f.f.a.f.&Xf.y.i.&Xi.i.i.a.i.a.i.f.h.f.i.f.f.f.i.i.f.f.f.f.i.a.a.f.f.f.&X;X;X;X=X&Xh.f.h.&X&X&Xf.h.f.f.i.a.i.f.f.i.f.i.h.f.f.f.f.h.&Xh.f.f.f.f.f.f.f.f.f.f.f.h.f.&Xf.f.f.f.f.f.f.f.h.&Xf.f.f.f.u.f.f.f.f.f.h.f.&X*X&Xi.f.h.f.f.f.f.&Xf.f.f.u.a.i.a.f.f.h.f.f.&X&Xf.a.i.a.f.h.f.i.a.f.f.f.f.f.a.i.a.f.f.a.f.f.f.h.&Xf.f.f.f.f.f.i.a.f.i.u.f.f.u.i.i.i.f.f.a.a.f.f.*Xu.u.f.a.f.f.f.a.i.i.f.f.u.y.f.i.i.u.u.y.a.f.&Xf.f.i.i.f.i.i.u.y.i.i.y.y.a.f.i.f.f.a.y.i.f.f.f.i.y.i.i.f.f.a.f.i.i.i.a.p.u.i.f.d.f.f.i.i.i.i.f.g.i.f.f.f.f.i.f.p.i.i.u.a.i.i.i.y.y.u.y.i.y.u.f.f.f.i.i.f.i.a.y.y.u.y.y.a.f.i.p.5.9.u.i.u.u.y.p.u.u.p.i.p.y.9.5.y.u.i.a.i.u.i.i.f.f.f.=X&X*X&Xh.f.d.d.a.u.a.u.i.p.u.y.5.u.9.u.a.i.u.p.i.u.9.p.u.i.y.9.y.u.u.u.i.y.9.9.9.3.y.u.y.6.9.9.9.y.y.9.9.9.5.y.9.i.u.u.y.5.6.y.u.9.9.y.y.5.y.u.y.3.6.3.9.3.5.5.y.y.5.5.y.5.6.6.3.u.d.y.9.y.5.5.u.u.y.y.u.9.5.5.y.6.9.5.6.6.3.3.5.9.u.u.u.3.3.3.3.3.4.4.6.6.3.5.9.5.6.5.3.6.6.6.4.3.3.6.4.4.4.6.3.4.4.4.3.",
"$Xa.d.d.f.f.y.y.a.f.f.u.p.u.p.u.p.f.d.d.&X$Xf.p.f.d.p.u.d.p.i.d.d.f.i.d.f.f.f.f.p.i.f.f.p.f.f.d.f.f.f.p.d.d.$X&Xa.u.y.u.p.f.f.d.&X&X*X&X$X&Xf.d.f.f.f.f.f.f.&Xf.$X&X;X&X&Xy.i.f.f.f.f.i.i.f.f.f.f.&Xf.f.f.f.f.f.f.f.f.i.f.f.f.i.y.f.f.f.f.a.i.f.f.f.f.f.f.f.&X&X&Xf.f.i.f.i.f.i.f.f.f.f.f.f.f.f.i.f.h.f.f.i.u.f.f.f.f.f.a.a.f.f.f.f.f.f.i.f.f.f.f.f.f.f.i.y.i.f.f.f.f.&X&Xf.f.i.a.i.f.i.f.f.f.f.f.h.f.f.u.i.i.f.d.&Xf.f.*Xf.i.a.i.u.i.f.&Xf.i.i.f.f.=X=X&Xa.f.f.f.f.f.a.f.f.f.f.f.f.f.f.&Xf.f.f.f.f.&X&Xf.f.f.f.f.f.f.f.f.f.f.f.f.f.h.h.&Xf.f.f.f.f.a.f.a.i.i.i.&Xh.&Xf.&Xh.f.f.f.f.f.f.f.f.&Xf.f.f.f.f.f.f.f.f.f.&X&Xf.&X=X&Xf.f.f.f.f.f.f.f.f.f.f.a.f.f.f.f.f.f.&X&Xh.f.f.f.f.f.f.f.f.a.a.h.f.f.f.i.u.i.f.a.i.a.f.a.f.f.f.f.&Xf.f.f.a.a.f.f.i.i.y.y.a.f.h.&Xi.i.f.f.f.h.&Xf.h.f.f.f.a.a.i.f.h.f.i.i.f.f.f.f.&Xf.f.i.f.a.y.i.f.a.f.a.i.y.y.y.y.i.i.u.y.a.i.i.y.y.i.i.u.y.u.f.u.u.i.y.6.t.i.f.f.f.i.f.f.f.f.f.&Xf.f.f.a.p.y.i.f.f.d.i.u.y.y.u.a.u.y.f.f.f.i.u.f.a.u.u.y.d.f.a.i.u.i.f.i.f.f.g.f.a.a.i.i.f.i.i.y.f.a.i.i.i.u.5.y.p.9.u.5.u.u.u.p.p.p.a.u.i.u.i.p.i.i.f.f.f.u.u.y.y.i.u.f.u.i.u.u.d.p.p.a.p.f.u.a.a.u.y.u.p.u.i.a.u.i.u.u.9.5.u.y.9.u.u.9.y.y.y.y.u.u.u.9.6.9.9.6.6.5.6.9.y.u.6.3.9.9.y.y.u.y.u.u.5.5.y.y.5.6.5.6.9.y.y.y.5.5.5.u.y.u.u.a.y.5.4.4.u.y.u.y.y.i.5.5.5.9.9.y.5.y.y.y.6.6.9.y.6.6.5.6.y.9.5.y.y.9.9.y.5.5.5.5.5.5.6.6.3.3.3.6.5.5.5.3.3.6.6.3.3.3.6.3.4.4.3.3.3.3.3.3.",
"a.a.a.d.$Xf.p.p.i.a.d.f.d.p.f.d.d.d.f.d.f.d.d.d.p.d.u.u.p.p.f.f.f.f.$Xd.p.$Xf.f.p.p.d.d.p.i.f.f.a.d.f.a.a.u.a.$Xu.u.u.a.f.f.d.d.f.f.&Xf.f.*Xf.f.&Xf.f.f.&X&Xf.a.f.f.f.f.*X&Xf.f.f.f.f.i.i.f.f.f.i.f.f.f.f.f.f.f.f.i.i.a.f.f.i.5.y.f.&Xf.f.f.f.f.f.f.f.f.f.f.&X&Xf.f.f.f.a.i.i.f.f.f.f.f.f.f.f.f.f.&Xf.f.f.f.f.f.f.&Xf.i.i.f.f.f.f.f.f.f.a.f.f.f.a.f.&X&Xf.f.f.f.d.a.f.h.f.f.f.a.i.f.f.h.f.f.a.u.f.f.u.u.i.a.i.i.i.d.f.f.&Xa.u.y.y.y.i.f.&Xf.f.i.f.f.f.f.f.f.f.f.a.f.f.f.f.f.f.f.f.i.i.i.f.f.f.i.y.y.f.h.f.&X&Xi.f.&Xf.f.f.f.f.f.&Xh.f.f.f.f.f.&X&X&X&Xf.f.f.f.a.f.a.f.f.&Xf.h.f.f.f.f.i.a.f.f.f.i.f.f.f.f.f.f.f.f.f.a.f.f.&Xh.f.f.f.h.f.f.f.f.f.f.f.f.f.f.f.f.&Xf.f.f.a.f.f.f.f.h.f.f.f.f.a.f.i.i.f.f.f.a.f.i.u.a.f.f.h.&Xa.a.f.f.f.f.f.a.a.a.u.a.f.a.f.f.f.f.i.u.i.f.f.h.&Xh.h.f.h.&Xf.f.u.y.u.i.i.f.f.f.f.f.f.f.f.f.f.f.a.i.a.f.f.a.u.i.i.a.i.u.i.u.u.a.f.f.f.i.f.i.f.f.y.f.f.u.u.5.y.u.i.f.f.f.f.i.f.f.f.*X&Xf.f.i.f.u.y.f.f.d.a.y.y.i.a.i.i.t.y.f.f.f.i.u.i.f.p.p.u.d.d.d.a.i.f.g.u.f.g.i.g.i.i.i.i.f.y.5.i.i.i.f.f.u.y.5.i.d.9.u.9.p.p.p.a.d.p.a.i.a.f.f.d.f.i.f.a.f.i.a.f.f.u.y.u.i.h.f.u.p.y.u.p.i.p.u.f.a.u.u.p.u.p.p.u.u.p.u.u.y.9.y.y.f.d.a.u.y.9.5.y.9.9.u.y.y.u.9.9.9.y.9.u.y.y.9.6.9.y.y.u.y.9.9.u.y.y.9.5.5.5.9.5.y.y.y.y.9.y.9.u.u.u.y.u.5.5.y.u.5.5.u.y.y.9.u.u.5.y.y.9.5.9.9.5.9.5.y.u.5.5.y.9.6.6.6.5.5.6.6.9.3.3.6.5.5.5.5.3.6.6.3.3.6.6.6.6.3.6.6.3.3.3.6.3.4.4.3.4.4.3.3.3.",
"u.f.p.a.d.i.p.f.f.f.u.d.d.d.p.i.i.u.u.i.u.f.f.f.u.i.i.p.f.d.d.f.f.p.d.=X*Xd.&X=X$X*X$Xd.d.i.d.f.f.d.f.f.&Xd.d.d.a.a.p.a.d.f.f.$Xa.p.d.d.f.$Xa.i.f.f.f.f.&X&X&Xf.&X&X&X&X&X&Xf.i.f.f.f.f.i.f.f.&Xa.f.f.f.&Xh.&X&Xf.&Xf.&X&Xf.g.y.a.f.f.f.f.f.f.f.i.i.f.f.i.f.h.f.i.i.f.f.f.f.f.f.f.f.f.y.f.i.f.f.f.*Xa.f.f.f.f.f.f.&Xf.f.h.=Xf.f.i.f.&Xf.f.f.f.f.f.f.f.f.f.f.f.f.a.u.i.f.f.f.f.f.f.&Xf.h.a.f.f.a.f.h.&X&X$Xf.f.f.f.i.f.f.f.i.f.f.i.i.a.i.f.f.f.i.f.f.i.f.f.f.f.i.i.f.f.f.&Xf.f.&Xa.i.f.f.&X*Xf.f.a.a.&X&Xa.f.&Xi.f.&Xh.f.f.f.f.f.h.h.f.f.i.a.a.f.h.f.*Xf.f.h.f.f.f.a.f.&Xh.a.f.f.f.f.f.a.f.f.f.f.f.&Xf.f.f.f.f.f.h.f.a.f.f.f.f.f.i.f.h.f.f.f.&Xh.f.&X=Xf.f.f.f.f.a.h.&Xf.a.a.i.f.f.f.f.f.f.i.u.t.u.f.f.f.f.h.f.u.f.a.i.f.f.i.f.&Xf.y.u.a.u.u.f.i.f.&Xf.f.f.a.a.f.a.u.i.f.f.f.a.i.u.f.i.a.i.i.u.f.f.f.&Xf.f.f.f.f.f.f.f.f.i.i.i.y.i.i.f.f.h.f.a.u.a.a.y.i.i.a.a.f.f.f.a.f.f.f.f.u.f.i.y.f.f.i.f.i.a.i.y.f.f.f.&Xi.i.y.y.f.y.a.f.f.a.p.y.i.f.f.u.t.y.i.f.a.i.u.u.u.d.d.d.i.p.u.p.a.f.f.i.y.g.i.u.i.f.f.a.f.i.5.4.i.5.u.f.f.f.f.i.i.u.6.u.u.a.a.u.y.i.i.d.d.f.f.d.i.y.u.y.a.u.f.f.f.f.f.&Xi.5.5.u.f.p.f.$Xp.y.a.u.d.p.y.9.u.9.i.p.u.u.p.u.i.i.p.u.u.y.9.9.i.u.5.5.p.u.y.u.9.u.y.y.u.9.5.5.y.5.y.9.6.5.u.u.a.9.9.5.y.9.9.5.6.9.u.u.u.y.y.u.y.u.u.y.y.y.y.u.a.y.y.y.u.5.3.6.6.y.y.i.9.y.y.y.5.9.6.9.u.u.5.6.5.3.5.9.5.6.6.5.9.5.5.9.u.3.3.6.5.6.6.5.3.6.9.5.5.5.6.3.6.5.6.5.3.3.4.3.3.3.4.4.4.4.6.3.3.",
"i.$Xf.f.d.f.a.y.u.i.d.f.d.f.p.f.f.y.d.p.9.p.p.d.d.9.f.p.p.f.$X#Xf.u.u.d.d.d.a.d.f.d.a.i.f.a.a.$Xd.d.p.#X$X=X$Xp.y.f.i.y.f.f.f.f.a.f.i.a.f.&Xf.i.f.f.i.f.f.f.i.i.f.f.f.f.i.i.f.a.a.f.f.&Xf.i.i.f.a.f.&Xf.f.f.i.a.f.f.f.&X&Xf.f.f.f.f.f.f.f.f.f.f.a.i.f.&Xf.f.&Xf.f.f.i.f.f.f.a.f.f.f.f.f.f.a.i.f.f.f.f.f.f.f.&X&X&Xf.i.f.f.f.f.f.f.f.f.f.f.f.i.f.f.f.i.i.i.f.f.f.f.f.f.f.f.f.h.&X&Xf.f.f.a.f.u.a.a.f.f.f.a.a.f.a.f.a.f.f.u.f.&Xi.i.f.f.f.y.f.;X-Xf.f.*Xa.f.f.f.&X;X*Xf.&X-Xf.f.f.i.y.f.f.&Xf.i.i.i.f.&X&X&Xf.f.=X-X&X&Xi.f.f.u.f.f.h.f.f.f.a.f.i.a.h.f.f.f.a.f.f.f.f.f.&Xf.i.i.f.f.f.f.h.f.&X&Xf.f.f.i.f.f.a.i.f.f.f.f.f.&Xf.f.&Xf.f.f.f.f.f.f.f.f.f.f.f.f.f.f.f.a.f.h.f.f.f.a.a.f.f.a.f.a.a.a.a.i.a.a.a.f.f.f.y.i.a.u.i.f.a.i.i.u.f.h.h.f.h.&Xf.f.*X&Xi.f.f.f.*Xf.u.y.u.f.a.u.f.u.u.f.f.f.f.y.a.y.u.f.f.f.f.f.f.f.f.f.i.u.a.a.i.a.i.y.i.i.f.i.u.i.i.y.i.f.i.f.f.f.f.f.&X&X&Xf.f.f.a.a.i.f.f.i.u.f.t.u.i.u.u.f.u.u.i.a.a.i.i.f.f.f.a.i.i.f.f.a.i.u.u.f.u.g.u.u.i.f.f.d.i.u.y.u.i.f.f.i.f.f.y.u.i.i.f.i.y.5.u.5.i.9.y.y.5.y.i.i.y.i.f.i.y.y.y.i.y.i.y.f.f.u.p.d.p.u.i.g.i.i.f.f.f.i.i.f.u.i.5.y.y.y.i.y.y.y.u.u.p.p.y.y.5.u.u.i.y.u.9.9.u.u.u.u.y.9.5.5.p.u.u.u.u.9.5.u.a.3.y.u.y.6.5.9.5.y.y.9.6.9.9.6.u.6.y.5.3.5.6.y.y.9.3.5.y.5.9.u.5.y.p.u.y.y.u.u.u.a.u.3.3.9.5.5.5.y.u.y.5.u.y.u.u.5.6.y.y.u.y.9.5.6.5.5.5.9.9.5.9.y.5.i.y.6.6.6.6.3.5.9.6.5.6.6.9.5.3.3.3.5.6.6.3.4.4.3.3.3.3.4.4.4.6.3.4.",
"f.f.a.p.a.y.9.f.$Xu.6.3.9.p.p.i.u.p.d.u.y.f.d.u.d.p.p.a.f.d.d.$Xd.d.d.d.f.$Xf.p.$Xu.f.a.&Xu.p.f.a.a.f.#X$Xf.a.u.y.i.y.y.f.&Xf.f.&Xf.i.a.f.f.f.a.f.f.f.f.f.f.f.f.f.f.f.f.f.f.f.a.a.f.f.f.f.f.f.f.f.h.f.a.f.f.f.f.&Xf.f.f.&X&Xf.f.f.f.f.f.f.f.f.h.u.a.f.f.f.f.&X&Xf.&Xf.f.f.f.f.f.&Xf.a.f.f.f.i.f.*Xf.a.f.&X&Xf.f.f.f.a.f.a.i.f.f.f.&Xf.f.f.f.f.f.f.i.y.y.f.f.f.y.f.f.h.h.h.f.h.&Xh.f.h.&X&X*Xf.f.f.i.i.&Xf.f.i.f.&Xf.&X&Xf.f.&Xf.f.&Xf.f.&Xf.f.f.*X&X&Xf.h.f.f.a.i.f.f.f.&Xf.f.i.a.i.i.f.f.f.a.f.f.i.i.f.&Xf.f.h.f.a.f.y.f.f.i.f.f.f.f.a.a.f.h.f.h.&Xh.&Xf.i.a.h.f.f.f.a.f.f.f.f.i.f.f.f.f.f.f.i.f.f.u.f.f.f.i.f.f.&Xf.f.f.f.f.&Xf.f.f.f.f.f.f.i.f.a.f.f.&X&Xf.i.f.f.a.i.a.f.i.a.f.h.f.h.a.a.a.a.a.a.u.y.f.h.f.f.f.f.i.i.u.u.a.f.i.a.i.a.a.f.f.u.u.u.u.u.f.a.u.f.u.u.u.u.f.f.u.f.f.a.i.a.a.f.u.i.i.u.f.f.f.f.f.f.a.a.i.f.u.a.f.f.f.a.i.u.i.a.f.f.i.f.f.f.a.i.f.i.a.i.f.u.f.f.f.u.u.u.u.u.i.i.y.t.5.3.t.f.y.y.u.f.u.a.a.f.f.f.f.a.f.a.f.a.f.a.f.f.y.i.f.g.f.f.g.i.f.f.a.i.i.i.i.f.f.f.f.f.f.i.i.y.5.f.u.u.y.y.a.5.i.9.y.i.a.u.i.f.f.f.i.i.a.i.y.y.u.u.d.f.&X$Xf.f.u.g.t.u.i.i.g.u.i.u.i.t.u.y.i.f.y.p.d.p.u.y.u.a.9.u.u.d.a.9.y.u.u.y.y.u.u.y.9.6.9.5.6.y.9.5.9.6.6.6.5.u.9.u.y.p.5.9.y.y.5.6.5.u.u.y.6.y.5.5.6.3.5.6.u.u.u.5.5.u.u.5.5.y.y.y.9.y.y.u.5.6.5.5.5.y.6.5.6.3.5.u.u.9.u.y.9.y.y.y.y.5.u.u.y.9.y.y.y.6.5.6.6.5.9.3.5.6.3.6.9.y.9.9.5.3.3.3.4.6.5.6.5.5.6.5.6.4.4.3.6.3.4.6.6.4.4.4.4.3.",
"$Xa.u.u.y.i.a.u.f.p.u.u.i.a.f.u.i.a.f.i.d.i.i.u.i.f.p.d.d.i.9.f.p.f.*X$Xf.a.i.f.f.9.f.$X*Xd.$X&Xu.p.d.d.$Xa.a.a.i.a.a.u.f.&Xf.f.f.f.f.f.a.i.i.f.f.f.f.f.f.&X&Xf.&Xf.f.f.f.f.i.y.f.f.f.f.f.f.f.f.&Xf.f.i.i.i.u.i.f.f.f.f.&X&Xf.f.i.f.f.f.f.f.f.f.a.f.f.f.f.&Xf.&Xf.f.f.f.f.f.f.&Xf.f.i.f.f.f.i.i.f.f.i.a.f.i.i.a.i.f.&X&Xf.f.f.f.a.f.f.f.f.f.f.f.f.i.i.i.f.f.f.i.i.a.f.f.a.a.f.f.&Xf.f.i.f.h.h.f.h.f.i.a.f.&Xa.f.&Xf.f.f.f.f.f.i.f.f.f.f.&Xf.a.u.a.f.i.i.i.f.h.f.&X&Xf.u.i.f.&X&Xf.a.i.f.a.f.f.f.f.i.i.f.=X&Xf.f.f.i.f.f.&Xf.y.y.f.f.f.a.f.&X&X&Xh.f.&X*X&Xf.f.-X&X&Xf.a.f.f.i.a.f.f.f.f.a.f.f.f.i.f.f.f.f.f.f.&X&Xf.f.f.f.f.f.i.f.f.a.f.&X&Xf.a.f.f.i.i.f.f.a.f.&Xf.f.a.f.f.f.h.f.f.a.f.a.f.a.u.u.a.f.a.&X&Xa.f.f.f.f.h.f.i.a.a.a.a.u.a.i.i.f.a.a.i.i.u.i.a.i.u.a.h.f.f.f.f.y.a.f.f.a.i.u.u.u.u.u.u.i.a.i.f.f.f.f.i.i.f.u.i.i.f.f.f.f.f.f.i.f.i.f.f.f.f.y.i.a.y.y.5.y.i.f.h.f.f.f.h.h.h.&Xh.a.a.u.u.u.u.u.u.i.a.u.i.i.f.f.f.f.i.f.i.i.i.f.y.i.f.i.a.y.i.i.f.g.i.a.i.i.i.i.i.i.a.i.p.p.f.f.f.f.i.u.g.u.y.y.y.f.y.p.a.i.i.5.5.u.f.f.f.&X&Xf.u.y.i.9.u.u.u.f.$Xd.&Xh.h.u.u.i.i.i.u.i.f.f.f.a.i.u.u.y.y.p.i.u.y.u.i.y.u.9.f.p.9.y.u.y.y.9.5.5.9.u.u.y.u.u.u.9.5.y.9.5.9.5.9.u.y.6.y.y.y.y.y.5.3.5.i.9.9.5.y.y.6.6.5.y.9.y.5.9.6.6.u.u.y.5.u.y.y.5.y.5.y.5.3.5.5.6.y.5.3.3.5.5.5.5.y.y.u.y.y.y.y.9.5.4.5.y.9.6.6.9.5.y.5.6.5.6.4.3.3.6.9.y.y.y.5.5.6.3.3.4.4.6.3.6.6.5.6.6.6.6.4.4.6.5.6.3.6.6.6.3.4.",
"&Xu.u.d.f.&Xf.u.y.d.f.f.i.y.i.p.f.a.f.f.d.y.i.d.f.$Xi.d.$Xf.u.u.f.d.d.f.f.f.f.d.d.p.f.&Xf.d.f.d.u.i.a.p.p.y.u.a.f.f.&Xf.i.f.f.f.f.f.f.f.f.f.f.f.f.i.i.i.f.&Xf.f.f.f.f.f.f.f.f.f.f.f.f.f.f.a.a.f.f.f.f.a.a.i.t.y.a.f.&X&X&Xf.f.i.a.f.f.f.f.f.f.f.&Xf.f.f.f.h.f.f.f.f.a.f.f.h.f.f.f.f.f.f.f.f.f.f.f.f.f.f.a.i.i.f.a.f.f.f.&Xf.f.f.i.i.i.f.f.f.a.f.f.f.f.f.a.i.f.f.a.a.a.a.a.f.f.h.f.f.f.i.f.h.&Xf.f.f.u.y.u.&Xu.f.f.f.f.f.f.a.i.i.f.i.f.i.f.f.f.f.u.f.f.f.a.h.&Xf.f.i.i.f.f.f.i.i.i.i.i.a.f.&X&X&Xf.f.f.&X&Xf.f.f.&Xf.f.f.f.f.i.f.a.i.f.f.h.*X*X*X;X*X;X*X&Xa.u.f.f.a.f.a.f.f.y.f.i.i.f.f.f.f.h.f.f.=Xf.f.i.u.i.f.f.i.f.f.f.&Xh.f.f.f.i.f.&X&Xf.f.f.f.f.f.f.f.a.f.h.f.f.a.f.f.f.h.f.f.u.f.f.f.a.i.i.i.a.a.f.h.u.f.a.a.h.-X&Xf.f.a.u.u.a.f.f.f.f.f.f.f.h.a.i.f.f.u.a.f.i.f.f.f.t.f.i.f.a.i.u.y.u.u.i.u.u.i.i.a.f.f.f.f.i.f.u.i.i.a.f.f.f.i.i.i.f.f.f.a.f.f.y.u.i.f.i.u.u.f.a.a.y.i.f.f.f.a.a.f.u.i.i.a.u.5.f.f.f.i.f.u.y.a.f.a.a.a.f.a.i.i.f.i.i.i.f.f.y.u.i.i.g.i.i.i.i.u.i.u.u.i.f.f.f.&Xf.f.f.a.f.u.i.y.y.a.p.d.u.u.5.5.5.f.i.5.f.f.h.f.f.f.u.y.i.p.u.y.u.u.y.f.f.y.g.y.i.f.u.a.i.f.i.f.i.a.a.a.p.y.p.p.p.i.a.p.u.u.y.a.u.9.9.u.y.u.u.u.y.u.u.y.5.9.u.9.5.3.9.y.5.5.5.5.u.y.5.y.y.y.y.9.5.5.5.5.6.5.5.y.u.6.5.u.6.5.y.5.9.3.4.6.y.y.5.u.u.y.y.u.5.y.u.u.u.9.5.5.u.5.5.u.u.y.y.u.y.u.y.5.y.u.5.5.6.6.5.5.5.9.u.u.5.3.6.3.6.3.5.5.5.y.5.5.5.5.6.5.5.3.4.4.3.4.4.4.4.5.5.4.3.5.6.3.3.4.4.3.4.4.3.4.",
"p.d.u.p.*X$Xu.f.p.*Xd.p.d.i.u.p.i.f.f.f.y.i.f.a.f.&Xf.i.u.9.i.i.u.i.&Xf.i.f.f.f.f.&Xf.*X&Xf.&Xf.f.f.f.d.u.y.y.p.i.i.&Xf.f.f.f.f.&Xi.f.y.f.f.&Xf.i.i.f.f.f.f.f.f.f.f.f.&Xf.f.a.i.f.f.f.f.f.f.f.&Xf.f.f.f.f.f.a.i.f.f.&X&X&Xf.f.a.f.f.f.f.f.f.f.&X&Xf.f.&Xf.f.f.&Xf.f.f.&Xf.&Xf.f.f.a.f.f.f.f.&X&Xf.h.&Xf.f.f.f.i.f.f.i.i.f.f.f.f.f.i.i.f.f.a.i.f.f.f.f.f.f.f.f.f.f.a.i.a.f.f.f.f.a.f.f.a.f.f.*Xh.f.a.i.f.f.f.y.f.i.i.i.i.i.y.y.y.f.f.i.y.&Xh.i.f.f.h.f.f.a.h.a.a.f.i.u.a.f.f.a.f.f.f.f.f.&X&X&Xh.$X$Xf.d.u.a.p.p.d.a.d.f.d.d.f.&Xh.f.f.f.f.f.u.i.a.i.f.f.f.f.u.a.f.f.h.h.&Xh.f.&Xf.i.a.f.f.f.&Xf.f.f.i.i.i.f.f.f.u.i.f.h.f.f.&X&Xh.f.f.f.&Xf.a.f.i.a.f.f.&X*Xf.i.f.f.f.a.f.h.f.f.f.f.f.f.a.f.f.f.f.u.i.f.f.&Xi.a.f.a.f.&Xf.f.f.f.f.u.y.i.a.a.f.f.u.y.a.f.f.f.f.a.f.&Xa.h.a.u.3.u.a.f.u.u.f.f.f.i.f.i.i.i.u.i.f.f.f.f.f.f.u.a.f.f.i.a.u.u.y.i.a.a.i.a.f.i.y.u.y.f.f.a.f.u.i.i.f.a.f.f.a.i.a.f.i.a.a.f.i.f.f.a.5.u.i.i.u.f.h.f.a.u.i.p.i.u.f.f.i.u.u.i.y.y.u.y.u.y.u.u.u.i.u.u.u.u.i.u.f.&Xf.f.a.i.i.t.u.y.y.f.5.a.a.d.a.f.f.a.u.i.i.u.u.u.5.y.5.5.a.y.u.a.a.u.y.a.i.t.f.f.u.f.u.u.f.f.y.i.i.i.y.5.i.u.u.i.y.y.y.u.u.u.f.a.u.y.y.u.u.u.u.u.u.p.a.u.9.5.5.3.6.6.9.y.y.5.y.y.y.y.y.y.u.y.5.5.5.5.y.y.5.5.5.5.y.3.5.y.3.5.y.3.9.5.3.5.5.5.5.u.a.5.u.a.5.5.y.y.5.5.6.5.5.5.5.5.5.y.y.5.5.y.y.y.5.y.5.5.y.3.3.5.5.5.5.5.5.3.5.3.3.6.y.5.5.y.5.5.y.5.3.5.6.3.4.3.3.3.6.3.5.3.4.4.3.4.3.y.y.4.4.3.5.5.5.3.",
"p.f.p.u.d.a.u.d.p.f.u.u.f.f.u.u.u.a.i.i.i.f.f.i.6.i.&Xf.i.y.d.d.f.y.f.f.f.f.f.i.u.f.f.f.&Xa.h.f.f.d.a.f.i.i.u.i.i.y.f.f.f.f.f.f.f.y.f.5.y.i.f.f.a.f.f.&Xf.f.f.&Xy.y.u.f.f.f.a.i.i.i.i.i.i.a.f.f.f.f.f.f.f.f.f.f.f.f.f.f.f.f.f.f.f.f.f.f.f.f.f.f.f.f.f.f.f.f.f.&Xi.f.f.f.i.i.a.f.f.i.a.f.f.f.f.f.f.f.f.f.f.f.f.y.f.f.f.f.f.f.f.f.f.f.f.f.f.f.f.f.a.a.f.f.f.f.f.f.f.i.i.a.f.a.i.i.f.f.a.u.i.i.h.f.f.f.f.f.f.f.i.f.f.f.f.f.f.i.i.f.f.i.a.u.h.a.u.f.&Xf.f.a.u.u.i.&Xf.f.f.f.u.i.f.f.&Xf.f.f.f.f.f.f.d.$Xf.f.a.$Xf.f.f.d.$X&Xf.a.p.a.i.u.i.f.f.f.f.f.f.f.h.h.&X&Xa.u.i.a.f.f.f.f.f.a.a.i.f.&X&Xf.f.i.f.f.i.f.f.f.f.f.a.f.f.f.f.f.f.f.f.f.f.&X&Xf.a.f.f.f.h.f.&X&Xf.f.f.a.i.u.f.*Xh.f.f.h.f.h.f.f.f.f.f.i.a.f.i.f.i.f.f.a.i.a.a.a.f.f.h.f.u.u.u.u.a.a.a.i.f.f.h.*Xh.a.i.&Xh.*Xf.f.f.&Xf.a.u.y.a.f.f.a.&Xh.f.f.f.f.f.f.f.f.f.f.u.a.a.a.i.f.i.a.u.f.i.u.u.i.u.u.u.a.t.t.&Xf.h.a.a.a.i.a.f.f.a.i.a.f.u.u.u.i.u.u.i.a.i.f.f.f.u.y.u.f.&Xa.y.u.i.u.a.a.a.i.i.a.i.u.i.i.a.f.a.a.a.a.i.u.u.u.5.t.u.u.u.i.i.i.f.&Xf.f.i.f.y.u.a.u.u.f.&X*X*X=X&Xf.f.i.y.t.u.a.y.5.y.u.u.a.u.y.f.f.a.*Xt.i.u.u.y.i.5.i.i.a.i.y.f.f.i.f.u.i.u.u.d.u.f.y.u.u.y.u.a.u.y.y.y.a.f.f.a.i.u.6.5.5.y.u.y.y.u.y.3.5.y.6.9.6.5.u.a.a.y.5.y.5.3.3.y.5.y.5.5.9.y.3.5.9.5.y.y.5.5.5.u.y.u.u.y.y.y.y.y.y.u.u.y.y.y.y.y.y.y.y.5.y.a.a.5.y.3.u.y.y.u.a.y.3.3.5.5.5.y.6.6.5.y.5.y.5.5.5.5.5.5.5.3.3.4.3.5.5.y.y.5.5.3.4.4.5.6.3.4.4.4.4.3.3.3.3.",
"*Xi.u.d.d.p.f.f.$Xd.p.p.f.d.f.f.i.g.i.u.f.f.y.f.=X$Xf.y.u.f.f.i.f.u.a.f.f.i.u.f.f.f.&X&X&Xf.f.u.i.y.u.f.i.p.i.y.a.i.i.f.f.i.i.f.a.u.f.f.y.i.i.f.f.f.f.&Xf.&Xf.f.&Xi.u.u.y.f.i.a.f.f.i.i.f.f.f.i.f.f.f.f.f.f.f.f.f.f.f.f.f.f.f.f.f.f.&X&Xf.f.f.y.f.f.f.f.f.f.f.f.f.f.f.f.f.f.f.&X&Xf.h.h.f.f.f.i.f.f.f.f.f.f.f.f.f.&Xf.f.f.f.f.f.f.f.f.f.f.f.h.f.i.i.f.f.f.f.f.f.f.a.f.a.a.i.i.a.f.h.f.h.f.f.f.a.a.a.f.i.a.i.a.a.f.f.f.f.f.i.i.a.i.y.a.a.f.u.f.f.&X*X*X*Xh.i.h.&X&X*X&X&Xa.f.*X&Xi.i.i.f.f.a.f.f.d.$Xf.*Xf.*X&X$X*X&Xf.f.p.f.f.p.i.i.i.a.a.i.a.f.a.f.f.f.f.a.i.u.u.a.a.h.f.f.*Xa.f.f.f.f.f.f.&Xf.i.f.f.f.f.f.&X&X&Xh.f.f.f.&Xf.i.f.f.f.f.f.f.f.f.f.*X=X&X&Xf.f.f.u.u.u.u.f.h.f.f.f.f.a.f.f.f.a.u.a.f.u.i.t.u.y.a.a.f.a.a.f.a.f.a.u.i.f.h.f.u.i.u.&X&X&Xf.f.*Xh.i.y.a.i.a.u.u.a.f.f.a.i.u.a.i.a.f.f.a.f.a.u.u.i.u.f.f.f.f.i.i.u.u.a.a.i.u.i.h.h.f.i.i.y.f.a.f.i.y.u.y.y.f.a.f.i.f.f.f.a.a.a.a.u.u.a.i.i.5.y.y.i.u.y.a.a.f.f.f.f.y.a.a.a.p.a.a.a.a.i.i.u.u.u.a.i.f.a.f.f.f.i.u.u.i.a.i.u.y.y.u.u.u.f.&Xu.u.y.y.y.9.y.u.a.u.u.a.f.&Xh.f.y.u.u.u.u.u.u.u.u.9.5.u.y.3.u.f.t.i.5.u.u.i.f.f.i.i.5.5.u.i.u.i.i.i.a.a.u.u.f.u.u.9.y.a.u.u.a.u.u.p.p.i.u.y.a.a.p.y.5.9.5.u.9.9.y.y.3.y.9.9.a.y.3.5.y.u.u.u.y.5.3.5.y.y.u.y.5.5.y.5.y.5.5.5.y.u.y.5.5.u.y.5.y.5.9.y.u.y.y.y.y.5.5.y.y.5.5.y.u.5.9.u.9.u.5.y.y.3.6.y.y.5.3.3.3.3.y.5.5.y.u.u.y.5.5.5.3.3.5.5.4.3.3.3.6.5.y.y.y.5.5.5.5.3.4.4.3.4.4.4.5.y.6.3.",
"u.p.i.u.i.d.d.a.f.y.p.p.u.i.p.a.i.f.f.t.f.i.6.f.f.d.y.y.g.f.d.f.i.f.i.y.f.i.y.f.f.a.*X*Xf.-Xf.y.d.u.d.f.d.f.f.y.i.i.a.f.f.y.y.i.f.i.a.f.y.f.i.f.f.&Xf.=Xf.&Xf.&Xf.f.f.f.f.f.f.f.f.i.u.a.f.&Xf.f.f.f.f.f.f.h.=X*Xf.f.h.&X&Xf.a.f.f.f.h.f.i.f.&Xi.f.=X&Xf.f.f.i.f.f.&Xf.f.f.f.a.&X*Xf.&Xf.f.a.f.f.f.f.f.f.f.f.f.f.f.&Xf.y.a.f.&X&Xf.f.f.f.f.f.f.i.f.f.f.f.f.f.f.f.a.a.a.a.u.u.i.f.&X&Xa.f.f.f.f.f.f.u.i.f.&Xi.f.f.f.i.i.f.f.f.f.a.u.a.f.i.*Xh.f.f.f.*Xh.f.f.i.*Xa.u.a.i.&Xf.f.&Xf.f.f.f.&Xf.f.f.f.&X&Xf.$Xu.f.d.f.f.d.p.f.d.&X&Xf.u.a.u.i.u.u.i.a.i.f.i.a.f.a.f.f.f.f.h.-Xh.i.h.u.f.f.&Xf.f.&X=Xf.&Xf.i.f.a.f.f.f.f.f.f.f.f.&Xh.f.f.f.f.f.f.f.f.&X&X&Xf.y.u.f.f.f.u.a.h.h.f.f.a.h.a.f.a.f.i.i.i.i.a.f.y.f.h.h.u.y.a.h.f.i.a.i.a.i.t.u.i.f.f.a.f.a.a.a.f.f.a.a.u.u.i.y.y.a.f.a.h.h.f.i.a.i.&Xh.f.f.f.f.f.f.i.i.a.i.i.i.i.f.a.i.u.i.i.i.a.u.f.f.f.u.u.u.y.h.u.u.f.&Xa.i.a.u.a.f.f.a.i.a.a.i.a.f.i.i.a.u.u.a.y.y.y.u.u.u.i.f.f.a.i.u.a.p.p.u.d.p.u.u.y.u.u.a.u.f.u.f.u.i.f.f.a.a.a.f.f.i.i.i.f.a.y.u.i.y.t.u.u.y.a.u.a.a.f.a.f.a.a.u.u.f.u.y.u.u.u.y.p.u.p.a.a.u.u.a.u.i.y.5.u.u.t.y.y.i.y.u.y.5.i.y.5.i.f.a.f.u.u.i.u.u.u.p.u.u.y.y.p.u.u.p.i.u.u.u.u.u.y.u.u.u.5.u.u.u.u.u.5.y.5.y.5.y.u.9.5.5.y.5.9.5.5.y.y.y.u.y.5.3.5.5.5.5.y.u.y.9.y.y.5.y.5.u.y.5.5.y.y.y.5.5.5.5.5.y.y.5.5.y.u.3.6.u.3.y.6.u.5.5.5.y.5.3.5.5.5.5.u.5.5.5.y.y.5.3.3.5.3.4.3.3.4.3.3.3.3.3.5.5.5.3.5.6.3.3.3.3.4.5.3.4.4.3.3.5.",
"i.u.u.5.t.u.y.y.i.y.i.y.a.i.f.i.i.i.f.f.f.f.i.g.i.f.g.9.5.i.5.f.f.f.i.y.y.5.y.f.&X&X&Xa.f.f.u.y.i.f.i.a.i.f.a.i.i.a.f.*Xa.&Xf.f.&Xf.i.y.&Xf.y.&Xf.f.&Xf.&Xf.i.i.f.=Xf.i.f.i.a.f.*Xf.f.&Xf.f.f.f.f.f.i.f.i.a.f.&Xf.f.h.&Xf.a.f.f.f.&Xf.f.f.i.f.y.i.&Xf.f.a.i.a.f.&X&Xf.&Xf.f.y.a.f.f.f.f.i.i.f.f.f.f.f.&X&Xf.a.a.f.f.f.a.f.&X=Xf.i.f.=Xf.f.i.i.i.f.f.f.f.f.f.f.f.i.u.f.f.a.f.a.i.f.f.f.h.a.f.f.h.f.a.i.y.f.5.u.f.f.f.f.f.f.f.f.f.i.f.f.i.&Xf.i.a.f.a.h.h.h.h.f.-X*Xf.h.*Xa.&X*X-X*X;X&X&Xf.f.&Xf.f.f.f.h.=X=Xh.f.u.i.i.i.i.f.&Xf.a.&X&X=X&X&Xf.h.h.f.h.a.f.f.f.f.h.f.*X;X&Xf.f.a.f.f.&Xf.f.f.f.f.f.&Xf.f.a.f.f.f.h.f.a.&Xf.a.f.f.h.f.f.&X&Xf.f.&X*Xa.i.f.f.f.h.*X&Xf.f.&Xa.h.f.h.f.h.f.f.f.f.f.&Xf.i.f.*Xf.f.f.i.y.u.&X*Xh.f.i.f.f.a.y.a.f.f.f.u.a.u.y.u.i.i.y.u.f.u.a.i.f.f.u.a.i.u.u.i.i.f.f.u.y.y.u.i.a.a.f.f.f.f.f.f.i.u.a.i.u.i.t.a.f.a.a.u.i.i.a.f.i.t.u.f.f.i.u.u.a.a.i.u.i.u.y.a.a.u.a.u.a.t.u.a.i.f.f.u.5.u.i.f.&Xf.i.&Xa.y.a.y.u.u.f.a.u.i.f.i.y.f.y.f.i.i.f.f.i.f.f.f.f.a.u.u.f.f.a.u.u.u.a.a.a.u.$Xp.a.u.u.a.u.u.u.5.u.5.i.u.y.a.u.u.y.5.y.u.p.5.y.p.5.u.u.a.i.t.u.5.5.5.p.5.9.y.u.6.5.u.a.i.y.y.u.u.u.u.d.u.y.y.a.u.p.u.u.u.u.y.y.y.u.u.a.u.u.p.9.5.5.5.y.y.u.3.y.5.5.5.6.5.3.y.9.6.3.5.u.y.3.u.y.y.y.6.5.u.u.y.5.5.6.y.y.9.y.y.5.t.y.y.9.u.y.u.y.5.5.y.5.5.u.u.3.y.5.3.5.5.u.3.9.u.5.5.5.y.5.u.y.5.5.y.y.3.4.4.4.5.3.6.5.5.5.3.5.5.5.6.3.3.3.6.5.5.3.5.5.5.5.5.5.3.3.3.4.3.3.4.3.3.",
"i.f.a.i.y.i.5.i.i.f.f.i.f.*X&Xi.i.i.g.h.u.g.t.i.u.g.f.&Xf.i.5.u.f.5.y.i.y.y.f.i.f.f.f.*Xf.&Xi.a.i.a.a.p.f.f.i.i.f.f.f.f.f.=X&Xy.f.a.i.5.f.f.i.f.f.&X&Xa.a.a.f.&Xi.f.f.f.f.f.i.f.&Xf.f.&Xf.a.f.f.f.f.i.f.f.&Xf.f.&X=Xh.i.i.f.f.a.f.f.f.&X&Xi.i.u.y.f.f.f.i.a.f.h.f.&Xf.f.f.&Xf.a.i.i.a.i.u.f.f.a.i.i.f.&Xf.a.i.a.f.i.i.f.f.f.f.f.a.&Xf.f.f.f.f.f.i.i.i.f.f.f.f.f.f.u.i.i.i.a.a.a.a.a.a.f.f.f.f.f.a.f.f.&Xi.&Xf.u.f.i.i.i.i.i.f.f.i.u.f.a.a.a.f.i.a.f.h.f.f.h.h.h.;Xh.f.f.f.&Xf.a.f.&Xf.f.f.a.f.f.f.f.f.f.f.f.f.f.i.f.f.&X&Xf.f.a.f.f.f.f.f.f.h.h.*X&X*X*X&Xh.f.h.&X&X&Xh.f.&X&X&Xf.f.f.f.i.i.f.f.f.f.f.f.f.f.&Xh.f.a.a.&Xh.f.f.h.f.f.f.h.f.f.a.f.f.f.f.a.i.f.f.f.&Xf.f.*Xf.f.a.a.a.f.h.a.h.&X&Xf.u.u.f.f.i.f.i.i.f.f.h.h.h.f.a.i.i.f.a.f.i.u.a.f.i.u.i.i.a.i.u.i.f.i.a.a.f.f.u.u.f.f.f.i.u.f.f.a.i.u.u.u.u.i.f.=X*X=X*Xf.y.i.f.a.u.i.y.a.i.a.f.f.&Xf.u.i.i.y.y.y.u.i.u.i.f.a.u.u.a.u.y.u.u.y.u.y.u.y.u.i.f.a.u.u.y.u.u.i.a.a.u.a.a.a.p.y.u.a.a.a.a.f.i.t.y.*Xf.f.a.f.f.a.u.i.a.&Xh.f.f.f.f.a.i.a.a.u.a.a.a.u.f.a.u.y.9.u.y.u.u.u.u.y.u.u.u.a.u.u.u.u.a.a.f.u.u.a.f.f.a.f.a.u.u.u.u.y.u.9.5.u.u.u.u.5.u.a.y.u.u.y.y.y.y.y.y.u.a.a.u.9.p.y.y.y.f.y.u.u.u.p.p.a.i.5.9.5.y.y.u.5.u.y.3.3.3.3.3.y.y.5.5.y.y.9.3.5.y.5.5.5.5.u.u.y.y.y.y.y.y.5.5.6.3.5.y.y.y.u.y.u.y.5.5.y.5.5.y.5.3.5.y.5.y.3.y.4.y.9.y.y.y.5.4.3.6.6.y.y.5.5.3.3.4.3.5.5.5.5.y.5.y.5.9.y.5.5.5.5.5.3.3.5.5.5.5.5.5.3.3.3.3.3.3.4.5.5.",
"u.f.i.f.a.f.y.f.i.i.f.f.i.y.t.f.f.g.g.i.t.g.f.g.u.g.i.f.d.f.f.f.f.y.i.y.y.i.f.f.&Xf.f.f.y.f.a.a.f.f.a.i.f.f.f.*Xf.&X&Xf.&Xf.f.f.f.i.f.i.f.f.a.f.f.f.f.f.&Xf.f.&X&Xf.y.5.f.&Xf.f.f.f.f.h.f.f.f.f.i.i.f.f.f.f.f.f.f.f.f.f.f.&Xf.f.i.a.f.f.f.f.f.f.&Xf.a.f.a.f.&X&Xf.f.h.f.f.&X&Xf.f.i.y.f.i.f.f.f.f.f.f.f.f.f.f.f.f.i.i.f.f.f.f.f.i.&Xu.i.i.i.f.f.i.i.f.f.f.f.&Xf.f.u.u.y.a.i.a.f.f.f.f.f.h.f.f.f.f.f.a.f.f.f.y.f.f.i.u.i.u.i.f.f.f.f.f.f.f.f.f.f.i.f.f.a.f.f.h.g.&Xf.i.u.a.h.f.*Xa.f.f.h.h.f.i.y.u.f.f.f.f.f.f.f.f.f.i.f.f.f.f.f.i.a.f.f.h.h.f.a.u.u.a.f.f.h.f.h.f.f.a.i.a.f.f.f.a.a.f.f.f.f.&X&Xh.f.f.f.f.f.f.a.f.f.a.f.f.f.a.h.f.f.h.h.f.f.f.f.f.h.h.f.a.h.&Xf.f.a.a.&Xh.h.f.a.a.h.&Xf.&X*X&Xf.a.i.f.f.f.f.y.&Xf.i.f.f.f.h.h.f.u.a.a.a.u.y.i.a.i.u.a.i.f.u.u.f.i.i.a.a.f.a.i.f.f.f.f.i.u.i.i.i.i.a.f.h.f.i.f.&X&Xf.f.a.u.i.a.i.i.i.u.u.y.u.i.f.i.i.u.a.i.i.i.i.y.a.t.y.y.y.y.u.u.i.i.a.i.u.u.t.u.y.y.u.a.i.y.u.5.u.u.a.i.f.i.i.d.f.a.a.f.f.i.a.u.u.u.f.f.f.a.f.f.f.u.u.a.a.i.f.f.a.a.f.f.u.u.f.u.t.u.i.u.5.a.f.a.i.u.u.9.5.y.a.u.u.i.a.a.i.u.u.f.a.u.y.u.u.u.u.i.i.u.u.u.u.u.u.f.a.u.u.u.u.u.a.u.t.a.a.y.u.u.u.f.i.u.p.p.p.u.u.u.y.a.&Xa.u.y.3.u.p.i.f.i.u.d.u.y.5.y.5.y.5.y.y.3.5.5.5.3.5.5.3.5.y.5.y.5.5.y.3.6.5.5.5.5.5.5.y.y.u.y.9.y.5.5.5.5.y.y.y.5.y.y.y.5.y.5.9.9.3.5.y.u.y.5.3.y.3.y.y.y.5.5.5.6.3.3.4.3.5.3.5.y.5.6.3.5.5.5.5.y.5.y.5.y.5.5.y.5.3.3.3.4.3.3.5.5.5.6.3.3.3.6.3.4.4.4.4.",
"i.i.a.f.f.f.f.f.i.u.f.u.f.i.y.f.h.t.t.g.f.u.i.g.g.f.i.i.y.g.$Xf.a.f.&Xi.y.i.a.&X&Xf.a.y.5.y.i.a.y.i.f.f.f.f.f.&X&X&X&X&Xf.i.f.&Xf.5.i.i.f.f.a.i.f.f.f.&Xf.f.f.=Xf.f.u.y.f.f.f.f.f.f.f.f.f.f.f.f.y.y.f.f.a.f.i.i.f.f.f.*Xf.f.y.a.f.f.h.a.i.f.f.f.&Xf.f.f.i.f.h.f.f.&X&Xf.a.f.f.y.i.f.f.f.a.f.f.a.&Xf.i.f.i.f.a.f.&Xf.f.f.f.f.&Xf.i.f.i.a.f.a.f.f.f.a.f.f.a.f.h.f.a.u.i.i.f.a.i.f.f.f.h.f.f.u.a.f.a.f.h.u.f.f.i.&Xf.f.a.i.a.&Xf.f.f.f.f.i.a.a.f.f.f.f.a.f.f.a.f.g.f.f.f.i.i.f.&X;Xf.f.f.f.f.a.a.y.y.i.i.i.f.f.f.f.i.h.f.f.f.f.f.f.h.f.f.i.f.f.&Xh.f.f.f.&Xh.*Xh.&Xf.f.a.f.h.f.f.&Xa.i.f.f.f.f.&Xf.f.f.a.f.f.f.f.f.h.f.f.a.f.f.u.a.f.f.h.h.h.h.&Xh.*Xf.f.f.f.f.f.f.i.f.a.f.f.h.*Xf.f.h.f.h.f.&Xf.a.f.a.i.a.f.a.y.h.f.a.f.f.a.a.f.a.i.i.i.a.i.i.u.u.a.i.a.i.f.i.i.f.h.&Xf.f.f.a.f.f.f.i.u.i.i.i.u.u.a.f.f.f.i.y.u.f.f.u.u.i.a.a.a.f.f.f.f.f.f.f.i.a.u.f.f.f.f.u.i.u.u.f.i.i.i.y.u.u.5.u.a.f.f.f.f.a.a.u.a.i.u.u.i.u.t.i.i.f.y.i.i.i.&X&Xf.f.f.i.u.y.i.u.u.i.f.a.i.i.i.a.u.a.f.u.u.i.f.u.u.u.a.u.u.a.f.u.y.u.a.u.i.i.u.i.u.y.5.y.y.a.u.i.f.f.i.u.u.i.u.u.u.y.u.u.u.y.u.y.y.t.y.u.u.u.u.u.u.y.a.y.y.y.t.f.h.u.u.a.u.f.a.a.a.u.p.u.u.u.a.u.u.a.f.a.u.u.u.p.p.i.9.9.a.p.u.5.u.y.u.y.5.5.y.y.u.y.5.y.5.3.3.5.3.5.6.5.y.5.3.5.y.5.5.5.5.5.y.3.4.5.y.5.3.y.5.y.y.y.5.5.9.6.y.y.5.y.5.3.y.u.y.5.4.5.5.3.3.y.y.9.u.y.u.5.y.5.4.5.3.5.5.5.9.5.5.y.5.5.y.5.y.y.y.y.y.y.y.5.5.5.4.4.3.3.3.3.4.3.3.3.5.3.3.5.3.3.",
"f.a.f.f.f.f.&Xh.i.i.i.y.f.f.i.f.i.g.y.g.u.f.f.y.f.f.f.f.i.i.f.f.f.f.&Xu.y.f.&X&Xf.i.i.f.&Xa.y.a.y.f.f.i.u.y.f.=X&X&X&Xf.i.f.f.i.f.y.f.&Xi.f.f.f.f.f.f.f.f.;X&Xi.f.f.u.i.f.f.f.f.f.f.f.f.f.f.f.i.f.f.f.f.f.f.i.i.f.f.f.a.i.f.f.&Xa.u.a.a.f.f.a.h.i.a.&X;X*X*X&Xh.f.f.&Xf.f.f.&Xf.f.i.i.a.f.i.i.f.i.a.f.&Xh.f.i.u.f.f.&Xf.f.f.f.f.i.f.f.f.f.f.f.&Xa.i.f.a.u.f.f.a.f.f.f.f.f.f.u.f.f.f.f.f.f.i.f.f.f.i.f.f.i.f.y.f.f.f.f.f.a.f.i.f.f.f.h.h.i.f.&Xf.h.f.i.f.f.u.i.g.f.g.f.f.h.h.h.f.f.f.g.f.f.f.f.g.i.f.f.i.i.f.f.f.i.h.f.i.i.i.g.g.i.i.f.i.f.g.f.g.h.f.f.f.f.h.f.f.f.f.a.a.f.a.f.&X*X&Xf.a.i.f.f.i.f.f.a.f.h.h.&Xh.a.f.*Xf.h.h.u.u.i.a.f.f.f.&X*X&X*Xf.a.f.a.u.i.a.f.*Xh.f.a.a.&Xf.f.h.f.h.f.h.f.a.f.*Xf.f.g.f.h.f.g.g.f.f.i.u.i.i.u.i.f.g.i.u.u.u.f.i.i.g.f.f.u.g.u.u.t.i.f.g.f.i.i.i.u.u.i.i.i.i.i.i.f.f.i.y.u.f.a.a.f.u.y.i.a.f.g.i.i.g.i.g.i.f.i.f.f.f.f.i.u.5.f.f.f.u.u.t.f.a.u.a.f.a.a.a.i.u.i.u.f.f.y.t.t.y.t.u.y.u.5.u.f.f.f.i.f.i.i.u.f.i.f.i.f.u.i.a.u.i.f.u.u.a.i.u.i.y.a.i.u.u.i.u.u.u.u.u.a.a.f.i.i.g.a.a.y.t.y.a.p.u.i.i.a.f.t.5.i.a.u.y.y.y.u.u.u.u.u.u.u.5.3.5.9.y.y.y.y.5.a.y.u.y.y.i.u.5.i.f.u.i.u.a.i.i.u.u.u.u.y.y.f.y.p.5.a.f.u.y.u.9.5.u.u.u.a.y.u.y.y.u.5.5.y.y.u.y.y.y.u.y.5.3.3.3.4.5.5.y.5.y.5.6.y.y.y.y.y.5.3.4.3.5.y.y.y.y.u.y.5.5.5.4.5.3.5.5.3.3.5.u.y.y.3.y.5.5.3.y.5.5.y.5.y.3.5.5.3.y.5.3.5.5.9.6.5.5.6.5.5.5.5.5.3.y.y.5.3.5.6.4.4.4.4.4.4.3.3.5.3.3.5.3.4.6.3.4.",
"f.i.y.f.u.a.f.f.y.f.y.i.y.u.5.i.i.g.u.i.u.f.f.f.f.f.f.u.i.f.f.f.f.f.f.5.a.f.&Xf.f.&Xf.&Xh.h.u.f.f.f.u.i.f.f.f.a.f.f.f.f.u.f.&Xi.a.f.&X&Xy.f.f.&Xi.f.f.f.i.f.&X&Xf.f.y.i.f.f.f.i.y.f.f.&Xf.f.f.f.&X&Xf.f.f.f.i.a.f.&Xf.i.a.f.f.f.&Xf.f.a.i.f.i.a.i.y.y.u.u.h.h.*X&Xh.&Xf.f.i.a.u.i.a.f.u.f.h.&Xi.&Xh.f.f.a.a.h.*Xa.a.&X&Xf.f.f.f.i.u.f.a.a.i.a.f.u.u.f.a.i.f.i.f.f.f.f.f.f.f.i.f.f.f.f.f.*Xf.f.f.*Xi.a.a.f.i.i.&Xf.f.f.f.a.u.5.i.f.f.f.f.i.g.f.i.f.f.f.f.f.g.i.i.f.i.f.f.h.h.h.f.f.g.f.h.h.h.h.f.g.h.h.f.g.f.f.f.g.f.h.*Xh.i.i.f.i.i.g.i.g.g.f.f.h.f.f.f.f.h.f.f.f.f.h.f.f.h.&X*X*X*Xf.f.f.f.f.f.f.h.f.f.f.f.f.a.i.f.*Xf.&X&Xf.a.f.i.a.f.a.f.h.f.f.f.h.h.f.a.f.f.&X&X&Xh.f.a.f.h.h.f.&Xf.f.h.h.i.i.h.f.h.f.g.h.i.i.f.g.f.f.i.f.f.i.i.f.i.u.i.u.g.i.i.i.g.g.h.u.u.i.f.g.f.f.u.u.u.u.f.h.g.u.i.i.y.t.y.u.f.a.i.i.f.i.f.&Xu.y.a.i.i.g.g.i.g.u.i.f.h.f.g.u.u.i.i.i.y.f.u.f.u.i.y.i.t.5.t.u.u.i.f.i.i.i.u.y.u.f.u.5.u.y.y.t.u.u.u.h.f.&Xf.*Xf.f.u.a.y.u.i.h.f.i.i.t.g.f.y.u.a.a.i.i.5.u.i.i.i.i.u.u.u.y.y.u.i.f.&Xi.t.f.f.a.u.u.a.p.y.u.t.u.u.y.5.y.y.d.u.y.5.y.9.u.u.u.i.a.u.y.y.y.y.u.u.5.9.u.u.u.u.u.y.y.u.a.a.a.u.i.f.u.f.u.f.y.y.a.5.a.y.u.y.a.5.u.y.u.5.9.u.9.y.a.y.y.5.5.u.9.y.u.y.u.y.y.y.u.y.5.3.5.5.3.y.5.y.3.5.6.3.y.u.y.u.5.y.5.4.3.5.5.3.3.3.9.5.9.5.5.3.y.3.y.5.3.5.6.y.5.y.y.5.y.5.y.5.u.y.y.5.u.y.u.y.y.y.5.3.5.y.y.5.5.5.3.6.3.3.3.3.4.3.3.3.3.4.4.3.4.4.3.4.4.3.3.5.5.5.5.3.3.5.3.3.",
"i.i.5.f.f.f.i.i.i.f.y.i.a.&Xf.y.6.g.i.5.i.f.f.5.i.f.f.i.i.f.f.y.y.f.f.u.&Xf.f.a.f.*Xf.u.y.f.f.f.i.f.i.f.u.y.f.&Xf.f.f.f.f.f.f.f.&Xf.f.f.a.=X&Xf.a.u.f.&X=Xh.f.f.y.f.f.f.f.i.i.u.5.i.a.f.i.f.f.f.h.&Xi.f.&X&Xi.i.i.f.f.f.=X&X&X&Xf.f.a.i.i.&Xh.f.y.y.i.f.f.*Xi.f.i.f.f.f.a.u.i.i.a.i.f.&X*X&Xf.i.f.f.&Xf.h.a.f.f.f.a.h.h.a.a.a.f.f.a.f.f.a.i.f.f.i.a.f.f.f.f.i.f.f.a.f.f.f.f.f.f.f.f.f.i.f.a.i.u.i.f.f.y.i.i.h.&Xf.f.&Xf.f.a.y.f.g.h.f.i.g.g.t.g.i.i.f.g.f.f.i.g.f.f.f.i.f.g.f.h.h.g.g.f.g.f.f.f.i.f.h.f.g.i.u.i.f.g.u.g.i.u.g.f.h.*X-X;X;X;X-X*Xh.f.h.h.h.h.f.g.u.a.f.f.f.h.h.f.a.f.f.f.h.h.f.f.f.h.f.f.h.h.&Xf.f.f.f.f.h.f.*Xh.&Xa.a.f.a.f.f.i.i.a.f.h.f.f.&Xh.f.f.*Xh.&Xf.f.&X&Xf.f.a.f.h.h.i.f.f.f.*Xh.f.h.f.g.f.i.i.f.i.g.f.f.g.g.u.i.g.i.i.i.g.f.i.g.f.i.i.t.i.i.g.g.u.u.f.y.i.f.f.u.u.u.5.y.t.5.t.u.u.a.f.f.f.f.i.i.f.i.a.t.i.i.f.i.u.u.u.f.f.i.i.i.i.i.u.h.i.f.5.i.u.u.u.5.y.i.i.f.f.u.y.f.i.y.y.h.h.i.f.a.u.u.f.h.u.a.u.u.u.f.f.&Xf.f.f.i.f.i.u.u.f.g.u.u.y.f.f.i.y.u.y.u.i.i.u.u.u.u.u.u.u.a.a.g.f.u.y.t.u.a.a.t.u.u.u.y.5.y.u.a.u.5.y.u.u.a.u.a.u.u.u.5.u.u.u.u.y.u.5.u.u.5.y.y.y.u.y.5.9.t.i.u.t.u.y.u.u.u.a.u.i.i.u.u.u.a.f.3.5.a.f.u.a.u.y.u.u.y.u.p.y.y.5.5.u.y.y.u.y.u.y.y.5.y.5.5.5.5.y.5.y.5.5.3.5.5.9.u.y.3.5.y.3.3.5.y.4.4.3.3.4.6.5.y.y.u.y.y.9.5.5.5.9.5.5.4.5.5.4.5.5.y.3.5.y.u.6.5.5.y.a.y.5.5.6.y.y.y.y.5.5.4.3.4.3.3.3.3.4.3.y.y.3.3.5.y.5.9.3.4.4.4.3.4.4.4.4.4.3.3.3.",
"y.f.i.f.*Xf.i.f.f.f.u.f.f.y.i.y.i.f.5.u.a.f.i.i.f.i.f.i.f.f.f.&Xf.i.f.i.u.u.-X&Xf.f.&Xf.i.f.f.y.i.f.i.f.f.a.f.h.f.f.f.f.&Xi.f.f.f.f.f.i.y.i.a.&X&Xf.f.f.&Xf.f.f.f.i.i.i.f.f.f.f.a.f.f.i.f.f.&X&Xi.f.i.i.f.f.i.i.f.f.f.y.f.f.f.f.a.i.u.f.f.f.a.a.y.a.&X&Xf.f.u.&Xf.&X*Xh.f.f.a.f.f.f.f.f.u.f.&Xf.f.f.&Xf.h.a.f.f.h.f.f.i.u.a.f.h.f.f.i.*Xf.f.&Xf.f.f.&Xf.f.f.y.f.&Xf.f.f.f.f.f.a.i.f.f.i.f.y.y.u.f.*X;X;Xi.i.f.i.i.f.f.5.i.f.i.u.i.f.i.f.u.g.i.g.f.i.f.g.f.f.u.g.i.i.i.u.h.f.f.*Xh.g.f.h.f.f.f.f.f.h.f.g.i.i.u.i.f.i.i.f.g.i.f.i.i.i.u.i.i.f.g.i.i.u.f.f.&Xh.f.i.f.a.f.&X&X&X&Xh.a.f.f.i.f.f.f.&Xa.f.f.a.a.f.h.f.f.i.a.f.h.f.*Xf.*Xf.f.f.f.h.&Xf.f.i.a.h.&X&X&Xf.f.f.*Xf.h.f.f.h.h.i.u.f.f.h.f.f.f.f.g.f.f.h.g.f.u.f.u.i.f.i.g.f.f.g.f.g.i.i.u.i.i.f.h.i.f.f.f.f.i.u.t.u.g.g.i.i.i.t.u.g.u.t.u.t.i.u.y.u.a.f.a.u.a.i.a.y.t.u.u.h.f.f.u.g.i.u.f.i.g.i.u.i.f.f.g.i.f.a.i.5.f.f.y.a.i.a.f.f.&Xh.u.u.u.i.a.i.a.f.f.u.u.y.u.f.h.t.i.a.i.i.u.u.a.i.y.i.i.g.5.f.i.u.i.f.a.i.f.a.a.u.u.a.f.f.i.u.i.u.u.i.u.y.y.u.i.f.i.i.t.u.a.f.y.u.u.u.i.u.u.u.h.f.t.h.u.u.a.u.u.u.y.5.y.a.y.y.y.y.a.y.u.y.u.a.f.u.f.u.y.f.i.f.f.u.f.f.f.y.a.u.i.5.f.a.f.f.a.5.5.u.a.p.a.f.y.y.d.a.u.9.a.u.u.u.u.u.9.5.6.3.y.5.y.5.5.3.3.3.4.3.3.5.y.5.5.5.4.4.3.4.4.9.y.y.5.6.5.5.5.5.y.6.5.5.u.y.y.y.y.u.5.5.y.y.y.5.4.3.3.5.9.y.5.3.5.y.y.3.5.5.5.9.y.5.9.5.5.3.3.y.5.5.4.4.4.3.5.3.3.5.5.5.5.5.6.4.5.3.y.5.6.5.3.y.5.y.5.5.3.4.3.4."
};
