/* XPM */
static char *_ac1e0e25e5f40f7aa6c5f6d7b1bf7014XV8kTuHlAPrJ5MJ[] = {
/* columns rows colors chars-per-pixel */
"358 358 256 2 ",
"   c #020205",
".  c #04050A",
"X  c #03090E",
"o  c #08070D",
"O  c #040C13",
"+  c #070E16",
"@  c #061016",
"#  c #06141B",
"$  c #09141B",
"%  c #07181F",
"&  c #09191E",
"*  c #081216",
"=  c #0A1E04",
"-  c #0D2706",
";  c #132C0B",
":  c #122908",
">  c #15330B",
",  c #1A350D",
"<  c #153B0C",
"1  c #1A3B0D",
"2  c #143606",
"3  c #1A3512",
"4  c #1C3C12",
"5  c #173813",
"6  c #12310C",
"7  c #213D14",
"8  c #213E0E",
"9  c #071A21",
"0  c #0A1D23",
"q  c #0A1923",
"w  c #101F24",
"e  c #0C2126",
"r  c #0D242A",
"t  c #0E292E",
"y  c #062228",
"u  c #10252C",
"i  c #11292E",
"p  c #0E2B31",
"a  c #0E2E37",
"s  c #112D33",
"d  c #112F39",
"f  c #0F3038",
"g  c #143136",
"h  c #15333A",
"j  c #19363C",
"k  c #17383E",
"l  c #1A393E",
"z  c #193237",
"x  c #203E30",
"c  c #1B430D",
"v  c #1C4B0D",
"b  c #16440A",
"n  c #1D4312",
"m  c #1D4B12",
"M  c #1B4516",
"N  c #1E520F",
"B  c #21490E",
"V  c #24550E",
"C  c #224414",
"Z  c #234C14",
"A  c #254C1A",
"S  c #2A4D1A",
"D  c #264618",
"F  c #245314",
"G  c #2A5416",
"H  c #265A15",
"J  c #2A5C15",
"K  c #25531A",
"L  c #2B541B",
"P  c #2C5C1B",
"I  c #265A19",
"U  c #325D1C",
"Y  c #32571A",
"T  c #324E19",
"R  c #2D6216",
"E  c #2D621B",
"W  c #2D6719",
"Q  c #32641C",
"!  c #346A1D",
"~  c #396C1E",
"^  c #356619",
"/  c #39721E",
"(  c #2B630E",
")  c #2D5822",
"_  c #335C22",
"`  c #345725",
"'  c #2C512E",
"]  c #346422",
"[  c #3A6524",
"{  c #356B22",
"}  c #3A6C23",
"|  c #3C6C29",
" . c #3A652A",
".. c #3C7324",
"X. c #3E7924",
"o. c #3D7329",
"O. c #3B7627",
"+. c #336527",
"@. c #1F4120",
"#. c #436C29",
"$. c #417525",
"%. c #437B25",
"&. c #42752A",
"*. c #447C2B",
"=. c #497D2C",
"-. c #4A772B",
";. c #4A7C32",
":. c #487733",
">. c #4E7635",
",. c #41751D",
"<. c #173B43",
"1. c #1B3C43",
"2. c #1A3E49",
"3. c #163740",
"4. c #203E44",
"5. c #1E4146",
"6. c #1C434B",
"7. c #1C474D",
"8. c #1C4B54",
"9. c #1E4D59",
"0. c #1B4751",
"q. c #1E525A",
"w. c #214246",
"e. c #23454A",
"r. c #24494D",
"t. c #294B4E",
"y. c #28474C",
"u. c #244C52",
"i. c #2A4D53",
"p. c #214E5A",
"a. c #254952",
"s. c #255255",
"d. c #2B5255",
"f. c #23535B",
"g. c #2C555A",
"h. c #2C5A5D",
"j. c #2A5958",
"k. c #31565B",
"l. c #335B5D",
"z. c #335758",
"x. c #31584B",
"c. c #36635B",
"v. c #37674D",
"b. c #2C5C62",
"n. c #265762",
"m. c #355D61",
"M. c #385E63",
"N. c #2D6164",
"B. c #2D636A",
"V. c #356264",
"C. c #3B6364",
"Z. c #33656B",
"A. c #3C6669",
"S. c #3D6A6C",
"D. c #376A69",
"F. c #3B6D72",
"G. c #356B72",
"H. c #3C7275",
"J. c #3C747A",
"K. c #3C787A",
"L. c #38726C",
"P. c #1F5460",
"I. c #467351",
"U. c #436C6C",
"Y. c #426968",
"T. c #47726D",
"R. c #436E71",
"E. c #496E72",
"W. c #457273",
"Q. c #4A7474",
"!. c #437B7D",
"~. c #4C7A7B",
"^. c #487778",
"/. c #527D7B",
"(. c #527B76",
"). c #537A6B",
"_. c #46822B",
"`. c #4B832D",
"'. c #4D892D",
"]. c #468226",
"[. c #518A2E",
"{. c #4C8432",
"}. c #4E8A32",
"|. c #4A8335",
" X c #518534",
".X c #538C34",
"XX c #548C39",
"oX c #588A3A",
"OX c #559234",
"+X c #5A9335",
"@X c #5B943B",
"#X c #5D9A3B",
"$X c #579439",
"%X c #54912F",
"&X c #629C3C",
"*X c #62873B",
"=X c #67A23D",
"-X c #72AC3E",
";X c #5FA03D",
":X c #5D9641",
">X c #598847",
",X c #639B43",
"<X c #68904D",
"1X c #6AA645",
"2X c #72AD4B",
"3X c #72AC47",
"4X c #76B34C",
"5X c #7BB753",
"6X c #72AD50",
"7X c #57827E",
"8X c #4A8579",
"9X c #749D66",
"0X c #3F8162",
"qX c #83BD57",
"wX c #83BD4D",
"eX c #87A86D",
"rX c #87C35B",
"tX c #90CA65",
"yX c #3B7A82",
"uX c #467D82",
"iX c #527E81",
"pX c #3E8185",
"aX c #478487",
"sX c #558383",
"dX c #5A8583",
"fX c #5C8B8B",
"gX c #578989",
"hX c #5B9494",
"jX c #588F8F",
"kX c #628D8B",
"lX c #638B85",
"zX c #66928D",
"xX c #649493",
"cX c #6A9592",
"vX c #6C9A95",
"bX c #6C9C9A",
"nX c #659A99",
"mX c #739C97",
"MX c #628E90",
"NX c #77A39C",
"BX c #6CA19C",
"VX c #78A8A5",
"CX c #76ABA7",
"ZX c #6F9EA0",
"AX c #84ACA5",
"SX c #88B3AB",
"DX c #89B9B3",
"FX c #95BCB4",
"GX c #92B7AE",
"HX c #81A79E",
"JX c #9AC3BA",
"KX c #A4C6BC",
"LX c #AED3CB",
"PX c #A4CFC8",
"IX c #D0EEE7",
"UX c #CAE7DE",
/* pixels */
"                                                                                                                                                                                                                                                                                                                                                                                                                                                                                                          . . X X X X . .                                                                                                                                                       .               . . . . . . . . . . . . . . . . . . . . . . ",
"                                                                                                                                                                                                                                                                                                                                                                                                                                                                                                        . . . X . . . . . .                                                                                                                                                     .               . . . . . . . .     . . . . . . . . . . . . ",
"                                                                                                                                                                                                                                                                                                                                                                                                                                                                                                      . . . . X . . . . . .                                                                                                                                                     .             . . . . . . . . .   . . . . . . . . . . . . . ",
"                                                                                                                                                                                                                                                                                                                                                                                                                                                                                                    . . . . . X . . . . . . . .                                                                                                                                                 .         . .   . . . . . . . . . . .     . . . . . . . . . ",
"                                                                                                                                                                                                                                                                                                                                                                                                                                                                                                  . . . o X X X . . . . . . . . . .                                                                                                                                   . . . . .         . . . . . .     . . . . . . . . . . . . . . . . . . ",
"                                                                                                                                                                                                                                                                                                                                                                                                                                                                                      .   . . . . . . . o X X X . . . . o . . . . . .                                                                                                                           .     . . . . .       . . . . . . . . . . . . . . . . . . . . . . . . . . . ",
"                                                                                                                                                                                                                                                                                                                                                                                                                                                                . .                 . . . . .   . . . . . . X X o X o o . . . . . . . .                                                                                                                 . .     . . . . . . . .       . . . . . . . . . . . . . . . . . . . . . . . . . . . ",
"                                                                                                                                                                                                                                                                                                                                                                                                                                                                . . .               . . . . . . . . . . . . . X X X o o o . . . . . . .                                                                                                                 . .     . . . . . . . .     . . . . . . . . . . . . . . . . . . . . . . . . . . . . ",
"                                                                                                                                                                                                                                                                                                                                                                                                                                                                . . . .             . . o X X X o . . . . . . . X o . . . . . . . . .                                                                                                                   . .         . . .   .     . . .   . . . . . . . . . . . . . . . . . . . . . . . . . ",
"                                                                                                                                                                                                                                                                                                                                                                                                                                                              . . . . . . . . . . . X o . o X X o . . . . . . . X . . . . . . . . . .                                                                                                                     .     . . . . . .         . .       . . . . . . . . . . . . . . . . . . . . . . . ",
"                                                                                                                                                                                                                                                                                                                                                                                                                                                            . .   . . . . . . . X X o o . o X X o . . . . . . . . . . . . . . . . . . .                                                                                                                         . . . . . . . . . . . . . . . . . . . . . . . . . . . . . . . . . . . . . . ",
"                                                                                                                                                                                                                                                                                                                                                                                                                                                            . .     . . o X X X X X X o X X X o . . . . . . . . . . . . . . . . . . .                                                                                                                                 . . . . . . . . . . . . . . . . . . . . . . . . . . . . . . . . . . . ",
"                                                                                                                                                                                                                                                                                                                                                                                                                                                                    . o X X X X X X X X X . o o . . . . . . . . . . . . . . . . . . .                                                                                                             . .                 . . . . . . . . . . . . . . . . . . . . . . . . . . . . . . . . . . . ",
"                                                                                                                                                                                                                                                                                                                                                                                                                                                                  . . o o X O O X X X X . . . . . . . . . . . . . . . . . . . . .                                                                                                               . . . .               . . . . . . . . . . . . . . . . . . . . . . . . . . . . . . . . . . . ",
"                                                                                                                                                                                                                                                                                                                                                                                                                                                                  . . X X X O O X X X . . .   . . . . . . . . . . . . . . . . .                                                                                                                 . . . . . . . . . . . . . . . . . . . . . . . . . . . . . . . . . . . . . . . . . . . . . . ",
"                                                                                                                                                                                                                                                                                                                                                                                                                                                                  . . X X X X O . . . . . . .   . . . . . . . . . . . . . .                                                                                                                     . . . . . . . . . . . . .       . . . . . . . . . . . . . . . . . . . . . . . . . . . . . . ",
"                                                                                                                                                                                                                                                                                                                                                                                                                                                            . .   . . X o o X . . . . . . . . .                       .                                                                                                   . . . . .       . . . . . . . . . . . . . . . .       . . . . . . . . . . . . . . . . . . . . . . . . . . . . . . ",
"                                                                                                                                                                                                                                                                                                                                                                                                                                                          . . . . . X X X X . . . . . .       .                                                                                                                         . . . . . .     . . . . . . . . . . . . . . . . . . .   . . . . . . . . . . . . . . . . . . . . . . . . . . . . . . ",
"                                                                                                                                                                                                                                                                                                                                                                                                                                                . .     . . . . . X o X o . . . . . . . . . . . . . . . .                                               . .                                                         . . . . . . . . .   . . . . . . . . . . . . . . . . . . . . . . . . . . . . . . . . . . . . . . . . . . . . . . . . . . ",
"                                                                                                                                                                                                                                                                                                                                                                                                                                                .   . . . . . X X X o o . . . .           . . .   . . . .                                         . . . . . . .                                                 . . . . . . . . . . . . . . . . . . . . . . . . . . . . . . . . . . . . . . . . . . . . . . . . . . . . . . . . . . . . . . ",
"                                                                                                                                                                                                                                                                                                                                                                                                                                                  . . X X X X X . . . . . . . .         . . . . . . . . . .                                     . . . . . . . .                                                 . . . . . . . . . . . . . . . . . . . . . . . . . . . . . . . . . . . . . . . . . . . . . . . . . . . . . . . . . . . . . . ",
"                                                                                                                                                                                                                                                                                                                                                                                                                                                  . X X X X X . . . . . . . . . . . . . . . . . . . . . . . .                                   . . . . . . . .                                                 . . . . . . . . . . . . . . . . . . . . . . . . . . . . . . . . . . . . . . . . . . . . . . . . . . . . . . . . . . . . . . ",
"                                                                                                                                                                                                                                                                                                                                                                                                                                                  o X X X X X . . . . . . . . . . . . . . . .   . . . . . . . .                                 . . . . . .                                                     . . . . . . . . . . . . . . . . . . . . . . . . . . . . . . . . . . . . . . . . . . . . . . o o . . . . . . . . . . . . . . ",
"                                                                                                                                                                                                                                                                                                                                                                                                                                            . . . X X X X X X . o . . . . . . . . . . .         . . . . . . . .                                                                                 .               . . . . . . . . . . . . . . . . . . . . . . . . . . . . . . . . . . . . . . . . . . . . . . o o . . . . . . . . . . . . . . ",
"                                                                                                                                                                                                                                                                                                                                                                                                                                        . . . . . . X X X X . . . . . . .   . .     .     . . . . . . . . . . .                                                                                   . . .         . . . . . . . . . . . . . . . . . . . . . . . . . . . . . . . . . . . . . . . . . . . . . . . . . . . . . . . . . . . . . . ",
"                                                                                                                                                                                                                                                                                                                                                                                                                                      . . . . . . . X X X X . . . . . . . . . . . . . . . . . . . . . . . . . .                                                                                   .             . . . . . . . . . . . . . . . . . . . . . . . . . . . . . . . . . . . . . . . . . . . . . . . . . . . . . . . . . . . . . . ",
"                                                                                                                                                                                                                                                                                                                                                                                                                                  . . . . . . . . . X X X X . . . . . . . . . . . . . . . . X X X o o o o . . .                                                                                 . . . . . . . . . . . . . . . . . . . . . . . . . . . . . . . . . . . . . . . . . . . . . . . . . . . . . . . . . . . . . . . . . . . . . . ",
"                                                                                                                                                                                                                                                                                                                                                                                                                                . . . . . . . . . o X X X X . . . . . . . . . . o o . o X X X X X X o X o . . .                                                                                 . . . . . . . . . . . . . . . . . . . . . . . . . . . . . . . . . . . . . . . . . . . . . . . . . . . . . . . . . . . . . . . . . . . . . . ",
"                                                                                                                                                                                                                                                                                                                                                                                                                                . . . . . . . . . . X X X X . . . . . . . . . . X o o X o o X X X X X . . . . .                                                                         . . . . . . . . . . . . . . . . . . . . . . . . . . . . . . . . . . . . . . . . . . . . . . . . . . . . . . . . . . . . . . . . . . . . o o . . . . ",
"                                                                                                                                                                                                                                                                                                                                                                                                                                . . . . . . . . . . X X X X . . . . . . . . . . X X o X X X X X . . . . . . . .                                                 . . .           . . . . . . . . . . . . . . . . . . . . . . . . . . . . . . . . . . . . . . . . . . . . . . . . . . . . . . . . . . . . . . . . . . . . . . . . o o . . . . ",
"                                                                                                                                                                                                                                                                                                                                                                                                                                . . . . . . . . . . X X X X . . . . . . . . . X X o X X . . . . . . . . . . . .               .                             . . . .             . . . . . . . . . . . . . . . . . . . . . . . . . . . . . . . . . . . . . . . . . . . . . . . . . . . . . . . . . . . . . . . . . . . . . . . . . . . . . . ",
"                                                                                                                                                                                                                                                                                                                                                                                                                                . . . . . . . . . . X X X X . . . . .   . . X X X X X . . . .   . .     . . . .             . .                               . . .             . . . . . . . . . . . . . . . . . . . . . . . . . . . . . . . . . . . . . . . . . . . . . . . . . . . . . . . . . . . . . . . . . . . . . . . . . . . . . . ",
"                                                                                                                                                                                                                                                                                                                                                                                                                        . . . . . . . . . . . . X X X X X X X X . . . . o X X X . . . . .               . . . .                                                 . . . . . . . . . . . . . . . . . . . . . . . . . . . . . . . . . . . . . . . . . . . . . . . . . . . . . . . . . . . . . . . . . . . . . . . . . . . . o o o . . . . . . . ",
"                                                                                                                                                                                                                                                                                                                                                                                                                        . . . . . . . . . . . . X X X X X X X X X X X o o o X X . . . . .                 . . .                                                 . . . . . . . . . . . . . . . . . . . . . . . . . . . . . . . . . . . . . . . . . . . . . . . . . . . . . . . . . . . . . . . . . . . . . . . . . . . . o . . . . . . . . . ",
"                                                                                                                                                                                                                                                                                                                                                                                                                        . . . . . . . . . . X o O O O X X X X X X X X X o X X . . . . . .                                                                       . . . . . . . . . . . . . . . . . . . . . . . . . . . . . . . . . . . . . . . . . . . . . . . . . . . . . . . . . . . . . . . . . . . . . . . . . . . . . . . . o o . . . . ",
"                                                                                                                                                                                                                                                                                                                                                                                                                        . . . o X X o X X X O O O O O X X X O O X X X X X . . . . . . .                                                                         . . . . . . . . . . . . . . . . . . . . . . . . . . . . . . . . . . . . . . . . . . . . . . . . . . . . . . . . . . . . . . . . . . . . . . . . . . . . . . . . o . . . . . ",
"                                                                                                                                                                                                                                                                                                                                                                                                                        . . o o X X O O O O O O O O O O X X O O X X X X . .     . . .                                                       . . . .   .     . . . . . . . . . . . . . . . . . . . . . . . . . . . . . . . . . . . . . . . . . . . . . . . . . . . . . . . . . . . . . . . . . . . . . . . . . . o o . . . . . . o . . . . o ",
"                                                                                                                                                                                                                                                                                                                                                                                                                    . . . . X o X O O O O O O O O O O X X X X X X o X . . .                                                               . . . . . . . . . . . . . . . . . . . . . . . . . . . . . . . . . . . . . . . . . . . . . . . . . . . . . . . . . . . . . . . . . . . . . . . . . . . . . . . . . . . o . . . . . . . . . . . o X ",
"                                                                                                                                                                                                                                                                                                                                                                                                                . . . . . . X O X O O O O O O O O X X X X X X X . . . .                                                                   . . . . . . . . . . . . . . . . . . . . . . . . . . . . . . . . . . . . . . . . . . . . . . . . . . . . . . . . . . . . . . . . . . . . . . . . . . . . . . . . . . . . . . . o o o . . . . . X . ",
"                                                                                                                                                                                                                                                                                                                                                                                                                . . . . . . o O X O O O O O X X X X X X X X X X . . . .                                                                   . . . . . . . . . . . . . . . . . . . . . . . . . . . . . . . . . . . . . . . . . . . . . . . . . . . . . . . . . . . . . . . . . . . . . . . . . . . . . . . . . . . . . . . o o . . . . . . . . ",
"                                                                                                                                                                                                                                                                                                                                                                                                                . . o o o X X X O O O O O O O O X X X o O O o o . .                                                             . . . . . . . . . . . . . . . . . . . . . . . . . . . . . . . . . . . . . . . . . . . . . . . . . . . . . . . . . . . . . . . . . . . . . . . . . . . . . . . . . . . . . . o . . . . . . . . . . o o . . . ",
"                                                                                                                                                                                                                                                                                                                                                                                                              .   . . o . X X X O O O O O O O O X X o X X . . . . .                                       .                         . . . . . . . . . . . . . . . . . . . . . . . . . . . . . . . . . . . . . . . . . . . . . . . . . . . . . . . . . . . . . . . . . . . . . . . . . . . . . . o o . . . . o o . . . . . . . . . o o . . . ",
"                                                                                                                                                                                                                                                                                                                                                                                                          . . . . . . . . X X O O O O O O X X X O o X . . .   . . . . .                             .       . .                 . . . . . . . . . . . . . . . . . . . . . . . . . . . . . . . . . . . . . . . . . . . . . . . . . . . . . . . . . . . . . . . . . . . . . . . . . . . . . . . . . o . . . . . o . . . . . . . . . . . . . . ",
"                                                                                                                                                                                                                                                                                                                                                                                                        . . . . . . . . . X O O O O O O O X X X O o X . . . . . . . . . . . . . . . . . .     .                 . . . . . . .           . . . . . . . . . . . . . . . . . . . . . . . . . . . . . . . . . . . . . . . . . . . . . . . . . . . . . . . . . . . . . . . . . . . . . . . . . . . . . . . . . . . o o . . . . . . . . . . . . . ",
"                                                                                                                                                                                                                                                                                                                                                                                                  .     . . . X o . . . X X O O + + O O X X X X X o X . . . . . . .       . . . . . . . . . . . . . . . . . . .     . . . . . . . . .   .     . . . . . . . . . . . . . . . . . . . . . . . . . . . . . . . . . . . . . . . . . . . . . . . . . . . . . . . . . . . . . . . . . . . . . . . . . . . . . . . . . o o o o . . . . . . . . . . ",
"                                                                                                                                                                                                                                                                                                                                                                                                  . . . . . X X o X X X X O O O + + O O X X X X X X X X X X X O O O X X X X X X . . . . . . . . . . o . . . . . . . . . . . . . . . .     . . . . . . . . . . . . . . . . . . . . . . . . . . . . . . . . . . . . . . . . . . . . . . . . . . . . . . . . . . . . . . . . . . . . . . . . . . . . . . . . . . . o o . . . . . . X X X X X X ",
"                                                                                                                                                                                                                                                                                                                                                                                                    . . . o X X o X X X O O + + + + O X X X X X X X O O O * $ $ & & # # # * @ + O O O O O O O O O O O o X . . . X o . . . . o o . . . . . . . . . . . . . . .   . . . . . . . . . . . . . . . . . . . . . . . . . . . . . . . . . . . . . . . . . . . . . . . . . . . . . . . . . . . . . . . . o . o o . . . . . . . . . . . . X X X X X X ",
"                                                                                                                                                                                                                                                                                                                                                                                                . . . . X X X X X X X X O O + + + + O X X X X X X O * $ & q w u e e e e 0 0 0 0 & & & 0 0 & & & & & & * O O X X o o o . . o o o o X . . . . . . . . . . . .     . . . . . . . . . . . . . . . . . . . . . . . . . . . . . . . . . . . . . . . . . . . . . . . . . . . . . . . . . . . . . . . o o o o . . . . . . . . . . . . . X X X X X X ",
"                                                                                                                                                                                                                                                                                                                                                                                                . . . . X X O O O O O O + + * * $ + + O O O O O + * & & 0 r u s i i s s s s s s s s s s s s s s g s r 0 % # @ + + + O O O O O O O X X . . X o o o X .       . . . .       . .   . . . . . . . . . . . . . . . . . . . . . . . . . . . . . . . . . . . . . . . . . . . . . . o . . . o o o . . . . o . . . . . o . . . . . . . . X X X X X X ",
"                                                                                                                                                                                                                                                                                                                                                                                                . . . o O O O O O O O + * * $ * $ + * + + + + * $ & & 0 0 r u s g g j j l l l l 1.4.4.4.4.4.4.4.4.l j s i e 0 # # # $ $ + O O O o o X X X o o o O O O o o o . .                 . . . . . . . . . . . . . . . . . . . . . . . . . . . . . . . . . . . . . . . . . . . . o . . . . . o o . . . . o o . . . . o o . . . . . . . . X X X X X X ",
"                                                                                                                                                                                                                                                                                                                                                                                      . . .     . . X X + + + + O O + * $ $ * $ $ $ $ $ $ # & & 0 0 r r r r p s h j l l 1.4.w.w.w.w.e.y.y.y.y.y.y.y.e.w.4.z i r 0 0 e 0 & * O O O o O O O O O + * # $ $ $ * O O o o o . . . . . . . . . . . . . . . . . . . . . . . . . . . . . . . . . . . . . . . . . . . . o . . . . . . . . . . . . . . . . o . . . . . o . . . . . . . . . X X X X X X ",
"                                                                                                                                                                                                                                                                                                                                                                                  . . . . . . . o o O O * * * * * * * $ $ $ $ $ $ $ $ & & 0 0 e r r r r p p s s h j l l 1.1.4.w.e.e.y.r.r.a.i.a.i.i.i.i.t.e.1.j s g s s u 0 % # * * $ # & & & & # % 0 0 0 & $ $ $ $ + + O O o o o . . . . . . . . . . . . . . . . . . . . . . . . . . . . . . . . . . . . o . . . . . . . . . . . . . . . . . . . . . . . . . . X X X X X X X X X X X X X X ",
"                                                                                                                                                                                                                                                                                                                                                                                  . . . . . . . o O O * * $ $ $ * * * # $ $ $ $ $ & & 0 0 e r r p p s s s s g h l l l 1.1.1.w.e.y.r.i.i.i.i.i.d.i.i.i.i.i.i.r.e.1.1.4.l j s u r e e e e r r r e 0 0 0 0 0 0 0 0 0 0 & & $ * + O o o o . . . . . . . . . . . . . . . . . . . . . . . . . . . . . . . . . . . . . . . . . . . . o o o . . . . . . . . . . . . . . X X X X X X X X X X X X X X ",
"                                                                                                                                                                                                                                                                                                                                                                            . . . . . . . . . . O O * $ * $ $ $ $ $ * # # & & & & 0 0 0 r r i s p s g g g h j j l l 1.1.4.w.e.e.e.y.i.i.i.i.i.d.k.g.g.d.d.d.d.i.r.r.e.e.w.l j g s s s s s t t t r r r r r r 0 0 0 0 0 0 0 & # * + O O o X . . . . . . . . . . . . . . . . . . . . . . . . . . . . . . . . . . . o . . . . . o o o o o . . . . . . . . . . . . . X X X X X X X X X X X X X X ",
"                                                                                                                                                                                                                                                                                                                                                                            . . . . . . . . X X O + $ # * + * $ $ + + # $ 0 0 0 0 0 e r u s s s g g h h h j l 1.l l 1.1.w.w.e.e.r.r.i.i.i.i.d.g.g.k.k.k.g.d.d.d.d.i.t.t.t.e.4.1.l j h h h g s s s s s s i u r r r r e e e 0 0 & $ # # O O X . . . . . . . . . . . . . . . . . . . . . . . . . . . . . . . . . . o o . . . . o o o o o . . . . . . . . . . . . . X X X X X X X X X X X X X X ",
"                                                                                                                                                                                                                                                                                                                                                                            . . . . . . X X o o + * # # * + @ $ * + + * & 0 0 0 r r u u i s s s g j j j j l 1.4.1.1.4.w.e.e.e.y.e.r.t.i.i.i.d.d.d.d.k.k.k.k.k.k.z.d.i.i.i.i.y.e.e.4.1.1.l j j z g s p p s s s i u u e 0 e w 0 0 0 & & * + o o o o o . . . . . . . . . . . . . . . . . . . . . . . . . . . . . . . . . . . . . o o o o . . . . . . . . . . . . . X X X X X X X X X X X X X X ",
"                                                                                                                                                                            . .           .                                                                                                                                                                           . . . . . o o o X X X O O O + * * * * * $ $ $ & & # 0 0 r u r r r t s s d h z j j l l 1.1.1.4.w.w.e.y.y.r.i.i.i.i.i.i.i.d.g.g.g.g.g.g.g.k.k.k.k.k.d.i.i.y.e.e.e.w.4.1.1.l j h s p s s s i i r e 0 0 0 0 0 0 & & $ + O X X X . . . . . . . . . . . . . . . . . . . . . . . o o . . . . o o . . . . . . . . . . . . . . . . o o o o o o o o X X X X X X X X X X X X X X ",
"                                                                                                                                                                                        . .                                                                                                                                                                   .         .   . . X X o X X O O O + + * * # # $ $ $ $ & & 0 0 0 r r r r t s s s d h h j j l 1.1.4.4.w.w.e.e.y.r.r.i.i.i.i.i.i.i.d.d.d.g.g.g.g.k.k.l.l.l.k.k.k.i.i.t.y.e.e.e.w.1.1.1.j g s g g g s i r r 0 0 0 0 0 0 % # * O O X X X . . . . . . . . . . . . . . . . . . . . . . . o o . . . . o o . . . . o o . . . . . . . . . . X X X X X X X X X X X X X X X X o o o o o o ",
"                                                                                                                                                                                        . . .                                                                                                                                                                     . . . . . . . X X o X O O O O * * * * # $ $ $ & & 0 0 0 0 r u r r t p p s s h h z j j l 1.4.w.w.w.e.e.e.y.r.i.i.i.i.i.i.i.i.i.i.d.d.g.g.g.k.k.l.l.l.l.l.k.g.i.i.i.i.i.r.e.e.w.1.l h g g g g g s i r e 0 0 0 0 % % # O O X X X o X . . . . . . . . . . . . . . . . . . . . . . o . . . . . . . o . . . o o . . . . . . . . . . X X X X X X X X X X X X X X o o o o o o o o ",
"                                                                                                                                                                                      . . . . .                                                                                                                                                                 . . . . . . . . X X o O O O O + * * * * $ # $ & 0 0 0 0 0 r r u t t p s s s g h h z j l 1.1.4.w.w.e.e.e.e.y.r.r.i.i.i.i.i.i.i.i.i.i.d.g.g.g.k.k.k.k.k.k.k.k.g.g.g.g.d.i.i.i.r.e.4.1.l h h h z j s s i r r e 0 0 % # # + O X o O + O O o . . . . . . . . . . . . . . . . . . . . . . . . . . . . o . . . o . . . . X X X . . . . X X X X X X X X X X X X o o o o X X X X X X ",
"                                                                                                                                                                .           . . . . o . X . . .                                                                                     .                                                                             . . . . . . . X X o O O O O O O * * * $ # & & 0 0 0 e e r u u t s s s s g h h j j j j 1.1.1.w.w.e.e.e.e.y.y.y.r.a.t.i.i.i.i.i.i.i.i.d.g.g.k.k.k.k.k.k.k.k.k.k.g.g.g.g.i.i.i.r.e.e.1.l l l l 1.j h s i u e 0 q % $ $ * + O O + + O O o . . . . . . . . . . . . . . . . . . . . . . . . . . . . X X . . . . . . . . . . . . . . X X X X X X X X X X X X X X o o X X X X X X ",
"                                                                                                                                                                      . . . o X O O O O o o o X   . . . .       .                                                                                                                                                 . . . . . . . X X o X O O O O O O * * # # & 0 0 e e r r u u u p s s s s g h j j j l j l 1.1.4.w.w.e.e.e.y.y.y.r.r.r.t.i.i.i.i.i.i.d.i.g.g.k.k.k.k.k.l.l.k.k.k.k.k.k.k.g.d.i.i.r.e.e.1.1.1.4.4.1.j g t r e 0 & $ & & $ $ + + + + O O o o . . o . . . . . . . . . . . . . . . . . . . . . . . . . X . . X . . . X X X X X X X X X X X X X X X X X X o o X X o o X X X X X X ",
"                                                                                                                                                                      . . o O * $ $ $ * O o o X . . . . .   . . . .                                                                                                                                             . . . . . . . . X X o O O O O O O O * * # & 0 0 e e r r r r u u p s s s g h z z j j j j l 1.1.4.w.w.e.e.e.y.y.y.r.r.r.t.i.i.i.i.i.i.i.d.d.g.g.k.k.k.k.l.k.k.k.k.k.k.k.k.k.k.d.i.i.r.y.e.e.e.e.e.4.1.h s r 0 & # $ $ $ $ $ + + O O O O o X . . . . . . . . . . . . . o o . . . . o o . . . . . . . . . . X . . . X X X X X X X X X X X X X X X X o o o o X X X X X X X X X X ",
"                                                                                                                                                                .   . . o + $ $ & & $ * O X X . o . . . . .     . . .         .                                                         . . .           . . . .         . . . .                                 . . . . . . X X . . X X O O O O O O @ * # & 0 0 0 e r u r r t t p s s s g h z z j j j j l 1.1.4.w.w.e.e.e.y.y.y.r.r.r.r.t.t.t.t.i.i.i.d.d.g.g.g.k.k.l.l.l.k.k.l.l.l.l.l.l.l.k.g.d.i.i.r.i.t.y.y.e.4.h s r 0 & # $ $ $ $ * + O O O O O o X .   . . . . . . . . . . o o . . . . o o . . . . . . . . . . . . . . . X X X X X X X X o o o o o o o o o o o o X X X X X X X X X X ",
"                                                                                                                                                            . . . . X O * # & & & % # * @ O O o o o o o o o X X o . .   . . . .   .                                                         . .                         . . . . . . .                           . . . o o o X X o o X X o X O X o O * * # % 0 0 0 e r u u u i i t s s g g g j j j j j l l 1.1.1.w.w.w.e.e.e.e.e.r.r.r.r.t.i.i.i.i.i.d.d.d.d.d.k.k.k.l.l.l.l.l.l.l.l.l.l.l.l.k.k.d.d.d.d.d.i.i.i.y.5.1.s r 0 & $ $ $ $ * + O O O O O O O O o X . . . . . o o . . X X X . . . X X o . . . o o o o X X X X X X X X X X X X X X X X X X X X X X X X X X X X X X X X X X X X X X ",
"                                                                                                                                                        . . . . o o O * $ & 0 0 & & & $ $ * O X O O + * O O O O X o . . . . . .   .                                                         . .                   . . . .   .   . . .                           . . . . o o X X . o X o X X X O O O * * # % 9 0 0 0 r u u i i s i s s g g g j j j j j l l l 1.1.w.w.w.w.e.e.e.e.r.r.r.r.t.i.i.i.i.i.d.d.d.d.d.k.k.k.l.l.l.l.l.l.l.l.m.m.m.m.l.l.l.k.k.k.k.d.i.i.y.e.1.h p e 0 & $ $ $ * O O O X O + + + + O o X . . . . . . . . X X X X X . X X o . . . o o o o X X X X X X X X X X X X X X X X X X X X X X X X X X X X X X X X X X X X X X ",
"                                                                                                                                                  . . . . . X o X @ * & & 0 0 0 0 0 & & & $ * * + * * $ $ $ # $ * O o . . . . .                                 .                                                   . . . . .   . . .                           . . . . . . X X . X X o X O O O O + * $ & % & 0 0 0 r u r i i s i s g g g g j j j j j j l l 1.1.4.4.w.w.w.e.e.e.e.r.r.t.t.i.i.i.i.d.d.d.d.d.k.k.k.k.l.l.l.l.l.l.l.m.m.m.m.m.m.m.m.l.l.l.k.k.d.i.a.e.1.h s r 0 0 & $ $ * + O X X O O + $ + + O o X X X X X X X . X X X X X X X X X X X X X X X X X X X X X X X X X X X X X X X X X X X X X X X X X X X X o X o o X X X X X X ",
"                                                                                                                                                  . . . . X O O @ * $ & 0 0 0 0 e e 0 0 & & $ # * $ & & & 0 0 0 $ * X . . .                   .                                                                 . . . . . . . . . . .                           . . . . . . X X X o o O O O O O + * $ & & & 0 0 0 0 e r r t i i s s g g g j j j j j j j l l 1.1.1.1.4.w.w.w.e.e.e.e.r.r.t.i.i.i.i.d.d.d.d.z.k.k.k.l.l.l.l.l.l.l.m.m.m.m.m.m.m.M.V.m.m.l.l.k.g.i.a.e.1.h s r 0 0 % % # $ * * O o O O + * + + O O O O X X X X X X X X X X X X X X X X X X X X X X X X X X X X X X X X X X X o X o X X X O X X X X X X X X X X o o X X X X X X ",
"                                                                                                                                                . . X X X X O * # # % & 0 e e e e 0 0 0 0 & & # & & & 0 0 0 0 0 $ * O X . . . .                                                                                 . . . . . . . . . . .                           . . . . . . X X X X X O O O O O + * $ & 0 0 0 0 0 0 e r r t i s s s g g g j j j j j j j j l l 1.1.1.4.4.w.w.e.w.e.e.e.r.r.i.i.i.i.i.d.d.d.d.k.k.k.l.l.l.l.l.l.l.m.m.m.m.m.m.m.M.C.C.C.m.l.l.k.g.i.y.1.h s r 0 0 9 # # # $ $ * * + + + + $ $ $ * O O O X X X X X o o X X X X X X X X X X X X X X X X X X X X X X X X O O O O O O O O O O O O O O O X X X X X X X X X X X X X ",
"                                                                                                                                                . X X o X X O * & & & & 0 e e e 0 0 0 & & & $ $ & 0 0 0 e e e 0 & $ O X X . . .                                                                                 . . . . . . . . . . .                           . . . . . . X X X X X O O O O O * # $ & 0 0 0 0 0 0 e r r r i i s s g g g g j j j j j j j j l l 1.1.1.4.4.w.w.w.e.e.e.y.t.i.i.i.i.i.d.d.d.k.k.k.k.l.l.l.l.l.l.l.l.l.l.l.l.l.m.C.C.C.C.C.m.l.k.k.i.a.5.k s p r 0 9 9 # & $ $ $ $ $ $ # # $ $ $ $ + + O O O O O X X X X X X X X X X X X X X X X X X X X X X X X X O O O O O + + + + + + O O O O O O O O O O O O O O X X X X X ",
"                                                                                                                                                . . X o X X @ * & & & & e e e e 0 & % % & & $ $ 0 0 0 0 e e e e & # * X o . . .                                 . . . . . . . .                                   . . . . . . . . . .                           . . . . . . . X X X X O O O + O $ $ $ & 0 0 0 0 0 e e r u r i i i s s g g z j j j j j j j j j j l l 1.1.1.4.w.w.w.e.e.e.t.t.i.i.i.i.d.d.k.k.k.k.k.k.l.l.m.m.l.l.l.l.l.l.l.m.C.C.C.C.C.C.M.l.k.k.g.i.e.1.j s t r e 0 0 9 & & & & & & & $ $ $ $ $ * + + + O O O O X X X X X X X X X o o X X X X X X X X X O O O O O + + + + + + + + + + + O O + + O + O O O O O O O O O O O O ",
"                                                                                                                                                  . o o X X @ * & % & & 0 0 0 0 & % % # $ $ $ $ 9 0 0 0 e e e 0 & # + O o . . .                                 . . . . . . . .                                   . . . . . . . . . .                             . . . . . . X X X X O + + + + $ $ & & 0 0 0 0 e e r r u r i i t s s g g g j j j j j j j j j j j l l 1.1.1.w.w.e.e.e.e.t.i.i.i.i.i.d.k.k.k.k.k.k.k.l.l.m.l.l.l.l.l.l.l.m.C.C.C.C.C.C.C.C.M.l.k.g.i.a.e.1.h s t r r w q 9 & & 0 & & & & & & $ $ $ $ + + + + + + X X X X X X X X o o X X X X X X X X X O O O O O + + + + * * * # + + + + O + + + + + O O O O O + O O O O O O ",
"                                                                                                                                                  . X O O O * # $ & & & & 0 0 0 % % $ $ $ $ $ $ & & 0 0 e e e 0 & $ + O O X . . . . . .     . . . . . .   . . .     . . . . . . X . . . .       . . .                           . . . .                             . . . . o o . X X O O O + * $ $ $ & & & 0 e 0 e r r u r r t s s s g g g g j z z z j z j j j j j l 1.1.1.1.w.w.w.e.e.r.r.i.i.i.d.d.d.k.k.k.k.k.k.l.l.l.l.l.l.m.m.m.m.V.C.C.C.C.C.C.C.C.M.l.l.g.d.i.y.e.1.j g s s r r 0 0 & & # # # # $ $ $ & $ $ $ $ $ $ $ $ O X X X X X X X o o o X X X X X X X X X X O O O + + * * * * * # + + + + * * + O + + O O O O + + + + + O O O ",
"                                                                                                                                                . o O @ O + * $ $ & % % % % 0 0 % & # # $ $ $ $ & & 0 0 0 e 0 0 0 $ + O O X . . . . . .     . . . . . .     . .     . . . . . . X X o o . .   . . . . .                                                             . . . . . . . . X X O O O + * * $ $ & & 0 0 0 e r u u r t t s t s g g g g j z z j g h h h h j j l l 1.1.1.w.w.w.e.e.r.r.i.i.i.d.d.d.d.k.k.k.k.k.k.l.l.l.l.l.m.m.l.l.m.C.C.C.C.C.C.C.C.M.l.l.k.g.i.a.y.4.1.h s s s r r 0 0 & # # # $ $ $ $ $ $ $ $ $ $ $ $ # O O X X X X o o o o o X X X X X X X X X X O O O + + * * * * * # + + $ $ $ $ * * + + O + + * * * + + + + O O ",
"                                                                                                                                                . o O @ + * * $ * & $ % % % & & $ # * * * * * * $ $ & & 0 0 0 0 & & * O X X . . . . . .             . .     . . . . . . . . o o O O O o o o .   . . . .                                                                   . . . . . . . . X O O O + * * $ $ & 0 0 0 u u r r r t p p s s g g g z z g g g h h h h z z j j l 1.1.w.w.w.e.e.r.r.i.i.i.d.d.d.d.d.k.k.k.k.k.k.l.l.l.l.l.l.l.l.m.m.C.C.C.C.C.C.C.M.m.l.l.k.d.i.i.y.w.1.j h h s i r 0 % & # # * $ $ $ # $ $ $ $ $ $ # * O O O o X o o o o o o X O O X X X X X X X O O O O + + + + + + * * * # $ & $ # @ + + + + # # # $ $ $ + + + O ",
"                                                                                                                                            . . . o X O O + * $ $ & $ $ $ # # # * * * * * * * * $ & & & 0 & & & % # + X X X . . . . . . . . . .     . . . . . . . . . . . . . X O O O O O o o X . . . . .                                                                 . . . . . . . . . X X O O O O * $ & & 0 0 e r r r r t p p s s g h g h z g g h g g h h z h j j j l 1.4.w.w.e.e.r.r.i.i.i.d.d.d.d.d.d.d.g.k.k.k.l.l.m.m.l.l.l.l.l.m.m.m.m.m.C.C.M.M.m.l.l.l.g.d.i.a.e.e.1.1.l h s r e 0 9 & # @ * $ $ + + * * $ $ $ + + O O O X X o o o X o X X O O X X O O X X X X O O O O + + + + + + @ @ # & & & # # + + + * # # $ $ $ $ $ * + + ",
"                                                                                                                                      . . . . . . X X O O + * $ $ $ $ $ # * * * O O O O + * * * $ & & & & & & & # * O o X . . . . . . . . . . . . . . .     . . . . . . . . o o X X O O O O o o . . . . . . .                                                               . . . . . . . . . X O o O O + * $ & % 0 0 e r r r u p p s s s h h h z h h g g h h h h h h j j j 1.4.4.w.w.e.e.r.t.i.i.i.d.d.d.d.d.d.g.g.g.k.k.l.m.m.l.l.l.l.l.l.m.m.m.m.m.m.M.m.m.l.m.l.k.g.i.i.r.e.w.4.1.j h s t r q & # @ # $ + + + O O + + + + O O O O X X X X X X X X X X X X X O O X X X X X X O O O O O O + O @ * # # # & % % + + + * # # # * # # # * * * ",
"                                                                                                                                        . . . . . o X @ @ @ * * * * * * * * O O X X X O O @ * * $ $ * * * * * * * @ o o . . . . . . . . . . . . . . . .     . . . . . . . . . . X X O O O O O O . . . . . . . .                                                     . . . . . . . . . . . . . . o X o O O * * # # 0 0 0 e e u u t i s s s h h h h h g g g h h h h h h j j j l 1.1.4.w.e.e.r.t.t.i.i.i.d.d.d.g.g.g.g.g.g.k.k.l.l.l.l.l.l.m.m.m.m.m.m.m.m.m.m.m.m.m.l.k.k.k.i.i.i.e.e.1.l j h s s e 0 & # # # + + + + O O O O O O O O O X O X X X X X X X X X X X O O X X X X X X O O O O O O O O * * * # # # & # # + * * * * * + * * O O * * ",
"                                                                                                                                        . . . . o o X @ @ @ @ @ O O O @ O O O O X X X X X O O O @ @ @ O X O O O X X X . . . . . . . . . . . . . . . . .   . . . . . . . . . . . . X o o O O O O o o X . . . . .                                                 .         . . . . . . . . . . . X X X o O + * * * # & 0 0 0 r u t i s s g h h g h g g g g g g h g g h j j j j 1.1.4.w.e.e.e.r.t.a.i.i.i.i.d.d.g.d.g.g.g.g.k.k.k.l.l.l.l.l.l.l.l.l.l.l.l.l.l.m.m.l.k.l.k.k.g.i.i.t.e.w.1.1.j h s i r 0 % # $ # # * + + + + O O O X X O O O O O O o X X X X X o X X X X X X X X X O O O O O O O O + O + * $ $ $ $ $ # * * * * O O * O O O * * ",
"                                                                                                                                        . . . . o o X @ @ @ @ O O O O O O X o X X X X X X X X X X X X X X X X X X X . . . . . . . . . . . . . . . . . .   . . . . . . . .       . . o o X O O O O X o o . . .                   . . . .                         . . . .     . . . . . . . . . . X . . X O O O O O O & & & 0 0 u r i s s g h h g h h g s s s s g g g h j j j j l 1.4.w.w.e.e.r.r.a.i.i.i.i.i.d.g.d.d.g.g.g.k.k.k.l.l.l.l.l.l.l.l.l.l.l.l.k.k.l.l.l.k.k.k.k.g.d.i.i.r.e.w.1.1.j h g s r 0 0 & & & * + + + O O O O O O O O O O O O o X X X X X o o X X X X X X X X O O O O O O O O O O + * $ $ $ # $ # # * * * * O @ O O O @ @ ",
"                                                                                                                                          . . . X X X O O O X X X X @ @ O X . . . . . . . . . X o X . . . . . . . . . . . . . . . . . . . . .   .   . . . . . . . . . . . . . . . . . X O O O O + O O O X o X X . . .   .       .         . . .       . .                   . . . . . . . . . . . . . . X o X X O O + * # # 0 e e i s s s g h g h h g g s s s p s p s g h j j l 1.1.w.e.e.e.r.a.i.i.i.i.i.i.i.d.d.g.d.g.g.k.k.k.k.k.k.k.k.k.k.k.l.k.k.g.g.k.k.k.k.k.k.k.g.k.d.i.i.r.e.w.4.l j j h s s t r e 9 # # O O O O O O O + + + O O O O O X X X X X X X X X X X X X X X X O O O O O O O O O O O O + * $ $ # # # # * O * * O O O O O + ",
"                                                                                                                                          . . . . X o X X X X X o X X O X X . . . . . . . . . . . . . . . . . . . . . . . . .   . . . . . . .   .   . . . . . . . . . . . . . . . . . X O O O O + O O O O X o o . . . . . . . . . . .                 . .                 . . . . . . . . . . . . . . . . o X o X O O O @ # & 0 e r s p s g h g g g g g g s s s p p p s h h j l 1.1.w.e.e.y.r.a.i.i.i.i.i.i.i.d.g.g.g.g.g.k.k.k.k.k.k.k.k.k.k.k.g.g.g.g.g.g.g.k.k.k.k.g.g.d.i.i.i.r.e.e.w.1.l j z g s s i r 0 # $ * O O O O O O + + + O O O O O X X X O X X X X X X X X X X X O O O O O O O O O O O O O + * $ $ $ $ $ # * * * * * * * * + + ",
"                                                                                                                                          . . . . . . X X X X X o o X X X X . . . . . . . . . . . . . . . . . . . . . . .   . . . . . . . . . . . . . . . . . . . . . . . . . . . . . X X O O O O O O O @ O O X . . X X . . . . . . .                 . .             . . . . . . . . . . . . . . . . . . . . . X X o O O * # & 0 u i s s s d s g g h h h g s s p p p s g h j l 1.1.w.e.e.r.a.i.i.i.d.d.i.i.d.d.g.g.g.g.g.g.k.k.z.k.k.k.k.k.k.k.g.g.d.g.g.g.g.k.k.g.g.g.d.d.i.i.i.r.y.e.w.4.4.l j h g s s i e 9 $ * + + O O O O + + + O O O O O X X O X O O O O O O O O O O O O O O O O O O O O O O O O O + * # $ $ $ $ # # * $ # * * * + + ",
"                                                                                                                                          . .   . . . . . . . . X X X X . . . . . . . . . . . . . . . . . . . . . . . .       . . . . . . . . . . .     . . . . . . . . . . . . . . . . o o O O X O O O O O X X X X X X X . . . . . . . .   . .       . .       . . . . . . . . . . . . . . . . . . . . . . . . . X X o o O * $ 0 r u i p s s s g g h h h h h g s s s s s g h j 1.1.w.e.y.r.i.i.i.d.d.g.d.d.g.g.g.g.g.g.g.g.k.k.k.k.k.k.g.g.g.g.d.d.d.d.d.g.g.g.g.g.g.d.d.d.i.i.t.t.y.e.e.w.4.1.1.j h h g p r 0 & # @ + O O O + O + O O O O O O O O O O O O O O O O O O O O O O O O O O O O O O O O O O O + + * $ $ $ $ $ $ $ $ * * * * + + ",
"                                                                                                                                          . .   . . . .   . . . X X . . . . . . . . . . .       . . . . . . . . . . . . . . . . . . . . . . . . . . . .       . . . . . . . . . . . . . . X o o O O O X X X X X X X X X X X X X X X . . . . . . . . .     . . . . . . . . . . . . . . . . . . . . . . . . . . . . . o o o o O @ 0 0 r r r p s s g g h h j j h h h g g s s s h h 1.1.w.e.y.a.i.i.d.d.k.g.g.g.g.g.g.g.g.g.g.k.k.k.k.k.k.k.g.g.g.g.d.i.i.i.i.d.g.g.g.g.d.d.d.d.i.i.t.t.y.e.e.w.4.1.1.1.h h s p r r 0 & # # + O O O + + O O O O O O O X X X X O O O O O O O O O O O O O O O O O O O O O O O + + + + $ $ $ $ $ * $ $ * * * * * * ",
"                                                                                                                                          . . . . . . . .   . . . . . . . . . . . . . . . .     . . . . .       . . .       . . . . . . . . . . . . . . . . . . . . . . . . . . . . . . . . X o O X X X X X X X o o o o X X o X X X . . . . .   . . .     . . . . . . . . . . . . . . . . . . . . . . .     . . . . . . . X X O # & 0 0 r r i s s s s h z j j j j z h h g g h j 1.4.w.e.y.a.i.i.d.d.k.g.g.g.g.k.k.k.k.k.k.k.k.k.k.k.k.k.g.g.d.i.i.i.a.a.i.i.d.d.g.d.d.d.d.i.i.i.t.r.e.e.e.w.w.4.1.1.1.h g s p r r 0 0 & # + + + + + * * * + + O O O O X O O O O O O O O O O O O O O O O O O O O O O O O + + + @ $ $ $ $ $ $ $ $ # # # # $ $ ",
"                                                                                                                                          . . . . . . . . . . . . . . . . . . . . . . . . .     . . . . . .     . . .       . . . . . . . . . . . . . . . . . . . . . . . . . . . . . . . . X X X X X X X X X X X X o o o X X X X X . . . . . . . . .     . . . . . . . . . . . . . . . . . . . . . . . . . . . . . . . . . X O + # $ & 0 e r t p s s s g g j j j j j j j h j l 4.w.w.e.e.r.i.i.i.d.g.g.g.k.k.k.k.k.k.k.k.k.k.l.l.l.l.k.k.g.i.i.i.r.e.e.r.i.i.i.i.i.i.i.i.i.i.i.t.r.e.e.e.e.w.w.4.4.1.l j h s s t r e q $ + + + + * * # # # * + O O O O O O O O O O O O O O O O O O O O O O O O O O O + + + @ @ $ $ $ $ $ $ $ $ # # # # $ $ ",
"                                                                                                                                        . . . . . . . . . . . .   .     . .       . . . .       . . . . . . . . . .       . . . . . . . . . . . . . . . . . . . . . . . . . . . . . . . . . . X X X X X X X O X . . . o X X X X o o o . . . . . . . .     . . . . . . . . . . . . . . . . . . . . . . . . . . . . . . . . X O O O * * $ % 9 e r p p p s s g g j j j j j j j l 1.4.w.w.e.e.r.i.i.i.d.d.g.k.k.k.k.k.k.k.k.k.l.l.m.m.m.l.k.k.g.i.i.r.e.5.5.e.r.i.i.i.i.i.i.i.i.i.a.t.y.e.e.e.e.e.e.w.4.4.4.1.l z s g t u 0 & * + + * * # $ $ $ # * O O O O O O O O O O O O O O O O O O O O O O O O O O + + + + @ $ # # $ $ # # $ $ # # # # $ $ ",
"                                                                                                                                      . . . . . . . . .     . . . . .   . . . .                       . . .     . . .         . . . . .       . . . . . . . . . . . . . . . . . . . . . . o X X X X X X X X X X X X X X o o o o o o o X X . . .     . . . . .   . . . . . . . . . . . . . . . . . . . . . . . . . . . . . X X O O + $ $ & & 0 0 r u u i t s g g j j j j j j l l 4.4.w.e.r.r.i.i.i.i.d.d.g.k.k.k.l.l.l.l.l.l.l.l.m.m.m.m.l.k.i.i.a.y.e.5.5.e.a.i.i.i.i.i.a.r.r.r.y.y.y.e.e.e.e.e.w.w.4.4.1.1.l j h s s u 0 # * $ # # # # # # # # $ # # & # O O + O + + + O + O O + O O O O O O + O O + + + + @ @ @ # # # 9 9 # # # # @ @ @ @ ",
"                                                                                                                                      . . . . . . . . . .   . . . . .     . . .                 . . . . . .   . . . . . .   . . . . . .   . . . . . . . . . . . . . . . . . . . . . . . . o X X X X X X X X X X o X . . . . . . o o o X X . . .   . . . . . . . . . . . . . . . . . . . . . . . . . . . . . . . . . . . . X X X O + $ $ $ & & 0 0 0 r r r t s g j j j j j j l l 4.4.w.e.e.r.r.i.i.i.d.d.g.k.k.k.l.l.l.l.l.l.l.l.m.m.m.m.m.l.k.d.i.a.a.e.e.e.r.a.a.i.r.r.r.r.y.e.y.y.e.e.e.e.e.e.e.w.4.4.4.1.l j h g s u 0 # * # & 0 0 0 % # # # & 0 0 e e 0 # @ # + + + + O + * O O O O O O O + + + + @ + @ @ @ @ # & % 0 0 # # # # @ @ # # ",
"                                                                                                                                        . . . . . . . .     . . . . .     . . .                 . .     . . . . . . . . . .   . . . .   . . . . . . . . . . . . . . . . . . . . . . . . . o X X X X X X X X X X . . X . X . X X o X X X X . . . . . . . . . . . . . . . . . . . . . . . . . . . . . . . . . . . . . . . . X X X O + * $ $ $ & & 9 9 0 0 r t s s h h j j j j l l 1.4.w.w.e.e.r.r.t.i.i.d.d.k.k.k.l.l.l.l.l.M.M.l.m.m.m.M.M.m.l.l.g.d.i.r.e.e.e.r.r.r.y.y.y.y.e.y.y.y.e.e.e.e.w.w.4.4.1.1.1.1.1.j h g s i e % # # 0 0 e 0 0 # # & % e t s h h p 9 # @ O $ $ @ + + O O O O O O O O @ @ @ @ + @ @ # @ # 0 0 0 0 # # @ @ @ @ # # ",
"                                                                                                                                                . . . .       .                                         . . . . .               . .     . . . . . . . . . . . . . . . . . . . . . . . . . o X X X X X X X X X X X o X X X X X X X X X X . . . . . .     . . . . . . . . . . . . . . . . . . . . . . . . . . . . . . . . . . X X X O + * $ $ $ # % 0 0 0 r r t i s s h h j j l l 1.4.4.4.w.e.e.r.r.t.i.d.d.d.k.k.l.l.l.m.M.M.M.M.m.m.M.M.M.M.m.l.g.g.i.i.y.e.e.e.y.y.y.y.y.y.y.e.e.e.e.e.w.4.1.1.l l j j j j j j h g s s r 9 9 % 0 0 0 e 0 9 & 9 # e s 1.a.d.6.h r 9 # 0 q & @ @ O O O O O + O O + @ @ @ @ @ @ @ # & 0 0 9 9 @ # @ @ @ @ # @ ",
"                                                                                                                                                                                                . . . . . . . .                 . . . . . . .   . . . . . . . . . . . . . . . . . . . . . . X X X X X X X . . o X X X X X X X X X X X X . . . . . . . . . . . . . . . . . . . . . . . . . . . . . . . . . . . . . . . . . . . o X X O + $ $ $ $ & & 0 0 0 r r r p s s s h j j l 1.1.4.4.w.e.e.e.r.t.i.i.d.d.k.k.l.l.m.m.C.C.C.C.m.m.M.M.M.M.m.m.g.g.d.i.y.e.e.e.e.e.y.y.y.e.e.e.e.e.e.e.w.4.1.l h h g g g g h s s s p p t r e 0 0 0 0 e 0 0 # # 9 r j i.V.A.M.g.e.h y y e 0 9 # * + + O O O O O @ @ @ @ @ @ + @ # 0 0 9 # # @ # @ @ @ @ @ @ ",
"                                                                                                                                                                                                . . . .   . . . . . . . . . . .   . . . . .     . . . . . . . . . . . . . . . . . . . . . . . X X X X o . . . o o O O O O O O O X X X X X . . . . . . . . . . . . . . . . . . . . . . . . . . . . . . . . . . . . . . . . . . o X X O + $ $ $ $ $ $ & 0 0 e r r r t s s s g h j l l 1.4.4.w.e.e.r.r.i.i.d.d.k.k.l.l.m.m.C.C.C.C.C.C.C.C.C.C.M.m.k.g.d.i.r.e.e.5.e.e.e.e.e.e.e.e.e.e.e.e.w.1.l h g g p p p p s s r r t t t r r r e 0 e r e 0 % % r s 1.d.C.R.R.R.m.i.3.f p p r # $ # @ @ @ O O O @ @ @ + + + + @ # 9 0 9 9 0 # & # # * * * * ",
"                                                                                                                                                                                                . . . .     . . . . .   . . . .     . . . .     . . . . . . . . . . . . . . . . . . . . . . . X . X X o . . . o X o O O O O O O O X X X X X o . X X . . . . . . . . . . . . . . . . . . . . o o . . . . . . . . . . . . . . o . . X O O + $ $ $ # # # & & 0 0 r r r u s s s s g z j l 4.4.w.w.e.e.y.r.i.i.d.d.k.k.l.l.m.m.M.C.C.C.C.C.C.C.C.C.M.l.k.d.i.a.y.e.5.e.e.e.e.e.e.e.e.e.e.e.w.w.1.l j g g p p s p p t r r r r r r r r r r r r r 0 9 9 s h 5.s.m.S.Q.~.R.V.d.5.1.j p 9 q # @ # # @ @ # # # $ + + + # # $ & 0 % 0 0 9 & $ $ # * + * ",
"                                                                                                                                        .     .                                 . . .           . . . .     . . . . .   . . . .     . . . . .     . . . . . . . . . . . . . . . . . . . . . X X . X X . . . . . X X X O O O O O @ O O X o o o o o o o . . . . . . . . . . . . . . . . . o o o . o o . . . . . . . . . . . . o o X X o O + * # # # $ # & & 0 0 0 e r r r t p p s h z j 1.1.4.5.5.e.e.r.t.i.i.d.d.k.k.l.l.m.m.C.C.C.C.C.C.C.C.C.M.C.l.g.i.i.r.e.5.e.e.e.e.e.e.e.e.e.e.e.5.1.1.1.l 1.1.h h g p t y 0 0 r r r r r 0 e r r i r e y r h 5.a.s.h.F.~./.~.W.V.u.5.4.j r 0 # @ # # @ # # & # # + + $ $ $ $ & 9 % 0 u 0 # $ $ $ * * * ",
"                                        . . . .                                                                                                                       .         . . .           . . . .         .   . . . . . .     . . . .           . . . . . . . . . . . . . . . . . . . . . . . . . . X X o o o o O O O O X X X O X X o X X X X X . . . . . o o o o X X X X . . . . o . . . . . . o . . . . . . . o X . . . . X o X O O + $ * * # # # & 0 0 0 0 r r r r r t d h h j l l 4.4.e.e.e.r.t.i.d.d.d.d.k.l.l.m.C.C.C.C.C.C.C.C.C.C.M.M.l.k.d.i.y.5.5.5.5.5.e.e.y.e.e.5.1.5.e.e.e.y.i.a.a.r.1.h p 0 0 0 r r w r 0 r r r p s p t t s 1.e.d.b.Z.^.sXsXiX^.S.u.f 5.r.h r 9 # & & # # 9 0 0 0 9 $ @ $ # @ 9 9 y f g r 9 9 9 # # # # ",
"                                                                                                                                                                      .         . . .           . . . . . .     .   . . . . . .     . . . .     . . . . . . . . . . . . . . . . . . . . . . . X . . . . . X X . X o X X O X X X X O O X O o o o X X X X . . . . . . . . . . . . . . . . . . . o . . . o . . . . . o o o X X X . . X X X X O + + * * # # # & & 0 0 0 e r r r r t s s s h j j l l w.w.e.e.r.i.i.d.d.d.k.l.l.M.C.C.C.C.C.C.C.C.C.C.M.M.l.k.k.i.a.e.5.5.5.e.e.r.y.y.e.1.5.5.e.r.i.i.k.k.l.k.i.e.3.p r r r r r r r r t t p p p t t s <.a.g.m.F.uXgXgXgXsXW.g.5.6.i.1.r 9 # # & # 0 r s s r 0 & # # 9 r s h 5.a.e.h y 0 r r w 9 @ ",
"                                                                                                                                                                          . .   . . .           . . . . . . . . . . . .     . .     . . . . . . . . . . . . . . . . . . . . . . . . . . . . X X . X . . . . . . X X o X o X X X X O O O O O O O X X o X X o o o . . . . . . . . . . . . . . . . . . . . . . . X o o X o X X o o . X X X X X O + O O * * # # & & 9 0 0 e r r r r p p s s h h l l 1.1.w.e.e.r.i.i.d.d.g.k.l.l.M.m.m.m.C.C.C.C.M.M.M.M.m.l.k.d.i.r.e.e.e.e.r.a.r.y.5.5.5.e.e.i.g.l.M.M.A.Y.C.l.i.1.s r r t t t t p p p s p p p p h 2.a.l.A.R.uXgXgXMXgX~.S.m.m.g.5.r 0 # # 0 0 r s h j h p r 0 t g 1.i.g.A.U.C.i.3.g h d s 0 # ",
"                                                                                                                                                                        . .                       . . . . . . . . . . .       .   . . . . . . . . . . . . . . . . . . . . . . . . . . . . X X X X . . . . . . . . . . X X o X X X O O O O O O O O O O X o X X . o o . . . . o o . . . . . . . . . . . . . . . . . o X X X X o . . X X X X X X O O O O * * # # # # % 0 0 r r r r r p p s g h j l 1.1.4.w.e.e.r.t.i.d.d.k.k.l.l.l.l.m.m.C.M.M.M.M.M.M.m.l.k.k.d.i.i.a.a.i.i.i.a.y.e.e.e.e.a.i.g.m.A.A.R.E.R.Y.m.i.l p y t p p p p s p s f p p f h 6.i.m.A.^.uXgXgXMXMXgXiX~.R.d.k r e 0 0 e r t p h 5.e.1.h p h e.h.V.R.~.sX~.A.f.i.u.1.g t 9 ",
"                                          . . .                                                             . .                 . .                     . . . .                                     . . . . . . . . . .   . . . . . . . . .     . . . . . . . . . . . . . . . . . . . . . X X o X X X X X X X . . . X X o X o o X X O O X O O O O O O O O X X X o o . . . . . . . . . . . . . . . . . . . . . X . . . . . . . . X X o X X X X X X X O O + * # # # # 0 0 0 0 r r r r r p s g h j l 1.1.5.w.e.e.r.i.i.d.d.k.k.l.l.l.l.m.M.m.m.m.m.M.m.l.l.k.k.d.g.d.d.i.d.d.d.i.a.r.e.r.a.i.d.h.M.A.Y.R.W.W.E.Y.m.w.g t t s f p a a d h h h f h <.r.d.A.R.^.iXgXfXMXcXvXMXgXW.d.3.t e 0 e r t p a 6.d.b.g.u.6.7.h.A.R.Q.iXfXsX^.Z.m.g.e.1.p 0 ",
"    . . . . .       . . . . . . . . . . . . . . . . . . . . . .                                 .         . . .                 . .                     . . . .                         . . . .     . . . . . . . . .   . . . . . . . . . . . . . . . . . . . . . . . . . . . . . . . . . X X X O X X X X X o X X X X X X X X X X o O O O O O O + + O O O X X X X X . . . . . . o . . . . . . . X X X X X X X X X X X X X X X X o o o o X X X X X X O O + + * # # & & 0 0 0 0 0 0 r r r p s g h h l 1.4.1.5.e.e.r.t.i.d.d.d.k.k.k.l.l.l.m.m.m.l.l.l.l.l.k.k.g.g.d.d.d.g.g.d.d.i.u.u.a.a.i.d.g.M.A.U.Q.W.Q.~.E.Y.k.5.g f g g p p g h 3.<.<.3.1.5.r.d.A.R.^.iXgXMXxXvXbXbXxXiXm.6.g t y r t p f <.g.V.A.V.m.g.g.Z.R.^.~.iXfXdXiXW.A.V.g.a.h t ",
". . . . . . . . . . . . . o o o . o o . . . . . . . . . . . . . . . . .     . . .                           . . .               . . . . . . . . . .     . . . . . . . .         . . . . . . . .   . . . .     . . .     . . . . . . . . . . . . . . . . . . . . . . . . . . . . . . . . . X X X O X X X X O o o X X X X X X X X X X o O O O O + * * * + O O O O O O X X X X X X o X . . . . . X o o o o o o X X X X X X X X X X X X o X X X X X O O O O O O + + $ $ # & % 9 0 0 0 0 r r r t s s g h l 1.1.1.5.w.e.r.t.i.i.d.d.d.k.k.k.l.l.l.l.l.l.l.l.k.k.k.k.k.k.k.k.l.k.k.d.d.i.i.i.u.a.i.g.m.C.Y.R.Q.Q.~.Q.U.M.g.e.5.1.k g f h 3.<.2.2.1.5.e.u.d.M.R.Q.uXsXgXMXcXbXZXbXfXR.s.e.g t t p f 3.7.m.A.F.R.R.A.A.W.Q.~.^./.iXiX/.Q.S.A.g.a.1.p ",
". . . o o o o o O O O o X X X X o o X X X X X X . . . . . . . . . . . . . . . . .                               . .             . . . . . . . . . . . . . . . . . . . . . . . . . . . . . . . .     . . . .   . . .   . . . . . . . . . . . . . . . . . . . . . . . . . . . . . . . . . . . X X O X X X X O X X X X X X X X X X X X o X X O O + * * * * + + O O + + O O O X X X o o X . . X X X o o o O o o o o X X X X X X X o X X X X X o X X O O O O O O + + @ # $ # # 9 0 0 0 0 0 r r r p s s g h l l 1.1.w.e.e.r.t.i.i.d.d.d.d.k.k.l.l.l.l.k.l.l.l.l.k.k.k.l.l.l.l.l.k.k.d.d.d.i.a.u.a.d.m.M.A.U.R.E.Q.E.Y.M.l.g.d.i.e.1.1.h h 3.1.1.1.2.e.i.g.M.S.^.uXiXiXfXxXbXbXxXgXW.m.d.<.p p g h 5.u.m.R.^.^.iXR.F.^.Q.^.R.W.~.~.~.Q.R.M.a.5.3.h ",
". . . . . . . X X X X X X X X X X X X X X X o o X . .       . . . . . . . . . . . . . . . . . . . . . . . . . . . . . . . . . . . . . . . . . . . . . . . . . . . . . . . . . . . . . . . . . . . . . . . . . . . . . . . . . . . . . . . . . . . . . . . . . . o o o o X X X X X X X X X X X O X O O O X X X X o o o X X X o o X X X O O O O @ * * $ $ $ * * * + O O O O X X X O o o o X X X o o o O O O X X X X X X X X O O O O O O O X O O O O O O O O O O + + + + # # # 0 0 e 0 9 0 0 r u u p p s h j l 1.4.w.w.e.e.y.i.i.i.i.i.d.g.k.k.k.l.k.k.l.l.l.l.l.l.l.l.l.l.l.k.k.k.k.g.i.i.r.r.i.g.M.M.Y.R.R.R.A.M.m.m.m.m.k.d.a.e.6.3.3.<.<.3.1.a.p.g.M.A.F.F.R.W.iXfXxXMXgXiX^.R.m.2.a a h h 6.u.A.R.^.^.~.^.R.R.R.R.R.^.^.R.U.S.S.m.7.3.a <.",
". . . . . . . X X X X X X X o o X X X X X X o X . . . . .   . . . . . . . . . . . . . . . . . . . . . . . . . . . . . X . . . . . . . . . . . . X X . . . . . . X . . . . . . . . . . . . . . . . . . . . . . . . . . . . . . . . . . . . . . . . . . o . . . . o X X o X o X X X X X X X O X X X O X O O O O O o o o o X o X o X X O O O O O * * $ $ $ $ $ $ $ * * + O O O O O O X X X X X X X X X O O X X X X X X X X X X X X O O O O O O O O O O O O O O O + + + * * # # 0 0 0 0 0 9 0 0 r r r t s s z j l 1.4.4.w.e.e.y.r.r.a.i.i.d.g.g.k.k.k.k.l.l.l.l.l.l.l.l.M.l.l.l.k.k.k.k.g.d.i.u.i.d.k.l.m.A.A.A.C.m.m.m.M.M.m.m.k.g.i.u.7.7.6.<.1.e.d.g.b.m.m.m.V.A.!.iXfXgXgXsXiX~.U.u.a a a 3.8.h.A.^.uXuXuX^.W.F.F.R.R.F.A.V.M.m.m.g.7.3.f 6.",
"  . . . . . . . . . . X X X o o o o o o X X X X X X . . .   . . . . . . . . . . . . . . . . . . . . . o o o o o o X o o X X X . X X X X X X X X X X X X X X X . . . . . . . . . . . . . . . . . . . . . . . . . . . . . . . . . o X X X o o o o . . . . . . . . X X X X o o O O O O O O O O O O X X O O O O O O O O O X X X X O O O O O + + * * * $ $ $ $ $ $ $ $ $ # * + + + O O O X X X X X X O O O O O O O O O O O O O O O O O O O O O O O O O O O O O O + O + + + * # # & & 9 % % 9 0 0 0 0 r r r s s h j l l 1.1.4.5.e.e.e.e.y.a.i.i.d.g.g.g.k.k.k.l.l.l.l.l.l.M.M.l.l.l.l.k.k.k.g.d.i.i.d.g.g.k.m.M.M.M.M.M.V.C.C.C.C.M.m.m.l.g.g.i.a.a.i.g.b.m.m.b.m.V.S.^.uXgXgXgXgXfXgX^.m.6.<.<.u.b.Z.F.^.^.^.^.^.W.F.F.F.S.m.f.u.u.u.M.m.u.<.<.7.",
"  . . . . . . . . . . . . . X o o o o X X X X X X X o . . . .   . . . . . . . . . . . . . . . . X X X o o o o o X X o o X X X X X X X X X X X X o o o X X X X X o o o . . . . . . . . . . . . . . . . . . . . . . . . . . . . . . . . . . . . . . . . . . . . . X X X X o O O O O O O O O O O O X X X X O O O O O O O O O O O O O O + + + O * # * $ $ $ $ $ $ $ $ $ $ # * + + + O O O O O X O O O O O O O O O O O O O O O O O O O O O O O O O O O O O O O O + + O + + * * # & & # # # & & 0 0 0 r r r r p s h h h j l 1.1.1.1.e.e.e.y.r.i.i.i.d.d.d.g.k.k.k.l.l.l.l.l.l.l.l.l.l.z.k.k.k.g.g.g.d.g.g.g.l.m.M.M.M.V.C.C.C.A.A.C.C.A.A.A.V.m.m.m.m.m.m.m.b.b.m.A.F.W.^.gXMXMXfXfXgX^.W.V.b.m.S.^.^.iX^.^.^.F.F.F.S.W.F.A.m.u.6.6.8.m.m.g.8.u.g.",
".   . . . . . . . . . . . . . . . . . . X X o X o X X X . . . . . . . . . . . . . . . . . . . . X X X X X o o o X X X X X X X X X X X X X X X X X X X X X X X X o o o o X X X X X X X . . . . . X X X X X X X X X X X X X X X X . . . . . . . . . . . . . . . . X X X X X X X X O O O O O + + + O O O O O O O O + + + + O O O O + + + + + * * # $ $ $ $ $ $ $ $ $ $ $ $ $ $ * * O O + O O O O O O O O O O O O O O O O O O O O O O O O O O + + + O O O O O O + + O O * * # # $ $ # # # # # # 9 0 0 r r r r p s p g h j l l 1.1.4.e.e.e.y.r.i.i.i.d.d.d.d.d.g.k.k.l.l.l.l.l.l.l.l.z.k.k.k.k.l.k.g.g.g.h.m.m.M.V.V.C.C.A.A.A.A.A.A.A.A.S.A.A.A.V.V.A.M.M.m.m.M.V.V.D.W.iXjXMXMXMXfXsXsXiX~.~.sXhXxXxXfXgXsXW.V.V.m.F.W.^.S.m.g.s.8.b.V.A.V.S.F.",
". . . . . . . . . . . . . . . . . . . . . . . . . . . . . . . . . . . . . . . . . . . . . . . . . X X X X X X X X X X X X X X X X X X X X X X X O O X X O O O O o O o o O o o o O O o o X X X X X X X X X X X X X X X X X X X X X X X X X X X X X X X X X X X X X X X X X X X X O O O O O O + + O O O O O O O O + + + + O O + O + * * * * * # $ $ $ $ $ $ $ $ $ $ $ $ $ $ $ $ $ + + + + + + + + O O O O O O O O O O O O O O O O O O O O O O O O O O O O + O + + O * * # # # $ $ $ $ $ $ # # # 9 r r r r t t t t s g h j j j 1.1.1.5.e.e.e.r.r.a.i.i.i.d.d.k.k.k.k.l.l.l.l.l.m.m.l.l.l.k.k.l.k.k.g.k.l.m.m.m.M.M.M.C.A.A.A.A.Y.Y.S.U.U.U.S.S.S.S.A.A.A.A.A.A.A.V.Z.S.^.sXfXfXMXMXgXfXxXMXfXxXbXZXVXbXvXxXiXV.f.u.V.^.sXiX^.uXF.b.b.F.^.uXuX^.",
". . . . . . . . X X X X o o X X X o . . . . . . . . . . . . . . . . . . . . . . . . . . . . . . . . . . . . . . . . . . . . X X X X X X X X X X O O X O X O O O O O O O O O O O O O O O O O O X X X X X X X X X X X X X X X X X X X X X X X X X o o o o o o o o O O O O X O O O O O O + + + + * + + + + + + + + + + + + + + + + * * * * * * $ $ $ $ $ $ $ $ $ $ $ $ $ $ $ $ $ $ # $ * + + + + + + + + O O O + + + + + + + + + + O O O O * * * O O O O + + + + + + + * # # $ $ * $ $ & $ # # 9 0 r t s p p p t t p s g h h h j 1.1.1.1.e.e.y.y.r.a.i.i.i.i.i.g.k.k.k.k.k.k.k.l.m.l.l.l.k.k.l.l.k.k.k.l.l.m.m.m.m.M.M.A.A.A.A.A.Y.U.U.R.R.R.R.R.R.S.A.A.A.A.A.A.A.A.A.F.^.sXgXfXfXgXMXnXvXvXmXVXVXVXVXVXbXfXA.s.s.V.!.fXMXxXnXMXiXF.W.sXfXMXgX",
". . . . . . . o . . . . . X X X o o o o . . . . . . . . . . . . . . . . . . . . . . . . . . . . . . . . . . . . . . . . . . . . X X X X X X X X O O X X O O O O O O O O O O O O O O O O O O O O O O O O O O O O O O O O X X X X O O O O O O O O O O O O O O O O O O O O O O O O + + + + * * # # # $ * * * + + + + + + + + + + + * * # * * * $ $ $ $ $ $ $ $ $ $ $ $ $ $ $ $ $ $ $ $ $ * # * * * * * * * * + * * # * * + * * # $ * * * * # # # * * * * * + + + + + + * # $ # # * $ $ & & & 0 0 e p s s s s s p t p s g h h h j j 1.1.1.1.5.e.y.y.y.r.r.a.i.i.i.d.g.k.k.k.k.k.k.k.k.k.l.k.k.l.l.l.k.k.l.l.m.m.m.M.M.M.A.A.A.A.A.A.R.U.R.R.R.R.R.W.R.R.R.R.F.F.F.R.F.Z.A.W.iXsXgXgXgXfXxXvXbXVXVXCXVXCXVXVXxXW.b.N.W.sXxXZXVXVXZXnXfXsXfXxXbXnX",
"o X X . . . . . . X X X X . X X X X X . . . . . . o o . . . . . . . . . . . . . . . . . . . . . . . . . . . . . . . . . . . . . . . . . X X X X X X X X O O O O O O O O O O O O + + + + + + + + + + O O O + + + O O O O O O + + + + + + O O O O O O O O O O O O O O O + + + + + + + + + $ $ $ $ # # # $ # * * # * + * * * * * * # # # # $ $ $ $ # # $ & $ & $ $ & & & & # # # # & $ # # # @ # # # # # # # # # @ $ # # # 0 % # @ $ $ $ $ * + * $ * * * * * * # @ * * * * # # # # # # # # 0 e t t p p s p p s g g p s g h h h h h 1.1.1.4.5.e.e.e.e.y.y.y.r.i.i.i.d.d.k.g.g.g.k.k.k.k.k.k.k.k.k.k.k.k.l.m.m.m.m.m.M.A.A.A.A.A.A.A.U.U.R.R.R.R.W.W.W.W.W.W.R.R.R.R.R.S.A.F.^.^.iXgXsXgXfXxXvXbXNXVXVXVXVXVXvXfXsXsXxXxXbXZXVXVXVXVXbXnXbXVXCXVX",
"o o o o o o X X X o o X X X X o X X X . . . . . . . . . . . . . . . . . . . . . . . . . . . . . . . . . . . . . . . . . . . . . . . . . . X X X X X X X X X X X O O O O O O O O + + + + + + + + + + + + + + + + + + + + + + + + + + + + + + + + + + + + + O O O + + + + + * * * * + * * $ $ $ $ # # $ $ $ # * * $ $ $ $ $ $ $ $ $ $ $ $ $ $ $ $ & & & & & $ $ $ & & & # # # # # & # # # # & 0 0 e 0 % # & & & # # & 0 0 r e 0 # # # $ $ # * # $ * * * * * * @ @ * * * * # # # # # # & & 0 e t t p s s s s g g g p s g h g g h h j 1.1.1.1.5.e.e.e.e.e.y.y.y.i.i.i.i.i.i.d.d.g.g.g.g.g.k.k.k.k.k.k.k.l.l.l.m.m.m.M.A.A.A.A.A.S.U.U.U.R.R.R.R.R.W.W.W.W.W.W.W.R.R.R.F.A.F.F.W.!.iX^.iXgXxXcXvXvXbXmXVXVXVXVXvXxXvXbXbXVXVXVXCXVXCXCXCXCXCXSXCX",
"O O O O O O O X X o o o o X X o X X X . . . . . . . . . . . . . . . . . . . . . . . . . . . . . . . . . . . . . . . . . . . . . . . . . . . . . X X X X X X X X X X O O X O O O O + + + + + + + + + * * * * * * $ $ $ $ * $ $ $ * * * $ $ $ $ $ * + * * * * * + * * $ $ $ $ $ $ $ $ $ $ $ $ $ $ $ $ $ $ $ $ $ $ $ $ $ $ $ $ $ $ $ $ & $ $ $ $ $ & & & & & & & & & & & & & & & # & # # % 0 0 e i i u 0 % 0 0 0 q 0 0 r u s i r r 0 0 e 0 0 # # # # # * # # # # @ + * * * # # # # $ $ & & 0 e r t s s g g h j j j g g h h h h h h j j 1.1.1.1.e.e.e.e.e.e.e.e.y.y.a.i.i.i.i.i.i.i.d.d.d.d.d.g.g.g.g.g.k.k.l.l.m.m.m.M.C.A.A.A.A.Y.U.R.R.R.R.R.R.W.W.W.W.Q.Q.^.W.W.R.R.A.A.S.S.F.^.W.^.~.sXgXkXxXcXvXmXmXvXvXnXvXbXNXVXVXNXNXVXVXCXCXCXCXCXCXCX",
"O O O O O O O O X X X o o X o o X X X X . . . o . . . . . . . . . . . . . . . . . . . . . . . . . . . . . . . . . . . . . . . . . . . . . . . . X X X X X X X X X X X X X X O O O O O + + + + + + + + + + * * * $ $ $ $ $ $ $ $ * * * $ $ $ $ $ $ $ # # $ $ $ $ $ $ $ $ $ $ $ $ $ $ $ $ $ $ $ $ $ $ $ $ $ $ $ $ $ $ $ $ $ $ $ $ & & & & & & & & # # # & & & & & & & & & % 9 0 0 0 0 0 0 0 0 r i s i r 9 0 r u u 0 r r t s s s s s s s s u e 9 # # # # $ $ $ # # * * * * # # # # $ # # # 0 0 r i s g h h h j l l j j j j j j j j l 1.1.4.4.1.1.w.5.5.e.e.e.e.e.e.e.y.r.r.r.a.i.i.i.d.d.d.d.d.d.d.d.g.g.g.k.k.l.l.m.m.M.C.A.A.A.U.U.R.R.Q.W.R.R.Q.W.W.Q.Q.Q.Q.Q.W.W.R.S.S.S.S.S.R.W.W.W.W.^.sXMXxXxXvXvXxXxXxXnXnXbXNXVXNXmXmXZXZXVXVXVXbXZXCX",
"O O O O O O O O X X X X X X X o X X X X X o o o o . . . . . . . . . . . . . . . . . . . . . . . . . . . . . . . . . . . . . . . . . . . . . . . X X X X X X X X X X o o O O O O O O O O + + + + + + + + + + + + * * * * * $ $ # $ $ * * $ $ $ $ $ $ $ $ $ $ $ $ $ $ $ $ $ $ $ $ $ $ $ $ $ $ $ $ $ $ $ $ $ & & & $ $ $ $ & & & & & & & 0 & & & & 0 0 0 0 # & & & & & # # 9 0 0 0 0 0 0 0 0 0 e u i i r 0 0 0 u u e e r r t s g j h h j l j z i r 0 9 # & & # # # # # # # # # # & & # # 9 0 r r s g h h j j l 1.1.1.1.1.l l l l l 1.1.4.4.4.4.w.4.1.1.5.e.e.5.e.e.e.e.e.e.y.y.r.a.i.i.i.i.i.i.i.i.i.i.i.d.g.g.k.k.l.m.m.C.A.A.S.U.U.U.R.R.R.R.R.W.W.W.Q.Q.^.^.Q.Q.W.R.U.S.S.S.S.S.F.F.F.F.W.^.sXfXjXhXMXfXfXxXnXbXVXVXVXVXVXmXbXbXvXvXnXxXnXZX",
"O O O O O O O X X X X X X X X o X X X X X X o o o o . . . . . . . . . . . . . . . . . . . . . . . X . . . . . . . . . . . . . . X X X X X X X X X X X X X X X X X X X X X O X O O O O O + + + + O + + + + + + + * + * * * $ $ # $ $ $ $ $ $ $ $ $ $ $ $ $ $ $ $ $ $ $ $ $ $ $ $ $ $ $ $ $ $ $ $ # # & & & & & & & & & & & & & & & & & & & & & & 0 0 0 0 0 0 & & # # # # 9 9 9 0 0 0 0 0 0 0 r r r i u r 0 0 e r r r t p p g j l k 1.1.4.4.4.z s r 0 9 & & # # # # # # # # # 0 0 0 0 9 0 r r p s h h j j j l 1.1.1.1.1.1.1.1.1.1.1.1.4.w.w.4.4.4.5.5.5.5.1.1.5.5.5.e.e.e.e.e.y.y.r.r.r.i.i.i.i.i.i.i.i.i.d.g.g.k.k.l.m.C.C.A.Y.U.U.U.R.Q.Q.Q.Q.Q.W.Q.Q.Q.~.~.^.Q.Q.W.R.R.U.S.S.A.A.S.S.S.F.W.^.iXiXsXsXsXfXxXvXVXVXVXVXVXVXmXvXnXxXxXhXhXnXZX",
"X X X X X X X X X X X X X X o o X X X X X X o o o o . . . . . . . . . . . . . . . . . . . . . . . . . . . . . . . . . . . . . . X X X X X X X X X X X X X o o o O O X X O O X O O O O O O O + + O + + + + + + * + + + + * * # # $ $ * * * $ $ $ * * * $ $ $ $ $ $ $ $ $ $ $ $ $ $ $ $ $ $ $ $ $ # & & & & & & & & & & & & & & & # # # & & & & & # % % % 0 0 0 & 9 % # 9 9 9 0 0 0 0 0 0 0 r r r r u u u r 0 e r r r p s h j l 1.1.w.w.4.4.4.1.j g t 0 0 9 # # % & & 9 0 9 0 e r r r r t t p g h k l l l l l 1.1.4.4.4.4.1.1.1.1.1.4.w.w.w.w.w.w.5.e.1.1.1.1.1.1.1.1.5.e.e.e.e.e.e.y.r.r.a.a.a.a.a.a.i.i.i.d.g.g.k.k.l.m.C.A.A.Y.U.R.Q.W.W.W.W.W.Q.Q.Q.Q.^.^.^.Q.Q.W.R.U.S.S.S.A.S.A.A.Z.A.S.R.^.^.^.iXsXfXxXbXVXVXVXVXVXNXvXxXjXgXgXgXjXMXhX",
"X X X X X X X X X X X X X X o o X X X X X X o X o o . . . . . . . . . . . . . . . . . . . . . . . . . . . . . . . . . . . . . . X X X X X X X X o o O O O O O O O O X X O O O O O O O O O O + O O O + + + + + + + + + + + * * * * * + + + * * * * * * * $ $ $ $ $ $ $ $ $ $ $ $ $ $ $ $ $ $ $ $ & & & & & & & & & & & & & & & & # # # # # & & & # # % & & 0 0 0 0 0 % 9 9 0 0 0 0 0 0 0 0 r r r u u u u u r r r r t p s h l 1.1.1.w.e.w.4.w.w.4.1.g r 0 0 # & 0 9 0 0 0 0 r r s s t r p s g h 1.1.1.1.l l 1.1.1.1.1.4.4.4.4.4.1.1.w.w.w.w.w.w.w.e.e.1.1.1.1.1.1.1.1.5.5.5.e.e.e.e.e.e.y.y.e.r.e.e.r.r.a.i.i.i.d.g.g.k.l.m.C.A.Y.U.U.R.Q.W.W.W.W.^.Q.Q.Q.^.^.Q.Q.Q.W.W.U.S.S.S.S.S.A.A.A.A.Z.A.S.F.R.^.iXgXkXnXNXVXVXVXVXNXnXfXgXsXaXaXsXgXsX",
"X X X X O O O + X X X X X X X O o o X . . X X . X X X X . . . . . . . . . . . . . . . . . . X X . . . . . . . . X X X X X X X X o o o X X X X X X X X X X X X X X X X O X X X O O O O + O O O O O O + + + + + + * * + + + + + + + + + + + * * * # # # # $ $ $ $ # # # $ $ $ $ $ $ $ $ $ $ $ $ $ $ $ $ $ $ $ $ $ & & & & & & & & & # # # # # & & % % # # 0 0 0 0 & 0 # % 0 0 0 0 r e 0 e r r r r r u r u i t t t p p p s g j l 4.1.w.e.e.e.e.y.e.e.1.s r 0 9 9 9 9 0 0 0 e r t t t p s s s h j 1.4.1.1.l l 4.4.1.1.1.4.4.4.4.4.4.4.w.w.w.e.e.e.w.e.e.e.5.1.1.1.1.1.1.1.5.5.e.e.e.e.e.y.y.r.r.r.e.r.r.r.a.a.i.i.i.d.g.k.l.l.C.C.A.S.U.R.W.W.W.W.W.W.W.Q.Q.W.W.W.W.Q.W.W.R.U.S.S.S.A.A.A.A.A.A.A.A.A.F.^.~.sXdXkXvXvXNXVXmXvXxXfXsXiXiXiXiXiXiX",
"X X X X X X O @ X X X X X X X X o o X X . . X . X X X X o . . . o o o o . . . . o . . . . X X X X X X X X X X X X X X X X X X X o o X X X O X X X X X X X X X X X X O O X X O O O O O + O O O O O O + + + + + + + + + + + + + + + + + + + * * * * * # # $ $ $ $ # # $ $ $ $ $ $ $ $ $ $ $ $ $ $ $ $ $ $ $ $ $ $ & & & & & & & & & & & & & & & & 9 % # # % 0 0 0 0 9 % 9 0 0 0 0 r e 0 e r r r r r u u u t i t t p s s s s h j j 1.w.e.e.e.t.t.t.y.4.h r r 0 0 9 9 0 0 e r r r t s g h h h h l 1.1.1.1.l l 1.1.1.1.1.1.4.4.4.4.4.4.w.w.w.e.e.e.e.e.e.e.e.5.1.1.1.1.1.5.5.e.e.e.e.e.e.y.y.y.y.e.e.e.e.r.r.a.a.i.i.i.d.g.k.l.m.C.C.S.S.U.R.R.W.Q.Q.W.W.Q.Q.W.W.W.W.Q.W.W.R.U.U.U.U.S.S.A.A.A.A.A.A.A.S.R.^.~.sXfXxXcXvXvXvXcXxXgXsXiXuXuX^.^.^.",
"X X X X X X O O O X X X X X o o X X o X X . . . o o X X o . . . o o o o o o o . o . . . . o o o X o o X o o X X X o o o o o o o O O X X O O o o X X X O X X O O X X O O O O X X O O + + O O + + + + + + + + + + + + + + + + + + + + + + * * * * * * * * + + + + # * * $ $ $ $ $ $ $ $ $ $ $ $ $ $ $ $ $ $ $ $ $ $ $ $ $ $ $ $ $ & & & & & & & & 9 9 # # # 0 0 0 9 % % 9 0 0 0 0 e 0 0 0 r r r r u u u u u u t t s p s s s s h j 1.4.w.e.y.i.i.t.y.e.l s p r r 0 0 0 0 r r t p p g j l l j l l l 1.1.5.1.1.1.1.1.1.1.1.1.1.1.4.1.1.1.5.w.e.e.e.e.e.e.e.e.e.1.1.1.1.1.1.1.1.1.e.e.e.e.e.e.y.y.y.e.e.e.e.r.r.a.a.a.a.i.d.g.g.l.m.V.A.A.Y.U.U.R.R.W.Q.Q.W.W.W.W.W.W.W.W.W.R.R.R.R.R.S.S.S.S.A.A.A.V.Z.A.S.R.^.~.sXgXfXkXxXkXkXfXgXsXiXuX^.!.^.^.",
"X X X X X X X O O X o o X X o o X X o o o X . . . . . . . . . . o o o o o o o o . . . . . . . . X o o X o X X X X o o o o o o X O X X X O O X X X X X O X X O O O X O O O O O X O O + + O O + + + + + + + + + + + + + + + + + + + + + + + + * * + + + * + + + + * * * * * * * * # $ $ $ $ $ $ $ $ $ $ $ $ $ $ $ $ $ $ $ $ $ $ $ $ $ & & & & & & 9 9 # # # # % % 9 % # 9 0 0 0 0 0 0 0 r e r r r u u u u u u i i t p s s s s h j j l 4.w.y.t.i.t.y.e.4.j g s t t e e e r r t p s h l 1.1.1.1.1.1.1.5.w.w.w.w.1.1.1.1.1.1.1.1.1.1.1.1.5.e.e.e.w.e.e.e.y.e.e.5.1.1.1.1.1.1.1.1.1.5.e.e.e.e.e.e.e.e.e.e.e.y.r.r.r.a.a.a.i.i.d.g.l.l.C.C.A.A.Y.U.U.U.U.R.E.E.Q.Q.R.R.R.R.R.U.R.R.R.R.U.U.U.U.A.A.A.A.A.A.A.F.R.^.~.iXsXdXfXfXgXsXgXsXiX^.!.^.^.^.",
"O O X X X X X X O O o o X . o o . X o o o X . . . . . . . . . . . . . . o o o o . . . . . . . . X o o o o o X X . . o o o o X X O O X X X X X X X X X X X X O O O O O O O O O O O O O O O O + + + + + + + + + + + + + + + + + + + + + + + * * * + + * * * * + # + + + * * * * * * * * $ $ $ $ $ $ $ $ $ $ $ $ $ $ $ $ $ $ $ $ $ $ & & & & & & & 9 9 9 9 % % % % # # 9 9 0 0 0 0 e e e r 0 r r r u u u u u u r u r i s s s s g z z j 1.4.e.y.y.y.e.e.4.1.j h g s t t r r r r p g h l 1.4.1.1.1.1.5.5.w.e.e.e.e.5.5.1.1.1.1.1.5.5.1.1.1.e.e.w.w.e.e.e.y.y.e.e.e.e.1.1.1.1.1.1.1.1.5.e.e.e.e.e.e.e.e.e.e.y.y.r.r.a.a.a.i.i.d.d.k.l.l.m.C.C.A.A.A.A.U.U.U.R.U.R.R.R.R.R.U.R.R.U.U.U.U.U.U.S.A.A.A.A.A.A.A.A.S.R.W.^.~./.sXsXsXsXsXiXuX^.!.^.^.^.",
"O O X X X X X X O O o o X X X X . X X o o X . . . . . . . . . . . . . . . o o o o X . . . X o o X X o X o o X X X X X X X X X X X O X X O X X X O O X X X X O O O O O O O O O O O O O O O O + + + + + + + + + + + + + + + + + + + + + + + * * * + + * * * $ # # + + + + + * * * * * * * $ $ $ $ $ $ $ $ $ $ $ $ $ $ $ $ $ $ $ $ & & & & & & & & 9 9 % % 9 9 % % # # 9 9 0 9 0 0 0 0 e r 0 r r r r r r u u u u u t i t p p s s g z j l 1.4.e.e.w.w.w.4.1.j j h g p t t r r t p s h l 1.5.w.w.e.e.6.e.e.y.a.i.y.e.e.5.1.1.5.e.e.e.e.e.5.e.e.e.e.e.e.e.y.y.e.e.4.4.1.1.1.1.1.1.1.1.1.1.5.e.e.e.e.e.e.e.e.e.y.y.r.r.r.r.a.a.i.i.g.k.l.m.m.M.C.C.A.A.A.Y.Y.U.U.U.U.U.R.U.U.U.U.U.U.U.S.U.S.S.A.A.A.A.A.A.V.A.A.S.R.W.^.^.~.~.~.~.^.^.^.!.^.^.^.^.",
"O O O O O O O O O O O o o X X X X X X X X X . . . . . X X . . . . . . . . . . . o o . . X X X X X X X X o o X X X X X X X X X X X X X X X X X X O O X X X O O O O O O O O O O O O O O O O O O + O O O O O + + + + + + + + + + + + + + + * * * * + * * * * * # # + + # # # # # # $ $ $ $ $ $ $ $ $ $ $ $ $ $ $ $ & & & & & & & & & & & & & # # # % % % % % % % % 9 9 9 9 9 9 0 0 0 0 0 0 0 0 r r r r r r r r u u u t t t s s s s h h j l 1.1.1.1.1.4.1.j j j h h s s r r r t p s g j 1.1.w.e.r.r.r.r.r.i.i.i.i.r.e.e.e.e.e.y.y.y.y.e.e.e.e.e.e.y.e.e.y.y.e.e.e.e.5.e.5.5.5.1.1.1.1.1.1.5.e.e.e.e.e.e.e.e.e.y.y.y.e.r.r.r.a.i.i.d.g.k.l.m.m.m.C.C.C.C.A.A.A.A.A.A.A.A.A.A.A.A.A.A.A.A.A.A.A.A.A.A.A.A.C.V.V.Z.A.S.R.W.W.^.^.^.^.^.!.^.^.^.^.^.",
"O O O O O O O O O O O O O o X X X X X X X X X X . o o X X X o o o o o o . . . . o o . . . X X X X o o X o X X X X X X X X X X X X X X X X X X X O O X X X O O O O O O O O O O O O O O O O O O O O O O O O O O + + + + + + + + + + + + + * * * * + * * * * * * * + + # # # # # # $ $ $ $ $ $ $ $ $ $ $ $ $ $ $ $ & & & & & & & & & & & & % % % % % % % % % % % # 9 9 9 9 9 9 9 9 0 0 0 0 0 0 0 r r r r r r r u u i t t t s s s s g h h j j l j l j l l j h j j j h s p p t t p p g h l 1.5.e.r.t.i.i.i.i.i.i.i.i.r.y.e.e.y.r.i.i.y.y.e.y.y.e.e.r.6.e.y.e.e.e.e.e.e.e.e.e.1.5.1.1.1.1.1.5.e.e.e.e.e.e.e.e.e.e.e.e.e.e.e.e.e.r.i.i.d.d.g.k.l.l.m.m.m.m.M.M.C.C.C.C.C.C.C.C.C.C.A.A.A.A.A.A.A.A.A.A.A.A.V.V.M.V.V.A.S.F.F.R.W.W.^.!.!.^.^.^.^.^.",
"O O O O O O O O O O O O X X X X X X X X o o X X . . . X . . . . X X o o X X X X o o X X X X X X O o X o X X X X X X X X X X X X O O O O O O O O X X X X X X O O O O O O O O O O X X O O O O O O + O O O O + + + O O + + + + + + + + + * * * + + + + + # # * * * * # $ $ $ * * * $ $ $ $ $ $ $ $ & & $ $ & & & & # # # # # # # # 0 0 9 9 9 0 0 0 0 0 9 9 # # # # 9 9 9 9 9 9 0 0 9 0 0 0 0 0 0 e r r r r u u u u t t t s s s s s g h h h h h j j j j j j j j j j j h g s p p p p g h j 1.1.w.w.e.e.a.d.g.g.d.d.d.i.i.i.a.i.i.i.d.i.i.a.e.e.y.r.y.e.e.y.e.e.e.e.5.e.e.e.e.e.1.1.1.1.1.1.5.e.e.e.e.e.e.e.e.e.e.e.e.y.y.e.e.e.r.r.a.a.i.d.d.d.g.g.g.l.l.m.m.M.M.m.m.l.m.m.m.m.m.m.C.C.C.A.A.A.A.A.A.A.A.A.V.m.m.V.V.A.A.F.F.R.W.^.^.^.^.^.^.^.^.",
"X X X X O O X X O O X X X X X X o X X X o o o X X X X X X X . . X X o o X X X X o o X X X X X X O O O o X X X X O X X X X X X O O O O O O O O X X X X X X X O O O O O O O O O O X X O O O O O O O + + O O O O O O + + + + + + + + + + + * * + + + + + + * * * * # $ $ $ $ $ $ $ & & $ $ $ $ $ $ & & & & & & & % # # & # 9 0 0 0 0 0 0 0 0 0 0 e 0 0 0 0 0 0 9 # 9 % % 9 9 9 9 0 9 0 0 0 0 0 0 r r r r r r u u u t t t s s s s s s g g h h h h h j j j j j j j j j h h g p p p s h h l 1.w.e.e.e.e.r.i.g.g.g.g.g.g.d.i.i.i.d.g.g.k.k.i.i.r.r.r.y.e.e.e.e.e.e.e.e.e.e.e.e.e.1.1.1.1.1.1.1.5.5.e.e.e.e.e.e.e.e.e.e.e.e.e.e.e.y.r.r.a.i.i.i.i.d.d.d.g.g.k.l.m.m.l.l.g.g.g.g.k.l.m.m.m.m.M.M.M.C.C.A.C.C.A.C.V.m.m.V.V.A.A.A.S.F.W.^.W.^.^.W.^.^.",
"X X X o O O o X O O X X X X X X X X X X X X X X X X o o o o X X X o O O O o X X X X X X X X X X X X o o X o X X O O X X X X O O X X X X X X X X X X X X X X O O O O O O O O O O X X O O O O O O O O + + O O O O + + + + + * + + + + + + + + + + + + + + * * * * $ $ $ $ $ $ $ $ & & & & $ $ $ $ # & & & % % # # 9 9 9 9 0 0 r r r r r 0 0 0 r u r r r r e 0 0 9 9 9 9 9 9 9 0 0 9 0 0 0 0 0 r r r r r r r u u u t t t s s s s s s s g g g h h h h h h h j j j j h h h h h s s g h l 1.5.e.e.e.e.r.t.i.d.k.k.l.l.k.k.k.g.g.k.k.k.l.l.k.d.i.i.i.a.e.e.e.e.e.e.e.e.e.e.e.e.1.1.1.1.1.1.1.1.1.5.e.r.e.e.e.e.e.e.e.e.e.e.e.e.e.e.y.y.r.r.r.e.r.a.i.i.i.g.g.k.k.g.g.g.d.d.d.d.d.g.l.m.l.l.l.l.m.m.C.C.C.C.A.C.C.V.m.m.V.V.V.A.A.S.R.W.W.W.^.^.^.^.",
"X X X o o o o . O o X X X X X X X X X X X X X X X X o o o o X X X O O O O O o X X X X X X X X X X X O X X o o o O O X X X X X O X X X X X X X X X X X X X X O O O O O O O O O O O O O O O O O O O O + + + O O O + + + + * * + + + + + + + + + + * * + + * * * * $ # $ $ $ $ $ & 9 9 & & & & & & # & & & % 9 9 9 0 9 0 0 0 r r i t i i r r r r u t t i i u r 0 0 9 9 9 9 0 0 0 0 0 0 r r r r r r r r r r r u t t t t t p s s s s s s s s g g g g h h h h h j j j j h j j h h h h h l 1.e.e.r.r.r.i.i.d.g.l.l.m.m.m.m.l.l.l.l.l.l.m.m.l.l.k.g.g.g.i.a.e.e.e.e.e.e.e.e.e.e.1.1.k h 1.1.5.5.1.5.e.r.y.y.y.e.e.e.e.e.e.e.e.e.e.e.e.e.e.y.y.e.e.e.r.r.i.i.i.g.d.d.i.i.a.a.r.r.a.i.g.k.d.g.g.k.l.m.m.m.M.M.C.C.C.V.m.m.m.V.V.A.A.S.F.R.W.W.^.^.^.!.",
"X X X X o o X . o o X X X X X X X X X X X X X X X X X X X X X X X X O O O O O X X X X X X X X X X X X X X o o X X X X X X X O O X X X X X X X X O O O O O O O O O O O O O O O O O O O O O O O O O O + + + + + + + + + + + + + + + + + + + + + + $ * * * * * * * $ $ $ $ $ $ $ & % # # & & & & & & # # # % 0 0 0 0 0 0 0 e r u i p s s s s t t s p s s s s s r r 0 0 0 0 0 0 0 0 0 e r r r r r r r r r r t t t i t t t t s s s s s s s s g g g g h h h h h j j j z z j j j j j j l 1.4.e.y.r.r.r.i.d.g.k.l.l.M.C.m.m.m.m.m.l.l.l.m.m.m.m.m.m.m.l.d.i.r.e.e.e.e.5.e.e.e.e.1.1.1.h 1.1.5.e.e.e.e.r.e.y.y.e.e.e.e.e.e.e.e.e.e.e.e.e.e.e.y.e.e.e.6.e.y.r.a.i.i.a.a.r.r.e.e.e.e.a.i.d.d.d.d.d.g.k.m.m.C.m.m.m.m.m.m.m.m.m.V.V.V.A.A.F.F.W.W.^.^.^.",
"o X X X X o X . X X X X X O O O X X X X X O X X X X X X X X X X X X X O O O O X X X X X X X X X X O X X X X O X X X X X X O O O O O X X O O X X O O O O O O O O O O O O O O O O O O O O O O O O + + + + + + + + + + + + + + + + * * * * * * * * $ $ * * * * * $ $ $ $ $ & & & & # # # & 0 & & & 9 9 9 # 9 0 0 0 0 0 0 0 r r r i s s s s s s s s s s s g s s s s r r e 0 0 0 0 0 0 e r r r r r r r r i r t t t i t t t t s s s s s s s s s g g h h h h h h j j j j z z j j j j 1.1.1.w.e.e.y.r.e.i.d.k.l.l.l.M.C.C.C.C.C.m.l.l.l.m.C.C.C.C.C.C.m.k.g.a.e.e.e.e.5.e.e.e.e.5.1.1.h 3.1.5.e.e.5.e.e.e.e.y.y.e.e.e.e.e.e.e.e.e.e.e.e.1.e.e.e.e.5.5.e.e.e.e.e.e.e.e.e.e.e.e.6.e.e.r.a.i.a.r.e.r.i.k.m.m.m.l.m.l.m.l.h.m.m.m.M.M.M.A.A.F.F.W.W.^.^.",
"O O X X X O O O O O O X O O O O X X O O O O O O O O X X X X X X X X O O * * * O O O O O O O X X X O O X X O O X X X X O O O O O O O O O O O O O O O O O O O O O O O O O O O O + O O O O O O O + O + + + + + + + + + + + + + + + * * * * * * # # # # # # # $ # # $ $ $ & & & & & # # 0 0 0 0 % % 9 9 0 0 0 0 0 0 0 0 e r r r r t s s s s g g g g s s s g h h g s s t r r 0 0 0 0 0 0 r r r r r r r r i t t t t t t t t t s s s s s s s s s g g h g g h h h h j j j z z j l 1.1.1.1.1.w.e.e.e.e.e.a.d.k.k.l.m.C.A.A.A.A.A.C.C.C.C.M.C.A.A.A.A.A.A.M.k.i.a.a.r.e.5.e.e.e.e.e.1.1.1.h 1.5.e.e.e.5.1.1.e.e.e.e.e.5.5.e.e.e.e.e.5.1.1.1.1.1.1.5.1.1.1.5.e.e.5.5.5.5.e.5.e.e.e.e.e.e.y.y.e.5.5.5.y.i.g.k.k.k.g.g.d.i.i.d.g.b.m.b.m.V.A.S.F.F.H.W.^.",
"O O O O O O O O O O O O O O O O O O O O O O O O O O O O X O X O O O O * $ $ $ * O O O O O O O O X O O X X O O X o X X O O O O O O O O O O O O O O O O O O O O O O O O O O O O O O O + O O O O + O O + O + + + + + + + + + + + + # # * * * # # * # # # # $ $ # # $ $ & & & & & 9 & # 0 0 0 0 9 % 9 9 0 0 0 0 0 0 0 0 r r r r u u s s s s g h h g s s s g h h h g g s t r e 0 0 0 0 0 r r r r r u r r t i t t t t t t t t t s s s s s s s s s g h g g g h h h h j j j j l l 1.1.1.l 1.4.w.e.y.r.r.a.i.g.g.k.m.C.A.Y.Y.Y.Y.C.C.C.C.C.A.A.A.Y.Y.U.Y.Y.M.g.i.i.a.e.5.e.e.e.e.e.5.1.1.h 1.5.e.y.e.5.1.1.1.e.e.e.e.5.1.1.1.5.5.1.1.1.1.1.1.k 1.1.1.1.1.5.5.5.5.5.5.5.5.5.5.5.5.5.5.e.e.5.1.1.1.1.e.r.i.d.d.d.i.a.e.6.5.7.i.d.g.h.b.m.V.D.S.F.F.W.W.",
"+ + + * $ $ $ $ $ * + O O O O O O O * * * * * + # # * * + + O O + + + * # & % & * + O O + $ # # # $ * + O O O O O O + O O O O O O O O O O O O O O O O O O O O O O O + + + O O O O O O O O O + + O O + + + + + + + + + + + * * * * * + + + + * * # # $ $ $ $ $ $ $ $ $ $ $ & & & & & & % % % % % 9 0 0 0 0 0 0 0 0 r u u r r r t t s s s h h j j h h h h h h j j g g s p u r r 0 r r r r r t p p t i i i i i i i p p p p p p s s s s s s g g g g g g g h g h h h j j j j l 1.1.l 1.4.4.w.e.y.y.y.i.i.d.d.g.k.C.A.A.A.A.A.C.C.A.A.A.A.A.Y.Y.U.U.U.A.M.l.g.d.i.r.e.e.5.5.1.1.1.1.1.1.1.1.5.e.e.e.e.1.1.5.5.5.5.1.1.1.1.5.5.1.1.1.1.1.1.1.3.3.3.k k 1.1.1.1.1.1.5.e.5.5.5.5.e.4.4.4.1.1.1.1.1.1.4.e.e.e.r.y.e.5.5.<.e.e.u.i.s.g.m.V.Z.Z.S.F.W.W.",
"$ $ * $ $ $ $ $ $ * * O O O O O O O + * * * * + $ & & $ & $ $ # * + + * # % & & # * * + # $ & 0 q q 0 & # @ O O O O O O O O O O O O X O O O O O O O O O O O O O O O + + + O O O + + + + + + + + * * * * * * * * * * + * * * * * # # * * * * * * $ $ $ $ $ $ $ $ $ $ $ $ # # # # # & & # # % % % 9 9 0 0 0 0 r r u u u u r r r r t s s s s h h h j j j j j j j j h h g s s s r r r r r r s s s s i i i i i i i i p p p p s s s s s s s s s g g g g g h h h h h h j j j j l 1.1.1.1.1.4.w.w.e.y.y.r.a.i.d.d.l.C.A.A.Y.A.C.C.C.A.A.S.S.S.U.U.U.U.Y.C.m.l.g.d.i.a.r.e.e.5.1.1.1.1.1.k 1.1.5.5.1.5.5.1.1.5.5.5.1.1.1.1.1.1.1.1.1.1.1.1.1.1.k k h h h h 1.1.1.1.1.1.5.5.1.1.1.5.5.4.1.1.1.1.3.j 3.1.1.1.5.e.5.5.5.1.1.2.5.7.e.u.f.h.m.V.Z.A.F.F.W.",
"# # $ $ & & & & & # * * * * * + + + * * * * * * $ & $ & & & & & # # * # % % 0 0 & & & # & 0 0 e u u u e 0 0 # @ * * @ O O O + O O O O O + + + + + + + + + + + + + + + + + + + + + + + + + + + + * * * * * # # # * * * * # # # # # # # # # # $ $ $ $ $ $ $ $ $ $ $ $ $ $ # # # # & & # # % % % % 9 9 0 0 0 r u i s i i t r r r r t p p s s h h h j j j j j j j j j j h h h g s s s s s s s g g g s s p p p p s s s s s s s s s s s s s s s g g g g g g g z j j j j j j j l 1.1.1.1.4.4.w.w.e.e.e.e.r.a.i.d.l.C.A.A.Y.A.C.m.C.C.A.S.S.A.U.U.U.Y.A.C.m.l.k.k.g.i.i.r.e.5.1.k h j 1.1.1.e.e.5.1.1.5.1.1.1.5.1.1.1.1.1.1.1.1.1.1.1.1.1.1.1.1.j h h h h h 1.1.1.1.1.5.1.1.1.1.1.5.1.1.1.1.1.h h h h j 1.1.1.1.1.1.1.1.1.2.5.7.u.i.h.m.m.V.V.A.S.F.",
"& & & & 0 9 % % & & $ # $ $ $ $ * * * * * $ $ $ $ $ $ & & & & % # # # & 9 9 0 0 0 0 0 0 0 0 e r r i s i t r e e 0 0 0 & # # @ + + + + + + + + + + + + + + + + * + + + + + + + + + + * * * * * * # # # # # # # # $ $ $ $ # # $ $ # # # # # $ $ $ $ $ $ $ $ $ $ $ & & & & & & # # % % % % 0 9 9 9 9 9 0 0 e r u s t t t t t i r r t p p s s s h h h j j l l j j j j j j j j j j h z h h h j j j h g s s s s s s s s s s s s g g g s s s s g g g g g g g z j j j j j j j l l l 1.1.4.4.4.w.w.e.e.e.y.r.a.i.d.k.l.C.A.A.C.C.m.C.A.A.A.A.S.U.U.U.Y.A.M.m.m.l.l.k.g.i.i.r.5.1.h h h 1.h 1.1.5.1.1.1.1.1.1.1.1.1.1.1.1.5.5.5.1.1.1.1.1.1.1.1.1.1.j h h h h 1.1.1.1.1.1.1.1.1.1.1.1.1.1.1.1.3.h h h h h h j 1.1.1.1.1.1.1.2.6.7.r.i.d.h.m.m.m.V.A.A.",
"0 0 0 0 0 0 0 9 & % $ $ $ $ $ $ $ * * * $ $ $ $ $ # # # # % % % 9 0 & 0 0 e e e r r u r e e r t t s s g g s s t i i u e 0 & $ + * + + + + + + O + + + + + + + * + + * * * * * * * * * * * * # # # # * # # # # * $ $ $ $ $ $ $ $ $ $ $ $ $ $ $ $ $ $ $ $ $ $ $ $ & & & & % % % # % % % 0 9 0 0 0 9 0 0 e r r r u t t t p s s s i p p p p s s g h h h j l l j j j l j j j l l l l 1.l j j l 1.l l j z g s s s s s s g g g g g g g g g g g g g g g g g h h j j j j j j j l l 1.1.1.4.4.4.5.5.5.e.e.r.r.a.i.d.g.l.m.M.M.M.m.m.C.A.A.A.A.U.U.U.U.Y.A.C.m.m.m.l.l.g.g.i.a.e.1.h g h 1.h h 1.1.1.1.k h 1.1.1.1.1.1.2.2.5.5.5.1.1.1.1.1.1.1.1.1.1.1.j j h h k 3.3.3.3.3.1.1.1.1.1.1.1.1.j j j h h g h h h h h j 1.1.1.1.1.1.1.5.7.a.d.g.b.b.m.M.V.V.",
"e 0 0 0 0 0 0 9 % % % # # $ $ $ $ $ $ $ $ $ & & & & # # # # % & 0 0 q 0 0 e e r r u i i r r t t t s g g g g g g z s s s u r q 9 # # O + * * * * * * * + + + + + * * * * * * * * # # * * * # # # $ $ $ $ # # $ $ # # # # # # # # $ $ $ $ $ $ $ $ & & & & & & & & % % % % % % 0 0 9 9 9 9 9 0 0 0 0 0 r r r r r r t t t s g g g s p p p p p s s s h h j j j j j j l l l l l 1.1.1.1.1.1.1.4.4.4.1.1.j h h h h g g g g g g g g g g g g g g g g g g z j j j j j j j l l l l l 1.1.1.w.w.5.5.1.5.e.e.y.r.a.i.i.g.k.l.l.l.m.m.m.C.A.A.S.S.S.Y.U.U.Y.A.V.m.m.m.m.m.k.g.g.i.a.e.1.k k 1.h k 1.1.5.1.3.h 1.1.1.2.5.5.5.5.5.5.5.5.2.2.2.1.1.1.1.1.1.1.j j h h k k 3.h 3.3.j h h h 3.1.k k j j h h g g d d g g h h h h 1.1.1.1.1.1.5.r.i.i.g.h.m.m.m.V.",
"e e e e 0 0 0 9 % % % % & & $ $ $ $ # $ & & % % % # # # # % 0 & 0 0 0 0 0 e e r r u i t t t t t s g g g j j j j j j j g s s u r 0 & # # # # # # # $ # * * * + $ * * # # # # # # $ $ $ $ $ $ $ $ $ $ $ $ $ $ $ $ # # # # # # # # $ $ $ $ $ $ $ $ & & & & & & & & % % % % 0 0 0 0 9 9 9 9 0 0 0 0 0 e r r t t t t t t i s s s g g s s p p p p p s g g h j j j j j l l l l l 1.1.l 1.1.1.4.4.4.4.4.4.1.j j h h h h g g h h g g g g g g h h h h h h z j j j j l l l l l 1.1.1.1.1.4.w.w.5.5.5.e.e.e.e.y.r.a.i.d.g.k.k.l.m.m.M.C.A.A.A.C.C.C.A.Y.A.A.m.m.l.l.m.m.l.l.g.d.i.i.r.5.<.3.1.5.6.r.r.e.5.<.h 1.1.5.e.e.e.e.e.e.e.e.e.e.2.2.1.1.1.1.1.1.1.k h k 1.3.h h h h h h h h h h h h h h h h g s s s d d g g h h h h h k 1.1.5.6.e.u.s.d.g.b.m.m.",
"r r r r e e 0 0 0 0 % & & & & & $ $ & & & & % % % 0 0 0 0 0 0 0 0 0 0 0 e e e r r r r r t t s s s g z z z j j j j j h g g g s i u 0 0 # # # # # & $ # # $ $ $ $ $ $ # # # # # # $ $ $ $ $ $ $ $ # # $ $ $ $ $ $ & & & & & & & & $ $ & & & $ $ & % # # % % % # # % % % % % 0 0 0 0 0 0 0 0 0 0 0 0 r r t i t t p t t t t t s s s s s s p p p p p p s g h h j j j l j j j j l l l l l 1.4.4.4.4.4.w.4.1.j j j h h h h h h g g h z h h h h h h h h j j j j l l l l 1.1.1.1.1.1.4.w.w.5.5.5.5.e.e.e.y.y.r.a.i.d.d.g.k.l.m.m.C.C.A.M.C.m.l.m.A.Y.A.C.m.m.l.l.m.m.m.l.k.g.g.g.i.6.5.<.5.e.i.i.i.a.6.5.h 1.1.e.e.e.e.e.e.e.y.y.y.e.e.e.1.1.1.1.1.1.1.k h 3.3.h h g g g h h h h h h h h g h h h g g s g h g g g g g g g h h h 3.<.5.6.7.u.i.d.g.b.m.",
"e r r r e e e e e 9 % % % & % % & & $ & & $ & & 0 0 0 0 0 0 0 0 0 e e e e e e e r r r r r r i i s s g z z j j j j j j z z g s p t t r 0 q & % % # # # & # # # & $ & & & # # # # # # # # # & & & & & & & & & & & # # # # # # # # # # % 9 9 0 0 % # # # 9 9 9 9 9 # 9 9 9 9 9 0 0 0 0 0 0 0 0 0 e 0 r r r t t s p s s s p p p p p s s s p p p p p p s g h j j j j l j j h h j j j j j j l 1.1.4.4.4.4.4.l j j j j z j j j j j j j j j j h j j j h j j j j j l l 1.1.1.1.1.1.1.1.1.5.w.w.e.e.e.e.e.r.r.i.a.i.i.d.g.g.l.m.m.C.C.M.M.m.m.l.k.m.A.A.C.M.m.m.l.m.m.m.m.m.m.l.k.g.i.5.<.e.i.d.d.d.g.i.a.5.1.1.5.e.u.r.r.u.u.a.r.7.7.e.5.5.2.1.2.2.2.<.3.3.3.3.h h h h g h h h h h h h h h g h f f f f f g g g d g g g g h h h 3.1.1.5.5.u.i.s.d.g.h.",
"e r r r r e e e e e e 0 0 & & % & & & & & & & 0 % % # 0 9 0 0 0 0 0 e e e e e r r u u u r r i i s s g g j j j j j j j z z g g s p t u u e 0 0 & 0 0 0 0 % # & & & & & & & & & & & & & & & & & & # # # # # & & & # & & & # # & & # # % % 9 9 % % 9 9 9 9 9 9 9 9 9 9 9 9 9 0 0 0 9 9 9 9 0 0 0 0 e r r r t t p p s s p p p p t t p p p p p p s s s s h h j j j j h h h g g h h h j j j j l 1.4.4.4.4.4.1.l j j j j j j j j j j j l j j j j j j j j j j j j l l 1.1.1.1.1.4.1.w.w.w.w.e.e.e.e.r.r.a.i.i.i.i.i.d.g.g.l.l.m.M.C.C.C.M.M.m.l.m.C.C.V.M.m.m.m.m.m.m.m.M.m.m.l.k.d.r.5.r.i.g.g.k.k.g.d.i.r.5.5.7.7.r.u.u.i.i.u.e.r.r.e.e.5.2.5.e.e.2.<.3.3.3.h h h h h h h h h h h h h g g g g g f p p d d d d s d g g h h h h 1.1.1.5.7.u.i.i.d.g.",
"e e r r r r r r e e e 0 0 0 & % 0 0 % % # % 0 0 % % # # 0 0 0 0 0 0 0 e e e r r u u u u r r i i s s g g g j j j j j j j z g g g s s s i i u e e e e e 0 0 % % 0 % 0 0 & & & & & & & & & & & & & # # # # # # # % & & & & & & & & # # # % 9 9 9 % 9 9 9 9 9 9 9 9 9 9 # 9 0 0 0 9 9 9 9 9 0 0 0 0 r r u r r t s s p p p p p p t r t t t p p p p s s g h h h h h h g s s s s s g g h h j j j l l 1.1.1.1.1.l l l l l l l l l l l l l l l l l l j j j j l l l l 1.1.1.4.w.5.w.w.w.e.e.e.e.e.r.r.t.i.i.i.i.i.i.d.d.g.k.l.l.m.C.C.C.C.C.C.C.m.m.V.C.M.V.V.V.M.m.m.m.m.M.m.m.m.m.k.d.i.a.d.g.m.m.m.l.l.m.g.a.e.7.7.e.u.d.g.d.i.i.i.i.i.u.r.e.u.i.i.u.7.<.<.3.3.h h g g h h h h h 3.h h h h h h g g f p s s d p p d d g h h h h j 1.1.1.5.7.u.i.d.g.",
"e e r r r r r r e e e 0 0 0 0 9 0 0 0 % # # % % % # # # % 0 0 0 0 0 0 0 e e e r r u u r r r u i t s s g g g g j g z z z z z g g g s s s i i u r u u u e 0 0 0 0 0 0 0 0 % # # # & & & & & % % % 9 9 9 % 9 9 9 9 & 0 & & & & & & # # # 9 9 9 9 9 0 9 9 9 9 9 9 9 9 # # # 9 0 9 9 9 9 9 0 0 0 0 0 e r r r r t t s s s s p p p p p p p p p p p p p s s s g h h s g s s s s s s s s g g g h h h j j j l l l l l j l l l l l 1.1.l 1.1.1.1.1.1.1.l l l l 1.1.1.1.1.4.5.w.w.w.e.e.e.r.r.r.r.t.i.i.d.d.g.g.g.g.g.g.g.k.m.m.m.m.C.C.A.C.C.C.C.C.V.C.V.V.C.C.C.A.C.M.m.m.C.C.M.M.m.m.l.k.d.g.l.m.m.m.V.C.M.m.g.d.i.a.i.i.m.m.m.g.g.h.m.m.b.g.d.g.m.m.g.d.u.u.e.5.3.h h h h h h h h 3.h h h h h h h h g g g g g d d d g f h h h h j 3.1.1.6.7.e.u.i.d.",
"e e r r r r r e e e e 0 0 0 0 0 0 9 0 9 9 9 9 % % % # # # # 0 0 % 0 0 0 0 0 e e e e r r r r r i i i s s g g g g g g g z z g g g g g s s s i i i r r r r e 0 0 0 e e e 0 0 9 9 9 & & % % % % % 9 9 0 9 9 9 9 9 9 & & 0 0 & & & & # # 9 9 9 9 9 9 9 9 9 9 9 9 9 9 9 # # 9 9 9 9 9 9 0 0 0 0 0 0 0 0 0 0 r r r i s s s p p r r p p p p p p p p p p s s s s s s s s s s s s p p p p s s s g g h h h h j j j j j j j l l l l l 1.1.1.1.4.1.4.4.1.1.1.1.1.1.4.1.1.5.w.w.e.e.e.e.r.r.i.i.i.d.d.d.g.k.k.k.k.k.k.k.l.l.m.M.M.m.C.C.A.A.A.A.A.A.A.C.C.C.V.C.A.A.A.A.A.C.C.A.A.A.A.C.C.C.C.l.l.m.m.m.m.C.A.A.C.m.m.l.g.g.g.m.M.M.m.m.V.V.A.A.A.V.A.A.S.A.V.m.m.h.i.5.1.3.1.3.h h h h h h h g h h h h h h h h h g g g g g g h h h h j 3.1.1.1.2.5.7.u.i.",
"0 0 e e e e e e e e e 0 0 0 0 0 0 0 0 0 0 0 0 9 0 0 0 % # & & & # # % 0 9 0 0 0 0 e e e r r r i i i s s s s s g g g g z z g g g g g g s s s s s t t u r r e 0 0 r r r e 0 0 9 9 # # % % 9 9 9 0 0 0 0 9 9 # # # # # # # # # # # 9 9 9 9 9 9 9 9 9 9 9 9 9 9 9 9 9 9 9 9 9 9 9 9 9 9 0 0 0 0 0 0 0 0 0 r r r t s s p p p p p p p p p p p p s s s p p p p s s s s s s s s p p p p s s s s g g h h h h j j j j j j l l l l l 1.1.4.1.1.4.4.4.4.4.4.4.4.4.1.5.5.w.w.e.e.r.t.t.i.i.d.d.d.g.k.k.l.l.l.l.l.l.l.l.m.m.C.C.C.C.A.A.A.Y.Y.Y.Y.Y.Y.Y.A.A.C.A.A.Y.U.U.U.Y.Y.A.S.A.A.A.A.A.A.V.V.V.m.m.V.A.S.A.A.C.C.M.m.m.M.C.C.C.V.V.A.S.S.R.R.R.R.W.W.R.S.S.A.C.l.i.r.e.e.5.2.3.h h g f f f h h h h h h 3.h h h g g g g g h h h h j 1.1.1.<.1.5.7.u.a.",
"0 0 0 e e e e 0 0 e e 0 0 0 0 0 0 0 0 0 0 0 9 % 0 0 0 % & & & & # # & & # % 0 0 0 0 0 e e r r u u i i s s s s s s s g g s g g g g g g s s s s s s t i t r u r e r r r e 0 0 0 0 0 0 0 0 0 0 0 0 0 0 0 0 0 9 # & # # 9 # # # # % 9 9 9 9 9 9 9 9 9 9 9 0 9 9 9 9 9 9 0 0 9 9 9 9 0 0 0 0 0 0 0 0 0 0 e r r r t s p p s s s s s s s s s s s s s s p p p s s s s s p p p p p p p p p p s s s s g h g h h h j j j j l l l l l 1.1.4.1.4.w.w.w.w.w.w.w.w.e.e.e.e.e.e.r.r.t.i.i.d.d.g.k.k.l.m.M.M.M.M.C.C.C.C.C.C.A.A.A.A.Y.Y.Y.Y.U.U.T.U.U.U.U.U.U.U.U.U.U.W.Q.W.T.U.U.U.U.U.U.Y.Y.Y.S.S.A.A.A.A.S.A.U.A.A.A.A.A.A.A.S.U.U.A.A.S.R.R.W.W.~.~.~.~.Q.Q.Q.W.U.A.V.l.d.d.d.a.5.1.h h h h g g f f g g h h h h h g g g g f h h h j j 1.1.1.1.2.5.7.u.a.",
"% % 9 e e e e 0 0 0 0 0 0 0 0 0 0 0 0 0 9 9 9 9 0 0 9 % & & & # # # # # # # # % % 9 0 0 e r r r u u u i i i i t t i s s s s s g g s s s s s s s s s t i i i u r r r r r e 0 0 0 0 0 0 0 0 e e e r e 0 0 0 0 9 9 % % 9 9 % % % 9 9 9 9 9 9 9 9 9 9 9 9 0 9 9 9 9 9 0 0 0 9 9 9 0 0 0 0 0 0 0 0 0 r e r r r r t t p s s g h h g s g g s s s s s s s s p s s s s s p p p p p p p p t p p p s s s s g h h h h j j j j j l l l 1.1.1.1.4.w.w.w.w.e.e.e.e.e.e.e.e.r.t.r.i.i.i.d.d.k.k.m.M.C.A.Y.Y.Y.Y.A.A.A.A.A.A.A.A.U.U.U.U.R.U.R.R.T.T.T.U.U.E.Q.Q.W.W.Q.Q.Q.Q.Q.Q.Q.Q.Q.Q.Q.T.T.W.W.W.W.S.S.U.S.S.U.S.S.R.R.R.R.R.R.E.R.R.U.R.W.W.~./././././.7X7XiX/.~.W.R.S.V.l.g.d.e.<.h g g f h h f f f f f f h h g d s f f f g h h h j k 1.1.<.1.5.5.7.u.",
"& & 9 9 0 0 0 0 0 0 0 0 0 0 0 0 0 0 0 0 9 % % % 0 0 0 0 % % # # & # & & & # & 0 % # # 9 0 0 r r r r r r r r r r r r t t s s s s i s s s s s t s s t s s t i i i u u u u r e e e 0 0 e r r r e e r r r r e 0 0 9 0 9 9 9 9 9 9 9 9 9 9 9 9 9 9 0 0 0 0 0 0 0 0 0 0 0 0 0 0 0 0 0 r r e e 0 e r r r r r s s p p p p s s g g h h h s s s s s s s s p p p s s s s s p p p p p p t t p p p s s s s s g g h h h h j j j j j l l 1.1.1.1.w.w.w.w.e.e.e.e.y.r.t.r.i.i.i.i.i.d.d.z.k.z.l.C.A.Y.Y.Y.Y.Y.U.Y.Y.Y.Y.Y.Y.Y.Y.Y.U.U.U.U.E.E.Q.Q.Q.Q.Q.Q.Q.Q.Q.Q.Q.Q.Q.~.~.~.~.~.~.(.(.~.Q.Q.Q.Q.^.~.Q.W.W.Q.U.U.S.S.S.U.R.R.W.W.W.Q.^.^.^.^.~.~./.sXsXsXsXdXdXfXdXsX/.~.W.S.V.h.i.6.<.h g g d h f f f a f g p g g g g g g d g g h h h h h 1.1.1.1.2.5.7.e.",
"& # # % 9 0 0 q 0 0 0 0 0 0 0 0 0 0 0 0 9 % % % & 0 0 0 % % # # & # # & & & & 0 # # # 0 0 0 0 0 e r r r r r r r r r r r r u i i i i u u s s t s s t s s s s i t u i i u r r r r r r r r u r r r r r r r r e 0 0 0 0 9 9 0 9 9 9 9 0 0 0 0 0 0 0 0 0 0 0 0 0 0 0 r 0 e r r r e r r r r r r r r r r r s s g g g g g g g g h h h h h s s s s s s p p p p s s s s s p p p p p p p p p p p p s s s s s g h h h h j j j j j l l 1.1.1.4.w.w.e.e.e.e.y.r.t.t.i.i.i.i.d.d.d.z.k.z.l.M.C.A.A.Y.U.U.U.U.U.U.U.U.U.U.U.U.U.U.U.Q.Q.Q.Q.Q.Q.Q.Q.Q.Q.Q.Q.Q.Q.Q.Q.Q.~.~.(.(.(.(.(././.(.(.(.(.Q.~.(.~.Q.Q.Q.Q.R.R.R.U.R.W.W.Q.^.^.~.^.^.^.~.~./.iXdXdXdXdXkXkXkXkXkXdXdX/.Q.U.C.g.r.5.3.g d g h f f f a f g d g g g g g g d g d h h h h h 1.1.1.1.1.5.5.7.",
"$ & # # % % 0 0 0 0 0 0 9 9 0 0 0 0 9 0 0 9 9 % & 0 0 0 0 % % % & & # # & # # & & & # % % % 9 0 0 0 0 0 e r r r r e e r r r r r r e e e r r r r t s p s t t g t t i i s i u r r r r r r u t i r r r r r r r r e 0 0 0 0 0 0 0 0 9 0 0 0 0 0 0 0 0 0 0 0 r r r e r r r r s r r t t p s s s s p t t p g j l j j l j j h h j j j j j g s s s s s p s s s s s s p s p p p p p p p p t p p p p s s s s s g g h h h j j j j l l l l l 4.w.w.e.e.e.y.r.t.t.i.i.d.d.d.d.z.z.k.z.l.C.A.Y.Y.Y.U.U.U.U.U.U.Q.Q.T.T.U.U.U.U.E.Q.Q.Q.Q.Q.Q.Q.Q.(.(.(.(.Q.Q.Q.Q.Q.Q.~.~.(.(./././././././././.(././././.(.(.Q.W.W.W.W.W.Q.~.~.~.~.~.~.~.~.~./.iXsXdXfXfXkXkXkXzXcXcXkXkXdXsX(.R.m.i.r.1.h g g g f f h a a f d p d d g g g g d d g h h h h k 1.3.1.1.2.5.5.",
"& & & & # # % % % % % % % % % % 0 9 9 0 0 0 0 0 % % 0 0 9 9 9 % % # # # & & & & # & & 0 % # 9 0 9 0 0 0 0 0 0 e 0 0 0 r r r e 0 r r r r r r t r i i i s t t g t t t t p i i r r r r r t i i t t t t i i t t u r r r r r e e 0 0 0 0 0 0 e 0 0 0 e 0 0 e r r r e r r r s s p r p s h j l j h g g h h l 4.4.1.1.1.l l l l 1.1.1.1.l j g s s s s p s s s s s p p p p p p p p p p p p p p p p s s s s s g g g h h h j j j l l l l l 4.4.w.w.e.e.e.r.t.t.i.i.d.d.d.z.k.k.z.l.l.C.Y.Y.Y.U.T.Q.Q.U.U.U.U.U.U.Q.Q.Q.Q.Q.Q.Q.Q.Q.Q.Q.Q.Q.Q.Q.Q.(.(.(.Q.Q.Q.Q.Q.Q.Q.~.~.(.(././././././././.7X7X/./././.(.~.Q.Q.Q.W.Q.~.~.(.~./././././.sXsXdXfXfXkXkXkXkXzXcXcXcXzXkXfXsX(.U.l.d.7.1.3.g h f h h a a a a p d g g g g g d g g h h h h h k 1.1.1.1.2.5.",
"& & & & & & & & & & & # # % % % 0 0 0 0 0 0 0 0 9 9 9 9 0 0 9 9 % # # # & & & & # # # % % # 9 0 9 9 9 0 0 0 0 0 0 0 r r r r r r y r s g g g p y s r r s s s p t t t t t i t t r t t i t t t i i s s s s t t i i r r r r r r r r 0 0 0 r r r r r r r 0 r r r r r p s s z h g g h l l 1.1.1.l l l 1.1.w.e.e.w.w.4.4.1.1.w.w.4.4.4.1.j h g g s s s s s s p p p p p p p p p p p p p p p p p p s s s s s s g g g h h h j j j l l l l 1.1.w.w.e.e.e.y.t.t.t.i.d.d.d.z.k.k.k.z.l.C.Y.Y.U.U.U.U.U.T.U.U.U.U.U.U.Q.Q.Q.Q.E.Q.Q.Q.Q.Q.Q.Q.Q.Q.Q.Q.Q.Q.Q.Q.Q.Q.Q.Q.Q.Q.Q.~.(.(././././.dXdXdXdXdXdX7X7X/././.~.~.^.^.^.~.~./././.iXiXiXsXsXdXfXkXkXzXzXcXcXzXcXcXcXvXvXkXdXdXQ.Y.k.i.u.5.h h f f h a a a a p f f g g g g g g h h h h h h h 1.1.1.1.5.5.",
"$ $ $ # $ $ $ $ # # # & # # # # % 0 0 0 0 0 0 0 % 9 0 9 0 0 9 9 9 % % # # % & # # # # # # # # 0 9 9 9 0 0 0 0 0 0 r s z g t t t s h i.C.Y.C.d.1.t r r u u u r s t t t p t t t t t s s s s s s s s s s s s s s s i i r r r r r r r r r r r r r r r r r r r p p p s g j l j j l 1.5.w.w.w.5.1.1.5.w.w.e.e.y.e.e.e.e.e.e.e.e.w.4.4.l l j h g s s s s s s p p p p p s s p p p p t t p p p p p p p p s s s s s g g h g h j j j l l l 1.1.w.w.e.e.e.y.r.t.t.i.d.d.d.z.k.k.z.l.l.C.A.Y.Y.Y.Y.U.U.U.U.U.U.U.U.U.T.W.Q.W.T.Q.Q.Q.E.E.Q.Q.Q.Q.Q.Q.Q.Q.Q.Q.Q.Q.Q.Q.Q.Q.Q.Q.(.(.(././.dXdXdXdXdXdXdXdXdX7X/././.(.~.~.~.~././.(././.sXsXdXdXfXkXzXcXcXcXvXvXcXcXcXvXmXmXcXkXdX7XW.V.g.g.u.<.h a a h d a f f f f f h h h g g g h h h h h h h 1.1.1.1.5.5.",
"# # $ $ $ $ $ & # # # & & & # # # # # # % 0 0 0 % 9 % 9 9 9 9 9 0 0 9 % 0 0 0 0 0 % # % % % % % 9 9 9 9 0 0 0 0 0 t j 4.l h g h 1.e.m.Q./.sX~.A.5.p p r 0 r 0 s r t t t t p p p s s s s s s s g g g g g g z g g s s t i t r r r r r r r r r r r r r r r r p p s s j l l l 1.4.w.w.e.e.e.e.w.w.w.w.e.e.e.t.r.t.r.y.y.y.t.y.e.4.4.l l l h g s s s s p s s s s s s s s s s p p p p p p p p p p p p s s s s s g g h g j j j j j l l 1.4.4.w.w.e.e.e.t.t.i.i.d.d.d.z.k.z.z.l.l.C.C.A.A.Y.Y.Y.Y.Y.U.U.U.U.U.U.U.U.U.U.U.R.U.U.U.T.E.Q.Q.Q.Q.Q.Q.Q.Q.Q.Q.Q.T.T.U.T.W.Q.Q.Q.(.(././.dXdXdXdXdXdXdXdX7X/./././.(.~.~.(./.(././.sXdXdXfXkXkXzXcXvXvXvXmXmXmXvXvXmXmXmXcXcXkXdX~.S.V.m.g.a.3.g f h g f f f g g f g g g g g g g g g h h h h l l 1.1.1.1.",
"# # $ $ & $ $ $ # # # & & & & & # # # # # # % % % % % % 9 % % % % % 9 0 r s s s e 0 9 9 9 9 % # 9 9 9 9 0 0 0 0 r s j 1.1.1.e.d.d.g.V.S.F.~.gXsXU.1.p 0 r s 9 r r r r r t r p p t s s s s s s g g g j j j j j j z g g s t s t r u u r r u u r r u u r r t t p p h l 1.l 1.4.e.e.e.r.t.t.t.r.e.w.e.e.e.e.t.t.t.t.t.y.t.t.t.y.w.4.1.1.l j g s s s s p s s s s s s s s s s s s s s p p p p p p p p s s s s s s g h g g z j j j l l 1.1.4.w.w.w.e.e.r.i.i.i.d.d.k.z.k.k.z.l.l.l.C.C.A.A.A.Y.Y.Y.Y.Y.U.Y.U.U.U.U.U.U.U.U.U.U.U.U.U.T.T.E.Q.E.E.E.Q.Q.Q.W.U.U.U.U.U.W.Q.Q.Q.(./././.dXdXdXdXdXdXsX/././././.(.~.~.(./././.sXdXdXdXfXkXcXcXvXmXmXmXmXmXmXmXmXmXmXmXmXmXcXkX/.T.A.A.m.g.1.h g g g f a a g g g f f d g g d d s g g h h h l l 1.1.1.1.",
"$ $ $ $ $ & & & & & & & & & & & # # % # # # # # % % % 9 9 % % % % 9 0 r s j l 4.g s r e 0 9 0 u e 0 9 0 0 0 0 0 y p h k k 5.d.A.W.iX^.W.^.^.sXfXgX^.C.1.y r r 0 0 r r r r r p t p p s s g g g g g h j l l l l l l j g g s s p t t r r r r r r t t t t t t r p s g h j 1.4.w.e.y.e.t.t.t.t.t.r.e.e.e.e.e.r.t.t.t.i.i.i.t.t.e.e.e.w.w.4.l j h g s s s s s s s g g g g s s s s s s s s p p p s s s s s s s s g g g h h h j j j l l 1.1.1.4.w.w.e.e.r.r.t.i.d.d.d.d.d.k.k.l.l.l.c.c.C.A.A.A.Y.Y.Y.Y.U.U.U.U.U.U.U.U.Y.Y.Y.Y.Y.U.U.U.U.U.U.U.U.U.E.T.U.U.U.Y.Y.Y.U.U.U.E.Q.Q.(.(././././././././././.~.(.(.~.(.~.~.(././.sXdXgXkXzXcXvXvXmXmXmXNXmXmXbXvXbXmXmXmXmXmXvXkXsX~.U.C.l.g.e.3.h h g g f f f f f f d d d d d d d d g g h h h 3.3.1.1.1.",
"& & & & & & & & & & & & & # # # # # % # # # # # % % % % % % % % 9 0 0 r i z j j 4.j s s g z j l s s r r 0 0 r r p g j 1.5.r.k.S.~.gXgXsXsXsXgXxXvXvXMXE.e.r 0 u 0 0 r r r t p p p p s s s g g g h j j l l l l l l j z g g g s s p t r r r t t r r r r r r p s g h h j 1.4.w.w.e.t.t.i.t.t.t.t.t.e.e.w.e.e.e.y.r.t.t.t.t.t.t.y.e.w.w.4.l l h g g s s s s s s g g g g g g s s s s s s s s s s s s s s s g g g g h h h h j j j l l 1.1.1.4.5.w.e.e.r.r.t.i.d.d.d.d.z.k.k.l.l.l.C.C.C.C.A.A.A.Y.Y.Y.U.U.U.U.U.Y.Y.Y.Y.Y.Y.Y.Y.Y.Y.Y.Y.Y.Y.Y.U.U.U.U.Y.Y.Y.Y.Y.Y.Y.U.U.U.U.Q.Q.Q.Q.Q.(.(.(.~.(.(.~.~.Q.Q.Q.Q.Q.~.~.(./.7XsXdXdXkXzXcXvXvXmXmXNXNXmXmXmXvXmXmXmXmXmXmXcXkXdX~.S.V.l.g.i.5.<.3.h h f f a a f f d d d d d d d d g g g h h h 3.3.1.1.",
"& & & & & & & & # # # # # # # % # 9 % % 0 0 0 0 % 9 9 0 9 9 9 % 0 0 0 r r s s g l g g l 4.w.1.l j 1.4.j s r r p g h 1.5.e.d.V.S.~.gXgXgXfXgXfXxXvXvXxXfXU.s 0 w 0 0 e r r r t r p p s s s g g g h j l l l l l l l l j j j h h g s p p t p t t p t t p p p s g h h j j 1.1.5.e.e.t.i.d.d.d.d.t.t.e.e.w.w.e.e.e.y.r.r.r.t.r.t.y.e.w.w.w.4.1.j h h s s s s s g g g g g g g g g g g g s s s s s s s s g g g h h h h h h h j j j l l 1.1.1.4.5.w.e.e.e.r.t.i.i.d.d.d.z.k.k.l.l.l.C.C.C.C.C.A.A.Y.Y.Y.U.U.U.U.Y.Y.A.A.A.A.A.A.A.A.A.A.A.A.A.Y.Y.Y.Y.Y.A.Y.A.A.A.A.A.A.A.Y.Y.Y.Y.U.U.U.U.U.U.Q.Q.Q.Q.Q.E.Q.Q.Q.Q.~.~.(./.7XdXdXkXzXcXvXmXmXmXNXNXNXNXmXmXmXmXmXmXmXmXmXcXzXfX/.S.V.m.k.g.u.5.<.h h h g a a f f d d d d s s d d g g g g h h h j j j ",
"# # # 9 9 9 9 9 % % % % % % 9 9 0 0 0 0 0 0 0 0 0 0 0 0 0 0 0 0 0 0 e r r i i i r t g l l l h g h 1.4.4.h p p p g h 1.e.r.j.V.S.W.~.^.sXxXxXxXxXxXxXbXxX~.g 0 r r 0 r r r r r r t p s s s s s g g j j l l l l l l j j j j j j h h s p p p p p p p p p s p s g h h h j l 1.1.e.e.t.t.d.d.d.d.i.t.r.e.e.w.w.e.y.y.e.e.e.e.e.e.e.e.y.e.w.w.1.1.l h g g g g g g g g g g g g h h g g g g g g g g g g g g g h h h h h h h j j j j l l 1.1.1.4.w.w.e.e.e.r.t.i.i.i.d.d.z.k.k.z.l.l.c.C.C.C.A.A.Y.Y.Y.Y.U.U.U.U.Y.Y.A.A.C.C.C.C.C.C.A.A.C.C.C.A.A.A.A.A.A.A.A.A.A.C.C.C.C.C.C.C.C.A.A.A.A.A.A.Y.Y.Y.Y.Y.U.U.U.U.R.W.~.(./.7XdXkXkXcXvXmXmXmXNXNXNXNXmXmXmXmXmXmXmXmXvXcXcXzXfX~.S.A.V.k.i.e.5.1.3.h h h h g g g g g g g d d d s g g g g h h h h j j ",
"9 9 9 9 9 9 9 9 0 0 0 0 0 9 9 9 0 0 0 0 0 0 0 0 0 0 0 0 0 0 0 0 0 0 r r r u u u r i s g s s s s p s s s p p s g g h k 1.5.r.V.S.F.^.^.gXxXxXcXxXvXxXVXvXdXr.r 0 r r r r r r u u t p s s s s s s g h j j l l l l j j j j j j j j h h s p p p t t p p p p s s g g h h h j l 1.e.e.t.t.d.d.d.d.i.t.t.r.e.w.w.e.e.e.e.e.e.e.e.e.e.e.e.e.e.w.4.1.l l h h h g g g g h g g g g h h h h h h g g g g g g h h h h h h h h h h j j j j l l 1.1.4.4.w.w.e.e.e.y.r.i.i.i.d.d.g.k.l.l.l.m.C.C.A.A.Y.Y.Y.Y.U.U.U.U.U.U.U.Y.A.A.C.C.C.C.C.C.C.C.C.C.C.C.C.C.C.C.C.C.C.C.C.m.m.l.V.m.m.m.m.M.M.M.m.C.C.C.C.A.A.A.S.S.Y.U.R.W.Q.~./.7XdXkXkXcXmXmXmXNXNXNXNXNXNXmXmXmXmXmXmXvXcXcXzXkXsX^.S.A.V.g.7.6.1.1.3.h h h h h g g f f f f f f f f g g g g h h h h h h ",
"9 9 9 9 0 0 0 0 0 0 0 0 0 0 0 0 0 0 0 0 0 0 0 0 0 0 0 0 0 0 0 0 0 e r r r u u r u u u t i i i t p t t t p p s g g h j k k 7.l.S.^.iXgXxXvXvXbXvXZXxXvXvXvX(.w.y r r r r r r i s p p s s s s s s g g h j j j j j j j j j j j j j j j g s s p p t p p p p p s s s s g h h 1.1.e.e.t.t.d.d.d.d.d.t.t.r.e.w.w.e.e.e.e.e.e.e.e.e.e.e.w.w.w.w.4.1.l j h h h h h h h h g g g h h h h h h h h h h h h h h h h h h h h h h h j j j j l l l 1.4.4.4.w.e.e.y.y.r.t.i.i.d.d.d.k.k.l.l.m.C.C.A.A.Y.Y.Y.U.U.U.U.U.U.U.U.Y.Y.Y.A.A.C.C.C.V.l.l.m.m.m.m.m.m.m.m.M.M.m.l.l.l.l.l.l.l.l.l.l.l.l.l.l.l.l.l.m.C.C.C.C.C.A.A.U.U.W.Q.(./.dXfXkXcXvXmXmXNXNXNXNXNXNXmXmXmXmXvXcXzXkXkXkXdX/.W.S.A.m.i.6.<.1.1.3.h h h h h g d f f f f a f f g g g f f g g g h h h ",
"0 0 0 0 0 0 0 0 0 0 0 0 0 0 0 0 0 0 0 0 0 0 0 0 0 0 0 0 0 0 0 0 0 e r r r r u u r r r t i t r r p p p p s s g g h l 1.1.1.e.h.S.^.sXfXvXvXbXZXmXmXvXNXVXVXzXQ.z.t.e.l p r t s s s s g g g g g g g g h h h j j j j j j j j j j j l j j h h h h s p p p p p p p p p f h j 1.4.e.e.t.t.d.d.d.d.i.t.t.r.e.e.w.1.1.1.w.w.1.1.1.1.4.w.4.4.4.4.1.l j j h h h h h h h h h h h h h h h j h h h h h h h h h h h h h h h h h j j j j j l l l l l 1.1.4.5.w.e.e.y.r.r.t.i.i.d.d.k.l.l.M.C.C.A.A.Y.Y.U.U.U.U.U.U.U.U.U.U.U.U.S.A.A.A.C.C.c.c.l.l.l.l.l.l.l.l.l.l.l.l.l.l.l.l.k.k.k.k.k.k.k.k.l.l.l.l.l.l.l.m.V.C.C.C.A.U.R.W.Q.(./.dXdXkXcXcXmXmXNXNXNXNXNXNXmXmXcXzXfXsX/././.~.Q.R.A.M.g.7.2.<.<.1.3.3.3.h h h h g f f f f a a f g g f f f g g g g g h ",
"0 0 0 0 0 0 0 0 0 0 0 0 0 0 0 0 0 0 0 0 0 0 0 0 0 0 0 0 0 0 0 0 0 e e e r r u r r t i i r r t i t r p s s s g h l 1.w.e.e.r.j.m.S.^.sXxXvXmXVXmXcXmXmXVXmXmXmXkXdX(.m.1.p p s s s s h h h g g g h h h h h h h h j j j j j j j l l l l l 4.4.1.j s p p p p p p p p g h j 1.4.e.y.t.t.i.i.i.t.t.t.r.e.e.w.1.1.1.3.1.l l l l l 1.1.1.1.1.1.1.l j h h h h h h h h h h h h h h h j j h h h h h h h h h h h h h h j j j j l j j j j l j l l l 1.1.1.1.e.e.e.y.e.r.r.r.i.d.d.k.l.l.M.M.C.A.A.Y.Y.U.U.U.U.U.U.U.U.U.U.U.S.S.A.A.C.C.C.C.l.l.l.l.l.l.l.l.l.k.k.k.k.k.k.k.k.k.g.g.g.g.k.k.k.k.k.k.l.l.l.l.m.m.C.C.C.A.U.U.Q.Q.(./.dXdXkXzXcXmXmXNXNXNXNXNXmXmXcXfX7X^.R.R.U.U.R.U.V.g.i.5.2.3.3.<.3.3.3.3.h h h h h h h h a a h g g g f f h h h g g g ",
"0 0 0 0 0 0 0 e 0 0 0 0 0 0 0 e 0 0 0 0 0 0 0 0 0 0 0 0 0 0 0 0 0 0 e e r r r r u u u u u i i i p p p s s s g h h l w.e.5.5.r.h.W.iXfXxXbXVXZXkXcXZXvXNXNXmXVXNXbXzX~.k.l f g j g g h h h h h h h h z z z z h z j l l h h l l l 1.1.1.1.4.w.w.w.k p t p p p p p s g h h l 1.w.w.e.t.i.i.i.i.t.e.e.w.5.1.1.1.j h 1.3.j h h h 3.1.l l l 1.1.l h h h h h h h h h h j j j j j j j j j j j j j j j j h h h h h h h h 1.3.3.j j j j j j j 1.1.1.1.1.1.1.5.e.e.y.y.r.r.r.t.i.d.d.k.l.l.C.C.A.A.Y.Y.U.U.R.U.U.E.E.U.U.R.U.U.Y.Y.A.A.C.C.C.C.l.l.l.z.l.k.l.l.l.l.k.k.k.k.k.k.k.k.k.l.l.l.l.k.k.l.l.l.l.l.m.V.C.C.C.A.S.U.U.Q.Q.(./.dXdXkXzXcXvXmXmXmXNXNXmXmXxXdXQ.S.Z.Z.V.V.V.M.h.s.e.5.2.1.1.1.3.3.3.3.<.3.3.h h h h h h g f f f f f f f f g g g g ",
"0 0 0 0 e e r r 0 0 0 0 e e e e 0 0 0 0 0 0 0 0 0 0 0 0 e e e e e e r r r r r r u u u r u t t t p p p s s s g h h j 1.5.5.5.s.l.C.~.xXxXfXsXsXsXfXfXQ./.kXzXcXcXmXmXdXl.1.h j j h h h h h j h j j j j j j j j h l l l j j l l l 1.1.1.1.w.w.w.e.e.l g p p s p p s s g h j 1.1.w.w.e.t.y.t.t.e.w.1.1.1.3.k h h h 3.3.h h h h h 3.l l l l l h h h h h h h h h h h j j j j j j j j l j j j j j j j j j h j h h j j 3.3.j j j j j j j j j 1.1.1.1.1.1.1.e.e.e.e.e.y.e.r.t.i.d.d.k.k.m.m.C.A.A.Y.Y.U.U.U.U.Q.Q.T.U.Q.U.U.U.U.Y.Y.S.A.A.C.C.l.l.l.l.l.l.l.l.l.l.l.l.k.l.l.l.l.l.l.l.l.l.l.l.l.l.l.l.l.m.V.C.C.C.C.A.Y.U.U.W.Q.Q.(.7XdXlXkXzXcXvXmXmXmXmXmXcXfX~.S.h.f.h.h.g.d.s.u.6.<.2.2.1.1.1.3.3.3.<.3.3.h h h h h h h g g g g g g f f g g g g ",
"e e e e 0 0 0 0 0 0 0 0 0 e 0 0 0 0 0 0 0 0 0 0 e e e e e e e e r r r r r r r u r r u r r t t t p p s s s s g g h h l 1.5.e.d.l.j.C.~.fXsXS.S.W.dXsXA.l.U.Y.l.U.~.dX/.k.5.1.1.h j j h h h h l l l l l 1.1.l j j l 1.1.l l l 1.1.1.e.e.e.e.e.w.e.r.e.1.g p s g p s s h h h l 1.1.w.w.e.w.e.e.e.1.1.k h h h h h h j j j h h h h h l j l l l h h h j j j j j j h h j j j j j j j j l l l l l l l l j 3.j j j j j j j j j j j j j j j j j k h 3.3.1.1.1.1.5.e.e.e.e.e.e.e.r.t.i.d.d.k.l.l.m.C.A.A.Y.U.U.U.U.Q.E.Q.Q.Q.T.T.T.T.T.U.U.Y.Y.A.C.C.c.l.l.l.l.l.l.l.l.l.k.l.l.l.l.l.l.l.l.l.l.l.l.l.l.l.l.m.m.V.C.C.C.A.A.S.U.U.T.Q.Q.(./.dXdXdXkXkXzXvXmXmXvXvXkXsXW.V.s.g.s.u.u.u.7.6.<.6.6.5.6.1.<.3.3.<.3.3.h h h h h h h h h h g g g f f f f f g ",
"r e e e 0 0 0 0 e 0 0 0 0 0 0 0 e e 0 0 0 0 e e e e e e e e e r r r r r r r r r r r r r r r t t t p p s s s g g h j l 1.1.5.t.d.d.i.V./.sXW.C.S.Q.Q.C.d.d.d.5.d.a.l.m.i.5.w.w.l 1.1.l j h k l l l 1.1.1.1.1.1.1.1.1.1.1.1.1.1.w.e.r.r.r.t.r.r.r.i.i.t.1.p p g g g g g h h j l 1.1.1.1.1.e.e.e.1.1.1.h h h h h h h h j j h h h h l l l l l h h j j j j j j j j j l j j j j l l l l l l l l l l l 1.1.3.3.j j j j j j j j j j j j j j l l k 3.3.3.1.1.1.1.1.5.5.5.e.e.e.e.r.r.i.i.d.g.g.k.l.m.C.A.Y.Y.Y.U.U.U.Q.Q.Q.Q.Q.Q.Q.Q.Q.Q.E.U.U.Y.Y.A.C.l.l.l.l.l.l.l.l.l.l.l.l.l.l.l.l.l.l.l.l.l.l.l.l.l.m.m.V.C.C.C.C.A.S.Y.U.U.U.Q.Q.Q./././.7XdXlXkXcXzXzXcXzXfX/.U.m.h.s.i.u.r.7.6.6.6.5.5.5.5.2.<.<.1.1.3.3.3.h h h h 3.3.3.h h g g h h h h h h ",
"r r r 0 0 e 0 0 r r e 0 0 0 0 0 e 0 0 e 0 0 0 e e e e e e e e e r r r r e e e r r r r r r r t r t p s s s s g h j l l 1.1.1.5.e.6.5.r.m.A.l.j.j.l.l.k.i.d.k.i.i.r.a.r.e.e.e.t.t.e.w.1.1.1.1.1.l 1.1.5.5.5.1.1.1.1.1.1.1.1.1.e.r.t.i.i.d.g.k.g.g.l.l.k.5.p p s s g g h h h h h l 1.1.1.1.1.e.e.1.1.1.h h h h h h h j j j h h h h l l l j h l j j j j j j j j j j l l l l l l l 1.1.1.1.1.1.1.1.1.1.1.j j 3.j j j h h h h k k 3.3.j h h h k k 1.1.1.1.1.1.1.1.1.1.5.5.5.e.e.e.y.r.a.i.i.d.g.k.l.m.C.A.Y.Y.Y.U.U.Q.Q.Q.Q.Q.Q.Q.Q.Q.Q.Q.Q.U.U.Y.A.C.C.C.l.m.l.l.l.l.l.l.l.l.l.l.l.l.l.k.l.l.l.l.l.m.m.M.C.C.C.C.C.A.A.A.S.Y.U.U.T.W.Q.Q.Q.Q.Q.~./.sXdXdXkXkXfXsXQ.C.m.l.d.u.7.7.6.6.5.7.7.e.e.7.5.6.5.1.<.3.h h h h 3.3.3.3.3.h h h h 3.h h h h ",
"r r r r r r r e r r r e e 0 e 0 e 0 e e 0 0 0 e e e e e e e e e e e e e e e e r r r r r r r r r t p s s g h h h j l 1.1.1.1.1.5.6.5.r.d.g.s.s.s.h.j.k.d.d.m.l.d.g.i.e.e.e.w.e.t.e.e.e.e.e.w.5.5.5.e.e.e.w.5.5.1.5.1.1.1.1.5.e.a.i.d.d.d.m.A.A.A.A.C.g.5.g p p p g h h h h h h j 1.1.1.1.1.1.1.1.1.3.h h h h h h h h j j j h h j l l l j h j j h h j l l j j j l l l l l l 1.1.1.1.1.1.1.1.1.1.1.1.1.1.3.1.3.3.3.k k k k k 3.3.3.h h h h h k k k 1.3.1.1.1.1.1.1.1.1.1.1.1.5.5.5.e.y.r.a.i.d.g.l.M.M.C.A.A.U.U.U.U.U.Q.Q.Q.Q.Q.Q.Q.Q.Q.Q.E.U.Y.A.A.C.C.l.m.m.l.m.m.m.m.m.m.l.l.l.l.k.l.l.l.l.l.m.m.m.C.C.C.C.C.C.A.A.A.S.Y.U.U.T.U.U.U.U.U.U.W.W.Q.~.7XsXsX7XQ.U.V.m.g.i.8.7.7.7.5.6.7.e.r.e.7.7.7.5.1.3.3.h h h 3.3.3.3.3.3.h h 3.3.3.h h h ",
"r r r r r r r r r r r r e e 0 0 e e e 0 0 0 0 0 e e e e e e e e e e e e e e r r r r r r r r r r t t s g h h 1.1.l 1.e.e.e.5.5.5.5.6.e.t.i.i.i.s.d.d.k.d.d.k.l.k.i.r.r.r.y.e.w.e.e.r.r.r.t.t.t.r.r.t.i.i.i.t.e.w.5.5.5.5.5.5.e.a.i.d.d.d.m.S.U.W.U.C.g.r.1.g g g h h j j j h j j 1.1.1.1.1.1.1.1.1.l l 3.3.j h h h h j j j j j j 1.1.l l j l j h h j l l j j l l l l 1.1.1.1.1.1.1.1.1.1.1.1.1.1.1.1.1.1.1.1.1.1.k k k k k 1.1.1.h h h h k k k k k k 3.k k k 1.1.1.1.1.1.1.1.1.1.5.5.5.6.e.a.i.d.d.k.l.l.C.A.A.A.Y.Y.Y.U.Q.Q.Q.Q.Q.Q.Q.Q.Q.U.U.Y.A.A.C.C.C.C.m.m.m.m.m.m.m.m.l.l.l.k.k.k.k.g.g.l.l.m.m.V.C.C.C.C.A.A.A.A.Y.U.U.U.U.U.U.U.S.S.S.U.S.U.W.R.W.Q.W.S.C.m.l.d.i.u.u.u.r.e.e.e.e.7.7.5.r.7.6.<.3.3.3.h 3.3.3.3.3.3.3.3.3.3.3.3.3.h ",
"r r r r r r r r e e 0 0 0 0 0 0 e e e e e 0 0 0 e e e e e e e e e e e e e e r r r u r r r r r t t t s h h 1.1.1.1.e.t.t.t.e.e.e.e.r.d.d.i.i.i.s.d.d.d.d.d.d.d.d.e.t.i.r.e.e.y.e.e.e.r.i.d.d.d.d.d.d.g.l.l.k.d.r.e.e.e.e.6.5.e.r.t.i.i.d.l.C.U.Q.R.A.l.g.5.h h h h j 1.1.1.1.j j 1.1.1.1.1.1.1.1.1.1.1.1.1.1.h h h h h j j 3.j 1.1.1.1.l l l l j h l l l l l l l l 1.1.1.1.1.1.1.1.1.4.4.4.4.4.1.1.1.1.1.1.1.1.1.k k k 3.1.1.1.1.3.3.h h 1.1.1.1.h k k k k k 1.1.k 3.1.1.3.3.3.1.1.1.1.1.5.6.r.i.i.i.d.g.l.m.m.m.C.C.C.A.U.U.Q.Q.Q.Q.Q.Q.E.U.U.Y.Y.Y.A.A.A.A.C.C.m.m.m.m.m.l.l.l.l.k.k.g.d.d.g.g.g.k.l.m.V.V.C.C.A.C.C.A.A.Y.U.U.U.U.U.U.S.S.S.S.S.S.C.V.V.C.C.C.C.m.l.g.d.d.d.d.i.i.a.u.u.7.5.6.u.7.5.1.<.1.3.h 3.3.3.3.3.3.3.3.3.3.3.3.3.3.",
"r r r r r r r r 0 e e 0 0 0 0 0 e e e e e e e e e e e e e e e e e e e e e e e e r r r r r r r t r t s g j l 1.4.w.e.r.i.i.i.i.r.r.d.d.d.d.i.i.t.d.d.d.d.i.i.t.t.e.r.r.t.r.r.r.r.a.r.r.r.i.d.k.l.l.l.C.Y.Y.Y.C.k.d.d.i.e.e.r.t.t.d.g.g.i.j.m.S.R.U.A.l.g.i.e.1.k l l 1.1.1.1.1.l 1.1.1.5.5.5.5.5.5.1.1.1.1.1.k 1.h h h k 1.1.1.1.1.1.1.1.l l l k l l l l l l l l 1.1.1.1.1.1.5.5.5.1.1.1.5.e.1.1.1.1.1.1.1.1.1.1.1.1.1.1.1.1.1.1.1.1.1.<.<.<.1.1.1.<.<.<.<.<.<.1.<.<.3.<.1.<.1.3.<.<.<.<.1.1.5.6.7.e.a.u.i.g.g.g.g.g.g.l.m.A.U.E.Q.Q.Q.U.Y.Y.Y.Y.Y.Y.A.A.A.C.C.C.m.m.m.l.l.l.l.l.l.l.h.g.d.d.d.i.d.d.g.h.l.m.C.C.C.C.C.C.C.A.A.S.U.R.R.R.U.Y.Y.A.S.C.V.l.l.l.l.V.l.h.g.d.i.i.f.d.d.d.d.d.i.u.7.6.6.6.5.1.3.3.3.3.3.3.h h h 3.1.<.1.1.3.h h h ",
"r r r r r r r r r r r r e e e 0 e e e e e e e e e e 0 0 e e e e e e e e e e e e r r r r r r r t t t s s h l 1.4.w.e.t.i.i.i.i.i.i.d.k.k.d.d.d.d.d.d.d.d.i.t.r.e.e.e.e.r.r.t.r.r.r.r.r.r.i.d.g.k.M.A.U.Q././.Q.A.l.l.l.d.d.i.i.i.g.g.g.g.h.k.V.S.R.U.C.l.l.g.a.5.5.1.1.2.5.5.1.1.1.1.5.e.e.e.e.y.e.w.5.5.5.1.1.1.1.1.1.1.1.1.1.1.1.1.1.1.1.1.l l l l l l l l 1.1.1.1.1.1.5.5.5.5.5.1.1.1.5.e.1.1.1.1.1.1.1.1.1.1.<.<.<.<.<.<.<.<.<.<.<.<.<.<.<.<.<.<.<.<.<.<.<.<.<.<.1.3.3.<.1.1.<.<.<.<.<.<.1.2.1.5.5.5.7.a.i.i.i.i.i.i.d.l.C.C.Y.Y.Y.A.A.C.C.A.A.A.A.A.A.C.C.C.m.m.m.l.l.l.l.l.l.l.l.g.d.d.i.i.u.u.i.d.g.l.m.m.m.V.V.C.C.C.C.C.A.A.Y.S.A.C.C.C.C.C.V.l.h.h.h.h.g.g.d.i.u.u.u.u.a.i.i.i.i.i.u.7.6.6.6.1.<.1.3.1.3.3.3.h h h 3.1.<.1.1.1.k k ",
"r r r r r r r r r e r r r r r r e e e e 0 0 0 e 0 0 0 0 0 e e e e e e e e e e e r r r r r r r r t i s s h l 1.1.w.e.t.i.i.i.i.i.i.z.k.k.z.z.z.d.d.k.g.d.d.i.t.e.r.e.6.e.r.t.r.e.r.r.r.t.i.d.d.j.m.A.U./.kXzXdXQ.Y.Y.Y.C.l.g.g.g.l.k.g.k.l.l.V.S.W.U.C.l.l.l.d.e.e.e.e.e.e.5.5.1.1.5.e.e.e.e.r.i.t.e.w.5.e.e.5.1.1.1.1.1.1.1.1.1.1.w.w.1.1.1.1.1.1.1.1.1.1.1.1.1.1.1.5.w.w.w.w.w.5.5.1.1.1.e.1.5.1.1.1.1.1.1.1.1.<.<.<.<.<.<.1.1.<.<.1.1.1.1.1.1.<.<.<.<.<.<.<.<.<.<.<.1.1.1.1.1.<.1.1.<.<.<.<.<.1.1.1.1.6.7.7.7.6.7.7.e.i.d.g.k.l.m.m.m.l.l.l.m.l.m.C.A.A.A.C.C.m.m.m.l.l.l.l.l.l.l.l.g.d.d.i.u.7.7.u.i.s.d.g.k.l.l.l.l.l.l.l.l.m.m.V.V.m.m.m.l.l.l.h.g.g.g.g.g.g.s.i.u.8.8.8.8.u.u.i.s.s.i.u.8.7.6.5.1.<.<.<.<.3.3.3.h h h 3.3.1.1.1.1.3.1.",
"0 0 0 e e e e 0 r e r r r r r r e e 0 0 0 0 0 e 0 0 0 0 0 0 0 0 e e e e e e e e e r r r r r r r u i i s g h 1.1.w.e.e.t.i.i.i.i.i.d.z.z.d.d.d.d.d.d.d.k.k.d.i.i.i.r.e.e.r.t.r.e.r.r.r.i.s.d.d.s.g.l.Y.(.lXcXkX7X~./.(.Y.l.g.l.m.l.m.l.l.l.V.V.C.U.A.l.d.g.g.d.i.i.i.r.e.e.y.e.e.6.e.r.r.y.y.i.i.d.i.e.e.e.e.e.e.e.e.5.5.5.5.5.5.5.e.e.5.1.1.1.1.1.1.1.1.1.1.1.1.1.1.w.w.e.e.w.w.5.5.5.5.5.5.5.5.1.1.1.1.1.1.1.1.1.1.1.<.<.<.<.<.<.<.<.<.<.<.<.<.1.1.1.1.<.<.<.<.<.<.<.1.1.1.<.1.1.1.1.1.<.<.<.1.1.1.1.1.2.5.7.5.5.5.7.7.r.u.i.i.i.d.g.g.d.i.i.i.d.g.l.m.C.C.C.C.m.m.m.m.l.l.k.k.l.l.l.g.g.d.i.u.u.u.u.r.u.a.i.i.i.s.d.d.d.g.g.g.g.g.g.g.h.g.g.g.d.d.d.d.d.s.i.u.u.u.u.u.u.u.u.u.u.u.i.i.s.i.u.u.7.7.5.2.1.<.<.3.1.3.h h h h h h h h 3.3.3.3.",
"0 0 0 0 e e e 0 0 e e e e e e r e e e 0 0 0 e e 0 0 0 0 0 0 0 0 e e e e e e e e e e r r r r r r r u i s s h l 1.4.w.e.y.t.t.i.i.d.d.d.d.d.d.d.d.d.i.i.d.d.k.k.d.d.d.t.r.r.r.e.e.r.r.r.i.j.g.j.d.d.g.C.U./.lXkXdXdXkXdXU.h.h.M.C.m.S.R.W.W.U.S.S.V.V.l.h.h.g.l.V.C.m.g.a.r.a.a.e.r.a.a.a.a.a.i.i.d.i.t.e.5.e.e.e.e.e.e.e.e.5.5.e.e.e.e.e.e.e.5.1.1.1.1.1.1.1.1.1.1.5.w.e.e.e.e.w.e.5.5.5.5.5.5.5.1.1.1.1.1.1.1.1.1.1.1.1.<.<.<.<.<.<.<.<.<.<.<.<.1.1.3.3.3.3.3.3.3.3.3.3.3.1.1.1.<.<.1.1.1.1.1.1.1.1.1.1.2.5.5.5.6.6.6.7.7.7.6.6.6.r.u.i.u.e.7.7.e.e.i.d.g.g.g.l.l.l.m.m.l.l.g.g.k.k.k.g.g.d.i.i.u.8.7.7.7.7.7.e.7.7.r.u.u.u.u.i.u.u.i.i.i.d.d.d.i.i.i.i.u.u.7.7.7.7.7.7.8.8.8.8.u.u.u.u.u.u.u.8.7.7.7.5.1.<.1.3.1.3.3.3.h h h h f h h h h 3.",
"0 0 0 0 e e e e 0 0 e e e e 0 e 0 0 0 0 0 0 e e 0 0 0 0 0 0 0 0 0 0 0 0 0 e e e e e e r r r r r r r i t s g h l 1.4.e.e.t.t.t.t.d.d.i.i.i.i.d.d.i.i.i.i.d.d.k.k.g.d.d.i.t.r.e.e.r.r.a.d.j.g.d.d.g.g.g.l.S.Q.7XdXdXfX/.A.h.l.C.V.V.S./.fXdXQ.U.W.A.A.C.C.V.l.V.U.~./.~.C.i.6.e.e.r.r.a.a.a.a.i.i.k.d.i.r.6.6.e.y.e.e.e.e.e.e.e.e.e.e.e.e.e.e.e.e.1.1.1.1.1.1.1.1.5.5.e.e.e.e.e.e.e.e.5.5.5.5.5.5.5.1.1.1.1.1.1.1.<.<.<.<.<.<.<.<.1.1.1.<.<.<.<.<.1.1.3.3.3.3.3.3.3.3.3.3.3.3.3.1.1.<.<.<.<.<.1.1.1.1.1.1.1.2.2.5.5.6.6.6.7.6.6.5.2.6.7.r.7.6.5.6.1.5.6.7.u.i.i.s.i.d.g.k.g.g.g.g.g.g.g.g.g.d.i.i.u.u.r.7.7.6.6.6.6.6.7.7.7.7.7.7.7.7.7.7.u.u.u.u.a.a.u.u.u.7.7.6.6.6.6.6.7.7.7.7.0.7.7.7.7.7.7.7.7.7.5.6.1.<.<.3.1.1.3.3.h h h g f f h g h h ",
"r r e e e e e r e e e e 0 0 0 0 e e e e 0 0 0 e 0 0 0 0 0 0 0 0 0 0 0 0 0 0 e e e e e e e r r r r r i t s s g h l 1.4.w.e.e.t.t.t.t.t.t.t.i.i.t.i.i.i.i.i.i.d.d.k.k.k.d.i.t.t.t.a.i.i.d.d.d.g.h.l.g.j.d.l.C.U.Q.(.~.R.C.m.C.A.V.m.C.W.dXdX/.W.Q.~.~.W.R.S.C.A.U.sXcXmXkXU.d.r.e.r.r.a.a.a.a.i.i.d.i.i.r.e.e.e.e.e.e.e.e.e.e.e.e.e.e.e.e.y.y.e.e.1.1.1.1.1.1.1.5.5.5.e.e.e.e.y.e.e.e.e.5.5.5.5.5.5.5.1.1.1.1.1.1.1.1.1.1.<.<.<.<.1.1.1.1.<.<.<.<.1.1.1.1.3.1.1.<.<.<.1.1.1.1.1.1.3.3.<.<.3.<.<.<.<.1.1.1.1.1.2.2.5.5.6.6.6.6.5.5.6.6.5.6.5.5.6.6.1.6.6.6.5.6.7.7.7.r.a.i.i.i.i.i.d.d.d.d.d.d.i.i.u.u.u.0.7.6.6.6.6.6.6.7.7.7.6.6.6.6.6.6.6.6.6.5.6.6.6.7.7.6.6.6.2.2.6.6.6.6.5.5.6.5.5.5.5.5.6.6.6.5.5.6.6.1.1.<.<.<.3.3.3.h h h h h h g g g ",
"r r e e e e e r e e e e 0 0 0 e e e e e e e e e 0 0 0 0 0 0 0 0 0 0 0 0 0 0 e e e e e e e e r r r t i t t s s g h h l 1.w.w.w.e.t.t.r.t.t.t.t.t.r.r.r.r.t.t.i.i.k.k.k.k.d.d.d.d.i.g.k.k.d.d.l.C.l.h.d.g.g.k.m.C.U.A.C.C.Y.U.S.C.S.S.S.~.dXfXsX/.dXdX~.W.W.U.U.W./.vXSXAXxXW.g.7.i.i.i.i.i.i.i.i.i.i.a.e.e.e.e.6.e.e.e.e.e.e.e.e.e.e.e.e.e.e.e.5.5.5.1.1.1.1.5.e.5.5.e.e.e.y.r.r.e.e.e.5.5.5.5.5.5.5.5.1.1.1.5.5.1.1.1.<.<.<.<.1.<.<.<.<.<.<.<.<.1.1.1.3.3.3.<.<.<.<.<.<.1.<.<.1.<.<.<.1.3.3.3.3.<.<.<.<.<.<.1.1.<.<.5.5.5.5.5.5.2.1.<.<.1.5.<.<.2.2.2.1.<.<.<.<.6.6.5.5.7.7.7.7.e.e.u.u.a.a.a.a.u.u.0.7.0.6.6.6.6.6.7.7.7.7.7.6.6.5.6.6.5.6.6.2.2.6.6.6.6.6.2.2.2.2.6.6.2.6.6.5.6.6.6.6.5.6.6.2.5.5.5.6.6.2.1.1.<.<.<.3.3.3.h h h h h g f f ",
"r r 0 0 0 r r r r e e e r r e 0 r r e e e e e e 0 0 0 0 0 0 0 0 0 0 0 0 0 0 0 0 0 e e e e e e e r r t t i i s s s g h j l 4.w.w.e.e.e.e.e.e.e.e.e.y.r.r.r.r.i.i.d.d.d.g.g.g.k.k.l.k.l.m.l.h.m.S.C.m.l.l.g.g.g.m.C.C.A.A.A.A.U.U.S.C.S.~.fXdX/.~.sXsX~.W.W.W.W.Q.~.kXNXSXSXvXQ.s.i.d.d.i.i.d.g.i.i.i.a.a.i.a.e.5.e.e.e.e.e.e.e.e.e.e.e.6.5.5.e.e.e.e.5.1.1.1.5.5.5.5.e.e.e.e.e.e.e.e.e.5.5.5.e.5.5.5.5.5.1.1.1.1.1.1.1.1.1.1.1.1.1.1.1.1.<.<.<.<.<.<.1.3.1.1.1.1.<.<.<.<.<.<.<.<.<.<.<.1.1.1.3.3.<.<.<.<.<.<.<.<.<.<.<.<.1.1.2.2.<.<.<.<.1.2.2.6.7.7.5.6.<.<.<.2.6.6.6.6.6.6.6.6.5.5.5.6.6.6.6.7.6.6.6.6.6.6.6.6.5.6.7.7.7.7.6.6.5.5.5.6.6.6.5.6.2.6.5.6.6.2.2.1.1.1.1.1.2.2.6.5.5.5.5.5.6.6.6.6.6.6.6.6.2.2.1.1.1.<.3.3.3.3.3.h 3.h f f a f ",
"r r 0 0 r r r r r r r r r r r r r r r r r e e e 0 0 0 0 0 0 0 0 0 0 0 0 0 0 0 0 0 0 e e e e e e r r r r t i i i p s g h l l 1.1.4.w.w.w.w.w.w.w.w.e.e.e.e.r.t.i.i.d.d.d.d.d.g.k.k.k.m.C.C.l.m.C.A.A.C.l.g.g.l.l.m.m.V.C.C.C.A.A.S.S.U.Q./.^.W.W.Q.~.Q.W.W.Q.Q.~.sXfXvXAXDXSXcXQ.h.V.C.m.k.k.g.d.i.i.a.i.i.i.r.e.e.e.e.e.r.r.r.r.y.r.r.e.e.6.e.e.e.5.5.5.1.5.5.5.5.5.e.e.e.6.e.e.r.r.e.e.e.e.5.5.5.5.5.2.2.2.2.1.1.1.1.1.1.1.1.1.1.1.1.1.1.<.<.<.<.<.<.<.<.<.<.<.<.<.1.3.3.<.<.<.<.<.<.1.1.1.3.1.<.<.<.<.<.<.<.3.<.<.<.<.<.1.1.1.<.<.<.<.1.6.6.6.6.6.6.2.2.2.2.2.2.2.2.2.2.2.2.2.2.2.2.2.2.6.6.5.6.6.2.6.6.6.6.6.2.6.6.6.6.6.6.5.5.5.5.5.6.5.6.6.2.2.6.6.6.6.2.2.2.1.1.1.2.2.2.6.6.6.2.2.2.2.1.1.6.6.6.6.2.2.2.1.<.<.1.3.3.3.3.3.h h f f f f ",
"r e 0 0 r r r r r r r r r r r r r r r r r e 0 e e e e e e e 0 0 0 0 0 0 0 0 0 0 0 0 0 0 e e e e e r r u r u t i p s s g h j j l l l l 1.1.1.1.1.1.5.w.e.e.r.r.i.i.i.i.d.d.d.g.k.l.M.A.U.U.Y.C.V.A.A.A.m.l.l.l.l.m.m.C.C.C.C.C.C.A.S.R.W.Q.Q.W.W.W.Q.Q.W.Q.~./.dXfXkXvXVXDXFXAXmX7XdX/.W.A.C.M.k.i.a.a.i.i.i.i.t.e.e.r.r.a.a.a.a.i.i.i.i.a.e.e.e.e.e.e.5.5.5.5.5.5.e.e.e.6.6.e.e.y.y.e.e.e.e.e.5.5.5.5.6.6.6.1.1.6.2.2.2.2.2.1.1.1.1.1.1.1.1.1.1.1.1.<.<.1.1.1.1.<.<.3.3.<.3.<.<.1.1.<.<.<.<.<.<.1.1.<.<.<.<.<.<.<.<.<.<.<.<.<.<.<.<.<.<.1.2.6.6.6.6.2.2.1.1.2.2.1.1.<.1.<.<.1.<.1.1.1.1.<.1.2.2.<.<.1.1.2.1.2.2.1.2.2.6.2.6.6.6.2.2.2.5.6.6.2.2.1.1.2.2.6.6.6.6.6.6.2.2.2.2.2.2.2.2.2.1.1.1.2.2.1.1.1.1.2.1.1.1.<.<.3.3.3.3.3.3.h h h f f f ",
"e e 0 0 r r r r r r r r r r r r r r r r r e e r e e e e e e e 0 0 0 0 0 0 0 0 0 0 0 0 0 e e e e e e r r u r r u t p s g g g h h j h j l l l l l 1.1.w.w.e.e.r.r.r.r.i.i.d.d.k.l.l.C.Y.U.Q.Q.Y.A.A.C.C.A.A.C.m.l.V.C.C.A.A.A.C.C.C.S.S.W.~.~.Q.W.W.Q.Q.Q.~./.sXdXkXcXmXVXAXSXSXAXNXbXfXQ.U.R.A.m.d.i.a.i.d.d.d.i.a.a.a.a.i.i.i.i.g.g.k.g.d.i.r.e.e.e.e.e.e.e.e.e.e.e.e.e.e.e.e.r.e.e.e.e.e.r.e.e.5.6.7.5.5.5.5.5.5.5.6.6.5.6.2.1.2.2.2.2.2.2.2.2.2.2.2.1.1.1.1.1.1.1.<.1.1.<.<.1.<.<.<.<.1.1.1.1.2.2.1.1.1.1.1.1.1.<.<.<.<.<.<.<.<.<.<.<.<.1.1.2.<.<.1.1.1.1.<.2.1.1.<.<.<.<.<.<.1.1.1.1.<.<.2.2.<.<.1.1.2.2.1.1.<.<.<.<.1.1.2.2.2.2.2.2.2.2.2.2.1.1.1.2.2.2.2.2.6.6.6.6.2.2.2.2.2.2.2.2.2.2.2.2.2.2.2.2.2.2.2.2.<.<.3.3.3.3.3.3.h h h h h h ",
"e e e r r e r r r r r r r r r r r r r r r r r r r e e e e e e 0 0 0 0 0 e e e e e 0 0 e e e e e e e r r r u r r t i s s s g g g h h h h l l l 1.1.4.w.w.e.e.e.e.e.r.t.i.d.d.k.l.l.C.A.Y.U.Q.Q.U.Y.A.A.Y.U.Y.C.C.C.C.C.A.S.A.A.C.C.A.A.S.Q.^.W.R.W.Q.~.~.~./.sXfXxXmXNXVXAXSXSXAXNXvXgXQ.W.Q.U.C.k.d.i.d.g.g.d.d.d.i.i.i.i.d.d.d.k.k.l.k.g.d.i.a.r.r.y.y.e.e.e.e.6.e.e.e.e.r.r.u.r.r.u.a.a.a.e.e.e.e.r.e.e.e.7.5.5.6.5.5.5.5.6.1.2.2.2.2.2.2.2.2.6.6.6.6.2.2.2.2.1.1.1.<.1.<.1.1.<.<.<.1.1.1.2.2.2.2.2.1.1.1.1.1.2.2.<.<.<.<.<.<.1.<.<.<.<.<.<.<.<.1.1.1.1.1.1.<.2.1.1.1.<.<.1.1.2.2.2.2.1.1.1.1.2.1.1.1.2.1.1.1.1.1.1.<.<.<.2.1.2.2.2.2.2.2.2.2.1.1.1.<.1.1.<.<.6.6.2.2.2.2.6.6.2.2.2.2.2.2.2.2.2.2.2.2.2.2.2.2.1.<.1.3.3.3.h h h h h h h h ",
"r r r r r r r r r r r r r r r r r r r i t r r r r r r r r e e 0 0 0 0 0 e e e e e e e e e e e e e e r r r r r r u i i s s s s s g g g g h j l l 1.1.4.w.w.e.e.e.e.r.r.i.d.d.k.l.m.C.C.A.U.Q.Q.Q.Q.Q.Q.U.U.Q.U.Y.C.C.C.A.S.S.S.C.C.C.C.A.Y.U.U.R.W.Q.~.(././.dXkXcXmXNXVXVXNXmXcXkXkXfXsXsXdXsX(.A.m.g.d.g.g.d.d.d.d.i.i.i.i.d.d.d.k.k.k.k.d.d.i.i.i.a.a.a.r.r.r.e.e.e.r.r.r.u.i.i.i.i.i.i.i.a.u.a.i.i.a.r.r.r.e.6.5.6.5.6.6.5.6.5.5.5.6.5.5.5.5.6.6.5.5.6.6.6.6.5.6.2.2.2.2.6.6.6.5.5.5.5.5.5.5.6.5.6.6.2.1.1.1.2.2.2.2.<.<.<.<.2.1.<.<.<.<.1.<.1.1.1.1.2.2.2.2.2.2.2.<.1.<.1.1.2.2.2.2.1.1.1.2.2.2.2.2.2.2.2.2.2.2.2.2.2.2.2.2.2.2.2.2.2.2.2.2.2.2.2.2.2.2.2.2.2.2.2.2.2.2.6.6.6.6.2.2.2.2.2.2.2.2.2.2.2.2.2.2.2.1.<.3.3.h h h h h h h h h ",
"r r r r r r r r r r r t r r r r r t s g g p t p u u u r r r r e r r r r r r r r e e e e e e e e e e e r r r r r r r u i t s s s s s s s g h j j l 1.4.w.e.e.e.y.e.r.t.i.d.d.k.k.l.m.C.A.U.Q.(././.dX/.Q.Q.Q.Q.Q.U.U.S.S.S.S.S.C.C.C.C.C.A.A.U.R.T.Q.~.(././.sXdXkXcXvXvXcXkXkXlXkXzXcXcXcXcXcXcX/.T.m.g.g.g.d.d.d.d.i.i.i.i.d.d.d.d.k.k.g.d.d.d.i.i.i.i.i.i.i.i.a.a.a.a.u.u.i.i.i.d.g.g.k.g.i.i.i.d.g.d.d.g.g.d.i.r.e.7.7.7.7.7.6.6.6.6.6.7.6.6.7.7.7.7.7.7.7.7.e.7.7.6.6.6.7.7.7.7.7.7.7.6.6.5.5.5.5.6.2.2.2.2.2.2.2.2.1.1.1.1.1.1.1.<.<.1.<.2.1.<.1.1.1.1.2.2.2.2.2.2.1.1.1.2.<.<.<.<.<.<.1.1.2.2.2.2.2.2.2.2.2.2.2.2.2.2.2.2.2.2.2.2.2.2.2.2.2.2.2.2.2.2.2.6.2.2.2.2.2.6.6.6.6.6.6.6.6.6.6.6.2.6.2.2.2.2.2.2.2.1.<.3.3.3.h h h h h h h h ",
"r r r r r r r r r r t t r t r t p s j 1.1.h g g i u u u u r r r r r r r r r r r r r r r r e e e e e e r r r r r u r r r t t t t s s s s g h j j l 1.4.w.e.y.t.t.e.r.t.i.i.d.d.k.m.m.C.Y.U.Q.Q./.dXdXdX7X(.Q.(./.Q.W.U.S.S.S.C.C.C.C.C.C.A.A.A.U.U.Q.Q.(./.(.(./.dXdXdXdXdXkXcXcXvXvXvXmXmXmXmXmXcXsXU.m.g.g.d.d.d.d.d.d.d.d.d.d.d.d.d.k.d.d.d.i.i.i.i.i.i.i.i.d.i.i.i.i.i.i.i.s.i.d.g.m.m.k.g.g.g.k.l.l.l.m.C.m.k.d.i.u.7.e.e.e.7.r.r.r.r.r.e.e.r.r.u.u.u.u.u.r.r.e.7.7.7.7.7.r.7.7.7.7.6.6.6.6.6.6.6.2.2.2.6.6.1.1.2.2.1.1.1.1.<.<.<.<.<.1.2.2.<.<.<.<.<.1.2.1.2.2.2.2.1.1.1.1.<.<.<.<.<.<.<.<.2.2.2.2.2.2.2.2.2.2.2.2.2.2.2.2.2.2.2.2.2.2.2.2.2.2.2.2.2.6.6.6.6.6.2.2.6.6.6.6.7.7.7.7.6.7.7.7.6.6.6.6.6.6.6.6.6.1.<.<.3.3.3.h 3.h h h h h ",
"p t t t t t t t p t t t p p p s p g h 1.l h z l h s t r t r r r r r r r r r r r r r r r r r r r e r r r r r r r u u r r r t t t p p s s s g h j 1.1.4.w.e.t.t.i.i.t.y.y.t.i.d.d.k.m.C.Y.Y.T.Q./.dXkXkXlX/.(.(.Q.Q.U.Y.S.Y.Y.A.C.C.C.C.C.C.A.Y.U.T.W.Q.Q.Q.~.~.~././.sXdXdXkXkXcXvXmXmXmXmXNXNXNXNXzXdXY.l.g.d.g.d.d.d.d.d.d.d.d.d.d.d.d.d.d.d.d.d.d.i.i.d.d.g.g.d.s.i.i.i.d.d.d.d.d.d.g.k.l.l.m.l.m.m.l.V.A.U.U.A.C.l.d.i.a.u.e.8.8.7.7.8.7.8.8.u.8.7.7.7.7.7.7.7.7.7.7.7.7.7.7.6.6.5.6.2.2.6.6.6.2.2.2.2.2.2.2.2.2.2.2.1.1.1.2.1.1.1.<.1.1.<.2.<.<.1.1.<.1.1.<.2.2.2.1.1.1.1.1.1.1.1.1.1.1.1.1.2.2.2.2.2.2.<.<.2.2.2.2.2.2.2.2.2.6.6.2.6.2.2.6.2.2.2.6.6.6.6.6.6.6.6.6.7.7.7.7.6.6.6.6.6.6.6.6.0.7.7.7.7.7.7.7.7.6.6.<.<.3.3.h 3.3.h h h j ",
"p p p p s s p p p p s s p p p g h g h l l l l 1.5.5.h t t r t r r r r r r r r r r r r r r r r r r r r r r r r r r u r r r t t t p p p p s g h j 1.1.4.w.e.e.t.i.i.i.y.r.t.i.d.d.k.l.M.C.Y.U.Q.(./.dXkXkXdXdX/.Q.T.U.Y.S.S.S.A.C.C.C.C.C.C.A.A.U.U.U.T.W.Q.Q.Q.Q.Q.~.(./.dXdXkXcXcXmXmXmXNXAXAXSXAXNXcX7XY.g.i.d.d.d.g.g.g.g.g.g.d.d.d.d.d.d.d.d.d.d.d.d.d.g.g.g.g.d.f.s.i.d.d.d.g.d.d.g.g.l.l.m.m.M.m.m.C.S.U.T.Q.U.A.l.g.d.i.a.8.8.7.7.7.7.8.7.7.7.7.7.7.7.7.6.7.7.7.7.7.6.6.6.6.6.6.6.6.6.6.6.6.2.2.6.6.6.6.6.2.2.2.2.2.1.1.1.1.2.1.1.1.1.2.2.2.2.1.1.1.1.1.1.2.2.2.2.2.1.<.<.2.2.2.2.2.2.2.2.2.2.2.2.2.2.2.2.2.2.2.2.2.2.2.2.6.6.6.6.6.6.6.6.6.6.6.6.7.7.7.7.6.6.6.6.6.7.7.7.6.6.6.6.6.6.0.0.0.7.7.7.7.7.0.0.7.7.7.6.2.1.1.3.3.3.3.h h h ",
"g g g g g g s s g g g g g g g g l l k k k l 5.5.t.d.t.l s t t t t r r r r r r r r r r r r r r r r r r r r r r r r r r r r t t t t t t t p s g g l 1.1.4.w.e.e.t.i.i.t.r.r.t.i.d.k.k.l.M.C.Y.U.Q.(./.kXkXkXlXdX(.Q.U.U.S.A.A.A.A.C.C.C.C.C.C.A.A.U.U.R.U.U.U.R.W.Q.Q.Q.~.(.7XdXkXcXvXmXmXNXAXSXSXSXAXVXcX(.C.d.d.d.d.d.g.g.g.g.g.g.g.g.d.d.d.d.d.d.g.g.g.g.g.g.g.g.h.d.d.d.d.d.g.g.g.g.g.g.l.m.M.C.C.V.m.C.Y.T.Q.(.Q.Q.U.A.m.k.d.s.u.u.8.7.7.7.7.7.7.7.7.7.7.7.6.7.7.7.7.6.6.6.6.6.6.6.7.6.5.6.5.6.6.6.6.6.6.6.6.2.2.6.6.6.2.2.2.2.2.2.2.2.2.2.2.2.2.2.2.2.2.2.6.6.6.6.6.6.6.6.6.6.6.6.6.6.6.6.6.6.6.6.6.6.6.6.6.6.6.6.6.6.6.6.6.6.6.6.6.6.6.6.6.6.6.7.7.7.7.7.0.7.7.7.7.7.7.0.0.0.0.0.0.0.0.0.8.0.0.0.0.8.8.0.8.8.8.8.0.7.5.6.1.<.<.3.3.1.1.",
"g g g g g g g s g s s s g g h h k 1.1.1.l 5.7.t.j.C.c.t.k s t t t t t r r r r r r r r r r r r r r r r r r r r r r r r r r t t t t t t t t p s g j j l 1.4.w.e.y.t.t.t.r.r.r.t.i.d.d.k.l.M.C.Y.Y.T.(./.dXlXdXdX/.Q.T.Y.A.A.A.C.A.C.C.C.C.A.A.A.A.U.U.R.U.U.Y.U.U.T.T.W.Q.Q.(.dXdXzXcXmXmXNXAXSXGXGXAXAXNXkXQ.m.s.d.d.d.g.g.g.g.h.g.g.g.g.g.g.g.g.g.g.g.g.g.g.h.h.b.h.g.d.d.d.g.g.g.g.g.g.g.g.m.A.C.C.V.C.C.U.T.Q.Q.Q.Q.Q.U.U.A.m.h.h.g.s.i.u.u.u.8.8.7.7.7.7.7.7.6.6.6.7.7.6.6.6.7.7.7.7.7.6.6.6.6.6.6.6.6.6.6.6.5.5.5.5.6.6.6.6.2.2.2.2.2.2.2.2.6.6.6.6.6.6.6.6.7.7.6.6.6.6.6.6.6.6.6.6.7.7.7.7.7.7.7.7.7.7.7.7.7.7.7.7.7.7.7.7.7.7.7.0.7.7.0.0.0.0.0.0.0.0.8.8.0.0.8.8.8.8.8.8.9.q.q.f.8.8.8.8.f.f.u.u.u.8.8.8.u.u.u.u.u.u.7.7.6.6.6.6.5.5.",
"s s s s s s s s s g g h h h h 1.k k 1.5.e.d.l.V.U.T.U.k.5.h p s p t t t r r r r r r r r r r r r r r r r r r r r u r r r r t t t t t t t t i s g g j j l l 1.w.w.w.e.r.r.e.e.r.r.i.i.d.g.l.l.M.C.Y.U.Q.(././././.Q.U.A.C.C.C.C.C.C.C.C.C.C.A.A.A.Y.U.U.U.S.A.A.S.U.U.U.W.Q.Q./.dXdXkXvXNXVXSXGXGXGXGXAXNXmXdXS.s.g.g.g.g.g.g.g.g.g.g.g.g.g.g.g.g.h.h.h.l.l.l.l.m.m.m.m.g.d.d.d.d.d.g.g.g.g.k.l.M.V.V.C.C.A.U.W.Q.Q.Q.Q.Q.Q.Q.U.A.V.V.l.h.h.g.d.f.s.s.u.u.u.u.u.u.u.u.8.7.8.7.7.7.0.8.8.8.0.7.6.6.6.6.6.6.6.6.2.2.6.6.6.6.6.6.6.5.2.2.5.6.6.6.6.6.6.6.6.6.6.6.7.7.7.7.6.7.7.7.6.6.6.6.6.7.6.6.6.6.7.7.7.7.0.0.0.0.7.7.7.0.0.0.0.0.8.8.8.8.8.8.8.8.8.8.8.8.9.9.9.9.8.8.8.8.8.u.u.f.f.q.q.q.f.f.s.s.f.f.f.f.f.f.f.f.f.f.p.f.p.u.u.8.7.7.7.7.6.6.",
"g g h h h h h h g j 4.4.l h 1.w.w.5.5.t.k.C.U.T.~./.~.Y.k.w.z g g s p t t t t t t t r r r r r r r r r r r r r r u r r r r r t t i t t t t i s s g g z j j l 1.w.w.w.e.e.e.e.e.e.r.r.i.d.g.k.l.l.M.C.U.T.Q.Q.(.(.Q.Y.C.M.C.C.C.C.V.C.C.C.C.C.C.A.A.Y.U.Y.A.A.A.A.A.A.Y.U.U.Q.~./.dXkXcXNXAXSXGXFXGXFXSXAXmXgXU.g.g.g.g.g.g.g.g.g.g.g.g.g.g.g.g.g.h.h.h.m.m.m.V.A.A.A.A.C.m.g.s.u.d.g.h.l.l.m.m.M.V.V.C.A.Y.U.W.Q.Q.Q.~.(.(.~.Q.U.C.V.m.h.h.g.h.h.h.g.g.g.d.d.d.d.d.d.s.s.u.u.u.8.8.8.8.8.0.7.7.6.6.6.6.6.6.6.6.6.6.6.6.6.6.6.6.6.6.6.7.6.7.7.7.7.7.7.7.7.6.6.7.6.6.6.6.7.7.7.6.6.7.7.6.7.7.7.0.0.6.6.0.0.0.0.0.0.0.0.0.0.0.0.0.0.0.8.8.8.8.8.8.8.8.8.8.8.9.9.9.9.9.9.9.8.9.9.9.p.9.9.9.q.8.u.s.s.f.f.f.f.f.f.f.f.f.f.f.f.f.f.f.8.u.u.8.8.8.8.",
"l l l l j h h h g j 4.w.l l 1.r.t.e.r.d.C.A.U.W.7XdXdX/.Q.C.r.k g s s p t t t t t t t t r r r r r r r r r r r r r r r r r r r r i i t t t i s s g g g g j j l 1.4.w.w.w.w.5.w.e.e.y.t.i.d.d.g.k.z.l.C.Y.Y.Y.U.E.Y.C.m.C.C.C.m.C.l.m.m.m.m.V.C.C.A.A.A.A.C.C.C.A.C.C.A.Y.U.T.Q.(.sXfXcXmXNXAXGXFXFXFXGXAXmXdXW.h.g.g.g.g.g.g.g.g.l.l.l.h.h.h.h.h.m.b.m.V.V.V.C.S.Q.W.Q.W.A.l.d.s.g.g.h.l.m.C.C.C.V.V.V.C.A.Y.U.R.W.Q.~.(.(.(.Q.Q.S.S.V.m.m.h.h.h.m.m.m.m.l.h.h.h.g.g.g.d.s.i.u.u.8.8.8.0.0.7.7.7.6.6.6.6.6.6.6.6.6.6.6.6.6.6.6.6.6.6.7.7.7.0.7.0.0.7.7.7.7.7.7.7.6.6.7.7.7.0.0.0.7.7.7.0.0.0.0.8.0.0.0.0.0.0.0.0.0.8.8.8.0.8.8.8.8.8.8.8.8.8.8.8.8.8.8.8.8.8.8.8.9.9.8.8.8.8.8.8.8.8.9.8.8.8.u.u.9.9.9.9.9.f.p.p.f.f.f.f.f.f.f.f.f.f.f.q.f.9.",
"4.1.1.l j h g g g g g j j l 1.e.e.r.d.l.C.C.A.W.7XkXkXdXdX(.l.e.g g s s p t t t t t t r r r r r r r r r r r r r r r r r r r r r t i i t t i s s s s s g g h j l l 1.1.1.1.5.5.5.w.e.e.r.r.t.i.d.d.z.z.l.l.l.C.A.C.m.m.m.m.l.l.l.k.l.l.l.l.l.m.C.C.C.C.m.m.C.C.C.C.A.A.S.Y.U.Q.(.7XdXzXmXNXAXGXFXKXJXGXAXNXdXW.h.h.h.h.h.h.h.l.l.l.l.m.m.l.l.l.l.m.m.V.C.A.A.U.W.~./.7X/.W.C.h.g.d.d.g.g.m.C.C.V.V.m.V.V.C.A.Y.Y.Q.W.Q.~././.(.~.W.R.S.V.m.m.m.m.M.M.V.V.M.m.m.m.k.g.g.d.i.u.u.8.8.8.8.0.7.7.7.7.6.6.6.6.6.6.6.6.6.6.7.7.7.7.6.6.6.6.6.7.0.0.0.0.7.7.7.7.7.7.6.6.7.7.7.7.7.0.0.0.0.0.7.0.0.8.8.8.0.0.0.0.8.8.8.0.8.8.8.8.8.8.8.8.u.u.u.u.u.u.u.u.8.8.8.8.8.8.8.8.9.9.9.9.8.8.8.9.f.f.f.9.8.8.8.8.p.p.p.p.u.u.u.u.f.f.f.f.f.f.f.f.f.f.f.f.f.f.",
"1.1.1.l l h h h h h h h h l 1.w.e.e.d.l.C.C.C.U.7XdXlXlXdXQ.V.6.h h g s p p p p i t t r r r r r r r r r r r r r r r r r r r r r t i i t t t s s t s s g g g j l l l l 1.1.1.1.1.4.w.w.w.w.e.r.t.i.i.d.k.g.k.k.l.l.l.l.l.k.k.k.k.g.g.k.k.l.l.l.m.l.l.l.m.m.M.C.C.C.C.A.A.Y.U.Q.Q./.lXzXcXmXNXSXFXFXFXFXSXmXzXfXW.c.V.V.V.h.h.m.V.V.C.C.C.V.m.l.l.m.m.V.V.Z.S.S.W.Q.7XdXgXsX~.S.V.j.f.g.h.l.l.l.C.m.m.m.m.V.V.C.A.U.U.W.Q.~.~.~.~.~.^.Q.R.A.V.l.l.M.M.M.M.m.m.l.l.l.m.g.g.s.u.u.u.s.u.u.u.u.u.8.8.0.0.0.0.0.0.7.7.7.6.6.7.7.7.7.7.0.0.0.0.0.0.0.0.0.0.0.7.0.0.0.0.0.0.0.0.0.0.8.8.0.0.0.0.8.0.8.8.8.8.8.8.0.8.8.8.8.8.8.8.8.8.8.8.u.u.u.u.u.u.u.p.p.p.p.p.p.p.p.p.f.f.p.9.9.p.p.p.p.p.p.9.9.9.9.9.9.q.8.f.f.f.n.9.f.f.9.q.n.q.f.f.f.f.f.f.f.f.",
"l l l l l j h h j j j j l 1.5.e.r.5.e.d.C.A.C.A.Q./.dX7XQ.Q.S.7.k h h g s s s s t t t t t t t t r r r r r r r r r r r r r r r r t t i t t t p s s s g g g g g j l l l l 1.1.1.1.1.1.4.4.5.w.e.e.e.t.i.i.i.d.d.d.d.g.g.g.d.d.d.d.d.d.d.g.k.k.l.l.k.l.l.l.l.l.M.C.C.C.A.A.Y.U.Q.(.7XlXkXcXvXNXAXGXKXKXFXSXNXNXNXfXW.~.~.~.W.A.Z.Z.U.U.Q.Q.U.S.C.C.A.A.A.S.S.S.W.W.W.~.sXgXgXsX~.R.Z.g.s.g.m.g.h.m.b.b.b.m.m.m.M.C.A.A.S.R.W.Q.Q.~.~.~.~.Q.R.S.C.V.M.M.M.m.m.m.m.m.m.m.h.g.f.s.i.i.f.s.i.i.u.u.u.u.8.8.8.8.8.8.8.0.0.0.0.0.0.8.0.7.8.8.8.8.8.8.0.0.0.0.0.0.0.0.0.0.0.0.0.0.0.8.8.8.8.8.8.8.8.8.8.8.8.8.8.8.8.8.8.8.8.8.8.u.u.u.8.8.u.u.u.u.u.p.p.p.p.p.p.p.p.p.p.f.f.f.f.f.f.f.f.f.f.f.f.f.p.p.p.p.9.f.q.f.9.9.f.n.q.q.b.f.9.f.f.f.n.f.f.f.f.n.",
"h h h h h h j j j j l l 1.1.5.w.e.5.e.t.k.l.l.Y.(././.U.z.C.Y.i.l l l h h g s s p p t t t t t t r r t t t t t t t t t t i i t t r t i t t t p s s s s s s s g g z z j j l 1.1.j l 1.1.1.1.1.1.5.5.w.e.e.e.r.r.t.i.i.i.i.i.i.i.i.i.d.d.d.d.d.d.g.g.k.l.l.k.l.l.C.C.A.A.Y.Y.U.Q.(./.dXkXzXmXNXSXFXKXKXFXSXNXNXVXzXdXfXkXfXsXQ.W.W.W.~././.~.W.R.U.W.W.W.^.~./.sXsX~.~.7XsXfXkXdX/.W.V.s.s.g.g.g.g.h.b.b.m.m.m.m.M.V.C.A.S.U.W.Q.Q.~.~././.~.Q.W.U.A.C.V.m.m.m.m.m.m.m.m.h.h.f.f.p.f.f.f.s.s.u.u.8.p.u.u.u.8.8.8.8.8.8.8.8.8.8.8.8.8.8.8.8.8.8.8.8.8.0.0.0.0.0.0.0.0.0.0.0.8.8.8.8.8.8.8.8.8.8.9.9.8.8.8.8.8.8.8.8.u.u.u.u.u.u.u.p.u.u.u.u.p.p.p.p.p.p.f.f.f.f.f.f.f.f.f.f.f.f.f.f.f.f.f.f.f.f.f.f.n.n.f.n.n.f.f.9.n.f.n.n.f.f.n.f.n.f.n.n.f.f.",
"g g g g h h h h z j l l 1.1.1.w.5.e.t.t.t.d.k.U././.Q.z.5.w.k.i.1.l l j h h g s s s s p p t t p t t t t t t t t i i i i i i i i r t t t t t s s s s s s s s s g z g g z j l j j j j l l l l l 1.1.1.5.w.w.e.e.e.e.e.r.y.r.r.r.r.r.t.i.i.i.i.i.d.d.d.g.k.k.k.l.l.C.C.A.Y.Y.U.Q.(./.dXkXcXmXAXDXJXKXFXFXGXAXmXmXzXkXkXkXfXdXsX/./.~././././././.sX7X/.~./.sXkXcXvXxXfXdXgXcXmXmXvXdX~.A.g.f.h.h.f.f.h.b.m.m.m.m.V.V.A.S.R.W.Q.~././././.7XsX7X/./.Q.Q.S.C.V.V.m.m.h.l.m.b.h.h.f.f.d.f.f.f.s.s.s.u.f.p.u.u.u.u.u.u.u.u.8.8.8.8.8.8.8.8.8.8.8.8.8.8.8.8.8.8.8.8.0.8.0.0.0.8.8.8.8.8.8.8.8.8.8.8.8.8.8.8.8.8.8.8.p.p.u.u.u.u.p.p.p.p.8.8.8.9.9.9.9.9.8.8.9.9.9.9.9.9.p.p.p.p.p.p.p.p.f.f.f.f.f.f.n.n.9.n.9.f.f.9.f.b.n.P.n.n.n.n.P.n.P.P.n.n.n.f.",
"h g g g g g h h h j j l 1.1.w.w.e.e.e.e.r.d.z.Y.(./.Y.r.h h 1.4.l l l j j h h h g g s s p p p p p p p p p t t t i i i i i i i i t t t t t t i s t s s s s s s g g g g g g j j h j j j j j l l l 1.1.1.1.4.w.w.w.w.w.w.e.e.e.e.e.e.r.r.r.r.r.t.i.i.i.i.d.d.g.k.k.l.C.A.Y.Y.U.Q.(./.dXkXcXmXNXAXDXGXFXFXFXGXNXNXmXzXkXdXdXdXdXsX/.sXsX7X7XsXdXkXxXfXdXdXdXfXxXvXmXvXxXfXfXcXVXAXSXVXvXsXA.h.g.f.f.f.f.h.m.m.m.V.A.A.S.W.Q.~./.sXdXdXdXdXdXkXkXkXkXkXdX/.~.^.W.R.U.V.V.m.h.h.h.h.h.d.d.d.f.f.f.f.f.f.f.p.p.p.f.p.p.p.u.u.u.u.8.8.8.0.0.0.0.8.8.8.8.8.8.8.8.0.0.0.0.0.0.0.0.8.8.8.8.8.8.8.8.8.8.8.8.8.8.8.8.8.8.8.8.8.8.u.u.u.u.u.u.8.8.8.8.9.9.9.9.9.9.9.9.9.9.9.9.9.9.9.9.9.9.9.9.9.9.9.f.p.p.P.p.n.n.f.n.n.f.f.q.P.b.q.n.n.P.n.P.n.P.P.P.P.n.",
"j h h h h h h h h h j j 1.1.5.w.e.e.t.r.d.k.l.Y.U.Q.C.5.g g h h j j j h h h h j g g g g g g g g p s p p p p p p t t t t t t t t t t t t t t t i p p s s s s s g g g s s g g g g g h j j j j j j j j l l 1.1.1.1.1.4.1.4.4.4.w.w.w.w.e.e.e.e.e.y.t.t.t.t.i.d.d.d.z.l.C.A.Y.T.Q.(.(.7XlXzXcXvXmXHXGXFXFXFXGXAXAXNXvXzXgXdXgXfXdXsXsXsXsXsXsXdXkXcXzXkXkXkXkXxXcXvXvXcXcXkXkXcXVXAXSXNXkX^.V.g.f.b.h.h.b.m.V.V.Z.A.U.W.~./.7XdXfXkXzXzXzXcXcXvXmXmXmXvXxXkXkXkXkXkX7X~.U.V.h.g.f.f.f.f.f.f.f.f.f.f.f.s.s.s.s.f.f.s.p.u.u.u.u.8.8.8.8.8.8.8.8.0.0.0.8.0.0.0.8.8.8.8.0.0.8.8.8.8.8.8.8.8.8.8.8.8.8.8.8.8.8.8.8.8.8.8.8.8.8.8.8.8.8.8.8.8.8.9.9.9.9.9.9.9.9.9.9.9.9.9.9.9.9.9.9.9.9.9.9.9.9.9.f.f.f.n.9.f.f.f.f.f.b.n.f.G.H.D.f.q.n.q.P.P.n.n.9.q.",
"l j j h j j h h h h h h j l 1.1.e.r.d.d.z.z.l.A.C.A.d.1.f g h s g g s s g h h h j h h h z j j j g g g g s s p p t t t t t t t t t t t t t t t i t t p s s g s s g g g g g g g g g g h h j z z j h j j j j j j j l l 1.l 1.1.1.1.1.1.1.1.5.w.w.e.e.e.e.r.t.i.d.d.z.z.C.A.Y.U.Q.Q.(.7XlXzXcXvXNXAXGXFXFXFXGXAXAXNXmXcXfXdXgXfXfXdXdXdXdXdXdXdXfXkXzXzXzXzXzXxXcXcXvXmXmXvXxXzXcXmXNXvXfX~.S.V.Z.S.A.A.A.A.S.S.S.F.W.~./.7XsXdXkXcXmXmXmXmXmXNXVXVXVXNXmXmXNXNXVXAXVXmXzXsXW.V.h.f.f.f.f.f.s.s.f.g.f.f.s.s.s.f.s.u.p.u.u.u.u.8.8.8.8.8.8.8.8.8.8.0.8.8.8.8.8.8.8.8.8.8.8.8.8.8.8.8.8.8.9.9.9.9.9.9.8.8.9.9.9.9.9.9.8.8.9.9.9.9.9.9.9.9.9.9.9.9.9.p.9.9.9.9.9.9.9.9.9.9.9.9.9.9.9.9.9.9.9.9.f.f.f.f.P.n.b.n.q.Z.hXZXZXVXLXSXZ.b.f.B.n.q.P.n.P.P.",
"l j j j j j j h j z h h h k 1.1.e.r.t.d.z.l.z.l.k.i.e.1.g p g s p p p p p s g h j j j j j l l 4.j j h h s s p p t t t t t t t t t t t t t t t s t t s s s g s s s g g g g g g g g g g h g g g g g g g h h z z z j l l l l l l 1.l 1.1.1.1.1.4.w.w.e.e.e.r.r.i.d.d.k.l.C.A.U.E.Q./.7XlXzXvXmXNXSXGXGXGXGXGXAXHXNXmXcXkXdXsXdXgXfXfXkXfXdXgXgXfXkXzXzXzXzXzXzXzXxXcXvXmXmXvXcXxXxXcXcXfX/.Q.^.Q.^.^.W.W.W.W.W.W.W.Q.~./.7X7XdXkXcXmXmXNXVXVXAXAXAXAXVXVXVXNXAXSXGXDXGXAXVXMX~.A.h.f.f.f.f.f.g.g.g.f.f.s.u.s.s.8.8.p.u.8.8.8.8.8.8.8.8.8.9.9.9.8.8.8.8.8.8.8.8.8.8.9.9.9.9.9.9.9.9.9.9.9.9.9.p.9.9.p.p.p.p.p.9.9.9.9.9.9.9.9.9.9.9.9.9.9.9.p.p.f.f.p.p.p.p.9.9.9.p.9.9.9.9.f.f.f.f.f.9.f.f.f.f.n.n.f.q.q.n.B.gXCXCXDXPXIXIXAXMXDXCXaXB.q.f.n.P.",
"l j j j j j h h h h h h j l l 1.e.e.r.i.d.k.d.t.e.5.l k h g g s s s p p p p p p s s g h h h l 1.1.l l 1.j s t p t t t t t t t s s s i i i s s s s s s s s s s s g g z j h h j j j j j j j g g g g g g g g g z z j j l l j j l l l l l l 1.1.1.1.4.w.w.e.e.r.t.i.d.z.z.l.C.Y.U.Q.(.7XkXcXmXNXHXAXAXSXSXAXAXAXHXNXmXvXzXfXsXsXdXlXfXfXkXkXkXdXgXgXkXkXzXcXcXcXcXcXzXcXmXmXNXNXmXcXcXkXkXfXsX/.7X(.~.Q.Q.Q.~.~.~.~.~.~./.7XdXdXkXcXmXmXNXNXAXAXAXSXAXAXAXNXNXNXAXSXGXDXDXSXSXmXdXR.h.h.f.f.f.h.h.m.b.j.f.f.f.q.8.9.p.p.u.8.8.8.8.8.8.8.8.8.8.0.0.8.8.8.8.8.8.8.8.8.8.9.9.9.9.p.9.9.9.9.p.p.p.p.p.p.u.p.p.p.p.9.9.9.9.9.9.9.9.9.9.9.9.9.9.9.f.P.9.9.9.9.9.9.9.P.9.9.f.f.f.f.f.f.f.f.f.f.f.f.f.f.n.n.j.q.B.gXG.uXjXVXJXPXIXIXUXIXIXIXUXVXZ.j.b.B.",
"l l l l j j h h h h h h j l l 1.1.w.e.r.i.d.d.d.5.5.5.l h g p s p p p p p p p p p p s s g g h j h j l 1.j p p s t t t t t t t t s s i i s s s s s s s s s s g g g g z z j h j j l l l l l j j j j j l l l l l l l l l l l j j j l l l l l 1.1.1.1.1.w.w.w.e.r.t.i.d.k.l.C.A.U.T.Q./.dXkXcXmXmXHXAXAXAXAXAXHXHXNXmXvXzXkXdXdXdXdXsXdXdXdXdXsXsXsXdXdXkXkXzXzXcXcXcXvXmXNXVXVXNXmXvXcXcXxXkXdX7X/.~.~.~.~.~.~.~.~.~./.7X7XdXdXkXxXcXvXmXNXNXAXAXSXSXSXAXAXNXNXAXAXAXSXDXDXDXAXmXMX^.V.f.h.b.h.b.Z.N.N.N.Z.Z.b.f.f.p.f.f.f.f.f.f.8.9.9.9.9.9.8.8.9.8.8.8.8.8.8.8.8.9.9.9.8.9.9.9.8.9.p.p.p.9.9.9.9.8.8.9.9.9.9.9.9.p.p.p.p.p.9.9.9.9.9.9.f.f.9.9.9.9.9.P.9.f.f.f.f.f.f.f.f.f.f.f.f.f.f.f.n.f.f.n.n.f.n.K.gXK.gXnXCXDXPXLXUXIXIXUXIXIXUXFXgXiXCX",
"j j l l j j j j h h j l l l l l 1.4.w.e.t.d.k.k.t.t.t.e.1.z s p p p p p p p p p p p s s g h h h g h l l j s s s p p p p p p t t s s s s s i s s s s s s s s g g g g g g g h j l l l l l l l l l 4.1.1.1.4.l 4.4.4.4.4.4.l l l l l l j j j l l l 1.1.1.1.w.e.e.r.t.i.d.k.l.C.Y.U.E.(.7XlXzXcXvXmXNXNXHXHXHXHXmXmXmXvXcXzXfXfXdXdX7X7X7XdXsX7X/.7X/.7XdXdXkXkXzXzXvXvXmXNXAXAXAXAXNXmXmXvXzXkXlX7X/./.~.~.~.~.~.~././././.sXdXdXkXzXcXvXmXNXHXAXAXSXSXSXAXAXAXAXAXAXSXAXDXFXFXSXVXcX~.V.b.h.j.b.Z.D.S.F.^.^.W.D.b.j.j.h.b.b.b.b.h.f.f.8.q.q.8.8.9.8.8.8.9.9.9.9.9.p.p.9.8.9.f.f.9.p.p.p.p.p.p.9.9.9.9.9.p.p.p.p.p.p.p.p.p.p.p.p.p.9.f.f.f.f.9.9.9.9.9.f.f.f.f.f.f.P.P.f.f.f.f.f.f.f.n.n.n.n.n.n.n.b.n.G.J.aXBXDXDXJXLXPXJXLXUXLXLXIXIXIXLXPXIX",
"j j j j j j j l j j l l l l l l 1.1.4.w.e.d.z.k.z.z.z.i.e.l h g g g g g s s s p s s s g h j j j h h j j j j s t p p p p p s p p t t t s i i s s s s s s s s g g g g g g g g j j l l l l l l l l 1.1.1.1.1.l 4.4.4.4.4.4.4.4.4.4.1.l l j j l l l l 1.1.1.1.5.w.e.r.t.i.d.z.l.C.A.U.Q./.7XlXlXzXcXcXmXmXmXmXmXmXmXcXcXzXzXkXfXlXdXsXsXsX7X/.~.~./.(.(./.7XdXdXlXkXcXcXvXmXNXAXAXAXAXNXNXmXcXcXzXlXsX/./.~.~.Q.Q.~.~.~./././.7XdXdXkXkXcXmXmXNXNXAXAXAXAXAXAXAXAXAXSXAXAXSXFXJXFXSXVXcX~.Z.b.b.V.Z.F.H.W.^.~.~.^.R.Z.Z.V.V.Z.S.S.S.Z.b.f.f.f.s.s.9.q.9.9.q.9.q.f.f.f.f.f.p.p.p.9.p.9.p.p.p.p.p.p.p.f.f.f.f.p.p.p.p.p.p.p.p.f.f.f.f.f.f.f.f.f.f.f.P.f.f.f.f.f.f.f.f.f.n.f.n.n.n.n.n.n.n.n.n.n.n.f.f.n.n.G.J.aXhXCXDXLXLXJXJXPXPXPXLXLXUXIXIXIXIX",
"j l l l j j j j j j l l l l l l l l 1.1.w.r.i.d.d.i.i.i.y.4.1.1.j j j h g g s s s s s s h j j j j j j j l l j s s s p p p p p p t t t s s s s s s s s s s g g g g g g g g g g h j j l l l l l l l l l l l l l l l l l l l l l l 1.1.l l l l l l l l l 1.1.1.5.w.e.r.t.i.d.k.l.C.Y.U.Q.(.7XdXlXkXlXzXcXvXmXvXcXcXzXzXlXlXdXdXdXdXsX7X/.~.Q.Q.Q.Q.Q.~.(./.7XdXdXkXkXzXcXvXNXHXAXAXAXAXAXNXNXmXcXlXdX7X~.~.~.^.Q.Q.W.Q.~.~.~.~./.7XdXdXkXcXcXmXmXmXNXNXNXNXNXVXAXNXAXSXSXGXFXJXJXFXSXVXvX~.Z.Z.H.^.H.W.W.^.~.sXsX~.^.F.Z.Z.D.F.^.^.^.S.V.V.Z.V.V.N.b.b.f.f.f.f.f.f.f.f.f.f.f.p.9.f.p.p.p.p.p.p.p.f.p.p.p.p.p.p.p.p.p.p.p.p.p.f.f.f.9.9.9.f.f.f.f.f.f.f.f.f.f.n.n.n.P.n.n.n.n.n.n.n.n.n.n.n.f.f.f.n.b.b.b.Z.G.!.hXCXDXJXJXDXJXPXLXPXPXLXUXIXIXIX",
"g h h j l j j h j j l l l l l l l l l 1.1.5.5.w.e.e.e.e.w.1.1.1.1.l j j h h g g h h g g h j l l h l 1.1.1.1.1.1.h g s p p p p p t t p p p s s s s s s s g g g g g g g g g g g g j j j j l l l l l l l l l l l l 1.1.1.1.1.1.1.l 1.1.l l l l l l l l 1.1.1.1.1.5.e.e.e.r.i.d.d.k.C.A.U.T.(.(./.7X7XlXlXzXzXzXzXlXlXlXdX7X/././././.~.Q.Q.T.U.W.Q.Q.Q.Q.(./.dXdXkXkXzXcXvXNXHXAXAXAXAXAXNXmXmXvXzXdXsX~.Q.^.Q.Q.^.W.Q.Q.~.Q.~.~././.sXdXkXkXzXzXcXvXvXmXmXNXNXNXNXAXSXSXGXKXKXKXJXFXDXVXxX~.H.W.8XW.H.H.W.8XsXsXsX!.^.F.Z.S.H.^.uXiX^.^.^.^.^.^.W.W.^.^.^.W.D.b.s.9.9.q.f.f.f.f.f.f.f.f.f.f.p.f.p.P.9.9.9.f.f.f.f.p.p.p.p.f.f.f.f.f.f.f.f.f.f.n.n.f.f.f.f.n.n.n.n.n.n.n.n.n.n.n.n.n.n.n.b.n.b.b.Z.n.b.b.Z.G.uXsXnXCXCXCXDXDXDXPXLXLXLXLXIXIXIX",
"k k h h k l l j j j j l l l l l l l l l 1.l l l 1.1.1.1.l j j j l l l j j j h h j j j l l l 1.1.1.4.w.w.w.1.1.1.j h s s p p p p t t p p s s s s g g g g g g g g g g g z z z z z j j j j l l l l l l l l l l l l 1.1.4.4.4.1.1.1.1.1.1.1.1.l l l l l l 1.1.1.1.1.w.w.e.e.r.i.d.d.k.l.C.A.Y.U.T.Q.Q.(./.7X7X7X7X7X/./.(.(.Q.Q.Q.W.Q.R.U.U.U.U.U.U.U.T.Q.(.(.7XdXdXkXzXcXvXmXNXNXNXVXNXmXvXcXvXmXcXfXsX~.Q.Q.Q.Q.~.^.Q.Q.Q.~.~.~.~.~./.7XsXdXdXlXlXkXkXzXcXvXmXNXNXAXSXSXGXPXPXKXKXKXFXSXVXkX~.W.^.!.H.H.W.8XsXsXsX!.^.H.F.F.W.^.^.^.^.^.iXaXaXsXgXfXxXBXVXbXxXiXF.b.f.f.f.f.f.f.f.f.f.f.f.f.f.f.f.f.f.f.f.f.f.n.n.f.f.f.f.f.n.n.n.f.f.f.f.n.n.n.n.n.n.n.n.n.n.n.n.n.n.n.n.n.n.n.n.n.n.b.b.b.b.Z.D.b.b.Z.Z.B.H.!.jXhXnXVXCXCXJXJXPXLXLXLXUXIXIX",
"r.5.1.k k l l l j j j l l l l l l l l l l 1.l j j j 1.l l j j j j j l l l j j j j l l 1.1.1.1.4.e.e.e.e.e.4.l j h g s p p p p p t t p s s s s s g g g g g g g g g h z j j j j j j j j j l l l l l l l l l l l l 1.1.1.1.1.1.1.1.1.1.1.1.1.1.l l l l l l 1.1.1.1.1.1.5.e.e.r.t.i.d.d.k.k.M.C.C.Y.A.U.T.E.E.Q.Q.Q.T.T.U.U.Y.Y.Y.Y.U.S.A.A.A.A.A.S.Y.U.Q.Q.(./.dXdXlXkXzXcXcXvXmXmXmXcXcXzXzXcXcXzXdXsX~.Q.Q.Q.~.~.~.^.W.^.Q.~.~.~.~.~././././.7X7XdXdXlXkXzXcXmXmXNXAXGXFXKXPXPXKXKXJXFXSXVXfX~.W.!.W.H.^.8XsXsXsX!.!.^.^.^.^.^.H.^.^.!.uXiXsXsXkXvXNXVXCXCXCXZXhX!.H.Z.N.b.b.f.f.f.f.f.f.f.f.f.f.n.n.n.f.f.f.f.f.n.n.n.f.n.n.n.n.n.n.n.n.n.n.n.n.n.n.n.n.n.n.n.n.n.n.n.n.n.n.n.n.n.n.b.b.n.f.j.b.b.b.b.Z.G.F.K.aXgXjXnXbXCXDXDXPXLXLXLXUXUXIX",
"z.z.t.5.k l 5.1.1.l l l l l l j l l 1.1.l l l l j l l l j j j j l l l 1.1.1.1.1.l 1.4.4.1.1.4.w.e.e.w.w.1.l h h g s s s p s s p s s s s s s s s g g g g g g g g j j j j j z z z j j j j l l l l l l l l l l l l 1.l l l 1.1.1.1.1.1.1.1.1.1.1.1.l 1.1.l 1.1.1.1.1.5.5.w.6.7.r.t.t.d.d.d.k.k.l.C.C.A.A.Y.Y.Y.A.A.A.A.A.A.C.C.C.A.C.C.C.C.C.C.A.A.A.S.U.W.Q.~./.7XdXlXkXkXkXkXlXlXkXlXlXkXkXkXkXlXdX/.~.Q.Q.~.~.~.~.~.^.Q.~.~.~.~.~.~.~.Q.~.~.(././.7XdXdXkXkXcXvXmXAXSXFXKXKXKXKXKXKXJXFXAXvXgXuX!.iXsX8X~.sXsXsX^.~.~.uX!.!.!.H.^.W.^.!.!.!.sXfXcXNXNXAXSXFXFXSXVXnXsXW.D.b.b.b.f.f.f.f.f.f.n.n.f.f.f.f.f.f.n.n.f.f.f.n.n.n.n.P.n.n.n.n.n.n.n.n.n.n.n.n.n.n.n.n.n.n.n.n.n.n.b.n.n.b.b.n.p.f.f.n.n.b.b.Z.Z.G.H.!.aXjXhXnXBXCXDXJXPXLXLXUXIXIX",
"d.l.l.t.5.5.5.5.1.k h l l l l l l 1.1.1.l l l l l l l l j j j j l l l 1.1.1.1.1.1.1.4.4.4.4.w.w.4.1.1.1.1.l h h h s s s s s s s p s s s s s s s g g g g g g g g j j j j j j j j j l l l l l l l 1.1.1.1.1.1.1.1.l l 1.1.1.1.1.1.1.1.1.1.1.1.1.1.1.1.1.l 1.1.1.1.1.5.5.w.6.7.e.r.t.t.d.d.d.z.k.l.l.c.C.C.C.C.C.C.C.C.V.c.c.l.c.c.m.V.C.C.C.C.C.C.A.A.Y.U.T.Q.~.~./.7X7XdX7X7X7X7X7X7X7X7X7XdXdX7XdX/./.~.~.~.Q.Q.Q.Q.Q.Q.~.~.~.~.Q.Q.Q.Q.W.W.Q.Q.Q.~./.7XsXdXkXcXvXNXAXDXFXKXKXKXKXKXJXGXSXVXvXfXgXgXfXgXsXgXgXgXgXgXgXsXsX8X!.^.^.^.^.^.~.sXgXfXcXNXVXAXGXJXJXFXDXCXbXfXuXH.D.B.b.b.b.b.b.b.n.n.n.n.n.n.n.n.n.n.b.n.n.b.n.b.b.b.n.n.n.n.n.n.n.n.b.b.b.b.b.b.b.b.n.n.n.n.b.b.b.b.b.b.b.p.9.f.f.f.n.n.b.B.Z.G.H.K.uXaXjXhXBXCXCXDXKXLXUXUXIXIX",
"e.k.l.d.d.z.k.d.5.1.k l l l l 4.1.1.1.1.l 1.1.1.1.1.1.l j j j j l l l l 1.1.1.1.1.4.4.4.4.4.w.w.w.w.4.1.1.l j h j h g g g g s s s s s s s s s s g g g g g g g g g j j j j j j j l l l l l l l l 1.1.1.1.1.1.1.1.1.1.l 1.1.1.1.5.1.1.1.1.5.5.1.1.1.1.1.1.1.1.1.5.5.w.e.e.e.e.r.t.i.d.d.d.d.d.k.k.l.l.l.l.l.l.l.l.l.l.l.l.l.l.l.l.l.l.m.V.V.C.C.C.C.A.A.S.U.U.T.W.Q.~.~.~.~.~.~.~.(.~.(.(.(././.(././.~.~.~.Q.^.W.W.W.W.W.W.W.^.Q.W.W.W.W.W.R.W.W.W.Q.^.~./.sXfXkXcXNXAXAXDXFXJXKXPXPXKXFXGXSXVXNXzXcXvXvXxXkXkXkXxXxXkXfXfXgXsX~.^.~.^.iXsXsXgXfXxXvXNXVXDXJXPXPXJXFXSXNXfXiXF.Z.Z.Z.Z.Z.Z.Z.Z.Z.Z.Z.Z.Z.B.b.b.b.b.b.b.B.B.B.B.Z.B.B.B.B.B.B.B.b.b.B.B.B.B.B.B.b.B.B.B.B.B.B.b.b.b.b.f.8.u.p.f.f.n.n.b.b.Z.G.H.K.uXaXjXhXnXBXCXDXJXLXUXIXIXIX",
"5.t.d.d.k.C.A.C.i.6.1.l 1.1.l l 1.1.1.1.1.1.1.4.4.4.4.1.1.l l 1.l l l l l 1.1.1.1.1.1.1.1.4.w.w.e.e.w.w.4.1.1.1.l j h h h h g g g g g s s g g g g g g g g z j j j j j j j j j l l l l l l l l l 1.1.1.1.1.5.1.1.5.5.5.5.5.5.5.5.5.5.w.w.5.5.5.5.w.w.w.w.5.w.e.e.e.e.r.r.t.i.d.d.d.d.d.g.k.k.l.l.l.l.c.c.l.l.l.l.k.k.k.l.l.l.l.l.l.l.m.m.V.C.C.C.C.C.A.A.A.S.S.S.U.U.R.R.U.R.W.W.W.W.W.Q.W.Q.Q.W.Q.Q.Q.Q.^.^.W.W.S.R.R.R.R.R.R.W.R.W.W.W.R.W.F.F.R.R.W.Q.~.~.sXfXzXmXNXVXAXDXFXKXKXKXKXFXGXGXAXNXmXmXNXVXmXvXcXzXkXkXxXcXcXkXfXfXsXsXsXsXgXfXfXfXxXvXmXAXSXGXKXPXKXKXFXSXVXxXaXH.G.G.G.G.F.H.J.J.J.J.H.F.F.G.G.Z.Z.Z.B.B.B.B.Z.G.G.Z.B.B.B.B.B.B.B.B.G.G.G.G.Z.B.G.B.Z.Z.Z.Z.Z.Z.Z.b.f.f.f.f.f.f.n.n.b.B.Z.G.H.!.uXgXjXhXnXBXCXDXJXLXUXUXUXUX",
"5.5.5.i.C.Y.U.E.l.i.1.l 1.1.1.l 1.l 1.l 1.1.1.4.4.4.4.1.l l 1.1.l l l l 1.4.4.4.1.1.1.1.1.1.1.4.w.w.4.4.w.w.w.w.1.1.l j j j h h h h g h h h h h g g g g z j j j j j j l l l l l l l l l l l l 1.1.1.5.w.w.w.e.e.e.e.w.w.e.e.e.e.w.w.e.e.e.e.w.w.e.e.e.e.e.e.r.r.t.i.d.d.d.d.d.k.k.k.l.l.V.c.C.C.C.C.A.A.C.C.V.V.l.l.l.l.l.l.l.l.l.l.l.c.V.C.C.A.A.A.A.A.A.C.A.S.A.S.S.S.U.U.U.U.U.U.T.W.U.W.W.W.W.W.W.W.W.W.W.U.S.S.S.S.S.U.R.R.U.R.R.R.R.F.F.F.S.S.R.W.W.^.~.sXkXzXcXmXVXAXDXGXFXFXFXGXGXGXAXAXNXNXNXVXVXNXmXcXkXfXfXxXcXcXcXcXxXkXfXfXxXcXcXcXvXbXNXAXSXGXJXKXKXKXKXFXGXVXhX8XJ.H.H.H.H.J.K.K.^.W.!.!.!.!.^.K.J.J.J.J.J.J.K.K.H.H.G.G.G.G.G.G.G.G.G.G.G.G.G.G.G.G.Z.G.G.Z.Z.Z.B.n.f.f.f.f.f.n.n.n.b.b.Z.Z.F.^.uXgXjXhXnXBXCXDXJXLXUXUXUXUX",
"1.5.w.d.C.A.A.Q.Y.k.e.l l 1.1.1.1.l l l l 1.1.1.1.1.l l l l 1.1.1.1.1.l 4.4.4.4.1.1.1.1.l 1.1.1.4.4.4.4.4.w.w.w.w.4.1.4.1.1.1.l j j j j j j j l j j l l l l l l l l l l l l l l l l 1.1.1.1.5.w.w.w.w.e.r.r.r.r.t.t.t.t.t.t.t.t.t.t.t.t.t.t.r.r.r.r.r.r.r.r.i.i.d.d.d.g.k.k.l.l.l.C.C.C.C.A.A.A.A.Y.Y.U.Y.A.A.A.A.C.C.C.C.m.V.m.c.V.C.C.C.A.Y.U.Y.Y.Y.Y.Y.S.U.U.U.U.R.U.U.S.S.S.Y.Y.U.U.U.U.R.U.U.U.U.U.S.S.S.S.S.S.A.A.S.S.S.S.U.U.R.R.F.F.F.F.S.S.S.R.R.W.^.~.sXdXkXcXNXVXAXSXGXGXGXGXSXSXAXNXAXNXmXNXVXVXNXmXzXkXfXkXkXxXcXvXvXcXcXxXcXxXxXcXxXvXvXVXAXAXGXJXKXKXKXKXFXSXBXgX^.K.H.F.H.H.H.J.J.J.K.^.K.!.!.K.uXuXuXuXuXuXuXuX!.!.!.K.K.K.J.J.F.F.G.F.G.G.G.G.G.G.G.G.G.Z.Z.D.b.n.f.n.n.f.f.n.n.n.b.b.Z.D.H.^.uXaXjXhXnXBXCXJXPXLXUXUXUXUX",
"5.5.5.r.d.t.e.d.l.d.e.1.l l 1.1.1.1.l l 1.1.1.1.l l l l l l 1.1.l l l l l 4.4.4.1.1.l l l l 1.1.4.1.4.1.4.4.1.1.w.4.4.4.4.4.4.4.1.1.1.1.1.1.1.1.1.1.1.1.1.4.1.l 4.4.w.w.w.w.w.w.w.w.e.e.e.e.e.r.t.t.t.d.d.d.d.d.z.d.d.d.d.d.d.d.d.d.d.d.d.d.d.d.d.d.d.d.d.d.d.d.k.k.k.k.l.l.l.l.C.C.C.A.A.A.A.A.Y.Y.Y.Y.Y.Y.Y.Y.Y.Y.Y.Y.A.A.A.A.C.A.A.S.Y.U.U.T.T.T.Q.Q.Q.W.Q.Q.Q.Q.Q.Q.Q.W.W.W.E.T.Q.T.U.U.U.S.U.U.U.S.S.S.S.S.S.S.A.A.S.S.S.S.S.R.R.R.U.R.R.R.R.S.S.R.R.W.^.~./.7XdXfXcXvXmXNXAXAXSXAXAXHXNXNXNXNXmXmXNXVXNXNXvXxXfXfXfXkXxXcXcXcXcXxXxXxXcXcXcXvXvXNXVXAXGXFXKXKXKXKXKXFXVXxXuX!.^.J.H.J.J.K.J.J.J.J.H.H.H.G.K.K.!.uXuXuX!.!.!.!.K.K.K.K.K.K.K.K.K.J.J.G.G.G.G.G.F.F.G.G.G.F.Z.b.n.n.n.f.f.n.b.b.b.b.Z.F.J.!.aXgXhXnXbXVXSXJXLXUXUXUXUXUX",
"1.1.l 5.t.5.l w.e.e.w.1.l 1.1.l 1.1.1.1.1.1.1.1.1.l l l l l l 1.l l l l l l l l 1.1.l l l l 1.1.1.1.1.1.4.4.1.1.1.1.4.4.4.4.w.w.w.w.4.w.4.w.5.w.4.4.w.w.w.e.e.e.e.y.y.r.t.t.t.t.t.i.d.i.i.i.d.z.z.z.z.z.l.l.l.l.l.l.z.z.k.k.h.h.k.z.k.z.z.k.k.k.k.k.k.k.k.k.l.l.l.l.l.l.l.C.C.C.C.C.A.A.A.A.A.A.A.A.A.A.A.A.Y.Y.U.Y.Y.Y.Y.Y.Y.Y.A.Y.U.U.T.Q.Q.Q.Q.Q.~.~.~.~.(./.7XdXdXdXlXlXlXlXdXdX7X7X/.~.~.W.W.W.W.W.W.R.U.U.S.S.S.S.S.S.S.S.S.S.S.S.U.U.R.R.R.S.S.R.R.U.W.W.Q.~./.sXgXdXzXmXmXNXNXNXNXNXNXNXNXmXmXmXmXNXNXNXmXcXfXfXfXfXfXMXkXxXcXxXxXxXxXnXcXcXvXmXNXNXSXGXFXJXKXFXFXGXVXvXjXgXaXuX!.!.uXuXuXuXuX!.!.K.K.K.K.K.!.uXuXuX!.!.K.K.K.K.!.!.uXuXK.K.K.K.K.K.K.K.J.H.G.J.F.F.F.F.G.Z.b.n.b.b.b.f.b.b.b.b.D.F.K.uXaXjXhXnXBXCXDXJXLXUXUXUXUXUX",
"l 1.w.w.e.r.w.1.l 1.4.4.1.1.l 1.1.1.1.1.1.1.1.1.l l l l l l l l l l 1.1.1.l l l l l l l l l l l l l 1.1.1.1.1.1.1.1.4.4.w.w.w.w.w.w.w.w.w.w.w.e.e.e.y.r.t.t.t.i.i.d.d.d.z.z.k.z.l.l.l.l.l.l.c.C.C.Y.Y.Y.Y.Y.Y.Y.A.A.C.C.c.l.l.l.l.l.l.l.l.c.C.C.m.C.C.C.V.V.V.V.l.l.l.c.c.C.C.C.C.C.C.C.A.A.A.A.A.A.A.A.C.C.A.A.A.Y.Y.Y.Y.Y.Y.U.U.U.W.Q.Q.Q.~.~.Q.~.~.(.(./.7X7XlXlXzXcXvXvXmXNXNXNXNXNXmXcXlX7X7X7X7X7X7X~.W.S.R.R.R.R.R.R.R.R.U.S.S.S.S.R.R.R.R.R.R.W.W.W.Q.Q.Q.Q.~.~.sXsXgXfXkXkXcXvXvXcXvXmXmXvXvXvXvXmXmXmXmXcXkXkXfXkXfXfXfXkXkXcXvXvXnXxXcXcXvXmXNXNXAXSXGXGXFXGXGXSXVXvXxXxXfXgXaXaXaXaXaXaXaXgXgXgXgXgXaXaXaXaXaXgXgXgXaXaXaXaXaXaXgXgXgXaXaXaXaXaXaXuXK.!.!.K.K.K.J.F.F.G.B.B.b.b.b.b.b.b.B.Z.F.F.!.uXgXjXhXnXVXCXDXJXLXUXIXIXUXUX",
"1.1.w.w.e.r.w.5.1.1.1.1.1.1.l l l l 1.l 1.1.l l l l l l l l l l l 1.1.1.1.l l l l l l l l l l l l l l l 1.1.1.1.1.1.4.4.4.w.w.w.w.w.w.w.w.e.e.e.y.r.r.t.t.i.i.i.d.d.z.z.k.z.l.l.C.C.A.A.A.A.Y.Y.Y.U.T.E.E.E.E.E.U.U.Y.A.C.C.C.C.m.C.C.C.C.C.C.C.C.C.C.C.C.C.C.C.l.l.l.l.l.l.l.l.l.l.l.l.l.c.C.C.C.C.C.C.C.C.A.A.A.Y.Y.Y.Y.Y.U.U.T.T.Q.Q.Q.Q.Q.~.Q.~.(.(././.7XdXlXlXzXcXvXmXNXNXNXAXAXAXNXNXNXmXcXzXkXkXfXdX/.Q.W.W.W.R.R.R.R.R.S.S.S.S.S.U.U.U.W.W.^.~.~.7XsXsXsX~.~.~.7X7XsXsXsXdXdXfXkXkXzXcXcXzXzXcXcXcXcXcXcXkXkXfXfXfXfXkXgXfXkXcXvXbXvXxXcXvXvXNXNXVXAXAXSXSXGXDXSXAXNXxXxXxXhXjXaXaXaXaXaXgXjXjXjXhXhXhXhXhXhXhXhXhXhXhXhXhXhXhXhXhXhXhXhXhXjXjXjXgXgXgXaXaXaXaXuXuX!.J.F.F.G.G.Z.B.b.b.b.b.B.G.F.W.!.uXaXgXjXnXBXCXDXJXLXUXIXIXIXIX",
"l 1.1.w.r.t.r.5.1.1.1.1.1.1.1.l l l l 1.1.l l l l l l l l l l l l l 1.1.l l l l j j l l j h h h l l l l l l 1.1.1.1.1.4.4.5.5.w.w.w.5.w.e.e.e.e.r.a.r.t.i.i.i.d.d.d.d.z.k.z.l.l.c.c.C.C.C.C.A.A.Y.U.U.U.U.U.T.T.U.Y.Y.A.A.C.C.C.C.C.C.C.C.C.C.C.C.C.C.C.C.c.l.l.l.l.l.k.k.k.g.g.g.g.g.g.k.k.l.l.k.l.l.l.l.C.C.C.A.A.Y.Y.Y.Y.Y.U.U.T.Q.Q.Q.Q.Q.Q.Q.Q.Q.Q.~.(.7X7X7XdXdXlXzXzXvXmXNXNXNXNXNXNXNXNXvXcXzXkXkXdX/.Q.W.W.W.R.R.R.R.W.W.R.R.R.R.R.R.U.W.W.Q.~.sXfXzXzXkXfXsXsXsXsX7X/.7X7X7XsXsXsXdXgXdXfXfXkXkXkXkXkXkXkXfXfXgXgXgXfXfXfXkXcXbXNXbXvXcXvXvXmXNXNXVXVXAXAXAXAXAXVXbXxXcXcXxXkXjXgXgXgXjXjXhXhXnXnXbXbXbXbXBXZXZXZXZXZXBXbXbXbXbXbXnXnXnXhXhXhXhXhXhXhXhXhXjXgXaXaXuXJ.F.F.J.J.F.Z.B.Z.B.B.Z.G.F.W.!.uXaXaXjXhXBXCXDXJXLXUXIXIXIXIX",
"1.1.1.w.r.d.d.t.w.5.l l l 1.1.l l l l l l l 1.1.l l l l l l l l l l l l l l l l h l l l j j h h l l l l l l l l 1.1.1.1.1.1.5.5.5.5.5.w.e.e.e.e.r.r.r.t.i.i.t.d.i.d.d.d.d.d.k.l.l.l.C.c.C.C.C.C.C.C.C.A.A.A.A.A.A.A.A.C.C.C.C.C.V.C.C.C.C.C.C.C.c.l.l.l.l.l.z.z.g.h.g.d.j.d.d.d.d.d.d.d.d.d.d.d.d.d.z.k.k.l.c.C.C.C.C.A.A.A.A.A.Y.U.U.U.U.U.U.U.T.T.W.Q.Q.Q.~.(.~.~./.7X7XdXlXlXcXcXvXvXvXvXvXcXcXzXkXlXdXsX^.R.U.R.R.U.R.R.W.W.^.Q.Q.Q.Q.Q.W.W.W.^.Q.~.dXzXvXvXvXxXfXgXgXgXgXdXdXsX/.7X7X/./.8XsX7XsXsXsXsXsXsXdXdXsXsXsXsXsXsXfXgXfXkXcXvXvXvXvXvXvXvXbXmXNXNXVXVXAXVXVXNXvXxXcXxXnXnXhXhXhXhXnXnXnXbXZXVXVXVXVXVXVXVXVXCXCXVXVXVXVXVXVXVXZXbXBXbXnXnXnXnXnXnXnXnXhXhXjXaX!.H.G.F.J.J.F.G.G.G.B.Z.G.G.F.F.!.uXaXaXgXhXBXVXDXKXLXUXUXIXIXIX",
"1.1.1.e.t.z.z.d.d.t.w.l h l l l 1.l l l l l 1.1.l l l l l l l l l l l l l l l j h l l l l j j h l l l l l l l l l l l 1.1.1.1.1.5.5.5.w.e.e.e.e.e.e.r.r.t.i.i.u.d.d.d.j.d.g.h.k.l.l.c.C.C.C.C.A.C.V.C.C.C.C.C.C.C.C.C.c.V.m.m.m.V.V.C.V.C.C.C.C.l.l.k.k.k.k.z.d.d.d.j.d.d.d.d.d.s.i.i.i.i.d.d.d.d.d.d.d.j.z.k.l.l.m.V.V.C.C.C.C.A.Y.Y.U.U.U.U.U.T.T.T.T.T.Q.Q.Q.Q.Q.Q.Q.~.(./.7XdXdXlXlXkXzXzXkXlXlXdXdX7X~.W.S.A.S.S.S.S.R.W.W.^.^.^.^.Q.Q.Q.Q.~./.7XsXdXzXvXcXcXxXkXgXgXfXfXkXkXgXsXsX~.!.~.~.~.~.~.~.~.~./././.7X7X7XsXsXsXgXgXgXgXfXcXcXvXvXvXvXvXcXvXvXmXVXVXVXVXNXNXbXnXnXcXxXnXnXnXnXnXnXbXBXVXVXVXCXVXVXVXCXCXCXCXCXVXVXCXCXVXVXVXVXBXbXBXbXnXnXnXnXnXnXnXnXnXhXhXgX!.H.G.F.F.F.F.F.G.G.Z.Z.Z.G.G.F.J.!.aXaXgXhXbXVXFXPXLXLXUXIXIXIX",
"1.1.1.e.r.d.d.d.l.z.t.1.k k l l 1.l l l l l l l l l l l l l l l l l l l l l l j h l l l h h j j l l l l l l l l l l l 1.1.1.1.1.1.5.5.5.w.e.e.e.e.e.r.r.t.t.i.i.d.d.d.d.d.d.g.h.h.l.c.c.C.C.Y.Y.A.A.C.C.V.c.c.m.l.l.l.l.l.l.l.l.l.V.m.m.m.l.c.C.l.l.l.l.l.l.k.z.g.g.g.d.d.d.d.s.i.i.i.i.i.i.i.i.i.i.s.d.d.j.d.g.k.l.l.m.c.V.C.C.A.A.Y.Y.Y.U.U.U.W.W.W.W.W.Q.Q.Q.W.T.U.U.U.T.E.E.Q.Q.(./.dXdXdX7X/./.(.~.Q.U.S.C.C.C.A.A.S.U.R.W.W.W.Q.^.Q.~.~./.sXdXfXkXkXzXzXkXkXkXkXfXgXfXkXzXzXfXsXsX/.~.~.~.~.~.~.~.~.~.~.~.7X7X7X7XsXsXsXsXgXgXfXkXxXcXcXvXvXvXvXcXcXvXbXbXVXVXNXNXvXnXnXnXcXxXnXnXnXvXbXBXVXVXVXCXCXVXCXCXCXCXCXCXCXCXCXCXVXVXCXVXVXVXVXBXZXbXbXnXnXnXnXnXnXnXnXnXhXgXuX^.J.H.G.G.G.F.G.G.B.B.B.Z.G.G.J.!.aXgXjXhXZXCXFXJXPXLXUXUXIXIX",
"1.1.5.w.e.r.t.t.z.z.d.w.l 1.1.1.1.1.1.1.1.1.l l l l l l l l l l l l l l l l j j h h h h h j l l l l l l l l l l l l l 1.1.1.1.1.1.1.1.5.w.w.e.e.e.e.e.r.r.t.t.r.i.i.d.d.d.d.d.g.k.l.C.Y.T.T.Q.Q.Q.T.U.A.C.c.l.l.k.k.k.l.l.l.l.m.l.V.V.V.m.l.l.l.l.l.l.l.k.k.k.h.h.g.g.j.d.d.d.d.d.d.d.i.i.i.i.i.s.s.s.d.d.g.g.g.k.l.l.l.c.C.C.A.Y.Y.Y.U.U.T.Q.Q.Q.Q.Q.Q.Q.Q.Q.Q.W.T.U.S.S.Y.S.A.A.A.U.T.Q.Q.Q.Q.U.U.U.Y.A.A.V.V.m.m.C.C.A.A.A.U.U.R.R.W.W.Q.~.~.sXdXdXfXfXdXdXdXdXkXkXfXfXfXfXkXfXgXsX/.~.~.~.~.~.~.~.~.~./.iXsXsXdXgXgXgXgXfXfXfXfXfXkXkXkXkXzXcXvXvXvXvXvXvXvXbXNXNXbXnXkXhXnXnXnXnXnXnXvXbXbXBXVXVXVXCXVXCXVXVXVXCXCXCXCXCXCXVXCXCXCXCXVXCXCXVXVXZXZXnXnXnXnXnXnXnXhXhXjXgXaX!.K.H.G.F.H.G.Z.B.B.B.Z.Z.G.J.!.aXgXhXhXZXCXDXFXJXPXLXUXIXIX",
"1.1.5.e.e.e.e.e.r.i.d.t.w.5.5.1.1.1.5.w.w.1.1.k l l l l l l l l 1.1.l l l l j h h h h h h j l l l l l l l l l l l l l l 1.1.1.1.1.1.1.1.w.w.e.e.e.e.e.e.e.r.r.r.t.t.i.d.d.d.d.g.k.l.C.Y.T.(.(./.7X(.Q.U.A.c.l.h.g.h.k.l.l.m.V.V.m.V.C.C.C.C.m.l.l.l.l.l.l.k.k.h.g.g.g.g.d.d.s.s.d.d.d.d.d.d.i.i.d.d.d.g.g.g.g.g.k.l.l.m.C.C.A.Y.U.U.U.Q.Q.Q.Q.Q.Q.Q.Q.Q.Q.Q.Q.Q.U.S.C.C.C.V.m.l.h.h.l.l.C.C.V.l.l.l.k.k.h.l.l.h.m.m.m.V.V.C.C.A.A.S.S.S.U.U.W.W.~.~././././.7XdXdXdXkXkXkXfXfXdXgXsX~.~.~.Q.~.~.^.~.~./.iXsXdXfXkXcXvXvXvXbXNXNXBXvXnXbXbXnXxXxXcXbXNXNXbXvXvXvXvXmXBXbXcXkXhXnXnXnXxXxXxXxXnXvXbXBXNXVXVXVXVXCXCXCXCXCXCXCXVXVXNXVXVXVXZXZXBXZXZXbXbXnXnXnXhXhXhXhXjXgXaXaXaXuXuX!.K.H.F.F.G.Z.Z.Z.B.B.Z.G.J.K.!.gXhXhXbXVXCXSXDXJXPXLXUXIX",
"1.1.5.e.r.t.t.i.r.t.r.r.t.r.r.w.w.5.5.w.w.w.5.l 1.l l l l l l l l l l l l l l h l l j j h l l l j j j l l l l l l l k k k l 1.1.1.1.1.5.5.w.e.e.e.e.e.e.e.e.r.r.t.t.i.i.d.d.d.k.c.Y.Q.(.(.).(.7X7X7X(.Q.Y.c.l.l.k.l.c.C.A.Y.Y.U.S.T.Q.T.U.A.V.l.h.k.l.l.l.h.h.m.g.g.g.d.d.d.d.d.d.d.d.g.g.g.g.g.g.g.g.g.g.g.g.g.l.l.l.m.C.A.A.A.Y.Y.U.U.U.U.U.U.U.U.U.U.U.U.U.S.A.C.l.l.l.l.g.d.f.f.g.g.h.h.h.g.d.g.d.d.g.g.g.g.h.h.m.m.m.M.M.M.A.C.A.A.A.S.S.U.U.R.W.W.W.Q.^.~./.dXdXfXkXkXfXsX7X~.Q.~.^.^.^.~.~.~.~.sXsXgXfXxXvXmXNXAXSXAXSXGXFXAXVXVXAXAXAXVXAXAXAXSXSXAXAXNXNXbXvXvXxXxXkXkXnXnXnXnXnXnXnXnXvXbXZXZXVXVXVXVXVXVXVXVXCXVXVXNXVXbXnXnXhXhXhXhXhXhXjXjXaXaXaXaXaXuXyXyXyXyXK.K.uX!.J.F.G.G.Z.B.B.B.B.Z.G.G.F.J.!.!.aXjXhXnXCXCXDXJXPXLXLXUX",
"1.5.w.e.t.d.z.k.d.d.t.t.t.i.t.t.r.e.w.w.e.e.w.5.1.1.l l l l l l l l l l l l j h l l j j l l l l j j l l l l l l l l k k k k l l 1.1.1.1.5.5.w.w.5.5.e.e.e.e.e.e.e.r.t.i.d.z.l.C.E.(.dXlX7X7X7X7X7X7X(.Q.Y.C.c.l.k.l.A.T.Q.Q.Q.Q.~./.7X(.(.E.Y.C.l.k.h.h.h.h.h.h.g.g.j.j.g.g.s.s.g.g.g.h.h.h.h.h.g.g.d.d.g.d.d.d.g.g.g.l.l.l.l.l.l.m.m.m.l.l.l.l.l.m.m.l.l.l.l.l.l.k.g.d.g.g.j.d.s.s.s.s.f.f.s.i.d.d.d.d.d.d.g.h.g.g.g.g.m.m.m.m.M.V.V.V.V.C.C.C.A.S.S.S.S.S.S.R.Q.~./.sXdXfXfXsX~.^.^.^.W.W.W.^.Q.Q.~.~.7XsXfXxXmXVXAXSXSXSXSXFXJXJXFXDXFXJXJXJXKXPXPXPXPXPXPXKXSXVXBXbXvXcXxXxXnXnXnXnXnXnXnXnXnXvXbXbXbXNXNXVXAXSXSXSXGXDXGXSXVXZXnXhXhXjXjXgXaXaXyXyXyXJ.J.J.J.J.H.H.J.J.J.J.F.H.F.F.G.Z.Z.G.Z.B.B.B.B.Z.G.F.J.^.uXaXgXhXVXCXCXDXJXKXLXLX",
"w.w.r.t.i.z.z.l.d.t.e.r.t.t.t.t.t.r.r.r.r.r.e.w.5.1.1.1.l l l l l l l l l l l l l l j j l h h h j h l l l l l l l l k k k l l l 1.1.1.1.1.5.5.5.5.w.e.e.e.e.e.e.r.t.i.d.z.l.A.Y.(.7XzXzXlX7X7X7X7X(.(.U.C.c.l.k.l.l.S.Q./.7X/./.7X7XdX7X7X7X(.U.C.l.j.h.h.h.g.g.g.g.g.g.g.g.g.s.g.g.f.f.g.g.g.f.d.s.d.d.s.i.i.u.i.i.i.d.d.d.d.d.i.i.i.i.i.i.i.i.i.i.i.i.i.i.d.d.i.i.i.i.i.i.s.i.i.i.i.i.u.u.i.u.i.i.i.i.i.s.f.d.d.d.d.g.g.m.m.m.b.m.m.m.m.V.V.V.m.V.V.V.V.V.A.A.Y.U.R.Q.~.iXsXiXW.W.W.W.W.R.R.R.W.W.^.~.~.7XgXkXvXVXSXSXSXSXSXFXJXKXKXKXJXPXLXLXUXUXLXLXLXLXLXLXJXDXVXNXmXbXvXvXxXxXxXnXvXvXvXnXbXbXbXbXbXNXVXVXFXFXJXFXFXJXJXFXDXCXnXhXjXaXuXK.yXyXyXyXJ.J.J.G.J.J.J.J.J.J.J.J.Z.G.F.F.G.G.F.F.G.Z.B.B.B.Z.G.F.J.!.!.aXaXhXbXVXCXCXDXFXKXPX",
"w.r.t.t.i.d.d.z.t.w.w.e.r.r.r.t.t.r.r.r.t.t.t.r.e.w.1.1.l l l k 1.l l 1.1.1.1.1.l l l k k h h h l l l l l l l l l l l l l l l l 1.1.1.1.1.1.1.1.w.w.e.e.w.e.r.r.i.i.d.d.k.c.Y.U.T.7XlXlX7X7X(.(.Q.E.Y.C.l.l.k.k.l.l.C.U.Q.(.(././.7X7XlXlXlX7X(.U.V.h.h.h.h.h.h.h.h.h.g.g.g.g.g.f.f.f.f.f.f.f.f.i.i.u.u.u.u.u.r.e.e.r.u.u.r.r.6.7.7.7.7.7.7.7.7.u.r.e.r.r.u.u.u.e.r.r.r.u.u.u.i.a.u.u.u.u.u.u.u.a.a.i.i.i.u.i.i.i.s.d.d.g.g.g.h.g.g.h.l.m.m.m.m.m.m.m.m.m.m.V.C.V.C.C.C.S.R.W.W.S.S.S.U.R.S.S.R.R.R.W.^.~.~.sXfXxXbXVXVXVXVXAXSXFXJXKXKXKXPXLXLXUXUXLXLXLXLXLXLXPXFXSXVXVXNXNXNXvXvXvXnXvXbXNXNXBXZXBXBXBXCXCXDXJXJXJXFXDXDXDXGXFXSXVXnXhXjXjXgXuXyXyXyXyXyXyXJ.J.J.J.J.J.J.J.G.Z.G.F.F.F.F.F.F.Z.B.B.B.B.Z.G.F.J.!.uXaXaXjXnXBXVXCXDXSXFXJX",
"5.w.r.r.r.r.r.r.e.5.5.e.e.w.w.r.e.r.r.t.i.i.t.t.w.w.1.1.1.l k h l l l 1.1.1.1.1.1.1.1.1.1.1.l l k l l l l k k h 1.1.l l l l l 1.l l 1.1.1.1.5.5.5.w.w.w.5.e.e.r.r.t.i.d.k.c.C.A.Y.T.).Q.Q.T.T.U.A.A.C.l.k.h.k.l.V.c.C.A.U.Q.(.(./.7X7XlXzXzXlX7X(.T.C.V.V.h.h.b.h.h.h.h.g.g.h.h.g.g.g.d.d.d.d.d.u.u.r.7.7.7.7.e.7.7.7.7.7.6.7.6.5.5.6.6.6.6.6.6.6.6.6.6.6.5.6.6.5.7.7.7.7.7.e.r.u.u.r.e.e.u.u.u.u.u.u.u.u.a.u.i.u.u.u.i.i.i.s.s.i.s.d.g.h.l.l.m.V.m.l.g.g.g.g.l.m.m.m.m.m.m.V.V.V.Z.C.A.S.S.S.S.S.R.W.^.^.Q./.sXgXxXvXvXmXNXVXAXDXGXJXJXKXKXLXLXLXLXLXLXLXKXKXKXJXFXSXSXAXVXVXAXVXVXNXbXbXNXVXVXbXbXbXbXbXVXCXDXFXJXFXDXSXSXDXGXSXAXVXVXBXVXCXCXnXaXJ.J.yXyXJ.J.J.J.J.J.J.J.G.G.Z.Z.G.G.G.G.D.D.Z.B.B.B.B.Z.D.F.J.J.!.aXgXgXhXBXCXDXDXSXSXSX",
"1.5.5.5.w.w.w.w.5.1.1.1.1.1.5.e.5.w.w.r.t.t.t.t.e.w.5.1.1.1.1.l 1.1.1.1.1.1.1.1.5.5.5.5.5.5.5.1.1.1.1.1.1.1.l l 1.1.1.1.1.1.1.1.1.1.1.1.5.5.5.5.5.5.w.e.e.e.e.r.r.r.i.d.d.z.l.l.c.c.c.c.C.C.c.l.l.l.h.g.g.g.l.l.m.c.C.A.Y.U.E.Q.(./.7XlXlXzXzXlXdX7XQ.U.C.h.j.h.h.h.h.h.g.g.h.h.g.g.g.g.d.g.g.g.u.u.8.7.7.7.7.7.7.7.5.5.6.6.6.6.5.5.6.6.6.6.2.<.5.1.1.1.1.2.6.6.2.6.5.5.5.6.5.6.7.7.7.7.7.7.e.r.e.e.r.r.u.u.u.u.7.7.e.e.e.e.r.u.r.u.a.i.d.g.g.g.g.g.d.s.i.i.d.d.g.g.g.g.g.g.h.h.h.m.V.V.C.A.A.S.S.R.W.^.Q.~.~.7XsXfXkXkXvXmXNXVXAXAXDXFXJXJXKXKXKXLXLXLXLXKXKXKXFXFXFXSXAXVXVXAXSXSXVXNXmXmXbXbXvXbXvXvXbXBXCXCXSXDXDXSXSXSXSXSXSXAXVXCXCXCXFXJXJXbX!.K.yXJ.F.!.yXJ.J.yXJ.J.J.G.G.Z.Z.D.G.G.G.D.G.Z.Z.Z.D.D.F.F.J.K.!.aXhXjXhXVXJXPXJXSXSXSX",
"5.1.1.1.5.5.w.w.1.1.l l l l 1.1.5.5.5.w.w.e.e.w.w.5.1.1.1.1.1.1.1.1.1.1.1.1.5.5.w.w.e.e.e.w.w.w.5.5.5.5.5.5.1.1.5.5.5.5.5.5.5.5.1.1.1.1.5.5.5.5.5.5.6.6.6.e.e.r.t.i.i.d.d.d.d.d.d.d.z.z.l.k.h.g.d.j.d.d.j.g.h.l.l.c.C.C.A.C.Y.Y.Q.(.7X7XlXlXzXzXlXlX7X~.U.V.V.m.h.h.h.h.h.g.g.g.g.g.d.f.f.f.f.g.f.u.u.7.7.7.6.6.5.5.5.5.5.5.5.5.5.5.5.5.5.6.6.1.5.<.1.5.1.2.1.1.1.1.1.1.2.6.6.6.6.6.6.6.6.6.6.6.6.6.7.7.7.7.7.7.7.7.7.7.6.7.7.7.7.7.7.e.u.u.a.u.u.r.r.r.r.u.i.i.i.i.s.d.s.d.d.g.j.h.l.m.V.V.A.A.S.S.R.W.Q.~.~.8XiXsXdXfXzXvXbXNXNXVXAXAXSXGXFXJXJXKXKXKXKXKXKXJXFXFXFXGXSXVXNXVXAXSXAXVXNXBXbXnXnXvXvXnXnXvXBXVXVXAXSXAXVXVXVXVXCXVXCXCXCXVXFXKXLXDXMXK.yXyXJ.K.yXJ.J.J.J.J.G.G.G.Z.Z.Z.Z.G.G.D.G.G.G.G.G.F.F.H.K.!.aXgXhXhXnXVXJXLXPXFXFXSX",
"5.5.1.1.5.5.1.1.1.1.1.l l l k k l l l l l l l l 1.1.1.1.1.1.1.1.1.1.1.1.1.5.5.5.w.w.e.e.e.e.w.w.6.6.e.e.6.6.5.5.e.e.5.5.5.5.5.5.5.5.5.5.5.5.5.5.5.5.5.5.6.6.e.r.t.i.i.d.j.d.k.k.d.d.d.z.h.j.d.d.d.d.d.d.j.g.h.l.c.c.C.C.c.l.C.C.Y.Q.(.7X7X7XlXlXzXlXlX7X(.W.U.S.b.h.g.g.h.h.g.f.s.s.s.s.s.s.s.s.f.f.u.u.7.7.6.6.5.5.5.5.5.5.5.6.6.5.5.5.7.5.5.6.<.<.<.<.1.1.1.1.<.<.1.1.1.6.6.6.<.5.6.6.5.1.1.6.2.2.6.6.6.6.6.6.5.5.5.6.6.6.6.5.7.6.5.5.6.6.6.5.6.7.7.7.7.r.r.r.u.u.u.i.i.i.s.d.j.g.h.h.h.m.V.V.A.A.S.R.W.~.~.~.~.iXsXdXfXkXzXvXcXNXNXNXNXAXGXGXGXGXFXFXFXFXFXGXGXGXDXSXAXVXNXVXVXVXVXVXNXBXbXvXxXnXvXnXxXcXvXbXNXNXVXVXVXVXVXNXZXBXBXBXBXCXFXPXLXLXCXaXyXyXyXyXJ.J.J.J.J.J.J.J.G.B.B.b.Z.Z.Z.Z.G.Z.Z.Z.G.F.F.J.!.aXaXsXfXfXhXZXSXPXPXFXFXFX",
"1.1.1.1.1.5.5.1.5.5.5.1.1.1.1.3.k k k k k k l 1.1.k k 1.l 1.1.1.5.5.5.5.5.5.5.5.7.5.6.6.6.6.e.6.e.e.e.r.r.r.r.7.e.e.e.e.e.e.r.r.r.r.7.6.6.6.6.6.5.5.5.6.e.e.e.e.r.r.i.d.d.z.h.h.k.k.k.l.l.l.l.g.j.j.j.j.g.h.h.l.l.l.c.c.c.l.m.m.C.Y.U.E.Q.(.7X7X7XlX7X7X/.Q.T.Y.V.h.s.f.g.g.f.s.s.s.8.8.7.7.8.8.f.f.f.u.7.6.6.6.6.6.5.5.6.6.6.6.7.6.6.7.7.u.7.7.5.6.<.1.1.1.1.1.1.1.1.1.1.1.1.1.<.<.5.6.6.1.1.<.1.1.2.1.1.1.1.6.5.6.1.1.1.1.6.6.5.5.5.5.6.6.5.5.6.6.6.7.7.7.7.7.r.r.u.u.u.u.i.i.s.f.g.h.g.b.m.m.V.V.A.A.S.R.W.W.^.~.~./.sXgXfXkXkXxXvXvXmXNXAXAXSXDXGXGXFXFXFXGXSXAXAXVXVXNXNXNXNXNXNXNXmXmXNXBXvXvXbXbXxXnXnXnXbXbXVXCXVXBXbXbXhXhXhXnXBXVXGXPXLXLXJXxXaXaXyXyXyXyXK.yXyXyXJ.J.H.G.Z.b.b.Z.Z.Z.D.Z.Z.Z.D.D.G.F.!.gXhXjXfXfXkXnXNXSXDXDXSXSX",
"e.5.5.5.5.5.5.5.5.5.5.5.5.1.1.1.k k k k k k l l 1.k k k l l l l 1.1.1.1.5.6.e.r.u.r.r.r.r.r.r.r.r.r.r.r.r.r.u.r.u.r.r.r.u.u.u.u.i.i.i.u.r.r.r.r.u.r.r.r.r.r.r.r.r.r.t.t.s.d.d.s.d.d.d.g.g.g.g.d.j.j.j.j.g.h.l.l.h.k.l.l.l.l.l.l.z.l.C.Y.U.T.Q.).(./.(.(.Q.E.U.C.V.h.f.f.g.g.g.g.s.s.s.8.8.7.8.8.s.s.s.u.8.7.6.6.6.6.5.5.5.6.6.6.6.6.6.7.7.u.u.r.7.6.6.5.1.6.1.1.1.1.1.1.1.1.1.1.<.<.<.1.1.1.1.<.1.1.1.1.1.1.2.2.6.6.1.1.1.1.1.6.1.1.5.6.6.5.5.5.6.6.7.7.7.7.7.7.7.7.r.8.u.u.u.i.s.s.f.g.g.g.h.m.m.m.M.V.A.S.S.S.W.W.Q.~./.sXfXkXkXcXvXmXNXVXAXSXSXGXGXGXGXDXSXSXAXAXVXNXNXNXNXmXbXmXmXbXbXbXbXBXbXmXmXbXvXcXnXnXvXvXbXbXbXnXxXhXhXfXhXnXBXVXFXPXLXLXPXSXhXjXaXaXaXaXaXaXaXaXaXaX!.^.F.G.Z.Z.Z.Z.Z.Z.B.B.Z.D.D.G.J.uXjXhXxXxXxXkXxXbXVXVXVXbX",
"e.6.5.5.5.5.5.5.5.1.5.5.1.1.1.1.1.l 1.l l l k k 3.k k k l l 1.k 1.<.1.5.6.r.a.i.u.r.u.i.r.u.i.r.u.i.i.i.i.i.i.i.u.i.i.i.i.i.i.i.i.i.s.s.i.i.u.u.s.i.i.u.r.r.r.7.r.r.r.i.s.s.s.s.d.s.s.s.j.j.s.s.f.f.s.j.g.h.h.h.h.h.h.h.l.l.l.c.l.V.C.A.Y.U.U.U.E.E.E.U.Y.A.C.c.m.h.f.f.f.f.g.j.g.f.s.s.u.8.8.8.8.u.s.u.8.7.7.7.6.6.6.6.6.6.7.7.7.7.7.7.8.u.u.u.u.8.7.7.7.6.6.6.6.6.6.6.2.1.1.1.<.<.1.1.1.1.1.1.1.1.1.1.1.1.1.1.2.2.2.1.6.6.1.2.1.1.1.6.6.6.5.5.5.6.6.6.6.7.7.7.7.7.7.0.0.u.u.u.i.i.s.f.f.g.h.g.g.h.m.m.V.Z.S.S.S.R.^.~./.sXfXkXcXmXNXNXAXSXGXGXGXGXGXDXDXDXSXSXAXVXNXNXNXbXbXvXvXvXvXvXvXvXbXbXbXbXbXbXbXvXnXcXnXxXhXxXhXfXgXgXfXMXvXVXCXSXJXLXLXLXLXJXCXbXnXhXhXhXjXjXgXaXaXaXuXuXuXW.F.Z.B.B.Z.Z.B.B.D.D.G.F.F.J.aXjXnXnXnXfXjXjXhXxXhXhX",
"e.5.5.5.5.5.5.5.5.5.5.5.5.5.5.5.5.5.1.1.1.1.l l 1.1.1.5.5.5.5.5.5.5.5.6.r.r.i.i.u.r.u.s.u.u.u.u.u.i.i.i.i.i.i.i.s.s.s.s.s.s.s.s.s.s.s.s.s.s.s.s.s.u.u.u.u.u.r.r.u.u.u.s.s.s.s.s.s.s.s.s.s.s.s.s.s.s.s.s.s.g.g.j.h.h.h.l.l.m.V.V.C.A.A.S.Y.S.S.S.S.A.C.C.c.l.h.z.j.f.s.s.s.s.g.j.h.h.g.g.f.s.u.u.s.s.s.u.8.7.7.7.7.7.7.7.7.7.u.u.u.u.u.u.u.u.i.i.s.u.u.8.u.8.7.7.6.6.6.6.6.6.1.1.1.1.1.1.1.1.1.1.1.1.1.1.1.1.1.1.2.2.2.6.6.6.6.2.1.1.1.6.6.6.5.5.6.6.6.6.6.6.6.6.7.7.7.7.7.0.u.u.u.u.u.u.s.s.d.g.h.g.b.m.M.V.A.S.S.R.W.~.~.sXgXfXcXvXmXNXVXAXDXDXGXGXDXSXSXAXAXAXVXNXNXNXbXvXvXvXxXxXxXxXnXnXnXnXnXnXvXbXbXBXvXcXfXgXgXgXgXgXaXaXgXfXnXVXCXSXFXKXKXKXPXJXSXCXCXCXCXCXVXBXnXhXjXjXgXaXaXuXJ.F.Z.B.Z.Z.Z.Z.D.F.F.F.F.G.W.uXsXfXhXjXaXgXgXgXgXgX",
"r.e.7.7.7.7.e.e.r.r.t.t.t.t.t.i.t.r.e.e.e.e.e.w.6.6.e.e.e.r.r.r.a.r.r.r.r.t.r.r.u.u.u.s.u.s.s.s.u.s.s.s.s.s.s.s.s.s.s.s.s.s.s.s.s.s.s.s.s.s.s.s.s.s.s.s.s.s.s.s.u.u.s.s.s.s.s.s.g.s.s.s.s.f.f.f.d.d.d.f.g.g.g.g.h.h.h.h.h.l.V.V.V.C.C.C.V.V.V.V.V.V.m.h.h.h.j.j.s.s.s.f.f.s.f.g.h.h.h.h.h.h.f.f.s.s.u.8.8.7.7.7.8.u.u.u.u.u.s.s.g.g.g.f.f.s.f.f.f.f.f.s.s.u.8.7.7.8.7.7.6.6.2.1.2.2.2.1.1.1.1.1.2.2.1.1.1.1.2.2.1.5.5.5.6.5.5.5.6.6.6.6.6.6.2.2.6.6.6.5.5.5.6.6.6.7.7.7.7.7.u.u.u.u.u.u.u.s.f.d.d.g.g.h.b.m.V.V.A.S.S.W.^.~.~.7XdXdXkXcXvXNXNXNXNXNXVXNXNXNXNXNXmXbXvXcXcXxXxXxXxXhXhXhXxXxXxXhXnXxXcXxXvXbXvXkXgXsXaXsXaXgXgXaXaXgXhXnXBXCXSXFXFXFXGXSXSXSXCXSXCXCXCXCXCXBXnXnXhXjXaXuXuXK.H.G.Z.Z.Z.Z.G.F.G.F.F.Z.G.F.F.!.aXaXuXuXuXiXiXuX",
"r.r.r.r.r.r.r.r.t.d.d.d.d.k.z.l.l.z.z.d.z.z.z.d.d.t.t.t.t.t.s.s.d.s.i.i.i.i.t.t.s.u.s.s.s.s.s.s.s.s.s.s.s.s.s.s.s.s.s.s.s.s.s.s.s.s.j.s.f.s.f.s.f.f.f.f.f.f.f.f.f.f.f.f.f.f.s.s.j.f.f.f.f.f.f.f.h.h.h.h.h.g.j.j.h.h.h.h.h.h.h.m.l.m.V.m.h.h.b.b.b.b.h.h.h.h.h.j.f.g.f.f.f.f.f.f.h.h.h.h.h.h.h.h.f.f.s.8.8.8.u.s.s.f.f.f.f.g.g.g.h.h.h.h.f.f.f.g.f.f.f.f.g.s.u.8.u.u.u.u.u.8.7.7.7.6.6.6.6.6.6.5.6.6.2.2.2.2.2.2.5.5.5.5.6.6.6.6.6.6.6.6.5.5.5.5.5.5.5.5.5.6.6.6.6.6.7.7.7.7.7.e.8.8.u.u.u.u.s.f.f.f.g.h.g.h.m.m.V.Z.A.S.S.U.W.^.^.~.8XsXgXgXkXkXzXzXcXcXzXzXzXkXkXkXkXfXfXgXgXgXfXfXfXfXfXfXfXkXhXxXxXcXvXvXcXfXgXaXuXuXaXaXaXaXaXaXgXjXnXBXSXDXFXFXSXVXSXSXCXCXCXCXCXCXCXVXBXBXnXhXgXuX!.!.K.H.G.G.Z.Z.Z.Z.Z.Z.G.B.Z.D.Z.D.H.J.W.W.^.!.!.^.",
"r.r.r.r.r.r.r.r.t.i.d.d.d.k.l.C.c.l.l.l.l.l.l.l.k.d.d.t.t.s.s.d.d.d.s.s.s.d.s.s.s.s.s.s.s.s.s.s.s.s.s.s.s.s.s.s.s.s.s.s.s.s.s.s.s.j.s.s.s.f.f.f.f.f.f.f.f.f.f.g.j.j.f.f.h.h.j.f.h.h.j.j.h.h.h.h.h.h.h.h.h.h.h.h.h.h.h.h.h.h.h.b.h.l.b.h.h.b.b.h.b.h.h.b.b.b.b.b.h.h.h.h.h.h.h.f.f.h.h.b.b.h.h.h.f.f.f.f.f.f.f.h.f.f.f.f.f.f.h.h.h.h.h.h.f.f.f.f.f.f.f.f.g.g.f.s.d.f.f.f.f.f.s.s.u.u.u.u.r.7.7.7.7.7.7.6.7.7.6.6.6.6.6.6.6.6.6.6.7.7.7.5.5.6.5.5.7.7.7.7.6.6.7.7.6.6.7.7.7.7.7.7.7.7.8.8.u.u.u.u.u.s.s.d.g.h.h.h.m.m.V.V.Z.S.S.S.U.R.W.^.~.~.!.!.~.~.8X~.~.8X8X8XsXsXsXsXsXsXsXsXgXgXfXfXfXkXkXkXfXxXxXcXnXvXxXfXgXsXuXuXaXaXaXuXaXaXaXgXhXBXSXFXFXFXDXSXCXCXCXCXCXVXCXSXCXCXCXCXCXbXhXgXaXaXaXuX!.K.G.B.B.B.B.B.B.B.Z.b.b.Z.Z.G.D.S.F.H.J.F.",
"i.t.r.r.r.r.r.r.r.t.i.d.d.z.l.C.c.c.c.c.l.l.l.l.k.d.d.t.t.i.s.d.d.d.s.s.s.s.s.s.s.s.s.s.s.s.f.s.s.s.s.s.j.j.g.g.s.s.s.s.s.s.s.s.g.g.g.g.j.f.j.j.g.g.g.g.g.g.g.g.j.j.f.f.h.h.h.h.h.h.h.h.h.h.h.h.h.h.h.h.h.h.h.h.h.h.b.h.h.h.h.h.h.h.h.h.h.b.b.b.b.b.b.b.b.b.b.b.h.b.h.b.b.h.h.h.h.b.b.b.b.h.h.h.h.h.h.h.h.h.h.h.h.j.f.f.f.h.h.h.b.h.h.h.h.h.f.f.f.f.f.f.g.h.h.h.g.g.h.h.g.g.f.f.g.f.f.f.i.u.i.s.u.8.8.8.7.7.7.7.7.7.7.6.7.7.7.7.8.8.7.7.7.6.5.5.7.7.7.7.7.7.7.7.6.7.7.7.7.7.7.7.7.7.7.8.8.8.u.u.u.u.i.i.s.f.d.g.g.h.h.h.m.V.Z.C.S.S.S.R.R.F.H.W.W.^.^.^.^.~.~.~.^.iX8X8XsXsXsXgXgXgXfXfXkXkXxXxXxXxXxXxXvXvXxXMXjXgXaXaXaXgXaXuXaXaXgXjXnXVXSXJXJXFXFXDXVXVXCXBXVXVXCXCXCXCXCXCXCXCXBXnXhXhXhXjXaXuXJ.Z.B.B.B.B.B.B.b.b.b.b.b.B.Z.B.B.Z.G.G.",
"u.u.t.t.u.u.t.u.t.t.u.i.d.d.z.z.k.l.l.c.c.l.l.z.z.d.i.t.t.t.t.u.s.s.u.s.z.h.h.j.k.l.l.h.g.h.g.s.g.j.j.g.j.j.s.j.f.f.f.g.g.s.f.j.g.g.g.g.j.j.j.j.h.h.h.h.h.h.h.h.j.j.f.j.h.h.h.h.h.h.h.h.h.h.h.h.h.h.h.h.h.h.h.b.h.h.h.b.b.h.h.b.b.b.b.b.b.b.b.b.b.b.b.b.b.b.b.b.b.b.b.b.h.h.b.b.b.b.b.b.b.b.b.b.b.b.b.b.b.h.h.h.h.h.f.f.f.h.h.h.h.b.b.h.h.h.f.f.f.f.f.f.f.h.b.h.h.h.f.f.f.f.f.f.f.f.s.f.f.f.f.h.f.f.f.f.s.u.u.u.u.u.i.s.f.f.s.u.s.s.s.s.u.7.7.7.7.7.7.8.8.7.7.7.7.7.7.7.7.8.8.8.7.7.7.7.7.7.8.8.8.u.u.i.u.s.s.f.d.g.g.h.b.m.V.V.V.Z.Z.S.F.S.H.H.H.H.H.W.W.^.^.~.uXiXsXsXsXgXgXgXfXkXxXcXxXcXcXvXvXvXvXvXvXcXcXkXgXsXsXiXiXaXaXaXaXgXjXhXvXVXCXSXAXSXSXCXCXNXbXbXVXVXCXCXSXSXCXVXCXCXCXCXCXBXBXhXjXaXK.G.B.B.B.B.B.B.B.B.b.b.b.b.b.b.b.B.Z.D.",
"u.u.u.u.u.s.u.u.u.u.i.i.d.d.d.d.z.z.k.k.l.l.l.l.l.z.d.d.u.i.d.d.s.s.u.j.C.T.U.C.l.U.~.U.h.s.s.h.f.f.g.g.g.g.g.g.g.g.g.g.g.j.j.j.g.j.j.j.j.j.j.j.h.h.h.h.h.h.h.h.h.h.j.h.h.h.h.h.h.h.h.h.h.h.h.h.h.h.h.h.h.b.b.b.b.h.h.b.b.h.h.b.b.b.b.b.b.b.b.b.b.b.b.b.b.b.b.b.b.b.b.b.b.b.b.b.b.b.b.b.b.b.b.b.b.b.b.b.b.b.b.b.b.b.b.b.b.b.b.b.b.b.b.b.b.b.b.h.h.h.h.h.h.h.b.b.b.h.f.f.f.f.f.f.j.f.f.j.f.s.s.f.h.h.h.h.h.h.h.h.h.h.h.h.b.m.V.V.V.V.m.h.g.s.f.f.s.u.u.8.u.u.u.u.u.u.u.u.u.8.8.7.8.8.8.8.8.8.u.u.8.u.u.u.s.s.s.f.g.g.h.h.h.b.b.V.V.Z.Z.D.D.S.S.S.S.H.H.H.W.W.^.^.!.uXiXsXsXsXsXsXsXgXfXkXkXxXnXvXvXvXvXvXvXcXkXkXsXaX!.uXuXuX!.uXaXaXjXhXxXbXNXVXNXVXVXVXVXBXZXZXVXCXCXCXSXDXDXSXCXCXCXCXCXCXCXBXhXjXaXH.D.B.B.B.B.B.B.B.b.b.b.b.b.b.b.b.B.Z.",
"u.u.i.i.u.u.u.u.d.d.d.d.d.d.d.d.j.d.d.d.z.k.k.l.l.l.z.z.z.z.z.d.z.z.z.l.U.(./.(.Y.Q.7X/.U.l.h.h.g.j.j.g.g.j.h.j.j.j.j.j.j.j.j.j.j.j.h.h.j.j.j.j.h.h.h.h.h.h.h.h.h.h.h.h.h.h.h.h.h.h.h.h.h.h.h.h.b.b.h.b.b.b.b.b.b.b.b.b.b.b.b.b.b.b.b.b.b.b.b.b.b.b.b.b.b.b.b.b.b.b.b.b.h.b.b.b.b.b.b.b.b.b.b.b.b.b.b.b.b.b.b.b.b.b.b.b.b.b.b.b.b.b.b.b.b.b.b.b.b.b.b.b.b.b.b.b.b.b.b.b.h.h.h.h.b.N.Z.D.V.h.f.h.h.f.h.b.b.m.V.V.V.V.V.A.S.R.W.~.~.~.^.R.A.M.m.m.b.b.h.h.h.h.h.h.h.h.g.g.g.f.f.f.s.s.i.u.u.u.u.i.s.s.s.f.f.f.g.h.h.h.b.m.V.V.Z.Z.D.D.F.F.F.H.H.H.H.H.H.H.H.H.!.!.!.!.!.!.uXuXuXuXaXaXaXaXsXsXgXgXkXkXkXfXfXfXgXsXuX!.^.!.!.K.^.!.uXaXaXgXgXkXxXhXnXnXbXbXbXbXZXZXVXVXVXCXSXDXDXSXCXCXCXCXCXDXCXCXBXnXjXaXK.G.Z.B.B.B.B.B.b.b.b.b.b.b.b.b.b.B.",
"d.d.d.d.d.d.d.d.d.d.d.d.d.d.d.d.j.j.j.d.d.d.d.d.j.j.z.h.l.l.l.h.l.l.l.c.Y.(.7XdX7X7X7X7X7X(.U.V.V.l.j.j.h.h.h.h.j.j.j.j.j.j.j.j.h.h.h.h.h.h.h.h.h.h.h.h.h.h.h.h.b.b.b.b.b.b.b.b.b.b.b.b.b.b.b.b.b.b.h.h.b.b.b.b.b.b.b.b.b.b.b.b.b.b.b.b.b.b.b.b.b.b.b.b.b.b.b.b.b.b.b.b.b.b.b.b.b.b.b.b.b.b.b.b.b.b.b.b.N.b.b.b.b.b.b.b.b.b.b.b.b.b.b.N.N.N.b.b.b.b.b.b.b.b.N.Z.N.V.N.b.N.V.N.b.N.S.^.^.W.V.b.b.h.h.h.h.b.V.Z.D.S.S.S.S.S.W.~.sXdXfXfXdX~.W.S.Z.A.A.A.Z.V.V.m.m.m.m.V.V.V.V.V.V.m.m.b.h.h.h.h.h.j.h.h.h.h.m.V.V.Z.S.F.H.H.H.H.J.K.K.!.!.!.!.!.!.K.K.K.K.K.K.K.K.!.!.!.!.!.!.!.!.uXuX!.!.!.8X8X8XaXaXaXaXaXsXaXuXuX!.!.uX!.!.!.!.aXaXaXgXgXjXhXkXbXbXBXBXBXVXVXCXCXCXCXCXCXCXCXCXCXCXVXCXCXSXSXCXCXBXnXhXgX!.H.G.Z.B.B.B.N.b.b.b.b.b.b.b.b.b.",
"z.z.z.d.d.z.z.d.j.j.j.d.d.d.d.d.z.z.z.z.z.d.d.d.j.j.j.z.l.l.l.l.l.l.l.c.c.Y.(.dXcXzXlXzXlX7X(.Q.C.c.h.h.h.h.j.h.j.j.j.j.j.h.h.h.h.h.h.h.h.h.h.h.h.h.h.h.b.b.b.h.h.h.h.h.b.b.b.b.b.b.b.b.b.b.b.b.h.b.b.b.b.b.b.b.b.b.b.b.b.b.b.b.b.b.b.b.b.b.b.b.b.b.b.b.b.b.b.b.N.N.N.N.N.N.N.N.b.b.b.b.N.N.N.N.b.b.b.b.b.b.b.b.N.N.N.b.b.b.N.N.b.N.N.V.Z.Z.V.N.V.V.V.V.V.V.Z.Z.Z.Z.Z.V.Z.Z.Z.Z.N.L.~.8X^.S.Z.V.V.b.b.b.b.N.V.Z.Z.Z.Z.S.S.S.^.~.dXfXkXkXgX/.W.S.F.F.F.F.F.S.D.Z.Z.S.S.S.S.S.S.S.S.S.S.S.S.S.S.S.S.S.F.F.R.W.^.^.sXsXaXuXuXuXuXuXuXuXuXuX!.!.uXuXuXuXuXuXyXyXyXyXuXuXuXuXuXuXuXuXaXuXuXuXaXaXaXaXaXaXaXaXaXaXaXaXuXuXuXaXaXaXaXgXjXjXhXhXnXBXBXCXCXCXCXSXSXSXSXDXSXDXSXSXCXCXCXCXCXCXCXCXCXSXCXCXCXVXBXnXhXgXaX!.K.G.Z.Z.B.B.B.b.b.b.n.n.n.n.",
"l.c.c.c.c.c.l.z.h.h.h.z.z.z.z.z.l.l.c.c.l.l.l.l.h.j.z.j.h.h.l.l.m.l.l.V.c.C.Y.(.lXlXzXcXzX7X(.Q.S.C.c.h.h.h.h.h.j.h.h.j.j.h.h.h.h.h.h.h.h.h.h.h.h.b.b.b.b.b.b.b.h.h.h.h.b.b.b.b.b.b.b.b.b.b.b.b.b.b.b.b.b.b.b.b.b.b.b.b.b.N.b.b.N.N.N.N.N.b.N.N.N.N.N.N.N.b.b.b.b.b.N.N.N.N.N.N.N.N.N.N.N.N.N.N.N.N.N.N.N.N.N.N.N.N.N.N.N.N.V.V.N.b.V.V.Z.Z.Z.Z.Z.Z.Z.Z.Z.Z.Z.Z.Z.D.Z.Z.Z.D.Z.Z.V.S.^.~.^.W.F.F.S.S.Z.Z.V.V.V.Z.V.V.Z.Z.Z.S.H.W.~.7XdXdXsX7X~.W.F.F.F.F.F.F.F.F.F.F.F.H.F.F.F.F.F.H.H.H.H.W.^.^.!.!.^.^.uXaXsXgXgXgXaXaXuXuXuXaXuXuXaXaXuXuXuXaXuXuXaXuXyXyXyXaXuXuXuXaXaXaXaXaXaXaXaXaXaXaXaXaXaXaXaXaXaXaXaXaXaXaXaXaXaXgXjXhXhXnXBXBXZXCXCXCXSXSXDXDXFXFXFXDXDXDXFXDXDXDXDXSXDXDXDXDXDXCXCXCXCXVXZXnXhXjXgXaXaXK.K.G.B.N.N.b.b.b.b.n.n.n.",
"U.T.T.E.Q.Q.U.C.V.V.V.V.c.c.c.c.c.c.C.C.A.C.C.C.c.c.l.l.l.l.l.l.V.l.h.c.c.c.c.C.T.Q.7XlXlX7X~.U.T.T.S.c.h.h.h.h.h.h.h.h.h.b.b.b.h.h.h.h.h.N.b.b.b.b.b.b.b.b.b.b.N.N.N.N.N.N.N.N.N.N.N.N.N.N.N.N.b.b.b.b.N.N.b.b.b.N.N.N.N.V.N.b.N.N.N.N.N.N.V.V.V.N.N.N.N.N.N.N.b.b.b.V.V.V.m.m.N.N.N.N.N.N.N.N.N.N.N.N.N.N.N.N.N.N.N.N.N.N.V.V.N.N.Z.Z.Z.Z.Z.Z.Z.Z.D.D.D.D.D.D.D.G.S.Z.S.F.S.D.Z.F.W.W.W.W.^.^.W.W.W.H.S.S.D.D.Z.Z.Z.Z.D.S.F.F.H.^.~.~.~.~.^.H.H.H.F.F.H.H.H.H.H.H.H.H.H.H.H.H.H.H.H.H.H.K.!.!.K.K.!.!.!.uXaXaXaXaXaXK.yXyXpXpXyXyXaXaXaXaXpXpXpXyXaXaXaXaXpXaXyXyXaXaXaXaXaXaXaXaXaXaXaXaXaXaXaXaXaXaXaXaXaXaXaXaXaXgXaXjXjXhXhXhXnXBXBXCXCXCXCXSXDXGXFXFXFXFXFXFXFXDXDXDXDXDXDXDXDXDXCXCXCXCXZXBXnXhXhXjXgXaXaXaX!.H.Z.N.N.b.b.b.b.b.b.b.",
"E.Q.~.(././.Q.A.C.A.A.A.A.C.C.C.C.C.C.A.A.A.A.A.C.C.C.C.C.V.l.l.h.h.h.h.h.c.c.c.V.A.E.(.(.(.(.Q.Q.~.W.V.h.V.V.j.h.b.b.b.b.b.b.b.h.h.h.N.N.N.b.N.b.b.b.N.N.N.b.b.h.h.h.h.h.b.b.b.N.N.N.N.N.N.N.N.V.V.V.N.N.N.b.b.b.N.N.N.N.N.N.N.N.N.N.N.N.N.V.V.V.N.N.V.N.N.N.N.V.V.V.V.V.V.V.V.N.N.N.N.N.N.N.N.N.N.N.N.B.Z.Z.Z.Z.Z.Z.Z.Z.Z.Z.Z.Z.Z.Z.D.D.D.D.D.D.D.G.F.F.F.F.F.Z.G.F.S.H.H.H.D.G.F.F.H.H.W.^.^.^.^.^.^.W.H.H.G.S.G.G.G.D.G.F.F.H.J.W.W.W.^.H.G.H.H.H.H.H.H.H.H.H.H.H.K.K.K.K.K.K.K.K.K.K.K.!.K.K.K.K.K.K.K.K.8X8X8XpXpXpXpXpXpXyXyXpXpXpXpXpXpXpXpXaXpXpXpXpXpXuXuXaXaXaXaXaXaXaXaXaXaXaXaXaXaXaXaXaXaXaXaXaXaXaXaXaXaXaXgXaXjXjXhXhXnXbXBXCXCXCXSXSXFXFXFXFXFXFXFXDXDXDXDXDXSXDXSXCXCXCXCXBXBXnXhXhXhXjXaXaXaXaXaX!.K.B.N.b.b.h.h.b.b.h.h.",
"Q.Q.~.~././.(.Q.C.A.S.U.U.U.U.A.Y.Y.Y.Y.U.U.U.E.S.S.S.A.S.S.V.V.M.M.l.l.l.C.C.c.c.c.c.D.U.T.T.Q.Q.7X/.S.V.V.V.N.b.b.h.h.h.h.h.h.N.b.N.N.h.h.h.V.N.N.b.N.N.N.N.N.V.V.V.N.N.N.N.N.c.N.b.b.b.b.b.b.N.N.N.N.N.N.N.N.N.N.N.N.N.N.c.V.V.V.V.V.N.N.N.V.c.c.N.N.V.V.c.c.V.Z.Z.B.Z.B.B.B.V.V.V.V.Z.V.V.Z.N.D.D.Z.Z.D.D.D.G.G.G.Z.Z.D.Z.Z.Z.Z.Z.Z.Z.Z.G.G.L.L.L.L.L.L.D.G.H.H.H.G.G.H.H.H.H.H.H.H.H.H.H.W.W.W.W.W.W.W.H.H.H.H.H.H.H.H.H.H.H.H.H.H.H.H.H.H.H.H.H.H.H.H.K.K.K.K.!.!.K.yXuXuX!.!.!.yX!.uXuXyXuXuXuXuXuXuXuXaXuXuXuXaXaXaXuXuXaXaXaXaXaXaXaXaXuXuXuXaXaXuXuXaXaXaXaXaXaXaXaXaXaXaXaXaXaXaXaXaXaXaXaXaXaXaXaXaXaXpXpXpXpXpXpXaXaXjXhXhXnXZXCXCXCXSXSXGXFXFXFXDXDXDXDXDXDXCXCXCXCXCXCXBXBXBXhXhXhXjXjXjXjXaXaXaXaXpXK.L.N.N.N.N.j.N.j.V.N.N.",
"T.T.T.Q.).(.(.(.Q.W.S.C.C.C.C.S.D.C.C.C.A.A.Y.Y.Y.Y.c.c.Y.D.c.c.V.C.A.A.A.C.V.V.Z.V.Z.C.U.U.Q.(.(././.Q.S.C.V.V.V.V.V.V.V.b.c.c.V.V.V.c.l.l.l.c.c.c.c.c.c.c.c.c.l.l.l.l.h.h.h.h.m.m.m.m.m.M.m.m.c.c.c.c.c.c.c.c.m.V.V.Z.V.V.C.C.Z.Z.Z.Z.Z.Z.Z.Z.V.V.Z.Z.Z.Z.V.V.N.V.V.V.V.Z.Z.Z.D.B.B.B.Z.B.B.B.N.N.V.V.Z.V.V.V.Z.Z.Z.D.D.D.D.S.S.S.D.D.D.D.D.G.G.G.G.G.H.H.H.H.H.H.H.H.H.L.L.L.H.H.H.H.H.H.H.H.H.H.W.H.H.K.K.K.H.H.H.H.H.H.K.H.K.K.K.K.K.K.K.K.!.!.!.!.!.!.!.!.K.K.^.!.!.!.!.!.!.uXuXuXuXuXuXuX8X8X8X8X8X8X8X8XaXaXaXaX8XaXuXuXpXpXpXpXaXaXaXaXaXaXaXaXaXaXaXaXpXpX8X8XaXaXaXaXaXaXaXaXaXaXaXaXaXaXaXaXaXaXaXpXaXyXyXyXyXyXyXaXaXaXjXhXnXBXBXVXCXSXDXDXGXFXDXDXDXDXDXSXCXCXVXVXBXBXBXnXhXhXhXjXjXjXjXjXjXjXaXaXaXaXuXH.B.N.N.N.f.h.h.h.N.N.",
"Y.Y.Y.T.T.Q.(.(.sX~.Q.T.S.C.V.c.V.V.V.C.C.S.Y.U.S.U.U.U.U.U.S.S.U.U.A.C.C.c.C.D.Y.C.C.D.Y.T.T.Q.).).).).T.Y.c.c.x.v.v.x.x.x.x.x.' ' ' ' ' ' ' ' ' ' ' ' ' ' ' ' ' ' ' ' ' ' ' ' ' ' ' ' ' ' ' ' ' ' ' ' ' ' ' ' ' ' ' ' ' ' ' ' ' ' x.x.v.v.v.v.v.v.c.c.c.c.c.c.c.c.c.c.C.C.V.V.V.V.D.V.D.D.D.V.D.D.V.D.D.D.D.G.L.D.D.D.D.D.B.B.D.Z.Z.G.G.G.F.J.J.G.G.H.H.G.F.H.G.G.H.H.H.L.L.H.G.H.H.H.H.H.H.H.W.H.^.H.K.H.H.H.H.H.H.H.K.H.H.H.K.K.K.K.K.K.K.!.K.K.K.^.K.!.!.!.uXuXuXuXuXuXuXuX!.uXuXuXaXaXaXaXaXaXaXaXaXaXaXaXaXaXaXaXaXaXaXaXaXaXaXaXaXaXaXaXaXaXaXaXaXaXaXaXaXaXaXaXaXaXaXaXaXaXaXaXaXaXaXaXaXaXaXaXaXaXaXaXaXaXaXaXaXaXaXaXaXaXaXjXhXnXZXCXCXCXSXDXDXGXDXDXDXDXSXSXCXCXCXVXBXBXnXhXhXhXjXjXjXjXgXgXaXaXaXjXaXaXK.G.N.N.b.N.b.j.b.h.N.N.",
"Y.Y.Y.Y.U.U.E.E.T.T.T.T.Y.c.v.x.c.c.c.c.c.c.c.c.v.v.v.v.v.v.v.v.v.v.v.v.v.v.v.v. .v. .v.v.v.v.v. . . . .' ' ' ' ) ) ' ) S S S S C C C C C C C n C C C 8 1 1 , 1 2 , 2 2 2 2 2 2 2 2 2 2 2 > > > , > > , , , , > , 2 2 , 1 1 1 C Z Z Z S S S S S L L ) ) L L ) ` ` ` `  . . . .` '  . . .v.v.v.v.v.v.v.v.v.v.c.D.D.D.D.D.D.L.G.L.D.G.L.D.D.Z.Z.G.L.L.L.K.!.!.^.K.^.H.H.H.K.H.H.K.H.H.K.K.H.H.^.W.H.H.^.^.^.^.K.K.H.W.W.!.!.!.!.!.!.!.!.!.!.!.!.!.!.!.!.!.8X!.!.!.!.!.!.!.!.8X8X8X8X8X8X8X8X8X8X8XaX!.!.8X8X8X8X8X^.^.^.^.^.T.T.T.v.I.I.I.I.T.I.I.T.T.T.T.T.^.^.^.^.^.^.^.^.~.~.~.!.!.!.8XaXaXaXaXuXuXuXuXaXaXaXuXaXpXpXpXaXaXaXaXaXgXjXjXjXhXnXBXCXCXSXSXSXSXSXDXSXAXVXVXVXVXNXNXBXbXnXhXjXjXjXaXaXaXaXaXaXaXaXaXaXaXL.D.V.h.j.b.b.j.h.h.N.N.",
"x.x.x.x.x.x.x.x.x.x.x.x.' ' ' ' M D @.D D @.D D A A A A S A Z S D S S A S S S D S S S A Z Z C C C C C c C C C 1 7 4 4 4 4 4 4 3 , , , > > ; : : ; ; ; ; : - - - : ; ; ; ; ; : : 3 3 3 ; ; 3 3 3 3 ; ; 3 3 7 3 3 , ; ; ; , ; , 3 , , 3 7 7 4 7 D C C C C 8 8 7 D T D T T T T T T S T ` T T ` ` ` ` Y Y ` ` ` `  .#.#.#.>.I.I.I.I.I.I.).I.I.I.I.I.v.L.L.8X8X7X7X7XgX7X^.^.W.W.J.J.W.W.W.W.H.W.W.W.W.^.Q.^.^.^.^.^.~.~.~.~.^.^.~.!.~.~.^.^.^.^.^.!.^.^.^.^.^.^.^.^.~.~.~.^.~.~.~.Q.^.^.^.Q.T.T.T.T.I.I.I.I.v.v.v.v. . . . . . . . .` ` ` ` '  . .' ` ` ` '  . . .' v.v.v.v.v.v.I.I.I.I.v.v.v.v.v.v.v.I.I.I.).).).T.^.^.^.8X8X8X8X8X8X8X8X8X8XdXfXzXvXBXNXNXNXHXAXSXAXAXVXCXCXCXCXVXBXBXnXhXjXaXaXaXaXpXpXpXaXaX8X8XaXH.h.j.j.j.j.c.b.j.s.q.f.G.",
"4 4 @.@.M 4 4 4 3 3 6 ; - - - - : : > , , 1 8 8 8 8 8 8 8 8 1 C 7 7 4 , , 7 8 1 C C 8 8 8 8 8 8 4 4 1 , , , , 2 3 3 ; ; ; ; ; : - : - - - - - - - - - - - - - - - - - - - - = = - - - = - - : : : - - - : : - = : - : ; ; ; ; 3 ; ; 3 3 3 ; ; 3 ; ; 3 3 ; ; ; 3 3 > 3 3 3 4 7 4 8 C C C C C D D T T T T T T T Y Y Y Y Y [ [ [ #.~ #.-.-.-.-.-.#.#.#.#.#.>.I.>X<X<X>XI.I.I.I.I.I.I.I.I.I.v.I.I.I.v.v.v.v.v.v.v.v.I.I.I.I.v.v.v.I.I.I.I.I.I.v.v.I.I.I.I.I.I.I.I.I.I.I.I.v.v.v.v.v. . . . . ._ _ _ _ _ _ L L S Z Z L S S S S L Y Y L S C C C S S A S S T T T ` T S K K G K S L L T _ ` _ _ _ _ U _ ) P ) ) ) ) +. .#.:.#.:.>.>.>.>.I.I.:.:.I.>X>X>X>X>X>X<X9X9X9X9XmXmXNXNXNXNXNXBXvXvXxXjXjXaXaXpXaXaXaXaXaXaXaX!.!.G.h.V.l.V.b.V.h.h.s.7.q.D.",
"- - : : : : : : - - - : : ; > > ; ; ; ; ; ; ; ; , , , , , , , , 3 3 4 7 7 7 , > 7 7 1 , , 4 3 , 3 3 4 3 4 , , > , , ; : : : : : : : : : ; > ; ; > > > > > > > > 3 3 ; > 3 ; ; : ; ; ; : : ; ; ; > 2 : : : - - - = = - - - - - - : : : : - - - - : ; ; : - - : ; : - : > : > 1 2 > > > > 2 , , 2 , , , , , 1 1 1 8 8 7 3 3 4 4 4 7 7 D D C 7 8 7 1 1 1 < < 1 n M F F B B F G G Z Z G Z Z Z S G Z B Z Z K L L _ _ S S ) ' ' ) ' ' P P P U U L _ U P P P L L L P _ ) L L ) ) ) ) Y ` ` ` ` ` S S ) S L S S S D C C C C C C C D S S L S C C C S A D D D C C C C D D C C C C 8 8 1 1 1 C S T T ) ` ` ) T S S S S L L ` ` ` ` #.#.#.#.>.>.>.:.:.>.;.&.:.:.:.:.:.:.>.>.>X>X<X<X<X<X<X<X9X9X9X8X8X8X8X8X8X8XaXpXaXpXaXpX8XL.j.x.5.x.j.V.s.s.s.h.D.L.",
": : : ; ; , , , 3 3 3 3 , , , , > > > > > ; : : : : : ; , ; : > > : > , 5 1 1 8 1 1 4 , , , > : : ; > , , > 2 2 , , > > > > , , > > > > , 4 4 4 > > > , 3 5 5 , , , > > , 4 5 , 4 7 4 , > , , , , 3 3 3 3 3 3 3 3 3 3 ; : - - - 3 3 3 3 3 5 3 ; : : ; : - - - - ; - ; ; - : ; - : - - : ; , 2 : ; > 5 > > > > 2 3 ; ; : - - - - : - > > > 2 : 3 : 2 , , : - - - - - : > 1 8 c 1 1 1 1 1 1 C C c C C C C 4 4 C C T G T Y G F Z G L G L Y Y Y U ` Y Y L L L L L Y U Y G Y G G B B Z m Z Z Z Z Z S Z S Z Z D S A D C C C n n n n M 8 C 8 C C D D C D A C C c c C Z Z Z Z Z D C 7 7 > , 4 1 1 8 D S ) ` ` ` ` L D Z B B B B V Y U Q ` #.>.#.-.=.;.=.>.>.>.>.;.>.>.>.>.>.>.=.-.;. XoXoXoXoXoX>X>X>X>X>X>X>X>X>X<X<X<X8X8Xv.I.v.v.x.x.s.r.j.Q.8XL.",
"; ; ; ; ; ; ; ; ; , , , 7 7 7 , , 3 3 ; ; ; ; ; 3 ; ; ; : ; ; ; > : : : : > , 8 7 4 , , , 3 , , , , , , , 3 3 3 3 7 , , , 4 7 7 7 7 4 1 1 8 7 8 7 7 7 7 7 7 1 1 1 1 1 4 4 4 1 < 4 , , 1 1 8 4 , > > > > > > > , 4 7 , , 3 , : : - : > 2 > , > 2 , 5 5 1 1 3 3 3 5 3 > 3 3 , , 4 4 4 4 3 3 4 7 4 1 1 1 4 4 1 1 4 1 1 1 1 1 1 , , , 2 2 1 1 1 1 4 D 4 1 C 8 , , 4 4 3 7 , , D 1 C 8 8 7 7 4 D D , C C C C C C C 7 C D S S S S S Z ` ` ` ` L S L Y ` ` ` ` ` ` S S L L S L L S S D Z C A Z A S n c C C S S D D C 4 C n 4 5 > 2 1 4 4 , , 4 4 D D C 7 D 7 4 C C C C c 1 c n n n 7 4 D 7 , , , 3 3 4 C S ` ` _ ` _ ) ` ) L Z C C C S G U U U Y U #.>.#.#.:.>.>.#.>.>.>.>.>.>.-.-.>.>.-.#.-.>.>.>.>.>.oX*X*X*X*X*X*X*X>X*X>X<X>X>X>X>X:.:.I.I.I.I.",
"; ; ; : - - - - - - - - : ; ; ; 3 3 3 3 3 ; ; ; : : ; ; : ; ; ; 3 3 3 ; ; ; ; , , , , , , , , , 3 3 3 , , , 3 3 3 3 3 , 3 3 4 3 , , , , , , , , ; ; , , 3 7 C C C 4 4 C n 4 5 4 , 1 8 4 1 > 5 4 4 7 7 4 4 4 4 4 1 4 1 1 C 8 4 7 D C C C 4 1 1 1 8 1 1 C C C 4 4 > 1 , 1 4 1 1 1 4 4 5 > > > : - 1 1 1 2 , 1 1 n 1 c C 4 1 4 4 4 C 4 4 1 1 1 1 < 8 C 1 1 1 1 8 4 4 4 C 4 C C 1 C 1 4 C n 1 C D 4 c B B B Z Z Z Z C C C S Z n C S ) S S S S S Z Z n c C S ) _ ) ` Y L G S G A Z Z G Z Z Z Z K Z Z Z C n M n C D C n n n 4 1 > 5 C 1 , > 2 2 2 > , , 1 4 4 8 8 C D C C 4 4 4 5 5 3 , 4 , , 2 > : > > 2 1 C S ) ` _ `  . . .` ` ` _ _ L L ) ) L K L Y ` U _ _ U [ [ #.[ #.#.[ #.#.#.#.#.#.#.#.[ [ #.#.-.>.>.>.>.oXoXoX>.>.oX>.;. X X[.%X[..XoX*X",
"- - : : - - - : - = = = = - - - - - : : ; ; ; : - : : : - = - - = - - = = - = = - - - : ; > > : ; ; ; : : : : : : : : : : > > : > , , , > > , > 5 , , , > : : 2 5 , 1 7 4 > 5 C C C D D C C C C C C C C C C C 8 C Z C C Z Z Z S Z C C Z C C Z L Z C c Z G Z C D C Z Z Z D Z Z C n C C C C C n n 4 C 4 1 1 > 2 1 < 1 n 1 < 1 1 1 2 2 1 1 1 1 1 2 1 C C C C 1 1 1 b n c 1 C n < c n n C Z C C n 1 < n C c 1 c c < 1 n n 4 1 n n n n c n C S L L L C n c n Z K Z K _ U _ _ ` Y L L L G G G L U L L L G L ) L S Z c Z A S A n < < 4 1 C 4 4 C 7 1 8 1 , , , , , 1 C D C D 7 7 4 4 4 4 C C 7 4 5 1 1 4 , > 2 4 C C 4 B Y U U U Q Q Q [ [ [ #.#. . .#.#.#.[ [ [ [ [ U |  .[ [ Q U Q Q  . .| #.[ [ [ [ U [ [ [ [ Q [ [ [ ~ [ #.&.-.=.=.>.>.>XoXoXoX",
": : : - - = = = = = = = - = = - = = = = - - : : : : ; ; : - : : = - : = = : - - = - - : : : - - ; ; : : : : : : : : : ; > , > ; > > , , > > > ; 5 5 5 4 4 4 4 7 > 2 > 5 > : : > 4 1 , 1 4 4 5 > 4 4 4 1 4 C C 8 1 1 4 1 1 1 1 C n c n C Z C Z Z C C Z G Z Z Z G G L G G L G Z Z Z G K L L Y _ ) L ) S C C c 1 C 1 c 4 < < < < < 2 < n n n C C 1 c B c Z S 1 2 1 n A 1 n A 1 < < 4 < < C S Z C Z C S S A n A S S C A C n n S C < Z n c c c 1 c n S C n c c c 2 < C Z L ` _ U Y Y U Y Y L L L Z Z L G G L L Y L K G G L L K C C C 1 n 4 1 n 4 1 4 D 7 4 4 , , 4 1 7 8 7 7 C C C C C D C 4 8 C C C C 5 2 , 4 1 2 2 < 1 1 c Z L _ U Y U U G P U ] ] #.#. .#.#.#.#.#.#.#.#.#.#.#.[ [ Q Q [ [ [ _ [ [ _ U U [ [ [  . .|  .U Y U [ #.&.>.>.oX>X>.>.",
", , ; ; ; ; ; ; ; : : ; ; : - - : : : : : : : : ; ; ; ; ; ; ; ; ; ; ; ; : : - - : : ; ; ; ; ; ; 3 3 3 ; 3 3 ; , , , , , 4 4 4 , 2 , , , , > > > < > > , , > : > , , , , 3 3 4 4 1 1 1 1 , > , , < 1 , > > 5 5 , 3 4 4 4 , 4 7 C C C n C C C n c n C A Z Z Z Z Z S Z Z Z K Z Z K L L L F Z G G K G L L G G Z Z D S S S C C C C n A M C C C Z S S C L C n Z C C C n C < 1 A n n M 4 1 2 1 C C C C Z Z Z G B B Z L Z C C Z S Z C n Z C n c 1 < < < 1 4 n n C C c c < 1 n C Z C B Z K K S S L L L K Z Z Z Z G S K L Y G G Y U L L L L Z Z Z 1 c n 1 4 1 4 4 , , , : > > , , , 1 1 4 4 4 4 > 1 4 8 8 4 , , 4 7 4 4 4 4 5 6 3 5 4 M C 1 1 < 2 1 C S Z L Y Y _  . .#. .[ #.#.>.:.-.-.-.-.#.#.#.#.#.#.[ [ [ [ [ #.#.#.#.} #.&.#.#.>.>.:.$.,.$.;.;.;.",
"; ; ; ; , , , , 7 3 , 3 3 , , , ; 3 3 3 3 3 , ; ; ; ; , ; ; ; ; ; ; , ; : : = = = - - - - - - - - ; : : 3 3 , 3 , , > 2 , 1 > > , 1 5 1 , 1 1 1 < 1 > , 8 4 > 3 2 > : : : > , > 2 2 > > 2 : > > > , 3 5 5 > > > : ; ; ; - - ; : 2 2 2 2 4 n n n n n n n n C C n C n c C S Z S ) K K G Z Z Z G K G G L G G G G G K K G F F G Z c C c c Z Z Z S L S L Z Z L S L L n C 1 c S C C C n A C 1 1 C n 1 C C n Z B Z B Z C Z G S L L S L S Z Z Z S S Z C 4 4 C C C D C D C D A A Z C Z K Z Z C C Z S L L _ P Z c c c C S Y G G L Y P P U _ L U Y B Z Z 1 C C A C 4 5 4 5 6 ; ; : - - 6 6 > 4 4 4 4 4 8 8 7 7 D D D D S ` ` T S S S D F S ` ) ) ) L L L U S L K L L L L G Y Y U U [ [ [ #.-.-.-.-.-.>.>.#.#.-.>.#.#.#.[ #.-.-.-.#.#.#.#.#.#.#.:.;.=.=.",
"3 3 , > ; ; ; ; ; ; ; ; , 3 3 3 ; ; ; ; ; ; ; ; - - ; 3 3 3 3 3 3 , 3 3 3 3 ; , 3 3 3 > ; : : : - : - - ; : : : > > > > > > > > > > 2 > > > , , 1 4 1 1 4 4 1 5 C 7 4 1 , , > 2 1 2 > 1 1 , > 2 1 1 5 5 3 > > , ; ; > : - - : - : : - - 2 > 2 2 1 < 2 2 2 , 1 1 1 < < c C Z Z Z Z Z Z Z Z K L ) _ U U J G Y _ U Y Y Y P U U U L L F G K F Z Z Z G Z Z L L Z K L L L K K L G Z Z c K S C C C C n < 4 < C n A M C c C C B B Z Z Z L L L L L G Z B L Z C c n C 1 c 1 4 C C C C Z Z K L S Z Z c Z B Z L G G G Z c n C n C S L L P _ U U ] [ U U _ G G G Z Z c 1 c C 5 5 5 3 > ; 6 6 - : : : : - - : : - - - : , 4 7 1 1 7 D D D D S T ` _ _ [ [ #.-. .#. . . .[ [ Y U U Y Y U U U Q U U _ _ [  .#.[ #.#.>.>.>.-.-.#.#.#.-.-.-.-.>.-./ %.=.=.$.$.",
"- - - - - - : : ; ; : : : : - - - - - - - - - : - - : - - - - - : : ; - : , , 3 2 2 2 > < 1 5 4 3 4 > : > : - - : : : : > 3 3 3 5 3 > : : : : : 2 1 2 2 2 , 2 > , 2 1 7 C 4 1 1 1 > 5 n n 4 4 4 1 1 4 4 4 5 4 D 1 5 4 4 1 4 C 4 7 3 , , 5 > > 5 5 1 , > > > 1 C 4 1 1 c C Z c m c c C C n C C Z S F U U G Y Y F Y Y J G J U Q U [ U U U L G K K Z G G G Z Z L G m F P U U U U Y P L Z m Z C m Z C A n Z v L Z Z C c c n n c c Z Z Z G P Y Y U Q U L G G L K c c C S S C C c c c L ` ` _ U G P G F P P Y U K C C < < 4 C S Z Z G G J J J J Q [ [ } ~ Y Y Y G Z L Z Z G S D C 4 5 5 5 > 6 > > > > ; - - - - : ; : - : - : > 3 1 , 4 C C C Z T ` ` Y U U [ #.#.#.U } #. .[ #.#.[ }  .[ _ U L U ` _ Y Y G G U #.>.-.>.[  .[ | [ -.>.:.>.:.;.>.>.",
"; ; ; ; : : ; ; : : : : : : : : ; ; ; - - ; 3 ; > ; > , > > 3 3 6 6 : ; ; > > > 4 4 4 4 4 4 7 C 1 1 , > > 5 5 5 > > > 5 5 5 5 4 5 5 1 , 3 3 > > > 3 5 5 4 5 5 5 D 7 5 4 5 5 4 n 1 n n 1 < < 2 2 2 2 > > > > 2 5 < 5 4 n n C C 1 4 5 4 C C < 2 4 C 1 1 4 4 4 < 4 4 1 n C M n C Z M m S K K Z Z S B Z L L F F G F K Z C C S L L L L U ] [ [ [ U Y V F Z v v b v Z Z G G L I F G P P Q ] ] _ U L G G Y U J J Y Y Y _ L L L L L L S A A A S C S S ) _ _ U _ _ ] ] _ Y L L L L L L S Z Z L L _ _ U  .U P J U U Y L P n M M c < 2 1 c c Z L L U ] ] ] ~ { Q } o.! Q { ^ ^ ~ Q U P F F M M n C S S C C A 4 4 1 > 5 - - 5 : - - - - : ; ; - 3 : > 7 1 D Z T ` ` ` _ ] ] U [ U U [ [ #.>.>.:.#.#. .| |  .#.[  .G B U Q -.-.#.#.#.[ [ Q Q J Q ~ } -.-.",
"8 8 8 8 8 1 1 1 4 4 4 4 4 4 4 4 , 4 4 1 1 1 1 , 4 4 4 4 , , 4 1 8 4 1 1 1 1 1 1 4 , > > , 4 4 4 8 4 8 4 , 1 5 1 4 , 2 > 2 2 < 1 1 1 1 1 1 > > > : > 2 2 2 2 > > 2 > 2 4 4 4 4 4 < 4 n n 1 n n n C C 4 5 > > 2 2 6 > > > 2 < 4 4 C C C C C n C Z 1 c c 1 < < < 1 n 1 c C n c c Z n c Z v F Z Z Z Z Z Z K L F F P _ P L L L K G F v Z F I P Q [ { | [ ] U P P G F F G L F F F F F G U ]  .| [ ] ] U Q Q Q ]  . .[ { ~ { } { } ~ ^ P P G G F Z Z Z B B B B F G P U U L Z v B c c Z c 1 Z < 2 Z F ] Q J G U [ [  .#.Q U J F Z < n n n c n M A L L P E J Q { ! { &.{ ^ } $.} o.o.} ~ P U U G Y [ U U U G G Y Y U L C S A M n 4 > : : ; ; 5 5 5 4 > > 4 , 1 C S L L P _  .[ P F Z L  .#.-.-.-.#.#.| #.#.[  . .[ ] L U ~ #.-.>.-.;.;.-.&.&.} } #.#.",
"7 C C C C C C 8 4 4 1 1 1 4 4 4 1 1 1 1 1 1 1 1 1 1 1 1 1 1 C 1 5 , > , , > > > 3 ; : - - - - - 2 1 C D C C C c 1 1 1 1 1 1 2 2 - - 2 < 1 4 n n 1 2 1 1 2 < < < 1 2 2 - 2 2 2 1 1 n n 1 < < 1 1 C C C n C C C C C 4 4 5 2 > 5 5 1 c B c c c c Z A ) ) S Z Z Z c Z c c Z Z c c Z F Z F B G Z F B Z K Z Z L L F P P L P P P P P P P I F F H J { } ~ { { { { { ] Q P I P P I E ] E P E P J J J E E Q P J H I P K Z G P U ] [ | &.| $.$.&.#.} { Q Q P P P J J J J J F J U ] | Q G U Y G U L F P P P { { } #.} Q Q { / ~ ~ { } U U P m m m m n n b m H J ] } ] { [ P P ] E H E { ....^ ~ ~ ^ Q } } } } { Q { Q U { P Q ] _ ) ) L L ) A M 2 2 6 > 5 5 5 4 7 4 > 2 Z _ P _ _ P L B c B G [ -.>.>.>.&.#.-.&.&.&.#.| ]  .~ [ } &.&.;.;.;.;. X;. X X;.",
"> 2 2 2 1 5 5 1 1 1 < < 1 < 2 2 , > > , 1 1 4 8 1 1 1 1 2 , , 2 > > > > 3 5 > < , , , , , , 4 4 4 8 D D C D S T S S S S T L L S S S S S Z c c n Z C Z Z c c n c C M n n n n c 1 < < < < 1 c C Z c n C C n 1 n C S C n 4 5 4 4 4 < M M 4 n n n M < n c n C Z G B Z n c Z Z Z Z F F F F F G G P I L U L F P U P J G G J P Q Q ] [ | | [ [ { Q Q ! ^ ! } o.} } } o.} [ [ [ ! ! } { { } { ! ! ! ^ ^ { Q E E Q ] P L m m F F K P _ P ! ~ o.} $.*.=.*.;.;.*.&.&.o.o.o.} } ! ^ } { ! } } #.Q { { { &.Q ! } o.o.o.} o.*.&.$.*.=. X=.%.$.o.o.&.[ ! P H R J ! ! { } ! ! Q E ] H H R E ~ ..O.....{ { ] { o.=.%.*.|.&.o.:.o.=.*.&.} ! J H F _ I Z Z A c < < C n 5 5 n Z Z Z P I P  .#.[ U L c S G G ~ =.;. XoX=.$.$. X X X=.;.o.o.&.&.~ ^ ^ &.*.&.*.;.=.",
"1 1 1 1 1 C C C 5 5 4 4 4 4 1 1 5 > > 2 2 > > 5 4 4 4 1 1 4 4 > c c c C C C n n 1 4 4 4 4 1 1 < , 2 2 > > 1 8 C C 4 1 1 C C C Z Z Z S K S S S L L G K L Z Z G Z C C S S S S S S L S A C C C C n c n Z C 1 2 < c D c 1 1 c n n < 4 5 < 5 n 5 < 4 < < 2 < c Z K G n c c m Z F K F F L F F F I P _ J P P J J Q U V Q U P Q Q Q Q ! ] ]  .| } } } } } } ..$.&.$.&.&.&.#.$.&.} { } } ! } } } } o.} } $.$.$.&.&.&.#.#.| { { ] { { { ^ ] ] { R ! / *.*.*.=.{. X X X{.{. X X X X`. X=.%.%.=.$.*.} ~ =.~ o.&.$.$.=.{.{.=.oX{. X`.`.%.%.`.%.*.=.*.;. X{.=.=.|.{.{.{.*.=.`.%.`.*.=.{.`.`.].|.;.;.:.o.E H P } Q &.=.=.%.%.%.[.`.=.=.`.{.{.`.=.$.! o.o.] [  .G P ) ) P _ +.+.] E E ] [ } #.#. . .U G Q [ { }  X X X:X,XoX*X*X,XXX{.{.=.$.$.%.o.&.o.$.*.*.",
"1 1 1 1 1 1 1 1 , , , 1 4 4 , , 4 4 1 1 1 1 1 1 4 < 4 n n C C C C 1 1 1 1 1 n n n n n n n n < 2 2 > > > > > 2 > 2 2 2 > < < < 1 < < 1 c c c c n Z C Z Z Z Z F Z m n c c c c Z Z L L L L ) L L K L K K L L K K L L Z C Z S S S C L Z C Z Z v c Z S S S S Z Z Z Z Z m m m Z L G Z F P F L v L L P J G J U U Q ^ J } { [ { [ { Q ! [ { [ [ [ } &.&.} } o.&.&.o.&.&.&.$.*.=.*.=.;.{.*.*.&.&.&.*.&.*...$.&.=.=.=.=.;.*.&.*.*.=.*.%...:.:.&.} ....%.%...%.=.{. X{.`.`.{.`. X X XoXoX=.`.`. X X`.{.`.%.%.{.`.=.`.{.`.%.*.%.*.$.%.&.=.{.{..X X;.;.|.;.;. X XoX@X.XXX@X.X.XoXoX.XoXoXoX`..X$X:X@XoX{.=.=.[ U [ ] ^ ~ / =. X XoXoXoX$X+X+X&X@XXX$X@X X X{. X=.&.&.o.} } o.o.o.o.o.} $.=.;.=.=.=.;.:.] K _ | ;.oX>X;.$. X,X,X,X6X6X,X,X#X+X:X,X,X,X1X,X",
"4 4 4 4 5 5 5 5 > 2 2 > , , , > 2 2 2 2 2 2 2 2 < < < 1 < 2 , 1 > > > 2 > > > < 2 2 2 1 M A A A Z 4 < > : : : - > < 4 4 4 < < < 5 < 1 1 1 < < < 1 c c c c v m Z m m C n c c c c c c c B Z B B v m v B B Z Z v b S C C S K L ) L U U L Y U Y L U U U _ _ _ _ L P U L G G P U P F V G G G F P P U ] U U _  .[ [ [ [ [ [ [ } [ [ } } } } } } #.} [ } } #.&.} { { o.&.&.&.o...*.*.&.o.&.&.&.&.$...~ R R ^ ~ } } $.$.*.*.;.|.|.;.=.=.=.=.*.*.&.=.=.=.`._.*.%.%.%.%.]...%.%.%.=.=.*.$.=.$.%.%.=. X{.`.{..X.X`.`..XoX:X@X$X:X.XoXXX|.;.%.=.{.*.&.&.&.{.=.%.=.`.%.`.+XOX=.$.&.o.} &.&.~ / $.%./ / =. XoX+XoX=.] I I K ) Z J { &.{.}..XOXoX+XOX@X:X,X1X1X6X1X1X1X,X@X.X X*.=.`.{.`. X.X X`.].`.[.{.=.;.>X*.*.*.`.=.%.`.oX@X,X1X2X2X5XqXqX5X5X4X4X5X5X",
"c B Z C C c c c C n n n n n n n 4 4 4 5 5 5 5 1 < 2 < 1 1 2 1 4 2 2 1 1 1 1 < < 1 4 4 4 4 4 M n S C n 4 5 5 3 5 > 5 4 4 5 < < 4 M M M M C C C C C C Z Z Z K K K Z K ) ) K S Z K K Z Z G G F F F m F Z Z B F Z b n c c c 1 < 1 n 1 c c Z G L G Y J G J G P _ P P [ Y Y Q [ { Q Q ~ } } [ Q Q Q U ] ] P F P P F G G G G G G J P Q ^ ^ R J R ! ! J ! E U Q { { ! Q E { E J E { ! R ! { { ~ ..O.......} ..o.$.../ ..} } &.;.`.=.`. X[.'.%.%.%.{.;.|.%.*.*._.*.%.X./ ..&...~ $.$...%.$.=.$.$...o.&.$.=.`.=.%./ / ..%.;.=.oX.X:X,X&X+X&X,X,X@XXX X`..XoXoX.X$X$X`.[.+X,X XoX@XXXoX X`.|. XoX=.&.*.=.|.%.[.`.`.:X:XoX&.:.) K I { X._.'.@X@X@X:X#X#X#X,X,X1X1X2X2X6X6X6X6X6X6X2X1X3X6X2X6X6X2X3X1X1X1X=X1X1X1X1X1X6X6X1X3X1X2X2X3X3X3X4X3X4X3X2X4X3X",
"Z C C C C 1 C C c c c n C C Z C A S S A A A A A C c n C C 1 C D C C C A Z Z C A A C M A M < 4 < c B Z G S L S C M n n n C n n m < n C C Z Z m n Z Z B Z Z B B c F Z K K Z G Y J K Z L L v F P F F _ G L F Z L v F F B Z c < c < 5 < 5 5 < 4 1 1 D A A S B B G Y U G L Z V V J P U [ ] P  .U ] ]  .Q Q P J P J J P Y U Y J J J P P F F K K K K F I I F b v Z P P _ ] | { | o.} } o.} o.o.} O.*.o...} o.&.} &.;.;.=.=.`.%..X@X].[.oXoX@X@X@X`.`.`.`..X{.`.oX$X}..X`.[.`.{. X%...*.=.$.~ ^ ^ ~ ..~ } } { { ! ! ..:.~ %...%.%.[.+X+X+X+X+X&X@X@X+X+X:X,XXX.X.X.X@X$X&X+X&X=X=X1X1X1X1X2X1X5X1X1X6X1X1X6X,X,X,X&X&X&X1X1X1X&X#X$X$X.X{..X}.}.`.].`.].*. X:X@X@X,X=X2X1X2X4X2X2X4X4X4X6X6X5X5X2X5XqX4X5X5X5X2X3X1X3X1X1X1X1X&X$X$X#XOX}.OX#X$X$X$X",
"C C S S ` S S S S Z Z C B Z Z F Z Z Z Z C C Z S Z C C C n 1 4 4 4 4 n c c c n M n n n A A C S Z C Z Z Z G L L K C S Z K L F K L Z K L K F F K Z K C m Z Z B Z B F F K L Z B F V P F G G F G P G F P G Y Y Y [ U J I G F B c B v c 5 M M 5 M M n < 2 < < c c C Z S Z L S F F K K Y Y G F U J Q ! [ Q ] ] U ] Q Q J U [  .] ] ] [ [ Q P ] ] ] ] ] P P _ P E I I I ! } } } o.......=.*.`.{.=.=.=.$.o...&.&.{ { { ! I P P H Q &.} o.&.*.=.|.{.{..X@XoXoX X[.oX$XoX@X,X&X@X.X X.X.X X{.*.o.} } o.o.....O.o.&.&.} E R E o.=.{.XXoXXX X XXXoX@X@X&X#X$X:X,XoX@X,X,X,X#X&X+X#X#X+X$X$X#X=X&X&X3X3X1X3X3X=X3X3X3X3X-X-X-X4X4X2X1X2X6X6X1X1X6X6X1X,X,X&X.X.X`.%.=.$X1X&X@X1X1X1X1X1X3X1X1X1X1X3X2X1X1X1X4X1X2X2X5X4X1X4X5X2X2X1X1X2X3X3X2X4X1X1X1X1X1X",
"2 2 1 1 C c C C G L L G G G G G G Z Z B B Z Z Z Z n c c c c 1 < < c c c 1 1 1 < c 1 1 c 1 < Z Z A S L K G Z L _ K L K Z G G P _ U U Y F F G P _ _ L F P ) L P P V F I _ P G G P U U U Q U Q Q J Q Q Q U G V V B P _ P L ) L ) _ J G P P L L F F _ L K m C c < 2 2 2 n < < < c n B v B F G F P P U P J P B U P I P P ] U U ] ] ] } ^ ^ ~ ! ^ ! } E E ! } } } ! ..} { ^ { o.....! $.$.$.%.*.=.=.%.{.*.&.} ^ R R R P K F I P K F I I P P ! E ^ E ! ~ ~ ,.%.=.=.%.%..X`.oX,X$XoX@X.XoXoXoX.X X{.=.o.*.O.} ~ ..o.o.o.o.o.{ { &.&.;.{.`.[..XXX$X@X&X@XoXXX`..XoX.X.X$X@X,X1X#X$XOXOX$X&X+X.X&X+XoX[.[.OX#X,X@X$XoX$X$X[.&X1X,X&X&X&X&X,X1X1X1X1X2X6X2X5X6X,X:X$X$X.X XOXOX.X.X@XOX].].XX`.[.+X&X#X#X1X1X5X2X5X2X3X4X3X5X5X3X4X5X4X5XqX5X5X5XqX5X4X",
"1 1 1 1 n 1 < < 2 C Z S Z Z Z Z K K G Z Z F Z Z K F G Z Z Z Z m n C C Z Z Z Z C n c 1 c < < c c < n C Z C 1 1 Z S K Z c v F L U P U Q [ ] ] U P [ P P ] P F G G { Q P J J I U Q P E Q Q [ { Q ! { Q } } { } } #.~ $.} ^ } } } #.^ R Q ~ Q ] Q Q L F F F L L K m B c C m b b < < < < c M b < m Z B B F P F P F b F B v v B K F F I F K P P K P _ E ] ] { ] Q H J Q Q F P P N H N E W R R W { ! ! ! ..&.=.*.&...{ Q R R ..{ R E R P I N N N F H P E H P E E { O.&.*.$.=..X`.`. X X.X X X{.`. X`.*.=.`.{.{.=.&.....o.o.! ^ o.} ....~ ~ ......^ / %.].`.[.$X&X[.].`.%.{.XX}.}.$X$X:X,X:X,X,X,X1X,X,X1X#XOX@X1X2X3X1X1X1X1X1X1X1X&X&X=X&X&X1X&X#X,X1X1X2X1X6X1X1X2X1X1X3X1X1X3X1X1X3X1X1X3X3X4X5X5X5X4X5X4X4X4XqXqX4X4X5X4X4X5X5X5X4X1X3X4X5X5X4X",
"4 C C n C 1 1 5 2 1 n n c n C A Z Z K K Z Z F F Z G L F F L L F K K Z c c C C c A M n C S S C c b c c Z C c 2 < c n M c n Z m A ) L G P P I P ] P J P [ [ Q [ } J ! ] ] ] Q P J ] ] E E ! ] { ..} ! } { ! Q E ! R ^ R J ^ ~ Q Q  .] +.[ U P F F U Q U Q Q ] Q U [ Q ] ] Q Q G K K m Z A b b m F G F B F B ) K m Z Z Z Z Z K m m I K K I K m m F I _ L K m L P _ E { ] | { P { { { O.{ { O.O.{ W } ~ ~ } O.&._.{.=.*.X.%./ ..*.! ..{ ! E E I F v I N J E R R E W o.&.$./ ..X.%.%.%.%.*.=.`. XoXXXoXoXoXoX X{. X{.XX{...^ ~ R R ^ o.} } o.} { ..*.].'.}.}.}.}.}..X.X.X}.].]._._.}.OX%X$X%X%X$X$X#X=X1X3X2X3X1X=X3X6X3X1X2X2X2X2X4X5X2X3X4X2X1X1X1X&X1X$X&X&X&X1X1X1X3X1X1X1X2X2X4X1X5X4X1X1X2X3X2X5X2X4X5XqX5X5XrXqXqXqXrXrXtXtXqXqX4X4XqX5X4X",
"n C C 4 n < 5 4 4 C A C n n C A c c c m Z K F m m Z F F F L P F _ L L L L L Z C n C C S C Z K Z F Z Z A A M M M c c n < < n b b n b c Z F v B F Q E P ] ] P Q ~ ! } } { { ! { } ! ! E J J H J R { E ! ^ E ^ R E ] [ U P U P F F F H ] ! ! { ! Q { } ~ ..~ ..~ ..%.$.*.{.`.{.*.&.*.} } } ! { ! ^ } { ] { ] | U P  .[ [  .[ ] P _ o.o.$.$.o.} } } Q #.#.[ ] [ ] Q ^ ! ! ....{ O.o...*.*.*.`.{.=.*.=.&.*.*.*.*.*.*. X{.`.`.X.%.{.O.`.&.O.{ O.o.| ] o.~ ..*.%.*.`.`.&.|.*.&.{.`...X.! ! { } } { { ] $.~ $.$.$.=. X XXXXXoXoX.X*.%.%...&.o.....*.$.../ *.*.! W o.*.&.`.].'.].}.OXOX$XX./ %.].].'.%X#X#X#X#X,X1X1X1X2X&X#X1X1X1X;X#X1X2X1X1X3X4X4X5X2X5X5X2X2X3X1X3X2X=X1X1X1X2X3X3X1X&X1X3X1X1X1X1X1X2X&X=X=X1X1X=X1XqX4X4XqXqXqXtXtXtXtXrXrXrXqX",
"Z S L Z S n c 1 Z Z Z F Z Z Z Z Z Z c Z F L F v c n m m Z F Z B C c Z L U U L F Z K K K v m L L F F F F m n C K K m F v v Z c m Z v v v b b m I Q P P ] ] U [ { [ | | o.&.} { ..o.o.$.&.#.} ! ! ! Q ~ ~ } $.$...} $.$.&.=.*.=.*.%.*.{.`.`. X X{.=.*.*.`.`.`.=.`.XX X.X$XXX$XoXoX X`. X.X`..X`.%.`.=.$...} ..~ } } { } ~ Q R J ^ V H E ! ! ] ! P / / / ~ ....$.*.&.o.o.&.&...o.o.%.].%.%.=.{. X X;.=.{.XX{.{..X X*.X.]..X{.{.$XOX.X}.{.`.`.]...! / ! ~ %.`.{.{.`.XX$X.X.X@XXX].}.|.o.{ ! ! E P P J V V G V V R Q ! o.;.oX X XXXXX$X:X.X.X`.XX`.`.`.*.*.E H } *.%.%.%.`.}..X$X$X$XXX|.}.}.}.{.OX$X$X$X#XOXOX$X#X1X1X#X$X%X%X'.'.}.@X$X.XOX&X1X3X1X4X6X2X4X5X2X2X=X1X=X1X1X1X3X4X4X3X3X4X5X5X5X5X5X4X3X4X2X4X5X4X4XrX5X4X5X4X4XqXrX4XqXrXqX5XrX",
"B c c c Z Z K L G F V G J J J Y L U _ L G G P P ) L L L K L G B c c c Z G G F G F G G F F F G B ) L I P G G P P P I ] P P ] J E F J J F v b m m F F Z K K F G F I F F Q &.} ~ $.$.$.$.-.-.-.&.$.=.-.-.=.=.=.=.=.%.=.=.=.=.*.`.`.].`..X`.=.`.=.&.=.$.%.%.`.*.=.=.`._._.`.].'. X@XXXOX@X@X.X,X@XoX+X@X#X$X#XXX`..X`.=.`.=.*.&.$.&...$.&.&.o.o.} E ] H H I ] H I E I I E E E E { o.O.X.O.{ W { { { $.} &.=.$.=.oXoXOXOX#X$X.XOX#X$X:X:X#X:X#X,X@X+X:X_.! ! ..X.X.X./ `.}.}.$X#X@X@X$X`.%.*.*.$.$.$.P P [ | [ E Q P J J R ~ ~ $.[. X'.OX'.OX].OX[.$X&X+X,X#X.XOX+X[. X`.}.}.`.`.`.}..X]..X X'..X#X$X$X#X1X$X#X1X1X1X$X1X1X1X$X@X#X,X}..XXX$X&X1X2X2X2X1X1X,X1X&X1X2X1X1X2X2X1X1X3X3X2X3X4X3X1X1X1X2X4X4X5XrX5X5X5XrX5XrXrX5X4X3X3X3X4X5XqX5XqXrX",
"C A M 5 5 M n M C C n Z K S L S K P P L U U P F L Z F P P J P Q +._ ] P I P I P J P E U U [  ._ R { Q ~ } ^ Q Q [ | { { Q ^ o.o.} { [ [ ] [ ] E J J F I K I F F m m v P ] ] } } &.&.&.$.&.$.=.%.*.=.=.=.;.=.=. X*.=.{.=.*.`.`.`.`.{.{..X X`.=.&.=.{.;.=.=.=.=.$.`.*.*.`.{.`.{.{.`. X.X XXX.X+X+X@X,X&X+X&X@XOX&X,X$X+X@X@X@X#X$X,X,X,X$X@X@X,X,X,X@XoXoX X{.{.*.|.&.&.&...o.....`./ / ~ H V ! { E H R R W { O.|.*.&._...O.O.! O.! %.].].'.%X+X;X#X#X'.OX#X$XOX}.].[.OXOX+X$X#X#X1X1X1X1X$XOXXXXX*.{.*.} } o.:.:.| | ) I F F ! E ..&.&.=.o.=._.{.[.[.].'.OX%XOX&X+X&X1X&X&X1X1X1X3X6X1X1X4X=X3X3X1X6X1X1X1X1X#X1X@X1X1X=X3X=X1X&X}.1X:XOX#X#X1X1X,X:X1X1X2X2X2X5XqXqX5X5XrXrXtXqX5XqX5X5X5X4X4X3XqX4XqX4X4X5X5X4X5XrXrXrXrXtXqX4X4X5X5X5X4XqX",
"F G K K K F F F Z F m Z Z m Z m v v v B G P P P K K K L F Z F K K P ] P P E P E ] P I I L P U L P ] P Q } ] U U J Q U J J J ^ { } } | [ { } o.&.} { } ] { Q ] ! E E H H F v B V V J E R R R ~ ^ ~ ~ ! ^ Q ^ E ! { o.&.} } o.} O.....%.`.'.].'.`.[.[.`.`.%.%.%.%.=.$...*.{.`.*.%.*.`.`.*.`.`. X.X_.`.`. X@X@XXX@X$X$X@X&X@X+X+X&X[.[.+X+X&X#X#X&X=X&X=X1X1X1X1X1X=X=X&X&X=X&X=X&X1X:X:X:XoX X;.o.o.{ { { ....~ ..} ! } W { W H W ! ....X.].'.OX,X1X=XOX&X1X1X1X1X1X&X1XOXOXOX'.'.+X+X+X#X#X&X&X1X#X:X$X X}.`.`.`...$.{ { ! R ! R V ^ *.}.}.].*.%.}.{._.}.}.`.}.}.`..X@X@X1X1X,X1X1X2X&X&X1X=X=X2X2X5X5X4XqXqX5XqX5X5XqX5X2X4XqX4X2X4X6X1X1X'..X&X.X$X,X1X2X2X2X6X2X5X2X2X2X5XqX4X2X5X5X5X5X5XqXqXrX5X5X5XqX2XrX5X3X4X5X4X2X4X5X5X2XrX3X3X=X5X",
"G G G P P P P U L P I P P I P I I H F G U Q Q Q Q { [ Q E P P Q H J Q E J P J P E P P F v v B v _ P F F L K Z K K L K Z c v v Z ]  .o.} } } / $.$...&.o.} ! o.......~ } } } | &.} } o.} ..{ ..^ { ..{ ! ! ! E R { ....Q Q ] E ] +.{ } o.&.o.*.*.*.&.o.:.:.| &.&.,./ $.*.`.`.`.{.XX:XXX{.*.=.*.*.$.$.%.%.*.=.%.*.`.%.`.[.[.`.`.`.[.`.OX@X&X+X+X+X+X+X+X&X&X#X#X1X&X&X&X&X=X&X=X&X=X=X=X=X=X=X1X1X1X1X=X=X=X=X+X+X,X#X&X#X1X:X$X:X#X,X,X,X1X1X1X1X3X1X=X3X3X1X1X2X2X1X5X1X1X2X&X=X=X=X=X=X=X1X1X2X2X1X1X1X2X2X1X1X1X1X,X1X,X$X$X.XOX$X1X1X3X&X1X1X6X;X#X1X#X1X6X1X4X5X5X5XqXqX3X4X5X4X3X3X1X3X4X2X3X5X5X3X4X4X3X3X2X4X2X1X6X5X2X1X3X2X4X2X2X1X2X1X}.#X1X2X3X1X1X1X2X2X2X4X1X1X1X1X1X4X5X2X3X3X3X4X2X=X&X1X2X1X4X1X1X2X2X2X=X#X1X1X3X2X1X1X1X2X",
"P G F F F Z m F F I P P E E Q Q ] [ ] Q [ { ~ Q ^ ~ ^ ^ ~ } ~ } { { { E J J J J H P Q ] P P ] ] I P K F F m m K K K ) L K L K P F I ] ! ! ! ~ ..&.&.&.=.} $.*.=.=.*.$.$.*.&.&.o.&...=.&.=.=.*.X.~ ......*.=.*...*.*.{.;.;.|.|. X;.=.*.`.].%.%.%.].].%.`.`.].`.'..X.XoX.X_.X.%._.=.|.&.*.&.;.=.{.=.*.;.&.......*.`.%.%.`.`. X{..XXX|.{.{.}.}. X$XOXOX[.[.[.].%.]. X.X X`..X XXXXX[.$X#X+X+X&X&X1X&X&X=X=X=X1X=X=X-X-X-X=X=X3X3X1X1X1X3X2X2X1X=X#X1X#X&X1X=X=X3X3X3X2X5X4X5X5X5X4X4X4X3X1X1X4X3X1X4X4X2X2X4X4X4X4X4X3X3X4X4X2X5X5X5X2X4X2X4X1X2X2X2X1X3X5X4X4X5X3X3X4X4X4X5X5X5X5X5X3XrXqXqX5XqX2X5XrXqX4X5XqX5X3X2X5X1X;X=X1X#X1X3X=X=X2X5X1X2X1X1X6X5X5X4X2X2X1X1X#X#X=X=X=X=X2X1X3X6X=X&X#XOX=X=X=X1X2X=X=X1X&X;X1X1X2X1X=X3X+X1X#X1X.X].#X",
"P P P P U G F G B F J F F J J J H P J F J J Q E P ] E P ! ! P Q | { { ! { } [ | ! ! ! ! Q { [ Q Q ] ! Q I H ] | Q Q ~ Q Q { ^ ! | | o.{ E ! ! ] o.o.o.:.o.*.=.=.*.*.*.*.=.=.$.......{.=.=.`.`.{.=.{.{.`.=.=.*.$.[.`. X[.%.=.`.`.[..X.X.X[.[..X`.`.`.%.%.%.%.%.%.*.%.%.%.X.X.X.X.o.o...&...o...o...} o.o./ / X._.].].`._.%.X.X.*. X;.&.O.....&.=.*.|.|.|. X|.*.;.`.].`.].].'.].'.'.OX.X'.OX$XOX[.OXOX$XOX$X&X#X#X&X=X=X#X#X=X1X&X;X+X+X+X+XOXOXOX#X'.].'.'.%X+X#X1X1X2X1X2X4X4X3X5X5X5X5X4X5X1X=X1X1X1X1X1X3X2X2X2X1X2X2X1X1X4X4X2X2X3X2X2X3X1X3X4X4X5X5X4X5X4X4X5X4X4X3X-X4X5X3X4X5XqX3XrXrX5XrXqX5X5XrXrXrX5X4X4X2X2X1X#X3X1X2X5X2X3X1X1X1X4X1X1X1X2X2X1X1X5X1X1X1X2X2X4X2X3X3X2X6X1X;X;X#X#X5X1X3X1X6X2X4X2X1X;X#X2X2X3X5X1X#X.X].1X6X1X1X",
"J R Q ^ ! ! ! { [ [ } Q Q { } } Q { ] Q Q ] ] ! Q [ [ Q Q ! Q { P P E E ! { ] ] ! ! ^ ^ R ^ { } R { } o.} ! ! ! ..} } ~ ~ ~ ^ ^ E E E P P P I P E P E E ! ! } ! ! { o.o.o...~ ..$.$.=.$.$.%.%.%.=.`. X{.`. XoX.X'.].[.[.].[..X.X[..X.XoX.XoXoXoX+XoX X.X.XXXoX XoX{.{.}..XXX}.{.%.%.%.*.=.*.o.o.} ! { *.`.'.`. X.X}..X}.}.}.}.}.}. X.X.X`. X`.`.].'.'.[.+X#X$X$X$X.X$XOX.X$X'.$X$X$X[.'.$X+XOX%XOXOX%X%XOX#XOX[..X X.XOX.X.X.X$X].]._._./ X.'.}.#XOXOXOX'.'.OXOX+X+X1X#X=X1X1X1X1X1X1X#X+X&X[.[.@X:X:X$X$X#X#X&X1X1X2X2X1X1X2X3X1X3X1X2X3X1X1X2X&X=X3X3X4X5X3X4X5X4X4X4X4XwXrX4X3X4X5X4X4X5X4X5X3X3X4X5X3X=X=X;XOX+X+X=X1X4X2X3X6X&X$X1X4X1X4XqX2X5X5X5X4X5X5X2X5X5X5X4X4X3X4X5X3X4X4X5X5X3X1X2X&X.X..,XqX4XtX5X5X1XrX4X2XrX=X2X3XOX#XtXtXqX",
"J E J J J R R J P U ] J J Q ] [ ! Q Q Q Q P H H J J Q Q ^ ^ ~ } } { } ......! E } o.&.{ R R ! { o.o.! E J E ! ^ P E P P J P Q E ! ! Q ! E E P I J H J H J J J V V J ^ ! ! ! ! o.&.} &.~ o.&...o.$.*.=.=.*.`. X`.`.`.{.`.`.`.=.{.`.`.`..X X`..X.X.XoX.XoX@X@X@X.XoXoXXX$X#X#X@X@XXX$X$XoX@XoX{.=.] F I { {.'.`.}.#X@X$X}.{.`.*./ %.].'.OX'.OXXX.X:X$XOX$X$XOX.X.X}._..X}.'.}.]..X.X.X}.{.{.`.%.%.`.]._._.}.XX}.}.$X$X$X1X+X+X#X&X#X&X1X1X#X#X,X,X=X1X3X1X1X1X1X1X=X1X1X1X1X3X1X#X}.}.}.`.`.$X}.@X$X&X,X1X1X1X1X1X$X$X1X1X+X$X$X[.`. X.XOX+X'.].'./ %.].,.,.`.[.$X,X1X,X,X1X1X2X1X3X3XqXqX5X5XqX5X4X3X4X5X1X&X=X1X#X1X+X#X1X2X2X4X2X6X1X4XrXrXrXrXtXrXtXrXqXrXrX5XqXrXrXtXtXqXrXtXtXtXrX5X5X5X5XrX1XR &..X5XtXrXtXtX5XtXqXqXtX5XqXrX5X1XqXtXtX",
"N I I F H H F v F F F v v H H J Q J F F J F N F L L L F F J P F J J ! ! ~ } ^ ^ P ] { ! P R E R Q } | | } | } E ! } { } } } &.&.} } o.} ..o.....} o.{ { { } ^ E ! E ^ R J J V J E J ! J R E E ! ^ ! o.....$.&...E } } ! ..} Q | } { { &.o...&.;.=.;.=.;.;.;.;.=.=.%.%.%.`. X[.`.].[.[.`. X`.*.~ _ m m E *.].`.XX.X@X@X$X.X$XXX`._.%.].]./ `. XoXoX{.`..XXXOX$X:X,X+X,X,X&X#X#X&X#X+X+X#X&X#X&X1X1X&X&X#X#X&X#X&X1X1X,X1X#X=X1X=X1X1X3X2X3X3X3X,X1X&X&X#X:X1X,X#X#X1XOXOX#X[.OX,._.`.}.}.}.:X.X:X&X&X1X1X1X,XOX.X[.'.$X$X'.'. X`.`.%.....]./ ^ / ! { o.! J E ! { ^ %.,.%.`.].`.+X[.[.%X[.+X+X3X5XqX4X4X5X2X2X4X4X3X6X6X2X=X1X5X5X5XrXrXrXtXqXqXrXrX5XrXrXqXtXtXqXrXtXrXtXtXtXtXtXtXtXtXtXtXtXtXtX5X{.} ,XtXtXtXtXtXtXtXtXtXtXtXrXrXtXtXtXtXtX",
"I P ] P P J E J J P I P E E Q Q { ! E Q [ ] Q ] Q ] P E ! ! ! J ^ R ^ ! ^ ! } ~ } #.} ~ ! ! R E W { ^ ..o.^ } ! R ~ ~ ~ ~ ^ R ^ ^ R R W ! / ! / o.O.o.&.&.$.../ &.*.&.;.o.o...! ! } R R R R { ^ ^ ! ! ! } } ! W { ! ] E P P H E E E } ! ! ! ! ! ^ ! ! } o.o.o.o.&.] :.&.o.:.&.&.&.:.&.o.} } ] ] F v E &.{.$X}.$X1XOX$X$X1X+X=X=X,XXX}.XXOX}..X.X+XOX$X&X$X$X,X1X&X$X=X&X1X=X&X&X=X&X&X+X+X&X&X&X%X#X+X+X#X=X1X&X@X1X1X1X#X1X@X@X1X&X&X&X&X1X1X&X+X&X1X#X&X$X+X X}.XXXX%._._.o.&.{ X.{.X.`.}.`.}.%.%.`. X X`.`.XX$.`.`.].OX$X:X:X#X@XXX.XoX%.].XX..*.{.*.....o.O.../ ..`.`.X.}.$XOX&X3X1XqX4X4XrXtXqXqXqX4X2X4X4X2X1X2X1X1X1X4X5X1X4X5XrXqXrXrX5XrXrXqXqXqXqXrXrX4XrXrXrXtXrXrXrXrXtXtXtXtXtXtXtXrXqX3X5XtXtXtXtXtXtXtXtXtXtXrXrXtXtXtXtXrXqX",
"Q ] [ { { ] { { { { Q [ ] Q Q J J J J Q Q Q ^ ^ ! { { { ! } &.&.&.&.o.o.} o.&.&.} ..$.&.*.*.&.&.o.*...$.$...&...o.&.&.o.} { ! { [ Q E { o.o.} } *.X.%.%.*.=.;.*.$.$.$.*.&.=.{.=.*.=.O.&.;.;.;.&.=.;.*.&.&.o.o.o.....&...o.o...&.*.} ..%.%...%.`.o.....$.o.} ^ R | ! ....{ { ! ! } } } ..} o.{ { :.:.XX{.*.{.}.OX:XXX@X@X,X$X@X:X1X$X$X$X1X$X#X&X$X#X,X&X1X+X$X$X:X@X:X@X#X#XOX.XOXOX'.}.}.$X$X'.'.OX.X'.`. XXX`.`.+X1X&X+X$X+X$X&X&X&X+X+X#X#X+X&X$XOXOX$XXX{.`..X$X}.'.}.}.}..X$X@X:X}.XX@X}._.OXXX#X$X$X$X{.`..X#X$X'.}.}.XX.X.X,X:X$X@X.X@X}.}..X.X{.`.{.oXXXXXXX.X:X#X$X1X1X1X2X4X3X4XqX3X4XqXqXrXrXqXqXqXqXqX5XqX4X4X1X4X4X3X3X4X5X2X4X3X3X2X4X5X4X2X2X2X4X1X4X2X4X5X4X3X4X4X4X5X5X5XrXrXrX3XqXrXrX5X4XqX5XqX4X2XqX4X5X2X4X4X5XqXrXrXqX",
"Q J P [ Q Q E ! } { Q [ [ [ ~ ^ ! { } { ~ } $...{ o.o.&.....o.o.o.} } } { ~ ........o.$.*.&.....*.=...^ ~ $.=.$.$.$.=.*.=.{.=.{.|.;.|.|.{.{.;.{.].%.%.%.%.%.&.o./ / / ..../ ..! o.&.~ ~ ..{ { ! ! ! ^ R R J H H E E ! ! ] ] ] { [ H { &.o.! o.;.$.~ o.&.&.&.~ o.o.} O.&.o...} o.{ ^ E ! ! o.o.o.|.&.|.=...{.XX`.`.`.$X.XoX{..X@X@X@X&X$X,X$X:X,X@X,X#X+X,X&X+X@X$XXX X XOX@XOX[.+X&X+X+X&X&X&X.X+X&X1X&X&X&X&X@X.X.X&X,X,X#XOX`.].].}.].].`.{.{..X`.`. X.XoX{.=.*.{...*.{.XX$XoX}..XoX`..X:X@X$X{.{.}.]._.XX X`.*..X.X'.`.`._.*.`.$XOX@X#XOX#X'.[.$X.X[.'.'.$X$X,X1X,X2X3X1X1X2X4X1X5X=X3X4X1X=X3X3X3X3X1X3X3X1X2X2X5X5X5X2X6X6X1X&X&X+X[.OX[.+X$X#X1X,X&X,X&X1X1X1X&X,X1X&X+X&X&X$X1X=X&X4X2X1X,X@X#X,X,X`.oX:X+X$X,X1X,X3X1X#X1X1X1X1X3X1X",
"E F F ! Q ] { } ~ Q Q Q ] Q Q ! ! ! } } ! } ..~ ~ ! ! ..&.....o.o.o.o.} ~ ^ ^ ^ ! Q ! ..o.o.o...} &.&.*.*.&.$.^ ..~ $.....&...&.%.%.`.`.].%.%.`.].%.%.`.`.*.&.o.&.*.=.=.`.%.%.....=.&.....! ! ~ ! { } } } { ! ! { ] E R P E E ] ] N P ] R J E E ..^ } { { } ! { } { ! o.o.{ } &.;.#.} o.} o.&.&.&.*.|.&.] } &.#.{ } =.{ ] ] { [ [ #.} } &.} ~ o.| &.^ ~ ~ *.$.*. X`.%.%.%. X`.].%..X`.[..X[..X[.].[.[.[.`.].`.`.`.`.%.`.%.`.%...{.X...*.*.o.! ^ *.$...! H ^ ! R R ! R ^ .. X{...o.o.*.! ! ~ ~ } X.{.$X$X$X,X#X.X:X,X,X,X,X,X1X1X,X@X$X1X1X&X3X1X1X2X1X1X1X1X1X1X1X2X2X5X2X1X1X4X1X1X5X,X1X1X1X1X,X1X1X1X$X&X1X1X1X1X1X2X3X1X#X,X,X+X$XOX`.`.`.`.].'..XXX$X$XXXXX*.oX{. XoX X$.&.=.$.{.{.%. X{.%.$.$.^ } &.~ ..*.*.%..X@X@X.X@X+X:X:X$X$X#X&X",
"E J F P J Q Q ! ! ! ^ ^ E E E ! { ! { { ! } &.&.$.~ ^ ....} ..&.*.;.;.=.*.&.....} } } } { ! { ! } } ! ^ ! } &.o.o.{ | E P ] E ] ! R ^ } o.o.o...=.&.*.=.=.*.X...o.o...} ..} ....} &...~ ~ ! { o.o.&.&.&.;.;.*.;._.*.&.../ ..$.....^ ~ ~ R ..&.^ ! E ! P P P F F F F b F P H P  .| U U ] P E P P H L L S Z c c C < < n > 2 > 6 6 4 C 5 1 C Z c B S Z b Z v ] ] [ U P F J J ! ! ! I E R E { E W O.o.&.../ ^ R ^ ^ ^ { ~ { ~ o...! ..~ R ~ ! { R ! E E { ..E ! E V H I ] E | :.[ H v N H F F F H E ..*.}.}..X#X#X#X$X$X.X@XXXXX$X#X#X.XOX#X$X&X1X1X1X3X1X1X2X2X1X1X$X&X1X+X@X+X+X+XOX$X#X:X'..X$X.XXX@X,X#X$X@X$X}.'.OXOX#X#XOX.XOX.X.X{.oX{.{. X;._.{.%.=.*.} ..^ ] | U J [ } #.#.F F P [ F J Q P R ! J ^ / ..*.{.XXoX{.@X}.{.XX.X*..X$XOX.XOX",
"o.} { } } } { { { { } { ! ! ^ ! ] E E ! ! ! } o.*.&...&.o.! ~ o.} ....&.&.&.&.&.*.&.&.&.} { } { } ! ^ ^ ! { } o.} } o.} } ..{ { ] E ! { { { ^ ! ! { ......`.{.%.&.&.....o.} o.&.o.&...~ ~ } } ..&.....{ ......o...o.o...{ { o.} E E o.} J { } J { Q ] H F P F F ` L n C K m Z L S n n A n C m A n n 2 > 4 > : < 3 > > > > : 6 6 6 6 3 - 5 > 4 M n < n n n Z K m v v b Z F F F F K I F P ] P J { o.&.o.o.} { ! E H E { E o.o.&...`.=.~ ! E { R ^ { R E ..} ..o.o.[ I { P E _ F F F F I _ ] E E +.R / ..X.`..X{.OX}.`.`.$X.X`.=.=.oX`..XOX'..X'.'..XOX$X.X.XOX.X.X}.$X$X%.`.$X@X X.X X.X$X`.%..X`. X[..XXX.X.X`.$.*.{._.=.{...X.X...o.~ O.! ] { P { &.] { P N J v C K Z c K K L K L A Z P F I P I } { .. X`.@X,X#XoX:XoXXX_.X.{.=.&.{.$X$X.X$X",
"! } } o.*.&.o.&.&.o.&.} } } { ! ! ! { ..} ! E J ^ $.$.o.} } o.o.! ^ ~ } ! ! ~ ! ....&.*.&.*.|.|.{.=.=.*.*.&.$.&.,.%.%.%.`.%.%.%.*.*.=.=.*.$...%.....! W W ! ^ R ! { ! } } ! ^ { o...o.o.o.o.{ ! ..} ^ E ! ! E E E ! } } E E } E ] { :.:.P E E H R H V v v v b b n 1 2 2 < < n n n < > 5 > > 6 > C 7 5 5 3 - - > 5 C 4 4 1 2 < < 6 6 3 - 3 - 6 5 D C A n m b c < b b 2 c c 2 < < c c c b c B b B V G V J ^ E E H P o.o.E { W *. XoX{.%...;.|.&...;.{ } *.=...o.} } J E E J H F E E E E E ] P E E { ..! R ~ ..! &.`.*.*.{.`.&.`.{..X`.{..X*.%...O.=._. X|.=.{.{.`.*.;.=.} &.;.*.*.$.~ &...o.^ &.o.^ ^ } } Q Q ] [ F P P P | P } } E E J J v m n < v K K L n b I m n C c < b c Z m c c b F P o.o.&.&.;.:X1X@X:X6XoX{.*.XX}..X! ..{._.%.{..X.X@X",
"^ { { { o.! ^ { { { #.{ } &.&.o.&.o.} ^ R J J R J ~ { E E } &.} o.....&......./ $.~ ..$...$.*.$.$.$.=.=.=. X X X`. X`.=. X{.{..X{.`. X.X.X.X[. X.X].%.]._.%.$...! ..! ..~ E R W O.! ! ! ! ..O.....~ ^ { o.o.{ ! ^ / ....^ ^ o.! o.! ..&.^ { ! { } ! E Q P I L L S A n < 5 < < < 6 - - ; - ; - - : - - ; - - : - - @.4 4 < 4 A c m n < 5 4 4 6 2 1 n c < n n c K M 5 > 4 D < 4 4 M M A < b m M m Z m b v I P E I H } ! E ~ ^ ! ..%.%.`.X._.} ! } o.E ! ..&...&.../ ^ ! ....o.} o.|.*.o.{ } ! { } ] o.o.{ &...R { o...&.;.;.&.;.;.*.`.*._.....O.} { E { ! ..;.} R &.} { } { Q V Q P K P P Z K ) +.I v c c c n n n b S m Z L v L P B F U P Z S 4 2 M A S S 5 5 D M n m c Z c Z I I P [ | o.o..X`.oX:X{.oX,X@X%.{.;.=.%..X}.XX{.&.oX:X X#X,X#X,X",
"H R ! ! ! E J E Q Q R J J E { ! ^ ^ ..} ! { { | { J J ^ ! o.o.&.;.&.*.`.`.*.=.=.`.{.`.`.{.`.{.{.=.*.=.{. X=.=.`.`.%.%.%.%.%.%.`.X.X.*.=.`.{.`.}.}.].}..X.X.X.X.X X X%.=.`.=.~ } / %...../ R ~ ( R R E E { R F P E ] { ..! } o.....&.*.`...~ ! } ..! E } { [ G B M 5 5 M 5 > 4 5 4 5 3 - - : 3 - - ; - - - - ; ; - 6 2 b b m K F I K K ) ) ) L m F F P F I F H F F b b m n n C c n < n C n n m m Z m v F H } ! W H R ! { O.{ / X...! %.{.`.X./ ..E H H { ..} R O.W ^ X.} { *.o.! ..%...*. X&.E ;.=.=.o.*.&.o.J H E } E { { { ] Q ^ ! H o.&...{ W ! H P G G ] F H P Q F J ] Z b v c Z c S n n < n L b 2 6 4 6 5 M 2 > D M 5 n S C b m ) P |  .L A 1 2 n C c m F P N ]  .#.&.o.;.*.=.oX.X.XoX@X X.X$X`.*.*.=.`.=.~ =.X.X.$X:X,X{.:X:X:X,XXX*.;.",
"J E E ! { { ! { Q ! E E R J E R ^ R ^ E ! } } o.o.o.&.&.*.{.*.&.&.&.=.`.=.=.{.{.{.`.%.%.=.*.=.`.{.{.{. X{.=.%.*.&.*.*.&.&.o...../ / ........O._.%.X.*.*.].}..X.X[.+X.X X XXX`.*.].`.X...! R ! R ~ { ! R J J H ] H E E { J ! ! R E ! ....~ ! ! E } { I E P ) F m M 2 6 4 < 2 5 M D M M > - : D 5 - 6 M 5 - : > M 5 n m F I I E I { E N P Q { o.} { &.} :.} *.} ..o.Q P _ L L I B m K < c L L K I b N P o.} *.....o.E { O.O.! O._.$.%._.X.*.{..X`.X...&.......! ..X./ ..~ E ..! R ..&...! { W H { &.=.o.o.|.;.{ { o.o.! ! ! { ! E R E H ! o.....E P F P v v v F P K L F m Z n n S Z Z Z Z A A n b Z Z n 5 5 - < A 6 > M M < c b c m m H P } o.| &.+.L P U P ] { | ! o.;. X X:X:XoXoX,X:X@X@X,XXX`.{..X`.{.%.oXoX{.:X$X{..X$X:X XoX:X.X..{...! ",
"E P E ] E E ! { } } { } } | o.o.} } o.o.} } { } o.! ! } } ~ ^ ~ { } $.$.$.$.&.&.*.*.$.*.=.$...~ &.$...$.$.$.%.*.} &.&...{ { ! ^ ! ! ..&.&.X...O...X._.%.*.]._.%./ ].'.]..XXXOX.X].}. X$X}.{.%.! ..O.O.{ ..o.E R I { R E H ] E J J H H H E { ! H { } J E J ] H P Z < 5 M c < M M I b K A n m ) I c < ) K n A A +.) P | { } } { E &.} R E ! ~ %.,.&.=.|.O.=.&.{._.{.=.*.:.&.&.;.} { | P Q [ } &...o.o.|.{.*.}.}.}.|...X.*...! %.*.*.$.*.X.*.`.}.`.{.].{.*.%.X.=._._...O.o.} ..! R W O.o.{ o.|...} o.&.} } |.;.} } o.o.! ! } o.! { J ] ] P } } &.{ I H K c C c C K I L ) ) ) ) )  .L P ] F K Z K m K _ ) S M < < b < < M m n m m F E E { ~ ..%./ =.o.^ { ....`.`.{.{.*. X.X.X:X,X$X@X,X,X:XoXXX X.XoX{.$..XoX,X@X{.:X,XXX$XoXoX*.o.o.$.R &.&.o.",
"P H P E F V H P ] { Q ] { { { ] { { } ! E ^ ! } { P Q } { Q Q ! Q Q Q Q Q Q Q Q } } ! o.*.......*.*.=.=.=.=.=.=.`..X X`.{.{.{.`.{.=.{.=.`.{.*._.*.*.}.].`.`.`.%./ / %./ ]./ %.].'.`.'.'.`.XX X.X`.`._.X.*.{...~ E } E E R { E E { { } W ! ! { E ! ! H J V F v K I F m K K I ) K E F P | [ ] [ |  .F  . .P ] E | [ E } ....o.{ } o.o.o.{ } } $.! ! $.=...o.X.X.O.=.%.&.`.=.{..X*.{.;. X|.*.|.XX.X:XXX$X$X`..XXXXX:X{..X}.=.&.`.%.=.~ %.`..X{.{..X.X].`.`.*.%.`.%.{.{.}.XXXXXXXX_.|. X X&.&.:X;.o.=.*...R } ! ! ! } } } o.&.o.! &.} } | Q { { :.o.} | F v Z S K A I I _ ] ] ] P  .P ] | P K Z ) ) P +.+. .] _ _ P K c m N E E } &.;.;.XX{. X`.`..X.X`. X.X.X@XoX.X:X.X`.@XoX X#X$X,XoX.X.X{..XoXoX..{.XX`.*.{.XX{.{.{.*.{.`.:.&.} } &.} { } { ",
"] P ] [ P P Q Q U Q P P Q ] Q P E E ] ] { } ! ^ I P U P P [ { ] ] P P Q E J P E { { ! } o.} } } o.&.&.o.o.&.=.=.`.`.=.%.`.`.`.`.=.=. X X{.}.}.$X X}.OX XXX.X}.'.}.].`.`..XX.*.`.%.%. X'..X.X}. XOX$XOX].`.}.{.`.X._.O.X./ O.........O./ ..O.} H P P m K K m M ) { ] E [ [ } o.| ] { ] | ! Q P } &.[ | &.! E { ..&.{ { O.} &.} o.:.;.o.] } | ;.o...&.} } R } } &.$.~ } &...o.&...*...&.o.&.:.*.*.&...*.*.~ $.*.`.=.*.`.`. X{.{. XoX=.=.{.*.`.=.`. X`.`..X=.{.`./ _.{..X].}.{.}.X.{.=.{.&...&...~ ^ ! o...o...o.} o.{ } o.&.! J | o.] ] ] E ] o.{ o.;.{ P U P P B v F F F F P F U P P [ _ L K K ) I N ] ! E E o.o.;.} { ! *...=.}..XoX,X.X@X$X@X,XoX@X,X@X@X,XoX X:XoX X,X:X`. XoX=. XoX X$.$.oX,X{...} o.&.&.&.*.o.&.} o.} [ [  .#. .P P ] U ",
"I F F F J I F F B G V B F F F F v F E { { { H V F F F V V I Q { { ] { { E F H E } o.{ } } ! ! ! ^ Q ^ R R ^ ~ ~ $...~ ~ o...} { ! ~ *.`.{..X}.}.}. X X XXX$X.X}.}.{.oX.X@X}.XXXXXX`.$X.XOX.XXX+XOXOX+X.X.X$XOX.X}..X}.}.`.]._.`.%.X.X.X.*.`.*.! | E F I F v b K { ! { | { ! o.:.{ :.] Q P ! H ! ] ] } :.} E { ! ] P H E H ! E { ..=.&.&.*.&.&.! R Q { P Q J E Q { P P { E P ! E ! P V J F F ] F H H I G V V J { o.......&.! ^ ....! ^ ..^ &.&.;.*.%.%..X*.=.=...*.`. X%.].*.*.~ ..! / *.%.*.....Q } *.;.;.&.o.! } E ! o.o.J N I P F H P K m F Q R &.&.} :.] [ V M ) K m b K Z F P F P P F K m P { J } { ^ ^ ;.;.@X X`.*..X}.`.$X+X#X,XoXoX@XoXoX XoX:X X XoXoX;.|.;.;.;.;.&.} :.$.} *.;.o.Q } =. X|.} } { :.o...{ | [ [ ] ] _ P  . .Z ] _ P ",
"F F F F F H F F F I F F F v m F F F P E E Q E E E P ] [ { Q { } } } } } ] E ! ] ..o.! ! } } } } ! o.&.&.$.o.~ R } } ~ } } } } { o...O...X.=.%.$.X.*.%.=.{.:X}.}..X.X$XXXoX XoXXXXX XXXXXXX.X[. XXX`.].].`.XX.X{.`.`.}.{.`.`.{.`.%.`.`.*./ ......*...{ ! ! J J P H F H E J H Q { E | ] E E ] I P P E E { ] H F v F F F H P ] | { $.&.^ ^ ! ! { ! J J P P I F F P I Z F I Z v K F P L m m b b S b c c n C C c b F P J J J { J R ..E J R ! J ^ ^ { ..^ ^ &.o.! ! R ! ! / / ..*.o...{.o.~ =.=.*.*.&.{ } Q { &.o.Q ] E F J } | F F F F v F F ) b b U J ] ! ! o.} *.Q ) +.) ) m K K v P J ! ! H F F [ o.^ o.&.*.&.=.{.`.`.`.`.@XoX X#XXX@X@XoXoX:X X.X X X X&.&.;.&.&.o.! { } } ~ Q o.} ^ } &.} V J { ;.=.{ | { | E ] [ P I L L L L _ Z L Z L K _ ",
"F P I F J I I P I P I P P F K ] [ ] E E ] { { { } { o.| { } } o.{ } } &.&.&.&.&./ ....$.*.*.&.} { &.&.#.} &.$.~ $.$.....$.*.*.*.&.o.&.o.O...! ! X.*./ / ..oX_.*.`.%.`.%.%.%.`.[.*.%.*. X`.`.].%.*.X.%.X.X.%.....`.].`.*.`.`.XX`.}.}.`.`._.{.*./ *.O.o.} | ] E H R H K I F N H F N F ) I I m N K N F N N N v v b F P ] P ]  .&.E E [ J E E J E ! E { | &.| H v F K Z Z K c c C n C ) M 2 5 M 2 5 < > > 5 A M b A _ P P H R J R E ! ! { ! E ! { { ! ^ ^ ^ } } o.R { R H R R } E o.} { ^ &.o.{ { { Q ] H J } { N V I F H ! ] F _ ) +.H N v  .m c P F P J ! ! } ;.&.o.E I | H E { P ] ! &.&.} { Q } &.*.{.XXXX X*.{.{. X$X`.:X{.`..X X X=. X*..X$.`.&.o.} Q E ! J J E V V $.} J } } o.} [ { &.&.} U ~ { ] P P P I F ] m Z L L C c C K c Z Z Z _ ",
"F P _ P U P P P I P Q [ I ] ] _ ] U Q ] ] ! E H P Q Q Q Q ! E E P E { E E ! ~ ^ ! } ! ^ { } &.o.{ ! ! ^ ^ ~ o.~ ~ $.*. X{.=.;.$.*.&.*.=.*.&.o.o...X.~ } ..&.&...*.} / ..W ! / / / W ^ / ..`.*.{.`.$.%.=.{.{.;...%.*.{.{.`.%.[.[.}.XX X X`.=.`.%.X.%.%.%.X.^ ..! I E { E H E E F F J E J J ] F P I H F F m A ) ) F _  .) m F U B I K F V F H E ] E ] P [ | [ H P I K K A m n A m m C A 2 5 5 > 3 4 5 < < n m m H E ] ! R ^ ..~ ....%.{.X.o...*...o.&.! o.o.{ } ! o.R ~ { { ! H E R ^ J P V B L F G P J V | { H I +.P v [ I ] ] I | | E P I I P ] ] ] E } } / %.`.*.X.*.*...$.%.=.XX`..X{.oX*.`.@X`..X+XXXoX.X{.oX.XoX.X{.=.%.$. X*.|.*.&...$.R ~ } | ! F Q ] [ #.o.o.~ { &.&.:.Q &.&.| [ ] P ] | Q F G F ) ) m L ) S A A A M 5 n 5 n S ) n L ",
"N G U P P J F N F F I F v N K F _ U I H F I E E J E Q Q P ! P N Z m K F F H P P J E H H J ! o.o.W E ^ ~ ~ ~ } ..$.o...&.} } *.;. X{.=.{.|.|.=.=.`.]...X...O...^ ..} O.*.X.*.].*.*.*.{.`.%.=.*.{.{.*.*.`.*.$.....*.&.=.{.{.*.`.`.`.XX.X X X`.`. X`. X%.=.X.....~ ! { o...{ o.&.} J E { &.&.o.P I  .[  .] K C K Z m m m b < c m b M m Z F F F F F N P P ! } o.E F F F F K F b c m K m n < n 4 5 5 5 < c b m K H E E ..&.&.*..X*.`.{.}.}.XX{.}.{.`.=.&.^ &.o.o.{ ! ..~ ....R ! J P [ P ] ] v c n b m I v Q [ E F ) +.| ] ] N H { I F ! ^ E P H E } ! } ..o.~ %.*.%.XX.XXXoX.XoX.XoX,X@X@XoX@XXX@X,X X[.`.`.{.*.{.XX*.*.;.*.|.;.&.=.! } } =.*.*.~ =.~ $.*.} ;.| &.;.;.=.} &.:. .|  .P P P P I F P F ] P m b ) K n L S < < < 4 4 4 4 5 1 C S c n ",
"F P U P Q Q ! E P P Q I F P P F F P K I I I _ K I ) P I H ] E F L K P I P I Q ] E [ { [ } ! } } R ^ ..*.=...^ ~ ! ^ { o.{ Q } { ! ! { o.*.&.&.{.{._.*.{.*.*.*.....O.o.&.O.*.*.*.%.%.*.`.*.=.=.{.`.%.*.*...~ ~ } } R R ..{.&.=.{.%.*.{.`..X.X`.$X`.XXXXoX{.`...! %...%.&.~ ..&.&.o.} { &.&.o.] I | | Q G b b m Z m n n < < n b n b b K _ P H H N b R R R ! } E V } R H E [ F v b ] I F c n n n n b b v F P ] { o.%.*.`.%...=.*.*...*.&.|.&.{.*...*...^ &.o.&.! ! $.$...;.^ ..{ E ) F [ | ] _ K K K _ I { E H F P ] P E ] P J o.! E ....o.*.&.*.&.....;.{.*.{.{.`..X.X}. X.XoX`.`.`.{.{. XXX X.X`.`.+XXX`.`.{.{.|.{ [ } ! :.:.:.;.} { { ;. X X$.=.oX{.*.{ ;.{ } &.:.&.G _ [ L K K 1 m K K F b L Z K K K n A M S C M < < < 4 C > - 5 > 5 D c C ",
"P P P J U P Q ! P P E I P P P F I I m m F K P N m m m F N I I I Q ! { ^ ! ^ ~ } { | } o.o.{ o.&.~ ..! ~ o.~ ^ ..o.^ E E J J ! E J J R ! ^ J R } o.....*.X.*._.%.*.&.o.&.&.=.=.=.{.%.%.`.=.....*...! ..&...~ ~ } ..^ R ^ ..! } ....~ $...*. X=.{.{. XoX{..X.X.XoXXX].`.`...o.o.} &.&.} &.o.o.{ V F E Q Q U F F F F P ) m m I m K F v I [ { ! ! ! { o.*.&.&.=.`.{.oX{.=.{.oX&.{ ^ o.&.} J H F F F F J ^ o.&.o.*.=./ / %...} o.! E E { { E ~ *.=.~ X.....&.o.&.^ R ..*.o.oX{. X;.! P E J E { { P o.| ] o.! E ] } o.! H P { | ! ....R ..*.*.{._.}.`.X...*.{.*.{.`.].}.{.X.%.*.%.! / $.%...%.*.`..X[....X.X*.~ &.o.o.Q { o.^ ..o.*.;.&.o.o.-. XoX`.=. X*.$.} ;.} U J #.| B Z L S Z c n 1 < C L C S Z n n ) ) A 4 A M S n 2 5 > 4 5 ; 3 3 4 8 4 ) ",
"F F I F I F F F J F P F H F I P ] _ K m m K _ I N F F P H P P P Q { } ^ ~ ~ ....{ } ! } } ! o.&.&.&.! ^ ..o.o.=.&.E J J F F H I H N N H J J J { P ! E ! E ~ ..! { E R { } o.....=.$.$.&...^ W ! ! ^ ~ ..o.} ..o...o...} ..^ ! ! ! J ~ R R ......^ ~ =.$.%.*.%._..X`.`.{.{.;.&.E o.&.{ &.&.*.&.J ^ ~ ^ ^ { ] } o.E { } E ] { P Q } ^ ! =.`.=.`.{. XXXXX}.XX}..XXX.XoX.X.X:XoXoX{.}.XX.X=...} ..} ..|.%.*.*...*.%.%./ =.*.} { J v I I P N R { &.} W ! O.! { o.! R } ..H ~ $.$.&.! J { J R } { E o.{ ( &.} ~ ^ R V R ! { { } ..%.%.`.].].].$X@X@X`.`.{.}.}.`.$XXX%.{._.....&.$.^ %.^ ! } &.=.`.{. X*.{.{.......&.=.$.{.{.=.&.*.=.;.&.&.&.&.#.;.=.$.;.#.] _ _ U G I G _ c 1 n 1 1 2 4 C n M S L C ` S Z Z _ ) A < n 7 4 : 4 > > 7 3 ; 3 4 , 1 L ",
"F K I I P H F F P P P I I H P E P E ] P K I E Q P ] ] ! J ] { ] Q } | ! } } } { } } ^ ! ~ ^ ~ ..{ o.! R } o.} &.&.E J J H F F +.] I I E P F F G F P F H H R E R W J N J P ] E E ^ ^ ^ E ! R E V H H J J V H E E E ! E E ....o.{ E J } ! E } ! ! } o.*.&.~ ......$.o.&.&...o.| E [ ] J { } o.&.....&...o.*.o.o.&.&.o.o.o.:.;.o.&.{.*.%.`..X{.{.}.|.|.{.{.{._.*./ / ....%.{. XoX X$X$XXX$X{.*.=.=.&.{.! %.&.R ! o.o.^ } } | o.| ] P K F H J E { ..{ ..&.! ..&.&.../ ..( ^ $.^ ..! E { J J J E } o...R ! ....X._.*.X.{.{._.`.`.].].}.$X$XOXXX.X#X@X.X{.*._.*.`._./ =._.*.{.{.{.%. X$.o...! o.$.*..X{.{.oX...X|.:X>X{.XX$X}.{.|.;.*.;.| } ] U Q Q J P L Z S Z C c m Z Z 1 2 n 4 C n 4 A n < S  .C D Z Z S _ L _ C 1 3 4 5 C D : 7 ; ; : > , 4 C ",
"E E E P Q P J J P P I P P E I I J I [ P F J J ! P E P J V E Q E P ] ] P ! E P E Q { J J J J Q [ R ^ J V J E R ^ ! E ! [ ] I m K _ K P ] ) K F Z m K m N F H J R ! R N N b F H v J E E R ^ ^ { H E E E H N F P H F F N N P ] | E ! ! o.o.o.o.Q ] P P { &.} &.o.^ ! ! { { R E ] E F I N J E { } } o.:.o.&.;.o.{ o.o.{ } &.&.*.&...&.&.} ! o.o.} ~ } } $...*.*.%./ R ^ } ..o.~ *.=._._.%.{.%.....o.! } H ^ o.H V ] ! P [ Q ] | { P | ] E } { } ..&.O.O...~ ..../ / / %./ %.`.%.%.! { } { } ! ! ! { *.%.%.`.`..XoX$X1X#X,X,X,X#XOX`..X$XOX$X@X:X,X,X$X X..].X...*.X.{.XXoX@X:X:XXX:XoX.XoX*.oX X=. X=.{.XX..XXXX:X X|.|.|.&.o.| [ ]  .K Z Z Z S Z B n 2 2 1 4 1 c Z Z n n 2 4 M S S < S S c n ` D C 1 Z S L C ` S > 4 C C n n > 3 ; : - : , 4 C ",
"R R ^ ^ { ! ! Q P ] ] ] E [ ] ] E J { P H E R ~ P I H P J P P P H J J V J H V J Q Q P U P F J J E { { { } } ~ { } } ] H I I v m L b b Z K K L v m P Z F H H H R { { E P N P P N E ] { ! ! ! &.o.] ] ] I F P _ F b n m v F H ] I ] ] E E | ] v I P F F J E } &.! E J E { E E E V F P F N F E ^ Q P Q J G ] P H ] H J ] ! P ! ! V R { P V P ] E P J J Q ^ ~ ^ ..O.{ H J ! } ^ ! ^ W { ! ~ J R E J H { ^ H { E b N H H Q F J ] ] P [ { { o.o.o.....X.....`.{.`.%.%..X.X%.`. X X#X.X.XXX.X.X@X+X%.}. X X:XoXXX1X:X,X1X$X#X=X&X#X,X$X.X$XOX$X X.XXX.X#X:X*.`.%.%..X{.$X,X,X,X,X1X&X,X,X,X,X`.,X,X`..X{..X{.{.{.`.=.{.o.} &.] ] K S c S b n n < 1 1 2 Z 2 2 1 4 < C _ L ) ` 5 n n ) _ C ) _ K S _ ` C 1 S c n Z C D 5 > 4 4 n 4 D > ; : - : 2 C S ",
"E J J P E P P E ] P P J P ] I ] E E E ] ] ] Q ~ E I H ] E F P ] P F F I ] ] F I P Q P ] ] I F N F F F P H E ] ] ! } { P ] _ _ v  .I c K v I ) m H [ E H E P E I R ~ o.o.! [ } ] { o.{ ! { E &.{ E R { H P I P F m K K m m N I F Q J V N H F v F K m v F F F ] { | [ _ | ;.&.| [ { [ ] K I F E H v I P K S c < F m K ) _ m v E J H P F b m F A b I K F F P ] } &.] P N H P P H V F J E G v P L Z c L J G [ &.{ Q E E H H N { F H J ! ! ! ..{.&.$.`.`.=.[..X`.'.$XOX.XOX$X&X#X&X+X$X,X,X@X#X,X#X#X,X,X1XOX#X,X`. XXX`.oX`.XXXX$X.X}.].`.`.`.%.{._.XX@X{.}.XX}.:X1X@X,X,X$XXXXX@XoX&X@X$X XXX,X`. XoX|.;.o.] ] | [ P L P L K A 4 5 , 4 5 5 5 4 Z Z ) L C C L K K _ [ _  .) M A ) A L G Z S A n n n < 2 C 1 4 , 4 D , ; 3 C < C 5 4 3 3 ; > D S ",
"N v v K ) K F N F v F m F I m m N F K K K F P [ P H H ] P F P P J F F G P G F I Q P F I Q P F N P H v F v F G G J P F I P P | P  .] I ] Q } | ] } o.{ ! o.:.o.} } { ! { ! &.&...&.&.} { ~ E o.! ! ! o.] ] P E P K P K I I F H H { E F P E P F v m v b m N v N v ] ] F I E [ [ ] { ] [ P { } } H v F L n n K m Z m b m K m K I F I I F m K K m n b m b b I P { ^ E ! P F F K P K F F F F m n n C c n K v v | ;...o.} ! E E ] R ] E E ! ~ &.*.! =..XoX`..X$X[.OX$XOX+X&X+XOX.X#X$X$XOX[.`.@X,X$X$X@X$X$X`.`.`.*...=.$.=.`. X`.}.].]./ ..`.`.`..X}.[.$XoX:X:X@X:X#X XoX.X%.$.$.;. X`. XoX{.;.|.o.&.&.} { ] F m Z K S Z C n C A 4 n , 3 3 4 D S ` ` _  .` ) _ _ L L [ G _ L S ) ) Z K K c c A 4 < 1 2 2 S C 4 - - ; 7 : : > > D 5 5 3 - 3 > > D ",
"F m n Z I ) K K N v F F F K v b m v b b m m Z G F F F I F B G F F P P v v F F P U P P I P P F G U P I E F v B Z V v v I U I ] J E { ! ! ~ ~ ! ! ! } } ! ! } R ! ..{ { ..! ~ ..$.=.*.&.&.o...o.} { { o.{ } { } } | [ H H I H P E [ ] H ! { ! ] P P K v F F N F F V F b H E ! H J P N F H { { ..E F b m n m ) m I m b b m )  ._ I I E +.P P I P _ E +.m 2 b v E ! R ^ J V N K K b L Z Z C m < 2 M M < A m b E {.`.%.~ ..o.&.E { o.! { ....{.;.{ &.=.`. X@X,X#XXX.X].'.@X[.[.$X#X#X.X}.OX X X`.%.$X`..X$X{.%.X.*.*.{.%...=.{.*.}.$X}.].].@X.X$X:X@X#X#XoXXXXX{.{.=.} :.#.Q [ Q } #.} &.#.[ ] ] F F P Z c C M < 1 C n C M 4 C S A ) C 4 4 C A ) ` L U _ Y U Y L F _ U F L _ S L L C Z C 2 2 5 > > : 2 > C 4 4 : - - 3 3 3 : , C 3 3 3 3 4 > - C ",
") F n n m m K I P F P K K P K K K F F m A A F F K F G P F F I F b L _ F Z L F F G G P L P U J U G I I P F F P _ I v F F U Q P [ P ] { ! { ^ ^ E E ! ! ! { { J ! ..E R } ! ^ E ! } ~ o.&.&.&.o.o.! E ^ J ^ ! ! ! R ! E { } R H R Q ] J ! &.o.o.} E ! E { } ! E ] ! ! H E ! ! J ] | P E { ..! ..&.| v F _ ) K F _ N K N b m F F  .I { o.E R P E R E o.o.E ] E ! ~ ^ ^ J J E P N b G H H m F n b A m < A K K F ! %./ ^ ~ *.=.^ %.{.W *._._.XX&.;.o.`.*.{. X$X#X'.'.].*.XX`.`.$X$X}.`.%.`.=.=.*./ }..X! `.}.*._.*.*.=.`...{.}.`..X$X.X`.}.:XoXXX@XoXoX{.&.} ] ! { { P | _ P ] G L _ L _ K K Z K K m Z 1 > 5 4 3 3 7 3 4 C C C Z L ) C A M n n L U B G Y G U G L F P U Z K ) n n C C 4 , > > : > 4 : , , 4 1 4 > 3 3 3 5 5 ; > 4 > ; ; @.3 : , 7 ",
"F Z c c v m F K P F I I F P P ] P ] ] P K F F H K v F P G G I G c Z K K K m c S n c Z Z P ] P U J P ] ] P G F Z Z F _ )  ._ v I F K +._ E ! { E P E E E { E E Q ! H V E P I F I Q P ! ! ! ............! ......! ! o.! E ! R E } Q { ^ ! *.&.! } R ^ ! ~ ! R E { J ! E F E ! { o.} P | o.o.! ..&.*.! { o.] ! | } E o.{ { { ] E Q { ..o...*.=.&.O./ ..&...=.=.....%.`.*.&.=.*.o.! ..&.O.W { R F P F V J I | ! / X.&.....`.`./ `..X'.$X1X@X{.! ;.;.=.*.%.%.`.{.`.`.&.&.XX*.*..X.X{.].]..X`. XoX=.`.,XR *.,X`.%._.`.`.oX`.XX.X$X$X.X$X}.XXoX{.$.$.^ } Q P G Z Z K K L _ L K ) n C S C S C Z c n S C D 4 : 3 3 6 - 5 3 ; C S Z C L K L L C n n K Y F B G G L L #._ c L C n A 4 4 5 2 , > 5 5 > , D 7 ; 4 7 4 5 : 3 3 4 4 5 > , 4 4 3 ; 7 4 : 5 5 ",
"Z Z Z Z m m m F H v F F F F F P P E E P H F F F m v F P P G F F Z m m n n b b Z c b c v Z K K P F I P I F F P P F P K m I m b F m b K K N F P F N F N F E F P E ^ V v K F K K K P K H P H E E E { } o.~ ~ o...{ ! o...} { { { { { &.o.! ..} ^ &.E ^ ^ ^ R R ! ..R E ] H } } | | H F ] E { ! ! { ..~ ^ { E E o.} { o.E J E E ^ J W R R ^ ....X.*.X.! X...*.]./ / ..{.`.%.`. X X`..X.X}._.}.*.} &.o.~ ....{.{.}.}.{.{.{.XX[.`.$XOXOX'.$X`..X;.! N ^ } R ..&.X. X%.....{.&.&.{..X.X]..X:X=.$.oXoX{.oX.X X,XoX=. X@X.X,XoXoX.X:X:X.X{.=.=.*.&.~ [ G I F Z Z n < M M A ) S S S n M M C 4 4 D 1 1 C n D 3 - : 7 3 ; 6 3 - 1 ) L K P G ) ) K L L K K K G L Z Z Z ` ) n C 1 2 4 5 5 , : 1 4 , 4 4 > > D : , 4 4 4 > - ; > 4 7 4 4 C C 4 3 > C , > > ",
"L L F Z Z m m v I v v F F N v F P P H F J I G F K F I P U U G I B Z Z v m m b B m Z Z F F N F H v F P P F v F F v F H I P F F K F v K F v v F F N N b N ] ] ! ] } H v F K P K v K F m F N F F N P E Q ! ^ ! ! { ! { ! { { ! ! E { o.o.~ ! ! ..*.E E ! o.} ! o.o.} E P F H H F K v N P v J J H H ! ! R P F N I J V { } E H J E J { E E R R V R O.%./ %.X.X.%.%.%.! %./ ! X.].].X.`.`.].].'.}._.}.XX*.].`. X{.`.}.}..X$X@X+XXX#XOX%X'.$XX.&.o.[ | E E N R ..&..X`.`._. X`.{.{..X}..X`.=.^ J &.{.*.=.:X=.`.@X@X X{.*.{. X X{.XX{.&.{.:.o.[ U F Z Z Z C C ) A < M M A M A A C n C , 3 : 2 D 7 C D D 5 > - : 7 D 5 > 5 > < S L K P F Z L P _ ] U K L _ U L Z < c C C 1 n < > 5 > 3 > 4 C 4 4 D 4 1 C > > > 1 D C : : - 3 4 D 4 n C M 4 > C C 2 2 ",
"F Z m Z L ) P L P m b m K m b N P P F F F L I I _ _ ] P E ! P P Y F Z F F F v J F I F I P I P H F N F H P F P P E H ! E P I K I J F I K F H H E F I I P P E V ^ ] P H I F P G v P P m N m K K m G F J ! { ! J J ! R H H H H P H E E R } ..$.;.} E J J ! ^ ^ } [ E ] ] N b v N F v N E F ] R V I P E E I K I K K J { ;.o.O.|.;.&.o.o.o.o.o.{ } *._.].{.}.{._.}.`.X._.X.X._.X.X.O.%.%./ ! / X./ / o.o.X.%.`.`.%.`.%XOX$X.X.X X@X}.'.}.`.*.;.P m | &.E P R { {.`.`.'. X$X$X$X X$XOX`.%.=.{.&.;. X*.$...%.=.=..X=.$.&.o.&.o.{ &.&...! } Q ] L K )  .L L L  .) < M 5 L c C 4 2 , 4 ; : - > D 3 3 7 S > 5 5 3 4 4 5 < S S C K P L L G v ] P L U P K K L L _ L n Z K C c A 4 > 4 3 4 3 n C C C S S S C C 4 1 4 D S 3 7 5 4 5 D 4 A A M M 4 < S C < ",
"F v v c Z A m K K K K Z K F m I F F F N F P P F F F F P P J ! Q E P J H J H F I H E H E E F E H H F E P P I J E R { &.} ^ E ! P Q P Q [ P I { } E P { V E ^ J H H H E ! { } ] E ] ] P K K Z P L m Z F v F Q { J E I E E P ] P F N P J ..R ..o.} R E { ^ V V J H J J } } J J H E E R { ~ ..&.{ } } } } { } { ] o...W `.`.X.%.%.*.].'. X`.}.'._.$X'.}.OX$X:X$XOX'.}.$XXX`.`.{.*...o.....W ! ..! / o...%.`..X$X[.[.}.'.`. X`.].}.{.*.%.! ..o.F b K E { W W |.}._._.`.XX$X{..X.X.XXX.X=.{.;.|. X{.$.$.&.o.;.} &.=.~ { J P U _ ] | J +._ G [ P Z F +. .A K _ #.) D M D 4 3 : 3 3 3 ; : - - 3 3 5 > M 5 4 M n m A M < K L P _ _ P L L G U ] L Z _ K S c Z K Z G L S S C M 4 C 4 1 4 1 n n S S C K L S S 1 1 M A C 1 7 D 4 4 C n C A C 4 C n S C n ",
"F m m m m m c c m m K Z v m m m Z Z F F N F L v F F F G F V J J P E Q Q Q E J H E ! R ! ! J ] E E ! } { Q ! E J ! } &.} { ! { ] Q ! ] [ I P { ! E ] [ E ^ { ! E E J R ! R ! E Q { E ] F L G F J m Z F v v V ] { E P E ] P ] I H F F E } R E { { { { o.=...R E E ! R R } ! ..{ ] &.o...`.`.{.&.=.{.&.=.;.=.*.*.|.;.o._._.X.../ .XX.%.`.*.=.X.! X._.X./ _.}.'.]..X XXXXX.X.X X`.%.{._._.*.%.*.X...*.`.{.]..X#X#X+X.X`.`.`.`.%.{.`.X.*.....&.] H F { } E ! ..*.`.oX#X X.X.X*.$.{.{..X*.*.! &.&.&.} $.o.o.{ H { &.{ R F F F F L _ P ) F Z  .| P _  .) _ ] L )  .S M 4 > > - ; : 3 : ; : : > 5 4 < n C C K n m Z L S K ) I L F L L L _ G L P Z K m L Z c Z Y Z B Z ` K Z S S C c D C n C K L S C K L S C C A A C 4 4 4 4 < n A L C n A C n C Z C ",
"F F F F K K m Z L v Z L F F F m Z L F m F F Z G F F F L G F U Q P ] ] Q ] ] Q E ! ! ^ ^ ! ! { Q Q o.$.&.! } ! R E ! } } &.[ { o.E J P P F F Q J N P | &.Q ! ! ! } { { { R ^ E J R J P F H P J J F K F m m v F K F N v F v P I E { J R R H H E J H R W =.*.....o...! R ../ ......{.{.%.}.`.*...$.=.....%.*.%.*._.{.O..._.].X.].}...~ O.! E E V ! / W W ! %.'.%.}.`.[.[.[.+X+X.X[..X.X}..X.X}.}.*.*.{.}.].'.$X$X.X.X`.*.%.%...`._.} ..X...&.} { E J ! ! =.`.{.{.%.`..X`.&.o.} o.o.$.~ } ! } } J J ] J J ] G P } } o.] F Z Z K L _ K P Z F _ _ _ F Z +. ._ Z Z < M 4 2 > > ; : 5 - > 1 4 1 n C C n Z F ] I P L K Z F _ I F F I F Z F Z L _ F L m Z L c Z K K K G L _ K Y _ G Z L G S n C L K Z G L Z B Z S C Z C C 1 Z 1 c S L Z K C 4 C C Z Z ",
"F F N m F F Z Z L m m L F m m F m L Z v F F B P P I L I L Z G Y P E Q U Q Q E E Q Q Q J J Q Q U P Q Q o.~ ^ ! E E E ! ] o.! E { ! H H P F F P U N F E } } } { J J E ! ! E o.{ J E E H F J F E J K F v v F F F I N F F F H E I P { o.;.o.J V E J R E ( ^ } ..*.%.W } ..=.....%...*.{.`.]._...X.^ / ~ ^ / / W ! X.=.} / _.].%.`.%.o.~ ..W R ! R *._.X._.].{.@X'.].[.+X.X].[.OX'.%..XXX{.XXoXXX$X`.{.`.`.].].}.'.'.{.*.&./ *.%.`.`./ ~ X.&.&.! ..} R o...{._.{.{./ $.{.o.o.&.! Q Q } ! Q { P [ F F F P F L F L  . .{ ] P L K S c K L _ K L ` Z K Z Z _ Z [ _ Z n L 4 2 4 5 4 5 4 < c C L Z Z K K C P U &.{ ] ] P L F ] [ J P P I I Z Z U P F P G F G L Z v U [ G F U L G Y U G Z G S n c K K Z Z L Z B Z Z Z S S D n ) Z c C S Z S S C 1 C C S ",
"I I F F F F Z Z Z L L F V m N m m c Z F v v G Z F F Z Z Z c c v F F F G J F B F G G G F F G F F F G F U Q F P H P P P H ! E P Q { P P ] P F U U H V J ^ ^ ! &.! ! ! { ! ^ o.{ J } { E I P F P J E ] P H P P I ] I Q { I I H H H ! o.Q } ! ! &.{ E ! W ! ~ ....! W ....o.{ ..*.../ *.%.X._.X.&.^ W o.{ { ! ( W O.*._.X.].`.X.X.%...! *.....*...}.$X{.@X.X}.$X}.X.`.}.`.].}.$X}.%.`.`.%.`. X`.{.%.}.`.}.'.].].].'.=.&.*.%.}.`.}.XX&./ %._.{...*...&._.o.{...O.*...&.} E ] P F P F J J ] :.E | P I F +.] F F Z F  .[  .P P _ _ n Z K _ ) ` ` C A S m ) Z _ L Z L _ I K A n C n C S F L  .U Y U U L J { &.&.Q [ ] ] L ] | I P G P ] _ F U U U L G P L P L F U Y Z L P L Z L U Z Z Z C n c Z Z C Z Y K Z L F Z Z S Z n A C n n S C 2 D D 2 C c Z ",
"E ] P P P L L G L P G J Q P I F K v m F v m Z m v v b c n c c c c c v Z F v b v B B Z v v v b b b m F F I F P m F F J F P J J P P H P ] I G P G N N Q Q V R $.*.o.! ! ^ ! } o.o.{ E { P P E E E ^ o.{ ] E P H Q ] } :.Q P H E ] ..*.^ } W W ..$.} } ! E W ~ $.`.o.*.o.o.{ ..=.*...*...*.`.*.%.! } *.....o.W { O.XX`.X.`.}.%.%.`.X.X.`.%.]..X].OX,X`.XX'.`.`.}.].}.}.}.}.OXOX`.%.].`.%.`. X`.`.%.%.}.$XOX].%.%.].*.*.`.].OX}.}.$X{.`.XX$X$X`. X*.=.*.X.|.o.} ....[  .I Z L Z F Z L F F | F | | | E ] [ F P G b  .[ ] P F P _ Z Z Z S 8 , 7 4 n n n L  .] F L L ) ] [ ] P L Z F ) U ] #.[ Q  . .Q J { $.*.{ } ] P P P | U U P P P _ F U U  .U G _ U P U P G L L U _ Z Z Y L Z Z n Z Z n n Z Z Z S G Z K K Z Z Z B 4 n n n n L S 1 4 C 2 S n C ",
"I P F I P P P P ] G F P Q E E P P P N v K Z c m m Z n c n c n c c c c c B c v F v B F F v v v Z m N F F G F P K F L P H H F H F F N H P F F I F m m I P H Q { { &.E ! E E J E ! E H { E P ! { ! R ! J H H P J ! H H { ! R H E E ! } E } o._...&...} o...o.....=.=.|.|.{.*._.*.*._.`.%.`.}.].].%.{.{.o._.{._._.X.$X_.X.}..X}..X`.}..XOX'.OX$X.X$X#X'.].[. X{..X.X{.}.}.}.OX$X.X}. X$X}.}.$X.X.X.X`..X#X$XOX.X'.`.{.}.}.`.$X.X`.XX.X.X$X@X.X`.{._.*...} o.o.o.{ ] ] L F K  .n c _ F K F I I P P K J | } I ] ] P U ] [ :.] U _ L L C 1 : : 3 4 1 ` L L | | J | | ] { ] [ #.|  .[  . .Q [ } ] [ ] ] ] } Q o.{ } [ P ] U |  .Q  .U L P Y G J U [ L _ [ P U L G Y _ G Y Z B G L G Z c ) S n n S Z Z S Z C Z S G Z C Z 4 C M c c L ) L Z Z C S C n ",
"V V v V J G P P _ P J P V V E P ] P F F K A M b m A n b c c n n 2 < c c c c m Z B F F F F F L P I F N I F F F L K K I F F H E ! H v N I N b B Z m m K P F { P E ! R ! E E J E R ^ R ! ! J J ..^ J ! P ] ] E I E E V R ! R E P E R } o.! { O.W ..&.} { J E ..} =.]./ ..X...*.%.].%.].'.]..X].OXOX`.`.`..X'._.}.].'.}.`.`.$X$X'.`.'.$X.X]..X.X].`.'.]./ `.`.].%._. XoX.X`.`.OXXX[.oX:X.X}.XX}.{.XX@X}..XOX$X$XOX.XXX$X$X'..X}._.OX.X`.].'.].X.%.........! Q [ U F L c A K _ c c S m K b v P I I F E ;.o.o.} F  . .| ] } P ] | _ Z 2 C D 3 ; 3 5 ` [ [ #.| v Q &.{ :.} } ;.-.-.&.] [ Y Q } ] [ U P _ } ! ! ! Q #.] P U |  .B U P P P U P [ [ | Z L  .] P L L L F K ` G c F [ [ G Z _ ) S C S C Z L C C Z S S Z C L n S C c c Z K L Z C L S S c ",
"P K v F H F F F F F J J V F P K J V H I N F m 2 c Z Z m c b b c b b b m v v F G F P F U ] P Q Q { E J P F Z m m N F P I I E E ^ ] H H P I F F F v b m Z F Q ] ! } E } R W W } { ^ o.! } ! R } ! E :.{ P H R P J { E o.o.E } { J { R W W E o.=.! X...} O.( W ! X.~ ( ^ { ~ ..{.{.].[.'.[.$X].[.[.'.'.OX[.'.[..X'.OX'.'.].].OX].].'.'.OX].$X'.'.OXOX$X].%.{.{.{.{._.}.$XXX}..X.X_._.}.`.XXoX{..X%.}..X.X.XOX.X.X`.}.}.}.%.XXX.%._.].%.X.X.X...! { R { ] G U K Z n A M n Z C n c n P ] | F P [ Q H N Q o.|.| H G P $.} J Q Q  .[ P C 4 4 ; : - n ) U &.&.} Q o.*.*.{.;.$.-.&.#.-.{ Q { } { { ] Q P J } Q { ! ] E { U P P #.U P  .L G G G F ] U F L G  .U B Z Y C S G L S S _ L L Z Z K Z C L B c Z S S C S Z B Z L F G L ) < [ | G G G B Y [ B ",
"F P I F F H F m F v F P F v F _ v N I E P F v K L I G I L Z F F I F F P I J Q Q ! ! H Q { U Q { { { } } ]  .P F I I P F F E ! ^ E R J E E P E P N m P P P F J E } R E E ] { { { ^ &.{ } E } o.} E } E J P { { { ! R { *.} O.{ ! } ! } O.W } *...*.X..._./ O.X.%...W ^ ~ ....].].]..X.X.X[.[.$X#X+X+X+X[.[.+X#XOX#X#X#XOX.X$X.X[.'.OX$X'..X].X.'.'..X'..X$X{...~ X.*._._.`.}..X{.].].X.]..X.XXX`.}.XX.X`.`.`.XX}.`.`._._.}...X.`.%...^ ^ ..! { E H P v m Z C Z < b m < Z Z Z Z Z ] o.;.*.&.o.&.! J } ..&.o.| [ J Q } J { :.[  .] n 1 3 3 S 1 n +.] &.&.;.;.;.*.o.;.o.~ #.[ Q } Q Q { } Q ! E ! [ E } { ! J ] P { U U G [ :.G G Y U P I F ] U P Z F U #._ c G K Z G L Z Z [ [ P F Z K Z G ` Y Z B Z Z Z Z G Z U U G ] [ [ Z _ #.[ U Y Y G U  .",
"m K L v m F v b K I K K m b m F P m P I F I I P _ P J Q ] P Q Q { ! E { ] Q Q Q ! } R E Q R ^ { ! E ! ^ E { ] ] P I I F F { { ^ W E E ^ R J E R I F I P P F v H Q H E ! { W E ^ E } E ! J { { { E ! ! { ! ..O.o.! W W o./ ....*.`.*...`.*.].}.].].].X.}.`.`.'._.}.`.}.XX@X$X$X.X@X#X#X$X'.OX[.'.OX&X,X@X.XOX$X+X.XOX$X.X`..XXX`.].'.'.'..X].].}..X}.%.].`...! ..! / _._._.`.{._.`.`.%./ `.`.`.`.].`.`.X.X.%..X}._.X.X.=.=.....o.o.o.! E { R ] I H _ b F m Z m b b L v G F G K I R ~ *.{.*.o. X Xo.*.{.=.:.&.:.#.} &.[ Q :.&.|  .L 4 D D S C _ #.#.| [ ;.;.*.&.! &.! J Q U J U P J Q } E { { } [ P Q [ Q J [ J P L _ U Y #.#.G L [ P ] U Q P F K L L  .>.] L G L F P G L  .#.U P L L G G L _ P G Z L _ P Y P [ Q Q | U _ U U [ ! L L [ U [ :.",
"n A L v m K b m m K m A m n K P _ m P K c L F v I I G P ] Q ! ! ^ E E ! ! R E E J ! ^ R E J E { ! J R E J J H R P I P H H { ..^ { ! W ! E E E E P F v v v m N E } Q H R R W ! ..R H J J R H R ! { ! ! { R ~ O._.X...X.X.X.].].}.`.OX}.$X`.'.+X$X'.OX'.$XOXOXOX'.OX$X$X X$X$X$X#X}.'.$XOX.X,XOX'.`.oX#XXX`.].}..X`.'.[.[.].`..X`.X.].X.].]./ / ! X.X./ %.X.! R ~ X.X.].%.X.*._.{.`.*.`.X.*.*.X./ &.*.=.%...^ ..*._.%...{ { ! { ^ { *.o.{ E E E P E | F F N P H I F U V ] ! o.{ E } ..&.{.*.~ *.{.o.^ $.%.*.{ #.&.:.&.o.P ] &.#.| ` 1 > : , C  .P :. .P #.*.&.&.} o.! J U U P U P F ] #.} } ] ] ! Q Q [ [ U  .G F L U _ G F >.#.G Q U G I P G v L G L Y U P [ | | ! Q G G Q &.Q G L G G G B U Q U Y U | Q { } &.^ Q { J U [ [ } } Z G Y [ #.} ",
"< Z ) F F L m m I P F ) ) c c F S n c < M m 2 c Z F V F F F J J J R R E E H J E V R R E ! J J E ] P R ! E ! J R E E E I I E } ! ..W H R ! E E ^ H P F K F I v N } ! V H R { ....! J R W { H R ! ..} ..X.! ..X.`._._._._.'.].`.`..XXX].'.'.OX$X'.[.$X[.OX'.[.OX`.].}.`.X.`.`.'.$X`.%.oX X.X.X].%.%.].].].].].].'.'.].'..X].].}.{./ %./ %.%.%.X.W %.%.! / ! ! ..{._._._.X...%.*.*.|...X./ ..*.X.W ~ $.=.&./ ( ^ ..*.X...^ E R ! E ! &.=...^ } E { { &.| P J ..! *.} { o.|.o.;...{ |.X...&.%.....{. X/ ..$.=.} } [ |  .U Q E ]  .| A C 4 3 > n L | [ Q J } ;.&.&.} { { ] ] ] _ ] _ F P  .;.| J J } #.[ ] | Q U U P L G P G G U >.>.G U U ] Q F G K _ Y U P v J ! ! &.} { Q J } } Q Y G [ Q Q [ { [ } Q } Q } &.;.! } ! Q Q J { } &.L G Y [ &.Q ",
"b Z P F L ] F 2 N F F P P Z C C n 2 2 2 n K m m F I F F F F F H H E E ! E J E ! ! E E { } E J J E E R { } &...W } o.{ E E ! ....&.! ( R W E ^ ! { { E R H ] H J R } ! } ~ ..X.%...O.} o.o.} ....*...*.{.`.{.*.`.{.*._._.}.%.].].%.`.`.%./ X.`.*.].[.'.].%.%.`.%./ %...! %.$.%.=.%./ `.%.'.'.].]./ %.].].].X.%._.].%.`.}.].].}.$X].].'.}..X.XOX].].`.].}._.]._.XX}._.`.X.X._.X./ |.....} ! o...^ ^ ......%.~ / ..].*.*.} ~ R ..o.&._..X`.%.*.^ { ~ &. X..} =...=.{... X,X=..X&...XX;.o...&.*...*.|.=. X..} Q [ F U | F P Q U ] P A 5 5 S C n C +.P P U } ;.o.o.} Q [  .] _ P P P L F F | { Q J | ] Q U  .U I Q ] F F U U U Y U >.>.Y [ U [ J G Z U U U [ Q Q ^ ../ ..|.*.^ ^ #.#.[ Q #.} &.#.~ ~ ~ Q } ! } o.&.o.$.^ Q Q V Q { &.U F Q Q &.} ",
"F I I F G [ P b F _ F F F c n 2 - C > 2 `  .I E E ! E J J H U Q R } } { { ! } o.=.} } ..$.o.~ ^ ! ..{ *.&.&...W ..*.......O.*.].{._...X.X.X.X.*.../ ..O.o.o.O.O.~ =.=.].*.*.}..X_.}.*._._.%._.%..X].`.'._.}.`.}.}.`._._.`.X.=.%.$.%.*.! W ^ O.^ / X.X./ ! ! ~ ~ ^ ~ ! R ~ ^ ..=.*.$.%.%.`..X].]..X.X}.'.].X.].OX`.%.].'.'.}.}.#X$XXX#XOXOX.XOX'.}.}._.OX'.'.].{.}.`.}.X..._.*.%.&._._.|.*.{...~ &._.....|.*...o..X.X}.`.&...=.{.XX}.oX.X.X{...} ..} XX|...=...*..X..*.oX.X:XoX*.&.&.&.{. XoX`.*.$.=..X%.Q G  .` Z [ _ P P ] _ v D < C ` D n L ) U ] Q [ ;.} o.&.Q Q ] ] _ P F F P L F J P Q P U J J U ] U P P Q G G ] ] J U B #.9X>.U b ] [ G G [ &.} U } ;.&.$./ ..*.=.-.$.$.#.{ ! ~ Q &.&.Q { Q Q } } } ! Q $.{ J J ] Q U } ;. .G U Q &.} ",
"E P J F v F I m L P B F Z < 4 5 : - > 1 2 F } ^ { { E E E U [ &.! &.&.o.....&.*.=.$.%.$.$.`.{.$.*.|.X.{.%...`._./ '.].`.}.].].].].}.'.'.}.`.`.[.XX]..X{.`./ %.`.X.`._.{..X}.}.'.}..X}.{..X%..X`.{.`.'.'._.'.%._.{.{.*.*.%.$.%.! ~ ..|.^ ( H ! ! { ..o.} ! E E { ^ ....} o.~ ..{.$.*.%.*.`.OX.X@X#X@X$X@X$X`.]..X$X}..X}..XOX]..XOX]..X'.OX$X#X$X$X.X%.}.'._.%.`./ ]..X].X.`._.`.%.}.X.].{.@X`.`.%.`.%.*.oX_.*.$X$X:X$X}.`.}.{.`.}.`. X.X,X.X|.*.{... XXX} =.XX X{._.`.`.%.`. X{.=.=.$.*.$.`. X$.*.*.%.$.U Z ` ` 2 c #. .L ] P Z C C 4 5 S ` ) K P U J Q &.{ o.;.[ Q P U  .] F F G G F J P J P ] Q J Q P Q ] J J ] F P } Q U >.Y >.eX#.P [ Q [ _ J U [ [ [  X X../ %...} =.~ $.*.~ o.} ~ &. X} ;.$.^ ^ ! } Q J { ~ Q J [ [ V U } :. .F [ } Q ",
"H H I I F F H P P I H F m 6 5 3 6 4 n [ Y } } ~ ^ E E ! ^ ^ ..o.^ *.{.......%.%.[.%.%.%.=.%. X`.`.`.].}.`.{.`.{.].].'.[.+X].].`.`.].'.[.[.[.[..X.X[.'.].'.}.XX.X_.}._.}.@X'.$X[._.}.'.`..X].].]._.X._.%./ %.%.%.%...&.=.%...o.^ ] ! $.;.R E ! o.{ ~ ~ &.o.o.^ J &.{. X*.{.|.|.&.%.*.`.%..X X`.$X+X[..X#X,X'.%..X&X$XoX].{.+X_.}.OX].$X].[.OX$X#X%X}.%.]..XX.X.X.....%._..X}..X].}.$X].%.'.$X[.[.X.%.}.X.%...%.{.$X$X.X.X X@X.X..}.'.'.'.%XOXOX.X{.%.*.|.*.=. X`.`./ {.=.&.*..X=...{.&.*.} {.=...`.`.*.=.Q B Z C > 1 [ Q J | ] S Z ) < n A ` L Z P #.P U ] } ! { [ G  . .I P { F L G J Q ! { Q [ U J F J } Q Q U ] } R ^ ..^ &.~ U >XeX#.#.U ~ ^ Q Q } -.J >X>X~ ! / ..%.$.^ *.=.&.~ / $.~  X=.^ -.$.! ^ J o.^ J ~ J [ Q } J U [ { o.! Q &.&.",
"F F F P P H F H E E P H Z < 5 ; 3 , 1 L Q } o./ o.{ { o...} &.*.*.$.*.*.=.$.$.$.%.%.%.*.`.`. X`. X[.`.`.`.}.{.{.].].].].{._.X.X...].'.'.`.].}.oXXX+X[..X'. X`.{._.}.]..X}.]..X.X].`.].].'.].`.%._.X._...! / ~ { %.~ ! o.%.*.&.W J ! $.=.o...~ $.&...../ %.*.&.&.].`..X`..X{.{.*...%.`./ XX$XXX[.`.].'.].+XOX`.].OX.X[.].`..X].OX.X].OX].].'.'.%X$XOX].]..X%.X.X...X._.{.XX}.$X.X.X@X+X`.[.$X#X&X.X].$X`._.%.%.].OX#X.X$X'.{.}.{.`.].].].$X]..X}..X{. X*.o.o.{.XX*.*.&.{.`.! {.%...&...=.&.&...~ ~ %.%.&.} _ K C 4 C  .G [ G _ _ L ) 1 1 n S Z G I [ U G [ ] U J P V P U P E [ F P P U ! o.o.Q { [ Q J J [ ~ ~ ~ Q Q ! *.&.~ $.^ Y #.<X9X#._ } ^ :.Q } :.#.U  X$./ ! ^ {.`.^ ~ $.../ ~ ^ R -.~ R } $.{ } Q } &.V } Q U Q #.[ ] [ } o.! Q } &.",
"I H F K P P F F V J ! ] U Z C > 6 1 L [ ] J { $.o.! { o.! R ~ } o.~ o.&.&.~ ~ ~ $.=.$.$.=.*.{.=. X{._.%._.{.{.*.]._.%.*.*.*.! ! } .._.}.}.].*..X[..X'..X X}.*.{._.%./ ].X.%.%.%./ %.X.%.%.*.%...|.*.*...! ! W } ..R R &.{.`.=...W ~ *.`.{.|...../ ! %./ ].`.%.]./ %. X[.'.]..X$X..`.@X`.`.[.[. X%.%.`./ '.$X.X%.OX$X.X`.`.`.].].].].OX'.[.'.OX[.OX$XOX]..X`._.}.{.X.*.{.$X`.$X$X$X@X@X[.'.OX#X@X.X]..X%.X.%._.*.}.,X}.$X`..X$XXX}.}._._.}.]..X*.{.o.} ^ } } o. X{.;.&.! &.*.`.*.;.&.{ ~ ..} ....} } ! ^ { ] K S S S Z G  .L _ B ) L 1 2 1 S Z [ F P I H J ] ] [ ] P P Q ] ! { } P Q [ { $.} ~ &.#.[ P Q } #.&.=.{ $.....$...$.-.Y ^ -.<X9X#.>.~ Q | } {  .U <XoX$.%.H ~ =.*.$.~ ^ ~ $.^ ^ $.&.~ [ ;.{ } ~ ^ o.^ Q &.} { } Q E [  X&.{ ! ^ ~ ",
"P _ I v F P F F H J P F Z Z A 4 4 C L U [ J ] } } ! { o.{ ^ o.o.Q ^ } } } ~ } ^ ~ *.} } %.$.*.*.%.%.&...*.=.*.%.{.{._.{.{.=.} ! ~ ~ ...XoX*./ `.`.'.[.'.@X{.].`.}.%.X.*...%.X...W ..! ! ! / ! ! ....*.*.*...! *...} ..{..X}.`.*.O...`.`.*.{._./ ..%.XX`.].'.].OX}.].`.].].].'.[.`.`. XXX`.XX`.+X%./ *.$.].XXXX'.].OX.X[.[.[..X.X].'.OX[.'.].'.'.].%X$X[.$X$X*.{.$X`._.`.oX{.$X$X.X.X+X+X]._..X`..X+X$X].%.%.{.%.X.$X.X X%.}.OXOX}.`.}.OXX.].X.%.=.} Q R &.;.Q *.:.&.^ ^ =.o.O.=.;.&.! ! ....~ ..&.! Q R Q Q G K L ) Z L Z L [ Y C L ) D C Z B  .] [ { P v P P ] | } U J { &.} ^ Q { } Q } ~ } *.&.} Q } ~ } $.$.o.} $.$.^ ~ $.&.#.-.#.~ <X9X:.[ Q { &.Q b Q ;.<X$. X~ ~ =...~ =.$.^ ~ } ^ $.;.V B >X>X#.! } &.$.Q &.^ ^ &.} R ~ ;.$.$.$.Q ~ ",
"F P L Z F F B B H P P Z c n n 5 M C Z G P P P P P P E [ P J ! ^ Q J Q Q ~ } } R J ! Q } *.o...%.......O.*.&.*.*.*.%.%.%.`.%.....~ ! ..{.XX%./ `.`.{. X}.@X}.].`.`./ %.%.../ ../ ! O.! ! ! ../ / / ..`..X.XX.! *.%.{.{.}.'.'.].`.O.*.`.].! `.}.`.*.{.:X.X'.OX_.OX'.].`.].]._..X.X.X`.`.$X.X@X[.OX*./ %.`.%.XXOX$X].[.[.$X$X.X+X#XOXOX$X.X'.'.OX$X'.'.].%.OX:X%.X..X.X}.{.{.`.XX[.%.%..X#X].].].`.%.@X.X X{.%.`./ _.{.}.`.`.{.}. X]./ ].:X_._.$. X{.;.} J }  X^ } E ..&.! ..o.H { &.Q H } ....E o.} Q o.{ U [ L v F G _ Z c B [ [ C S S 4 1 Z B _ ! ! &.P J J Q U U #.} { } ! ^ ..&.} { Q o.o.} } &.} ^ } } $.~ ~ ^ $.%./ ~ $.R #.U $.;.#.>.<X9X_ $.} } { v G Q <X~ ^ ^ R $.$.^ ~ =.~ #.;.~ ~ <X#.B Y #.;.=.} ~ J #.&.R J =.&.J Q $.^ $.=.^ ! ",
"Z F m K K m v Z v K ) S 1 n 5 > > n Z F F F F F F I P P I J P P Q J J J Q Q Q J J Q E } *.&...&.&.&.o...*.X.%.*._.*.`.].`.`.`.=.=.=.].`.XX}.].]. X X*.*._.`.].}.[.%.`.`.*.%.*.X.} ../ / X.*.*._.`.`.'..XOX_./ `.`.}.*.}.'.].]..X_.}.`.].%..X}.XX{.`.XX$X'.OX'.}.'..X$X}.X.X.`.`. X`.+X@X$X+X[.+XXX.X[.XX]..X[.[..X'.'.&X#X'..X@X.X'.+X.X[.'.'.'.OX'.%./ `.@X_.].}.%...}.{.%.%.%.,.,.].$XX.].].`.%..XX.]..X*.}.}.`._.oX].*.`.`.`.}..X`.}.@X%.~ `.{.;.} E &.oX! ..H |.$.^ ! ..} J [ P V Q } o.^ } { J } [ P Q P F V P ] Z L Z Z U L ) L 1 1 Z B L J J { E P U ] U [ } U Q &.*.~ } &.{ ! Q o.*...^ } } ^ } &.$...~ ^ ^ $./ ~ $.} } Q ^ $.$.#.>.9X<X>.} -.U F v F >XoX! $.! Q &.&./ %.*.;.<XoX$. XP C ` #.oX{.~ &.} ~ } R H =.=.} ;.-.~ ^ #.Q } ",
"K Z b Z K m F Z b m C 1 - 1 5 5 4 n c c Z m m F v Z m F L G I E P P P E Q Q Q Q { { Q ! o.&.} &.*.=...o.&.%./ ..&.&.*.].%.%.*.*. X X`.`..XXX{.*. X{.%.....%.]..X].%.%.`.*.%.*.%.o.&.../ %.%.`.{.}.].].].}.OX}..X[.{.X.{.'._.%.XXXX}.'..X.X$X.XoX:XOX$XOX'..X$X@X_.'.}.`.`.}..X[.+X`..XOX#X&X+X+X$X#X#X#X[.[.[.'..X].`.#X#X[.OX&X$X'.+X@X$X.X].].'.].].].`.@X}._..X/ ( }..X*./ %.[.%.%..XX.`.`.%.*.].! ..X./ *.{...].@X}./ ! %.`.OX%.}.XX*.*.oX=..X$.&.;.:XoX~ &.&...! ~ ! *.{ E P Q Q Q } &.! R o.J E Q G G P _ E #. .P L L Z _ U  . .L S S c Z { { ] [ J P P G J o.Q J Q ;.&.~ { { } { { &...^ o.$.! ^ } } } ^ H R ! ^ $...R } | J =.J $.>.-.6X<XQ >.L L ) c >X5X&.} { ^ } ....^ *.&.&.$.$.;. .S G Q :X.X^ ! *.;.=.! J &.;.U [ =.{ J [ [ #.",
"L Z 2 m K Z G c v v Z 1 - , > 5 < 5 c n K n m K K K c Z L F V F F J P P ! Q ^ { } ] ^ ^ ! &.~ ..} &.~ } ..%.~ ! } O...*.%.*.%.%.%.%.=.`.`.`.`.*.`.`.{.*.*.X.`.}.].].`.XX*.%.*.`.{.=.../ %...%.]. X`.`.%.'.$X].X.`.$X_.`.`.}._.|.}.%..X@X}.`..X@X$X'.$XOX`.]..X X'..X.X'..XOXOX+X&X.X[.+X+X+X'.$X'.+X#X&XOX'.$XOX.X`.'.OX$XOX$X&X.X,.]..X+X$X].'..X`.X./ X..X}.`.OX%.W .X{.{.%.`.oX X{.}.X._.].%...%.*._.X./ ..X._.X.*.@X]...*.*.$X$X.X`.`.`.~ oX,X=.*...|...^ ..&.^ ^ $.o.;.E F #.[ [ R ^ ! ! ! o.Q ! U P P L L U } [ P L U L Z Y L B 1 L _ Z v P Q { ] [ P [ Q J { Q Q Q } } #.} } &.&.Q &.o.^ $.&.~ R } } $...] Q Q ^ o.~ ^ } Q R $.J J ;.$.;.9X<X>._ A M m _ oX|.|.&.J ^ ..{.( =.:.Q ~  X>X[ 1 2 | ,X*./ ! } $.-.~ R o. XY [ ~ Q J |  .] ",
"F [ v Z L K Z m Z Z c 1 4 4 : > < < c Z C c m Z L L m C Z L K I F I F F J ! ! E E E ! Q ^ ! ! } } ^ ~ ....%...R ^ ~ ..o.&.X.*.%./ X.%.X.X..._._.{.*.oX`..XX.%.}./ %.].'.%.X.%.].*.`.`. X{.../ / ]...X.].[.+X.X%.%.`.$...*.=./ {.{.%.}..X.X`.`. X.XOX$X$X_.]..X.X`.'.OX.X`.`. X@X#X[.`..X+X[.[.&X'.'.+X+X+X%X#X'.'.[.OX+X[.'.}.'. X].`.,..X@X'.'._.{.^ ! / *.{.%.%.%. X.X`.%.%.%.@X X}..X=./ %.`./ ..*.*.&.^ / ..%.*.`.}.{.~ ..;.XX.X{.@X%.=.*.oX,X X:.o.=.~ ^ &. X} ^ ;.#.<X&.P E ] } ! } ^ ^ o.} P E J F P P  .^ ~ ^ ] F L U v P [ Z Z _ L U G J R J Q } E } o.{ ! o.} ! ;.} ! ~ } o.{ ! o.~ ^ } o.! ! R ....$.:.! R ~ } ..R $.-.J Q { J ~ $.=.>.9X>XY ` 1 L L  X,X;.|.E } Q #.;.$.%.Q H &.;.V 5 2 :.>X~ R *.J } -.Q Q { &.v K [ #.Q Y G G ",
"b L K Z n Z K K L Z Z S n D 4 > M c Z Z c < c Z _ L C m Z P I F F F F F F P ! E E R Q R J R R Q J J ! } ..&...R ^ ~ ! / ....X.*.! ..X...X...*...X.*.{.*.].].%.*.%.].%.].X.%.%.`._.`._.{.{.*.%.X.{.*...%.].].`...} *.o.^ ! o...{.oX`.`.`.`.].*.`..X.X.X`.%.%.*.].`.].'.OX'.%.`.+X@X`.%.`.+X+X.XOX'.].`.[.+X&X#X]..X'.`.[.OX.X].'..X].%.`..X[.OX`.%.].X./ ..*.%.! {.}.$X$X`.%.].}..X`.`.}.%.,.%.`.%.X.X.*.XX$...%.X./ .X:X*.~ {.&._.`.`.:X{.^ oX;.oX~ E } =...&. X*.} J &.} >X&.F N ! &.{ ^ R ^ *.{ J ! } { H v ] *.&.} } G G U G J #.L m L U ] J Q { ~ Q } Q ! ! } E ! { ! &.o.o.~ Q ! { Q } } ~ ^ Q } ^ ! ^ ....&.} R ! ~ o.J } $.Q { { E ! ~ =.>.>.9XI.` Z Z L &. X|.:Xo.Q Q #.>XoX/ ! I [ ;. .> D Y <X*.o.&.Q ;.#.Q J ~ ;.b P >X:.G G G L ",
"c c L Z < Z Z m I I K Z Z K n n n m K Z c n c F P _ L Z m L F v F Z F H F H E ! J J E J J R R ^ Q J ! ! ! ..} ^ ! { ^ ^ ..~ ..*./ ..../ ~ ^ ..$./ *.*.%.X.].X.../ *.*.*.*.*.%.*.*.%...*.`._.*.X...%.! %.`.`.oX&.H ! ] H P ] ..o.*.=.*.`.*...X._.].`.].%..XOX`.`.`.].].}.'.%.%.%.[.[.].].`.[.`.].].].%.`.[.+X+X'.'..X[.'.OX'.%.}.].`.].[. X%..X.X`.../ R / `.{.$X$XXX X.X'.].'..X X`.`.`.`.%.`.}.`.`.].`.@X*.$.*.X...%..X`.`.{.*.%...`..X.X=.Q #.oX;.{ } &.} J F } &.{ } U  X#.v Q &.|.o.^ } Q &.} ! { Q E J H o.$.....;.{ [ { } Q } U Z L J Q ! E } &.Q Q ! ! } ^ R ^ { ^ } } ! } ^ Q } ~ } } ..Q ! o.^ ! ^ $.$.*.;.^ } ~ $.R ~ ^ ^ } | E ! ^ ^  X>.-.eX#.1 2 G J :.oX,XoXV v G :.oX^ { _ [ ;.>.4 C Y <X|.~ *.&. X-.#.Q &.;.F L ;.>.#.U Z Z ",
"K c L Z c K Z v F P F Z F L Z F m m I F m A F I F G P F F I P F Z v L P H H R ! R J Q ! ! Q ^ ^ } J ^ { ! ! { } { } ! ! ..! ! ........~ ~ R ..*.X.*.%.]...X.} / ! X.*.*.`.]...X.%.X./ X.%.*.].%.{ ..! %.=.*.;.o.P K P K P ] } o.o...~ *._.*.X.X./ %.].X.{.}.*.%.`.].].].`.`.%./ %.].`.].].'.`.].].[.].`.`.[.'.[.%.'.OX'.[.[.].}.%.].`.%. X`.%.#X,X`.*..._._.*..X.X X`.XX$X'.].%. X X{.`.`.`. X.X_.}.`.%. X`.*.%.O.}.].`._.*.~ X. X*.%..X.X{.$.^ ;.:Xo.Q &.>.| ] P } :.] J >.| J R *.oX*.~ } R } &.|.|.{ ^ ! Q o.&...%.{.} { J R } Q ] U ] H J } R { &.^ ^ ~ ~ $.^ ^ ^ Q R ! o.^ ! J J o.~ ! ^ R ! o.} } ^ } ..=.*. X..} $.$.~ ~ *.! } :.J J #.~ ~ oX$.>.eX#.T Y L | -.} oXQ c Z _  X#.| P U #. .4 - ` >X>X~ } >.;.>.>X#.&.&.F F U #.I.` C S ",
"C Z K L F Z F L F F G I F P H F L F G F v F K P J G J F I ] ] P F v I ] I H J ! ~ Q } { } ! Q Q ! J ! o.{ { { { { o.{ ! o.^ ^ ! ....~ ..&.~ ....%.*.X.].X.! ~ ! ........=.*./ X.%.%.X.*.%.%.`.`...X...~ ..| ! E Z m _  .| [ ] E ..*...*.*.X.*.{.*.{.oX`.].*.`.`.].}.`.%.`. X X`.].`.`.].`..X X%.]..X`.[.[.[.].].%.].[.`.'.@XXX`.`.]. X%.`.@X%. X$X%.`. XoX`.].`.+X$X`.[.[.].]. X[.{.`.`.`.`.`.'.*.`.`.%.`.{. X..W o.*.}.*.{...O.{.oX$.*.oXo.>X&.o. X{ J ] |  . .[ #.:.| P | P H {. X=.$.$.=.o.;.=. X|.} ^ { o.*.~ ! ~ ..! { R ~ } ! o.! ] Q ^ ^ ! ! } ^ ! ..^ #.$...R ^ J ! o.! { ^ J o.$.~ ! J ^ } ~ &.~ o.~ $.o.;.=./ =.%.$.$.$.^ { :.J V ~ $.^ R =.J >X9X` T c Z :.Q [ Z n ` C >.>X#._ G _ >.5 - C >.>X;.J oX#.U >.~ Q &.G ] P Z [ L Z A ",
"c c m K L v K _ F F I P J P F F L G G F F F K I E P P F F I ] Q ] F P Q P J J ! } ~ } ~ } ! E J ^ ^ o.o.{ o.o.{ { o.o.! } R W W ~ X.$...*.%.../ X.{.*.*.%.! } ! X.! / ..=.%./ o.%.%.]._.X.X.`.`.&.%.$.R E +.I Q S K ) K I I I E o.&.! X.].*.{.&.X.*.}.{.`.%. X`.].}.}.`.`.`. X#X.X[.`.].`..X'./ %. X`.`. X`.%.%.].].`.].].,X,X`.'.]. X*.$.oX.X%.oX`.`..X=.X.`._.`.$X+X+X+X`.%. X`.`.%.*.`.`.`.`.*.`.`.`.%.`.{.%.o.o.].{.$.`...R %.XX..^ `.&.;.;.Q } &.| _ +. .P  . .P #.| U Q ] ..;. X X*.} Q &.^ $.;.&.~ } &...o./ ^ ^ R ! R ~ } ! } Q ^ ^ ! R { Q } } } ..^ $.*.~ J ! Q ^ } } o.} R o.=.} o.^ Q } ~ &.#.} ^ } ~ *.{...`.$.$.~ $.} ! |.&.J ! ;.{.R ,.-.Q >X9XT 2 <  ._ #.S - 4 1  .[ v :.#.Z #.C 2 2  .>. X$.>X[ B [ U Q ;.| :.[ B ` T T S "
};
