/* XPM */
static char *_a1df9096ea045c7dbb921bc74b27908DsRohVsxcC2eNdGH[] = {
/* columns rows colors chars-per-pixel */
"612 408 256 2 ",
"   c #041113",
".  c #011C2C",
"X  c #011A27",
"o  c #011E32",
"O  c #051C36",
"+  c #0B112C",
"@  c #00242D",
"#  c #052427",
"$  c #012533",
"%  c #012935",
"&  c #01253B",
"*  c #012C3B",
"=  c #0A283A",
"-  c #01313F",
";  c #0A353B",
":  c #182E30",
">  c #2A3533",
",  c #162E12",
"<  c #324E30",
"1  c #31541A",
"2  c #506F33",
"3  c #516627",
"4  c #012C43",
"5  c #032B46",
"6  c #013342",
"7  c #01354A",
"8  c #013A4D",
"9  c #093849",
"0  c #023D52",
"q  c #023E59",
"w  c #073A53",
"e  c #14374D",
"r  c #233353",
"t  c #014255",
"y  c #02445B",
"u  c #0B445C",
"i  c #06485C",
"p  c #14465B",
"a  c #074952",
"s  c #334D4E",
"d  c #014B64",
"f  c #014E6A",
"g  c #084863",
"h  c #134B63",
"j  c #194C66",
"k  c #01516D",
"l  c #035368",
"z  c #1C536B",
"x  c #175269",
"c  c #015572",
"v  c #015A75",
"b  c #015D7A",
"n  c #095976",
"m  c #1B5773",
"M  c #074A74",
"N  c #23546C",
"B  c #28566B",
"V  c #2C5B74",
"C  c #275A76",
"Z  c #335D77",
"A  c #294F68",
"S  c #00627D",
"D  c #066779",
"F  c #0E6A77",
"G  c #2B627B",
"H  c #34627C",
"J  c #39657C",
"K  c #2F6C70",
"L  c #346454",
"P  c #4C5550",
"I  c #526E4E",
"U  c #6A7353",
"Y  c #526A6F",
"T  c #6D746F",
"R  c #525869",
"E  c #4C393C",
"W  c #996A59",
"Q  c #6D8F34",
"!  c #679127",
"~  c #708E4F",
"^  c #738D6D",
"/  c #6A9559",
"(  c #29937C",
")  c #8CAB30",
"_  c #8DAD51",
"`  c #899072",
"'  c #90AE6E",
"]  c #92A359",
"[  c #A9CB5F",
"{  c #ACD13D",
"}  c #005E9A",
"|  c #025996",
" . c #054C8E",
".. c #016583",
"X. c #006B85",
"o. c #016D8A",
"O. c #096988",
"+. c #00738C",
"@. c #017A8E",
"#. c #037386",
"$. c #01639E",
"%. c #076997",
"&. c #017691",
"*. c #007C94",
"=. c #017F98",
"-. c #087797",
";. c #16758E",
":. c #396984",
">. c #326D8A",
",. c #0066A1",
"<. c #006BA4",
"1. c #006EA9",
"2. c #0B6BA6",
"3. c #0071A7",
"4. c #0074AB",
"5. c #007BAE",
"6. c #077AA6",
"7. c #007DB0",
"8. c #077AB4",
"9. c #177CA9",
"0. c #2A6898",
"q. c #446C87",
"w. c #47738B",
"e. c #497794",
"r. c #557B96",
"t. c #53728C",
"y. c #607692",
"u. c #093E8B",
"i. c #008295",
"p. c #01849A",
"a. c #008A9D",
"s. c #068996",
"d. c #068F97",
"f. c #018EA1",
"g. c #0685A9",
"h. c #0092A3",
"j. c #0199A6",
"k. c #019BAA",
"l. c #0496A9",
"z. c #0182B3",
"x. c #0A87B4",
"c. c #1888B5",
"v. c #0499B6",
"b. c #168DAC",
"n. c #2C8EB9",
"m. c #258BB6",
"M. c #358DB7",
"N. c #3491BB",
"B. c #3C93BB",
"V. c #3994B7",
"C. c #2E8EB1",
"Z. c #03A7B8",
"A. c #03B6BA",
"S. c #0DAEAD",
"D. c #32B4B2",
"F. c #219B99",
"G. c #568499",
"H. c #6E8993",
"J. c #5888A8",
"K. c #4395BB",
"L. c #4C9ABD",
"P. c #4896BA",
"I. c #539CBD",
"U. c #5999B9",
"Y. c #4C8BB0",
"T. c #679AB7",
"R. c #769CB6",
"E. c #6C91AA",
"W. c #5AA5BB",
"Q. c #49B8B7",
"!. c #57B8B9",
"~. c #4BAEAE",
"^. c #67A3BD",
"/. c #78A5BB",
"(. c #66B9BA",
"). c #75B7B7",
"_. c #67A791",
"`. c #22C4B8",
"'. c #51C3BB",
"]. c #6EC4BC",
"[. c #56D6A6",
"{. c #07B2C6",
"}. c #28AAC6",
"|. c #569DC1",
" X c #4A9AC2",
".X c #5BA2C2",
"XX c #55B9C4",
"oX c #64A4C2",
"OX c #6BA7C4",
"+X c #74ABC3",
"@X c #79AAC3",
"#X c #67BAC4",
"$X c #79B6C6",
"%X c #75B5D2",
"&X c #6A9DC5",
"*X c #32C6C9",
"=X c #0EC6CC",
"-X c #59C6C6",
";X c #4ECACA",
":X c #68C6C6",
">X c #77C7C6",
",X c #70CED2",
"<X c #6ADAE2",
"1X c #8F928E",
"2X c #ACAC96",
"3X c #899AAC",
"4X c #87A8BA",
"5X c #94ACB9",
"6X c #99B3BC",
"7X c #8CAFB2",
"8X c #A7B8BC",
"9X c #B3B4B1",
"0X c #9AA392",
"qX c #C9B7AE",
"wX c #B4C5B9",
"eX c #92C5B0",
"rX c #CDC9B9",
"tX c #E2D5B3",
"yX c #86ACC3",
"uX c #85B5CC",
"iX c #8BB9CE",
"pX c #89B4C7",
"aX c #9BBCCB",
"sX c #97B8C6",
"dX c #8CBBD1",
"fX c #86B8D2",
"gX c #95BDD2",
"hX c #91ADC7",
"jX c #A6BCC5",
"kX c #B0BEC7",
"lX c #98BAE9",
"zX c #88C8C6",
"xX c #99C4CB",
"cX c #9BC3D3",
"vX c #8BD0D1",
"bX c #A8C3CA",
"nX c #B7C6C8",
"mX c #A7C7D4",
"MX c #B6CBD4",
"NX c #B7D3D5",
"BX c #A7D0E7",
"VX c #C7CBC8",
"CX c #CBD2CC",
"ZX c #D7D5CB",
"AX c #C8D4D6",
"SX c #D9D8D4",
"DX c #CECCCC",
"FX c #E3DCD4",
"GX c #E6D8CB",
"HX c #E8E4D7",
"JX c #F5EBD6",
"KX c #FCF9E9",
"LX c #F4F3ED",
"PX c #D4E1E3",
"IX c #CCBDC6",
"UX c #8B7B8C",
/* pixels */
"4.4.4.4.4.4.4.4.4.4.4.4.4.4.4.4.4.4.4.4.4.4.4.4.4.4.4.4.4.4.4.4.4.4.4.4.4.4.4.4.4.4.4.4.4.4.4.4.4.4.4.4.4.4.4.4.4.4.4.4.4.4.4.4.4.4.4.4.4.4.4.4.4.4.4.4.4.4.4.4.4.4.4.4.4.4.4.4.4.4.4.4.4.4.4.4.4.4.4.4.4.4.4.4.4.4.4.4.4.4.4.4.4.4.4.4.4.4.4.4.4.4.4.4.4.4.4.4.4.4.4.4.4.4.4.4.4.4.4.4.4.4.4.4.4.4.3.3.3.4.4.4.4.4.4.3.3.3.4.4.4.4.4.4.4.4.4.3.1.1.4.4.4.4.4.1.1.1.1.1.1.1.4.4.1.1.1.1.1.1.1.1.1.1.1.1.1.1.1.1.1.1.1.1.1.1.1.1.1.1.1.1.1.1.1.1.1.1.1.1.1.1.1.1.<.<.<.<.<.<.1.1.1.1.1.1.1.1.1.1.1.1.1.1.1.1.1.1.<.<.<.<.<.<.1.1.1.<.<.<.<.<.<.<.<.<.<.<.<.<.<.<.<.<.<.<.<.<.<.<.<.<.<.<.<.<.<.<.<.<.<.<.<.<.<.<.<.<.<.<.<.<.<.<.,.,.,.,.,.,.,.,.,.,.,.,.,.,.,.,.,.,.,.,.,.,.,.,.<.,.,.,.,.,.,.,.,.,.,.,.,.,.,.,.,.,.,.,.,.,.,.,.,.,.,.,.,.,.,.,.,.,.,.,.,.,.,.,.$.$.$.$.$.,.,.,.,.,.,.,.,.,.,.,.,.,.$.$.$.$.$.$.$.$.$.$.$.$.$.$.$.$.$.$.$.$.$.$.$.$.$.$.$.$.$.$.$.$.$.$.$.$.$.$.$.$.$.$.$.$.$.$.$.$.$.$.$.$.$.$.$.$.$.$.$.$.$.$.$.$.$.$.$.$.$.$.} } } } } } } } } } } } } } } } } } } } } } } } } } } } } } } } } } } } } } } } } } } } } } } } } } } } } } } } } } } } } } } } } } } } } } } } } } } } } } } } | | | | | | | | | | | | | | | | | | | | | | | | | | | | | | | | | | | | | | | | | | | | | | | | | | | | | | | | | | | | | | | | | | | | | | | | | | %.q ",
"4.4.4.4.4.4.4.4.4.4.4.4.4.4.4.4.4.4.4.4.4.4.4.4.4.4.4.4.4.4.4.4.4.4.4.4.4.4.4.4.4.4.4.4.4.4.4.4.4.4.4.4.4.4.4.4.4.4.4.4.4.4.4.4.4.4.4.4.4.4.4.4.4.4.4.4.4.4.4.4.4.4.4.4.4.4.4.4.4.4.4.4.4.4.4.4.4.4.4.4.4.4.4.4.4.4.4.4.4.4.4.4.4.4.4.4.4.4.4.4.4.4.4.4.4.4.4.4.4.4.4.4.4.4.4.4.4.4.4.4.4.4.4.4.4.4.4.4.3.3.4.4.4.4.4.3.4.3.4.4.4.4.4.4.4.4.4.3.1.1.4.4.4.4.4.1.1.4.1.1.1.1.4.4.1.1.1.1.1.1.1.1.1.1.1.1.1.1.1.1.1.1.1.1.1.1.1.1.1.1.1.1.1.1.1.1.1.1.1.1.1.1.1.1.<.<.<.<.1.<.1.1.1.1.1.1.1.1.1.1.1.1.1.1.1.1.1.1.<.1.<.<.<.<.1.1.1.<.<.<.<.<.<.<.<.<.<.<.<.<.<.<.<.<.<.<.<.<.<.<.<.<.<.<.<.<.<.<.<.<.<.<.<.<.<.<.<.<.<.<.<.<.<.<.,.,.,.,.<.<.,.,.,.,.<.<.<.<.,.,.,.<.<.,.<.,.<.<.,.,.,.,.,.,.,.,.,.,.,.,.,.,.,.,.,.,.,.,.,.,.,.,.,.,.,.,.,.,.,.,.,.,.,.,.,.,.,.,.$.$.$.$.,.,.,.,.,.,.,.,.,.,.,.,.,.,.$.$.$.$.$.$.$.$.$.$.$.$.$.$.$.$.$.$.$.$.$.$.$.$.$.$.$.$.$.$.$.$.$.$.$.$.$.$.$.$.$.$.$.$.$.$.$.$.$.$.$.$.$.$.$.$.$.$.$.$.$.$.$.$.$.$.$.$.$.$.} } } } } } } } } } } } } } } } } } } } } } } } } } } } } } } } } } } } } } } } } } } } } } } } } } } } } } } } } } } } } } } | } } } } } } } } } } } } } } } } } } } } } } } } | | | | | | | | | | } | | | | | | | | | | } | } | | | | | | | | | | | | | | | | | | | | | | | | | | | | | | | | | | | | | | | | | | %.q ",
"4.4.4.4.5.5.5.5.4.4.4.4.7.5.5.5.5.5.5.5.5.5.4.4.5.5.5.5.5.5.5.5.4.5.4.4.5.5.5.5.4.4.4.4.4.4.4.4.4.4.4.4.4.4.4.4.4.4.4.4.4.4.4.4.4.4.4.4.4.4.4.4.4.4.4.4.4.4.4.4.4.4.4.4.4.4.4.4.4.4.4.4.4.4.4.4.4.4.4.4.4.4.4.4.4.4.4.4.4.4.4.4.4.4.4.4.4.4.4.4.4.4.4.4.4.4.4.4.4.4.4.4.4.4.4.4.4.4.4.4.4.4.4.4.4.4.4.4.4.4.4.4.4.4.4.4.3.3.4.4.3.3.3.3.4.4.4.4.1.1.1.1.1.1.1.1.4.4.4.4.4.4.4.4.3.3.1.1.1.1.1.1.1.1.1.1.1.1.1.1.1.1.1.1.1.1.1.1.1.1.1.1.1.1.1.1.1.1.1.1.1.1.1.1.1.1.1.1.1.1.1.1.1.1.1.1.1.1.1.1.1.1.1.1.1.1.1.1.1.1.1.1.1.1.1.1.1.1.1.1.1.1.1.1.1.1.1.1.1.1.<.<.1.1.1.1.1.<.1.1.1.1.<.<.1.1.1.1.<.1.1.1.1.1.<.<.<.<.1.1.1.1.1.1.<.<.<.<.<.<.<.<.<.<.<.<.<.<.<.<.<.<.<.<.<.<.<.<.1.<.,.<.,.,.<.<.,.,.,.,.,.,.,.,.,.,.,.,.,.,.,.,.,.,.,.,.,.,.,.,.,.,.,.,.,.,.,.,.,.,.,.,.,.<.<.<.,.,.,.,.,.,.,.,.,.,.,.,.,.,.,.,.$.$.$.$.,.,.,.,.$.$.$.$.$.$.$.$.$.$.$.$.$.$.$.$.$.$.$.$.$.$.$.$.$.$.$.$.$.$.$.$.$.$.$.$.$.$.$.$.$.$.$.$.$.$.$.$.$.$.$.$.$.$.$.$.$.$.$.$.$.$.$.$.} } } } } } } } } } } } } } } } } } } } } } } } } } } } } } } } } } } } } } } } } } } } } } } } } } } } } } } } } } } } } } } } } } } } } } } } } } | | } } } } } | | | | | | | } } } | } | | | | | | } } } } } } } | | } | | | | | | | | | | | | | | | | | | | | | | | | | | | | | | | | | | | } | %.q ",
"5.5.5.5.7.7.7.7.4.4.4.4.7.7.7.7.5.5.5.5.5.5.4.5.5.5.5.5.5.5.5.5.4.4.4.4.5.5.5.5.4.4.4.4.4.4.4.4.4.4.4.4.4.4.4.4.4.4.4.4.4.4.4.4.4.4.4.4.4.4.4.4.4.4.4.4.4.4.4.4.4.4.4.4.4.4.4.4.4.4.4.4.4.4.4.4.4.4.4.4.4.4.4.4.4.4.4.4.4.4.4.4.4.4.4.4.4.4.4.4.4.4.4.4.4.4.4.4.4.4.4.4.4.4.4.4.4.4.4.4.4.4.4.4.4.4.4.4.4.4.4.4.4.4.4.4.4.4.4.4.4.4.4.4.4.4.4.4.4.4.4.4.4.4.4.4.4.4.4.4.4.4.4.4.3.1.1.1.1.1.1.1.3.3.3.3.3.3.3.3.3.3.3.3.3.3.3.3.3.3.3.3.3.3.3.1.3.3.3.3.3.3.3.3.1.1.1.1.1.1.1.1.1.1.1.1.1.1.1.1.1.1.1.1.1.1.1.1.1.1.1.1.1.1.1.1.1.1.1.1.1.1.1.1.1.1.1.1.1.1.1.1.1.1.1.1.1.1.1.1.1.1.1.1.1.1.1.1.1.1.1.1.1.1.1.1.1.1.1.1.1.1.1.1.<.<.<.<.<.<.<.<.<.<.<.<.<.<.<.<.<.<.<.<.<.<.<.<.1.1.1.1.<.<.<.<.<.<.<.<.<.<.<.<.<.<.<.<.,.<.,.,.<.,.<.<.<.<.<.<.,.<.,.,.<.,.<.<.<.<.<.<.<.<.<.<.,.,.,.,.,.,.,.,.,.,.,.,.,.,.,.,.,.,.,.,.,.,.,.,.,.,.,.,.$.$.$.,.,.,.,.,.,.,.,.,.,.,.$.$.,.,.,.,.,.,.,.,.,.,.,.,.,.,.,.,.,.,.,.,.$.$.$.$.$.$.$.$.$.$.$.$.$.$.$.$.$.$.$.$.$.$.$.$.$.$.$.$.$.$.$.$.} } } } } } } } } } } } } } } } } } } } } } } } } } } } } } } } } } } } } } } } } } } } } } } } } } } } } } } } } } } } } } } } } } } } } } } } } } } } } } } } } } } } } } } } } } } } } } } } } } } } } } } } | | | | | | | | | | | | | | | | | | | | | | | | | | | | | | | | } | %.q ",
"7.7.7.7.7.7.7.7.7.7.7.7.7.7.7.7.7.7.5.5.5.5.5.5.5.5.5.5.7.5.5.5.5.5.5.5.7.7.7.7.5.5.5.5.4.4.5.5.5.4.4.4.5.5.5.5.5.4.4.4.4.4.4.4.5.5.5.4.4.4.5.5.5.4.4.4.5.5.5.5.4.4.4.4.4.4.4.4.5.5.5.4.4.4.5.5.4.4.4.4.4.4.4.4.4.4.4.4.4.4.4.4.4.4.4.4.4.4.4.4.4.4.4.4.4.4.4.4.4.4.4.4.4.4.4.4.4.4.4.4.4.4.4.4.4.4.4.4.4.4.4.4.4.4.4.4.4.4.4.4.4.4.4.4.4.4.4.4.4.4.4.4.4.4.4.4.4.4.4.4.4.4.4.4.3.3.4.4.4.4.3.3.4.4.4.3.3.4.4.4.4.4.4.4.3.3.3.3.3.3.4.4.4.4.3.3.4.4.4.3.3.4.4.4.1.1.1.1.1.3.3.3.1.1.1.1.1.1.1.1.1.1.1.1.1.1.1.1.1.1.1.1.1.1.1.1.1.1.1.1.1.1.1.1.1.1.1.1.1.1.1.1.1.1.1.1.1.1.1.1.1.1.1.1.1.1.1.1.1.1.1.1.1.1.1.1.1.1.1.1.1.1.1.1.1.1.1.1.1.1.1.1.1.1.1.1.1.1.1.1.1.1.1.1.1.1.1.1.1.1.<.<.<.<.1.1.<.<.<.<.1.<.<.<.<.<.<.<.<.<.<.<.<.<.<.<.<.<.<.<.<.<.<.<.<.<.<.<.<.<.<.<.<.<.<.<.,.,.,.<.,.,.<.,.<.<.<.<.<.<.<.<.<.<.<.<.<.<.<.<.,.,.,.$.$.$.,.,.$.$.$.$.,.,.,.,.$.$.$.$.$.$.$.$.,.,.,.,.,.$.,.,.$.$.$.$.,.,.,.,.$.$.$.$.$.$.$.$.$.$.$.$.$.$.$.$.$.$.$.$.$.$.$.$.$.$.$.$.$.$.$.$.$.$.$.$.$.$.$.$.$.$.$.$.$.$.$.$.$.$.$.$.$.$.$.$.$.$.$.$.$.$.$.$.} } } } } } } } } } } } } } } } } } } } } } } } } } } } } } } } } } } } } } } } } } } } } } } } } } } } } } } } } } } } } } } } } } } } } } } } | | | | | | | | | | | | | | | | | | | | | | | | | | | | | | | | } | %.q ",
"7.7.7.7.7.7.7.7.7.7.7.7.7.7.7.7.7.7.5.5.7.7.5.7.7.5.5.5.7.7.7.7.7.7.7.7.7.7.7.7.7.7.5.5.4.4.5.5.5.4.4.4.7.7.7.7.5.5.4.4.5.5.5.5.7.7.5.7.4.4.7.7.5.4.4.4.7.7.7.7.5.5.4.4.5.5.5.5.7.7.5.7.4.4.7.7.4.4.4.4.4.4.4.4.4.4.4.4.4.4.4.4.4.4.4.4.4.4.4.4.4.4.4.4.4.4.4.4.4.4.4.4.4.4.4.4.4.4.4.4.4.4.4.4.4.4.4.4.4.4.4.4.4.4.4.4.4.4.4.4.4.4.4.4.4.4.4.4.4.4.4.4.4.4.4.4.4.4.4.4.4.4.4.4.3.3.4.4.4.4.3.3.4.4.4.3.3.4.4.4.4.4.4.4.4.4.4.4.3.3.4.4.4.4.3.3.4.4.4.3.3.4.4.4.4.4.4.4.3.3.3.3.1.1.3.3.3.3.3.3.3.3.3.3.1.1.3.3.4.3.4.4.4.4.4.4.4.4.3.3.4.4.4.4.1.1.1.1.1.1.1.1.1.1.1.1.1.1.1.1.1.1.1.1.1.1.1.1.1.1.1.1.1.1.1.1.1.1.1.1.1.1.1.1.1.1.1.1.1.1.1.1.1.1.1.1.1.1.1.1.1.1.1.1.1.1.1.1.1.1.<.<.<.<.1.1.<.<.<.<.1.1.<.<.<.<.1.1.1.1.1.1.1.1.1.1.<.<.<.<.1.1.<.<.1.1.1.1.<.<.<.<.<.<.<.<.<.<.<.<.<.<.<.<.<.<.<.<.<.<.<.<.<.<.<.<.<.<.<.<.<.<.<.<.<.,.<.<.<.<.,.<.<.<.<.<.,.,.,.,.,.,.,.,.,.,.,.,.,.,.,.,.,.,.,.,.,.,.,.,.$.$.$.$.$.$.$.$.$.$.$.$.$.$.$.$.$.$.$.$.$.$.$.$.$.$.$.$.$.$.$.$.$.$.$.$.$.$.$.$.$.$.$.$.$.$.$.$.$.$.$.$.$.$.$.$.$.$.$.$.$.$.$.$.$.$.$.$.$.$.$.$.$.$.$.$.$.$.$.$.$.$.$.$.$.$.$.$.$.$.$.$.$.$.$.$.} } } } } } } } } } } } } } } } } } } } } } } } } } } } } } } } } } } } } } } } } } } } } } } } } } } } } } } } } } } } } } } } } } } } } } } } } | %.q ",
"7.7.7.7.7.7.7.7.7.7.7.7.7.7.7.7.7.7.7.7.7.7.7.7.7.7.7.7.7.7.7.7.7.7.7.7.7.7.7.7.7.7.7.7.4.4.4.5.7.7.4.4.5.5.7.7.7.5.7.7.5.5.5.5.7.7.7.7.4.4.4.5.7.7.4.4.5.5.7.7.7.5.7.7.5.5.5.5.7.7.7.7.4.4.4.5.4.4.4.4.4.4.4.4.4.4.4.4.4.4.4.4.4.4.4.4.4.4.4.4.5.5.5.5.5.5.5.5.4.4.4.4.4.4.4.4.4.4.4.4.4.4.4.4.4.4.4.4.4.4.4.4.4.4.4.4.4.4.4.4.4.4.4.4.4.4.4.4.4.4.4.4.4.4.4.4.4.4.4.4.4.4.4.4.4.4.4.4.4.4.4.4.4.4.4.4.4.4.4.4.4.4.4.4.4.4.4.4.4.4.4.4.4.4.4.4.4.4.4.4.4.4.4.4.4.4.4.4.3.3.3.3.3.3.3.3.3.3.3.3.3.3.3.3.3.3.3.3.4.3.4.4.4.4.4.4.4.3.3.3.4.4.4.4.3.3.3.3.3.3.3.3.3.3.3.3.3.3.3.3.3.3.3.3.3.3.3.3.1.1.1.1.1.1.1.1.1.1.1.1.1.1.1.1.1.1.1.1.1.1.1.1.1.1.1.1.1.1.1.1.1.1.1.1.1.1.1.1.1.1.1.1.1.1.1.1.<.1.<.1.1.1.1.1.1.1.1.1.1.1.1.1.1.1.1.1.1.1.1.1.1.1.1.1.1.1.1.1.1.1.1.1.1.1.1.1.<.<.<.<.<.<.<.<.<.<.<.<.<.<.<.<.<.<.<.<.<.<.<.<.<.<.<.<.<.<.<.<.<.<.<.<.<.<.<.<.<.<.<.<.<.<.<.<.<.<.<.<.,.,.,.<.,.,.<.,.<.<.<.<.,.,.<.<.$.,.$.$.,.,.,.,.,.,.,.,.$.$.$.$.$.$.$.$.$.$.$.$.$.$.$.$.$.$.$.$.$.$.$.$.$.$.$.$.$.$.$.$.$.$.$.$.$.$.$.$.$.$.$.$.$.$.$.$.$.$.$.$.$.$.$.$.$.$.$.$.$.$.$.$.$.$.$.$.$.$.$.$.$.$.$.$.$.$.$.$.$.$.$.$.$.$.$.$.} } } } } } } } } } } } } } } } } } } } } } } } $.} } } } } } } } } } } } } } } } } } } } } } } } } } } } } } } } } } } } } } } } | %.q ",
"7.7.7.7.7.7.7.7.7.7.7.7.7.7.7.7.7.7.7.7.7.7.7.7.7.7.7.7.7.7.7.7.7.7.7.7.7.7.7.7.7.7.7.7.5.5.7.7.7.7.4.4.7.7.7.7.7.7.7.7.5.5.5.5.7.7.7.7.5.5.5.7.7.7.4.4.7.7.7.7.7.7.7.7.7.7.5.5.7.7.7.7.5.5.5.7.4.4.4.4.4.4.4.4.4.4.4.4.4.4.4.4.4.4.4.4.4.4.4.4.5.5.5.5.5.5.5.5.4.4.4.4.4.4.4.4.4.4.4.4.4.4.4.4.4.4.4.4.4.4.4.4.4.4.4.4.4.4.4.4.4.4.4.4.4.4.4.4.4.4.4.4.4.4.4.4.4.4.4.4.4.4.4.4.4.4.4.4.4.4.4.4.4.4.4.4.4.4.4.4.4.4.4.4.4.4.4.4.4.4.4.4.4.4.4.4.4.4.4.4.4.4.4.4.4.4.4.4.4.4.4.4.3.3.3.3.3.3.3.3.3.3.3.3.3.3.3.3.4.4.4.4.4.4.4.4.4.4.4.4.4.4.4.4.3.3.3.3.3.3.3.3.3.3.3.3.3.3.3.3.3.3.3.3.3.3.3.3.3.3.3.3.3.1.1.1.3.3.3.3.3.3.3.3.1.1.1.1.1.1.1.1.1.1.1.1.1.1.1.1.1.1.1.1.1.1.1.1.1.1.1.1.1.1.1.1.1.1.<.<.<.1.1.1.1.1.1.1.1.1.1.1.1.1.1.1.1.1.1.1.1.1.1.1.1.1.1.1.1.1.1.1.1.1.1.1.1.1.1.1.<.<.1.1.<.<.<.<.1.1.1.1.<.<.<.<.<.<.<.<.<.<.<.<.<.<.<.<.<.<.<.<.<.<.<.<.<.<.<.<.<.<.<.<.<.<.<.<.,.,.,.<.,.,.<.<.<.<.<.<.,.,.<.<.<.,.$.$.,.,.,.,.,.,.,.,.$.$.$.$.$.$.$.$.$.$.$.$.$.$.$.$.$.$.$.$.$.$.$.$.$.$.$.$.$.$.$.$.$.$.$.$.$.$.$.$.$.$.,.,.$.$.$.$.$.$.$.$.$.$.$.$.$.$.$.$.$.$.$.$.$.$.$.$.$.$.$.$.$.$.$.$.$.$.$.$.$.$.$.$.$.$.$.$.} } } } } } } } } } } } } } } } } } } } } } } } } } } } $.} } } } } } } } } } } } } } } } } } } } } } } } } } } } } } } } } } } } | %.q ",
"5.5.5.5.5.5.5.5.5.5.5.5.5.5.5.5.5.5.5.5.5.5.5.5.7.7.5.5.5.5.5.5.5.5.5.5.5.5.5.5.5.5.5.5.5.5.5.5.7.7.7.7.5.5.5.5.5.5.5.5.5.5.5.5.5.5.5.5.5.5.5.5.5.5.5.5.5.5.5.5.5.5.5.5.5.5.5.5.5.5.5.5.5.5.5.5.5.5.5.5.5.5.5.5.5.5.5.5.5.5.5.5.5.5.5.5.5.5.5.5.4.4.5.5.5.5.5.5.4.4.4.4.4.4.4.4.5.5.5.5.5.5.5.5.5.5.5.5.5.5.5.5.4.4.4.4.4.4.4.4.4.4.4.4.4.4.4.4.4.4.4.4.4.4.4.4.4.4.4.4.4.4.4.4.4.4.4.4.4.4.4.4.4.4.4.4.4.4.4.4.4.4.4.4.4.4.4.4.4.4.4.4.4.4.4.4.4.4.4.4.4.4.4.4.4.4.4.4.4.4.4.4.4.4.4.4.4.4.3.3.4.4.4.4.4.4.4.4.4.4.4.4.4.4.4.4.3.3.3.3.3.3.3.3.4.4.4.4.3.4.4.4.4.4.4.4.4.4.4.4.4.4.4.3.4.4.4.4.4.3.3.3.4.4.4.4.1.1.1.1.1.1.1.1.1.1.1.1.1.1.1.1.1.1.1.1.1.1.1.1.1.1.1.1.1.1.1.1.1.1.1.1.1.1.1.1.1.1.1.1.1.1.1.1.3.3.3.3.3.3.3.3.1.1.1.1.1.1.1.1.1.1.1.1.1.1.1.1.1.1.1.<.<.<.<.<.<.<.<.<.1.1.1.1.1.1.1.1.1.1.1.1.<.<.<.<.1.1.1.<.<.<.<.<.<.<.<.<.<.<.<.<.<.<.<.<.<.<.<.<.<.<.<.<.<.<.<.<.<.<.<.<.<.<.<.<.<.<.<.<.<.<.<.<.<.<.<.<.,.,.,.,.$.$.$.$.,.,.,.,.,.,.,.,.$.$.$.$.$.$.$.$.$.$.$.$.$.$.$.$.$.$.$.$.$.$.$.$.$.$.$.$.$.$.$.$.$.$.$.$.$.$.$.$.$.$.$.$.$.$.$.$.$.$.$.$.$.$.$.$.$.$.$.$.$.$.$.$.$.$.$.$.$.$.$.$.$.$.$.$.$.$.$.$.$.$.$.$.$.$.$.$.$.$.$.$.$.$.$.$.$.$.$.$.$.$.} } } } } } } } } } } } } } } } } } } } } } } } } } } } } } } } } } } } } } } } } } } | 2.q ",
"5.5.5.5.5.5.5.5.5.5.5.5.5.5.5.5.5.5.5.5.5.5.5.5.7.7.5.5.5.5.5.5.5.5.5.5.5.5.5.5.5.5.5.5.5.5.5.5.7.7.7.7.5.5.5.5.5.5.5.5.5.5.5.5.5.5.5.5.5.5.5.5.5.5.5.5.5.5.5.5.5.5.5.5.5.5.5.5.5.5.5.5.5.5.5.5.5.5.5.5.5.5.5.5.5.5.5.5.5.5.5.5.5.5.5.5.5.5.5.5.5.4.4.4.5.5.5.5.4.4.4.4.4.4.5.5.5.5.5.5.5.5.5.5.5.5.5.5.5.5.5.5.4.4.4.4.4.4.4.4.4.4.4.4.4.4.4.4.4.4.4.4.4.4.4.4.4.4.4.4.4.4.4.4.4.4.4.4.4.4.4.4.4.4.4.4.4.4.4.4.4.4.4.4.4.4.4.4.4.4.4.4.4.4.4.4.4.4.4.4.4.4.4.4.4.4.4.4.4.4.4.4.4.4.4.4.4.4.4.3.4.4.4.4.4.4.4.4.4.4.4.4.4.4.4.4.3.3.3.3.3.3.3.3.4.4.4.4.3.4.4.4.4.4.4.4.4.4.4.4.4.4.4.3.4.4.4.4.3.3.3.3.4.4.4.4.1.1.1.1.3.3.3.3.3.3.3.3.3.3.3.3.1.1.1.1.1.1.1.1.3.3.3.3.3.3.3.3.1.1.1.1.1.3.1.1.1.1.1.1.1.1.1.1.3.3.3.3.3.3.3.3.1.1.1.1.1.1.1.1.1.1.1.1.1.1.1.1.1.1.1.<.<.<.<.<.<.<.<.<.1.1.1.1.1.1.1.1.1.1.1.1.<.<.<.<.1.1.1.<.<.<.<.<.<.<.<.<.<.<.<.<.<.<.<.<.<.<.<.<.<.<.<.<.<.<.<.<.<.<.<.<.<.<.<.<.<.<.<.<.<.<.<.<.<.<.<.<.,.,.,.,.$.$.$.$.,.,.,.,.,.,.,.,.$.$.$.$.$.$.$.$.$.$.$.$.$.$.$.$.$.$.$.$.$.$.$.$.$.$.$.$.$.$.$.$.$.$.$.$.$.$.$.$.$.$.$.$.$.$.$.$.$.$.$.$.$.$.$.$.$.$.$.$.$.$.$.$.$.$.$.$.$.$.$.$.$.$.$.$.$.$.$.$.$.$.$.$.$.$.$.$.$.$.$.$.$.$.$.$.$.$.$.$.$.$.$.$.} } } } } } } } } } } } } } } } } } } } } } } } } } } } } } } } } } } } } } } } } } 2.q ",
"7.7.7.7.7.7.7.7.7.7.7.7.7.7.7.7.5.5.5.5.5.5.5.5.7.7.7.7.7.7.7.7.7.7.7.5.7.7.7.7.7.7.7.7.7.7.7.7.7.7.7.7.5.5.7.7.5.5.5.5.5.5.5.5.5.5.5.5.5.5.5.5.5.5.5.5.5.5.5.5.5.5.5.5.5.5.5.5.5.5.5.5.5.5.5.5.5.5.5.5.5.5.5.5.5.5.5.5.5.5.5.5.5.5.5.5.5.5.5.5.5.5.5.5.5.5.5.5.5.5.5.5.5.5.5.5.5.5.5.5.5.5.5.5.5.5.5.5.5.5.5.5.5.5.4.4.5.5.5.5.4.4.5.5.5.5.5.5.5.5.5.5.5.5.5.5.4.4.4.4.7.5.5.5.5.5.5.5.5.5.4.4.4.4.4.4.4.4.4.4.4.5.5.5.4.4.4.4.4.4.4.4.4.4.4.4.4.4.4.4.4.4.4.4.4.4.4.4.4.4.4.4.4.4.4.4.4.4.4.4.4.4.4.4.4.4.4.4.4.4.4.4.4.4.4.4.3.3.4.3.4.4.3.3.4.4.4.4.4.4.4.4.4.4.4.4.4.4.4.4.4.4.4.4.4.4.4.4.4.4.4.4.4.4.4.4.3.3.1.1.3.3.3.3.3.3.3.3.3.3.3.3.1.1.1.1.1.1.1.1.3.3.3.3.3.3.3.3.3.3.3.3.3.3.3.3.3.3.3.3.3.3.3.3.3.3.3.3.3.3.3.3.3.3.3.3.3.3.3.3.3.3.1.3.3.3.3.3.1.1.1.1.1.1.1.1.1.1.<.<.1.1.1.1.1.1.1.1.1.1.1.1.1.1.1.1.1.1.1.1.<.<.<.<.<.<.1.1.1.<.<.<.<.<.<.<.<.<.<.1.<.<.<.<.<.<.<.<.<.<.1.1.<.<.<.<.<.<.<.<.<.<.<.<.<.<.<.<.,.,.<.<.,.,.,.,.,.,.,.,.,.,.,.,.$.$.$.$.,.,.,.,.,.,.,.,.,.,.$.$.,.,.,.,.$.$.$.$.,.,.,.,.$.$.$.$.$.$.$.$.$.$.$.$.$.$.$.$.$.$.$.$.$.$.$.$.$.$.$.$.$.$.$.$.$.$.$.$.$.$.$.$.$.$.$.$.$.$.$.$.$.$.$.$.$.$.$.$.$.$.$.$.$.$.$.$.$.$.$.$.$.$.$.$.$.$.$.$.$.$.$.$.$.$.$.$.$.$.$.$.$.$.$.$.$.$.$.$.$.$.$.$.} } $.$.$.$.$.$.$.$.$.$.$.$.$.$.$.} %.q ",
"7.7.7.7.7.7.7.7.7.7.7.7.7.7.7.7.7.7.7.7.7.7.7.7.7.7.7.7.7.7.7.7.7.7.7.5.7.7.7.7.7.7.7.7.7.7.7.7.7.7.7.7.5.7.7.7.5.5.5.5.5.5.5.5.5.5.5.5.5.5.5.5.7.7.5.5.5.5.5.5.5.5.5.5.5.5.5.5.5.5.5.5.5.5.5.5.7.7.7.7.5.5.5.5.5.5.5.5.5.5.5.5.5.5.5.5.5.5.5.5.5.5.5.5.5.5.5.5.5.5.5.5.5.5.5.5.5.5.5.5.5.5.5.5.5.5.5.5.5.5.5.5.5.5.5.5.5.5.5.5.5.4.5.5.5.5.5.5.7.7.7.7.7.7.7.7.4.4.4.4.7.7.7.7.5.5.5.5.5.5.4.4.4.4.4.4.4.4.4.4.4.5.5.5.4.4.4.4.4.4.4.4.4.4.4.4.4.4.4.4.4.4.4.4.4.4.4.4.4.4.4.4.4.4.4.4.4.4.4.4.4.4.4.4.4.4.4.4.4.4.4.4.4.4.4.4.4.4.4.4.4.4.4.4.4.4.4.4.4.4.4.4.4.4.4.4.4.4.4.4.4.4.4.4.4.4.4.4.4.4.4.4.4.4.4.4.4.3.3.3.4.4.4.4.4.4.4.4.4.4.4.4.3.3.3.3.3.3.3.4.3.3.3.3.3.3.3.3.3.3.3.3.3.3.3.3.3.3.3.3.3.3.3.3.3.3.3.3.3.3.3.3.3.3.3.3.3.3.3.3.3.3.3.3.3.3.3.3.1.3.3.1.1.1.1.1.1.1.1.1.1.1.1.1.1.1.1.1.1.1.1.1.1.1.1.1.1.1.1.1.1.1.1.1.1.1.1.1.1.1.1.1.1.1.1.1.1.1.1.1.1.1.1.1.1.1.1.1.1.1.1.1.<.1.1.1.<.<.<.<.<.<.<.<.<.<.<.<.<.<.<.<.<.<.<.<.<.<.<.<.<.<.<.<.<.<.<.<.<.<.<.<.,.,.,.,.,.,.,.,.,.,.,.,.,.,.,.,.<.,.,.,.,.,.,.,.,.,.,.,.,.,.$.$.,.,.,.,.,.,.,.,.$.$.$.$.,.,.,.,.,.,.,.,.,.,.$.$.,.$.$.$.$.$.$.$.,.,.,.,.$.$.$.$.$.$.$.$.$.$.$.$.$.$.$.$.$.$.$.$.$.$.$.$.$.$.$.$.$.$.$.$.$.$.$.$.$.$.$.$.$.$.$.$.$.$.$.$.$.$.$.$.$.$.$.$.$.$.$.$.$.$.$.$.$.$.$.$.$.} %.q ",
"z.z.z.z.z.z.7.7.z.z.z.z.7.7.z.z.z.z.z.z.7.7.7.z.z.z.7.7.z.z.z.z.7.7.7.z.z.z.7.7.z.z.z.z.z.z.z.z.z.z.7.7.7.7.z.z.5.5.5.5.5.5.5.5.5.5.5.5.5.5.5.5.5.5.5.5.5.5.5.5.5.5.5.5.5.5.5.5.5.5.5.5.5.5.5.5.7.5.5.5.5.5.5.5.5.5.5.5.5.5.5.5.5.5.5.5.5.5.5.5.5.5.5.5.5.5.5.5.5.5.5.5.5.5.5.5.5.5.5.5.5.5.5.5.5.5.5.5.5.5.5.5.5.5.5.5.5.5.5.5.5.5.5.5.5.5.5.5.7.7.7.7.7.7.7.7.7.7.7.7.7.7.5.5.5.7.7.7.7.7.7.5.5.5.5.5.5.5.5.5.5.5.5.5.5.5.5.5.5.5.5.5.4.4.4.4.5.5.4.4.5.5.5.5.4.4.4.4.5.5.4.4.5.5.5.5.5.5.5.4.5.5.5.5.4.4.5.5.5.5.4.4.4.4.5.5.4.4.4.4.4.4.4.4.4.4.4.4.4.4.4.4.4.4.4.4.4.4.4.4.4.4.4.4.4.4.4.4.4.4.4.4.4.4.4.4.4.4.4.4.4.4.4.4.4.4.4.4.4.4.4.4.4.4.4.4.4.4.4.4.4.4.4.4.3.3.3.3.3.3.3.3.3.3.3.3.3.3.3.3.3.3.3.3.3.3.3.3.3.3.3.3.3.3.3.3.3.3.3.3.3.3.3.3.3.3.3.3.3.3.3.3.3.3.3.3.3.3.3.3.3.3.3.3.3.3.3.3.3.3.3.3.3.3.3.3.3.3.3.3.1.1.1.1.1.1.1.1.1.1.1.1.1.1.1.1.1.1.1.1.1.1.1.1.1.1.1.1.1.1.1.1.<.<.<.<.<.<.<.<.<.<.<.<.<.<.<.<.<.<.<.<.<.<.<.<.<.<.<.<.<.<.<.<.<.<.<.<.<.<.<.<.<.<.<.<.<.<.<.<.<.<.<.<.<.<.<.<.<.<.<.<.<.<.<.<.,.,.,.,.$.$.$.$.$.$.$.$.,.,.,.,.$.$.$.$.$.$.$.$.,.,.,.,.$.$.$.$.,.,.,.,.,.,.$.$.,.,.,.,.,.,.$.$.$.$.$.$.$.$.$.$.$.$.$.$.$.$.$.$.$.$.$.$.$.$.$.$.$.$.$.$.$.$.$.$.$.$.$.$.$.$.$.$.$.$.$.$.$.$.$.$.$.$.$.$.$.$.$.$.$.$.$.$.$.$.$.$.$.} 2.q ",
"z.z.z.z.z.z.z.z.z.z.z.z.7.7.z.z.z.z.z.z.z.z.z.z.z.z.7.7.z.z.z.z.7.7.7.z.z.z.7.7.z.z.z.z.z.z.z.z.z.z.7.7.7.7.z.z.7.7.7.7.7.7.7.7.7.7.7.7.7.7.5.5.7.5.7.7.7.7.7.7.7.7.7.7.7.7.7.7.7.7.7.7.7.7.7.7.7.7.7.7.7.7.7.7.5.5.5.5.5.5.5.5.5.5.5.5.5.5.5.5.5.5.5.5.5.5.5.5.5.5.5.5.5.5.5.5.5.5.5.5.5.5.5.5.5.5.5.5.5.5.5.5.5.5.5.5.5.5.5.5.5.5.5.5.5.5.5.5.7.7.7.7.7.7.7.7.7.7.7.7.7.7.7.7.7.7.7.7.7.7.7.7.5.5.5.5.5.5.5.5.5.5.5.5.5.5.5.5.7.7.7.7.5.4.5.5.5.5.5.4.5.5.5.5.4.4.4.4.5.4.4.4.5.5.5.5.5.5.5.5.5.5.5.5.4.4.5.5.7.7.5.7.4.4.7.7.4.4.4.4.4.4.4.4.4.4.4.4.4.4.4.4.4.4.4.4.4.4.4.4.4.4.4.4.4.4.4.4.4.4.4.4.4.4.4.4.4.4.4.4.4.4.4.4.4.4.4.4.4.4.4.4.4.4.4.4.4.4.4.4.4.4.4.4.4.4.4.4.3.3.3.3.3.3.3.3.3.3.3.3.3.3.3.3.3.3.3.3.3.3.3.3.3.3.3.3.3.3.3.3.3.3.3.3.3.3.3.3.3.3.3.3.3.3.3.3.3.3.3.3.3.3.3.3.3.3.3.3.3.3.3.3.3.3.3.3.3.3.3.3.3.3.3.3.3.3.3.3.3.3.3.3.3.3.3.3.1.1.1.1.1.1.1.1.1.1.1.1.3.3.1.1.<.<.<.<.<.<.<.<.1.1.1.1.1.1.1.1.<.<.1.1.<.<.<.<.<.<.<.<.1.1.<.<.<.<.<.<.<.<.<.<.<.<.<.<.<.<.<.<.<.<.<.<.<.<.<.<.<.<.<.<.<.<.<.<.<.<.<.<.<.<.,.,.<.<.,.<.<.<.<.<.<.<.,.,.<.<.,.<.<.<.<.<.<.<.<.<.,.,.,.,.,.,.,.,.,.,.,.,.,.,.,.,.$.$.$.$.$.$.$.$.$.$.$.$.,.$.,.,.$.,.$.$.,.,.,.,.$.$.$.$.$.$.$.$.$.$.$.$.$.$.$.$.$.$.$.$.$.$.$.$.$.$.$.$.$.$.$.$.$.$.$.$.$.$.$.$.$.} 2.q ",
"z.z.z.z.z.z.z.z.z.z.z.z.7.7.7.z.z.z.z.z.z.z.z.z.z.z.7.7.z.z.z.z.z.7.z.z.z.z.7.7.z.z.z.z.z.z.7.7.z.z.z.z.7.z.z.z.z.z.z.z.7.z.z.z.z.z.z.z.z.z.z.z.7.z.z.z.z.z.z.z.z.z.7.7.7.5.z.z.z.z.7.7.5.7.7.7.7.7.7.7.z.z.z.7.5.5.5.5.5.5.5.5.5.5.5.5.5.5.5.5.5.5.5.5.5.5.5.5.7.7.7.7.7.7.7.7.5.5.5.5.5.5.5.5.5.5.5.5.5.5.5.5.5.5.5.5.5.5.5.5.5.5.5.5.5.5.5.5.7.7.7.7.7.7.7.7.7.7.7.7.7.7.7.7.7.7.7.7.7.7.7.7.5.5.5.5.5.5.5.5.5.5.5.5.5.5.5.5.5.5.7.7.5.4.5.5.5.5.4.4.4.5.5.5.5.5.5.5.5.5.4.4.5.5.5.5.5.5.5.5.5.5.5.5.4.5.5.5.7.7.7.7.4.4.4.7.5.5.5.5.5.5.4.4.5.5.5.5.5.5.5.5.4.4.4.4.4.4.4.4.5.5.5.5.4.4.4.4.5.5.5.5.5.5.5.5.4.4.4.4.4.4.4.4.4.4.4.4.4.4.4.4.4.4.4.4.4.4.4.4.4.4.4.4.4.4.4.4.4.4.4.4.4.4.4.4.4.4.4.4.4.4.4.4.3.3.3.3.4.4.4.4.4.4.4.4.4.4.4.4.4.4.4.4.4.4.4.4.3.3.3.3.3.3.3.3.3.3.3.3.3.3.3.3.3.3.3.3.3.3.3.3.3.3.3.3.3.3.3.3.3.3.3.3.3.3.3.3.3.3.3.3.3.3.3.3.3.3.3.3.3.3.3.3.3.3.3.3.3.3.3.3.1.1.1.1.1.1.1.1.1.1.1.1.1.1.1.1.1.1.1.1.1.1.1.1.1.1.1.1.1.1.1.1.<.<.<.<.<.<.<.<.<.<.<.<.<.<.<.<.<.<.<.<.<.<.<.<.<.<.<.<.<.<.<.<.<.<.<.<.<.<.<.<.<.<.<.<.<.<.<.<.<.<.<.<.<.<.<.<.<.<.<.<.<.<.<.<.<.<.<.<.<.<.<.<.<.<.<.<.<.<.<.<.<.<.,.,.,.,.,.,.,.,.<.<.<.<.<.<.<.<.<.<.<.<.<.<.$.$.$.$.$.$.$.$.,.,.$.,.,.,.,.,.,.,.,.,.,.,.,.,.,.,.,.,.,.,.,.,.,.,.,.,.,.,.,.,.$.$.2.y ",
"z.z.z.z.z.z.z.z.z.z.z.z.7.7.z.z.z.z.z.z.z.z.z.z.z.z.7.7.7.z.z.z.z.z.z.z.z.z.7.7.7.z.z.z.z.7.7.7.z.z.z.z.7.z.z.z.z.z.z.z.z.z.z.z.z.z.z.z.z.z.z.z.z.z.z.z.z.z.z.z.z.z.7.7.7.5.7.z.z.7.7.7.5.5.5.7.7.7.7.7.z.z.z.7.5.5.5.5.5.5.5.5.5.5.5.5.5.5.5.5.5.5.5.5.5.5.5.5.7.7.7.7.7.7.7.7.5.5.5.5.5.5.5.5.5.5.5.5.5.5.5.5.5.5.5.5.5.5.5.5.5.5.5.5.5.5.5.5.7.7.7.7.7.7.7.7.7.7.7.7.7.7.7.7.7.7.7.7.7.7.7.7.5.5.5.5.5.5.5.5.5.5.5.5.5.5.5.5.7.7.7.7.5.5.5.5.5.5.4.4.4.5.5.5.5.5.5.5.5.5.4.4.4.5.5.5.5.5.5.5.5.5.5.5.4.4.5.5.7.7.7.7.5.5.5.7.5.5.5.5.5.5.5.4.5.5.5.5.5.5.5.5.4.4.4.4.4.4.4.4.5.5.5.5.4.4.4.4.5.5.5.5.5.5.5.5.4.4.4.4.4.4.4.4.4.4.4.4.4.4.4.4.4.4.4.4.4.4.4.4.4.4.4.4.4.4.4.4.4.4.4.4.4.4.4.4.4.4.4.4.4.4.4.4.3.3.3.3.4.4.4.4.4.4.4.4.4.4.4.4.4.4.4.4.4.4.4.4.3.3.3.4.4.4.3.3.3.3.3.3.4.4.4.3.3.3.3.3.3.3.3.3.3.3.3.3.4.4.3.3.3.3.3.3.3.3.3.3.3.3.3.3.3.3.3.3.3.3.3.3.3.3.3.3.3.3.3.3.3.3.3.3.1.1.1.1.1.1.1.1.1.1.3.3.3.3.3.3.1.1.1.1.1.1.1.1.1.1.1.1.1.1.1.1.<.<.<.<.<.<.<.<.<.1.1.1.<.<.<.<.1.1.1.1.<.<.<.<.1.1.1.1.<.<.<.<.<.<.<.<.<.<.<.<.<.<.<.<.<.<.<.<.<.<.<.<.<.<.<.<.<.<.<.<.<.<.<.<.<.<.<.<.<.<.<.<.<.<.<.<.<.<.<.<.<.,.,.,.,.<.,.$.,.,.<.<.<.<.<.<.<.<.<.,.<.<.<.<.$.$.$.$.$.$.$.$.,.,.$.,.,.,.,.,.,.,.,.,.,.,.,.,.,.,.,.,.,.,.,.,.,.,.,.,.,.,.,.,.$.$.2.y ",
"x.8.8.x.8.g.g.g.g.g.g.g.g.5.g.g.z.z.z.z.z.z.z.z.z.z.z.z.z.z.z.z.z.z.z.z.z.z.g.g.z.z.z.z.7.7.z.z.z.z.z.z.z.z.7.7.z.z.z.z.z.z.z.z.z.z.z.z.z.z.z.z.z.z.z.z.z.z.7.7.z.z.z.z.7.z.z.z.z.z.z.z.z.z.z.z.7.7.7.7.7.7.7.7.7.7.7.7.7.7.7.7.7.7.7.7.7.7.7.7.7.7.7.7.7.7.7.7.z.z.z.z.z.z.7.7.7.7.7.7.7.7.7.5.5.7.7.7.7.7.7.7.5.7.7.7.7.7.7.7.7.7.7.7.7.7.7.7.5.5.5.5.5.5.5.5.5.5.5.5.5.5.5.5.5.5.5.5.5.5.5.5.5.5.5.5.5.5.5.5.5.5.5.5.5.5.5.5.5.5.5.5.5.5.5.5.5.5.5.5.5.5.5.5.5.5.5.5.5.5.5.5.5.5.5.5.5.5.5.5.5.5.5.5.5.5.5.5.5.5.5.5.5.5.5.5.5.5.5.5.5.5.5.5.5.5.5.5.5.5.5.5.5.5.5.5.5.5.5.5.5.5.5.5.5.5.5.5.5.5.5.5.5.5.5.5.5.5.5.5.5.5.5.5.5.5.5.5.5.5.5.5.5.5.5.5.5.5.5.5.4.4.4.4.4.4.4.4.4.4.4.4.4.4.4.4.4.4.4.4.4.4.4.4.4.4.4.4.4.4.4.4.4.4.4.4.4.4.4.4.3.3.3.3.4.3.4.3.3.4.4.4.4.4.4.4.3.3.3.3.4.3.4.3.4.4.4.4.3.3.3.3.4.4.4.4.3.3.3.3.3.3.3.3.3.3.3.3.3.3.3.3.3.3.3.3.4.4.4.3.3.3.4.4.3.3.3.3.3.3.3.3.3.3.3.3.3.3.3.3.1.1.1.1.1.1.1.1.1.1.1.1.1.1.1.1.1.1.1.1.1.1.1.1.1.1.1.1.1.1.1.1.1.1.1.<.<.<.<.<.<.<.<.<.1.1.1.1.<.<.<.<.1.1.1.1.<.<.<.<.1.1.1.<.<.<.<.<.<.<.<.<.1.1.1.<.<.<.<.<.<.<.<.<.<.<.<.<.<.<.<.<.<.<.<.<.<.<.<.<.<.<.<.<.<.<.,.,.,.<.<.<.<.<.<.<.<.<.,.,.,.,.,.,.,.,.,.,.$.$.$.$.$.,.,.,.,.,.,.,.$.$.$.$.,.,.,.,.$.$.$.$.,.,.,.,.,.,.,.,.$.$.$.$.$.$.$.$.,.$.2.d ",
"c.c.c.c.x.x.x.x.x.x.x.x.x.x.x.x.x.x.x.x.x.x.x.x.z.z.z.z.z.z.z.z.z.z.z.z.z.z.z.z.z.z.z.z.7.7.z.z.z.z.z.z.z.z.z.7.z.z.z.z.z.z.z.z.z.z.z.z.z.z.z.z.z.z.z.z.z.z.7.7.z.z.z.z.z.z.z.z.7.7.7.7.7.7.7.7.z.z.z.z.z.z.z.z.7.z.z.z.z.z.z.z.z.z.z.z.7.7.7.7.z.z.z.z.z.7.z.z.z.z.z.z.z.z.7.7.7.7.7.7.7.7.7.5.5.7.7.7.7.7.7.7.5.7.7.7.7.7.7.7.7.7.7.7.7.7.7.7.5.5.5.5.5.5.5.5.5.5.5.5.5.5.5.5.5.5.5.5.5.5.5.5.5.5.5.5.5.5.5.5.5.5.5.5.5.5.5.5.5.5.5.5.5.5.5.5.5.5.5.5.5.5.5.5.5.5.5.5.5.5.5.5.5.5.5.5.5.5.5.5.5.5.5.5.5.5.5.5.5.5.5.5.5.5.5.5.5.5.5.5.5.5.5.5.5.5.5.5.5.5.5.5.5.5.5.5.5.5.5.5.5.5.5.5.5.5.5.5.5.5.5.5.5.5.5.5.5.5.5.5.5.5.5.5.5.5.5.5.5.5.5.5.5.5.5.5.5.5.5.5.4.4.4.4.4.4.4.4.4.4.4.4.4.4.4.4.4.4.4.4.4.4.4.4.4.4.4.4.4.4.4.4.4.4.4.4.4.4.4.4.3.3.3.3.4.4.4.4.4.3.3.3.4.4.4.4.3.3.3.3.4.4.4.4.4.4.4.4.3.3.3.3.4.4.4.4.3.3.3.3.3.3.3.3.3.3.3.3.3.3.3.3.3.3.3.3.4.4.4.4.3.3.4.3.3.3.3.3.3.3.3.3.3.3.3.3.3.3.3.3.1.1.1.1.1.3.1.1.1.1.1.1.1.1.1.1.1.1.1.1.1.1.1.1.1.1.<.<.1.1.1.1.1.1.1.1.<.<.<.<.<.<.<.<.1.1.1.1.<.<.<.<.1.1.1.1.<.<.<.<.1.1.1.<.<.<.<.<.<.<.<.<.1.1.1.1.<.<.<.<.<.<.<.<.<.<.<.<.<.<.<.<.<.<.<.<.<.<.<.<.<.<.<.<.<.<.<.<.<.<.<.<.<.<.<.<.<.<.<.<.,.,.<.<.<.<.<.<.$.$.$.$.,.,.,.,.,.,.,.,.$.$.$.$.,.,.,.,.$.$.$.$.,.,.,.,.,.,.,.,.$.$.$.$.$.$.$.$.<.$.2.d ",
"c.c.c.c.c.c.c.c.c.c.c.c.c.c.c.c.c.c.c.c.c.c.c.c.c.c.c.c.c.c.c.c.x.x.x.x.x.x.x.x.z.z.z.z.z.z.z.z.z.z.z.z.z.z.z.z.z.z.z.z.z.z.z.z.z.z.z.z.z.z.z.z.z.z.z.z.z.z.z.z.z.z.z.z.z.z.z.z.z.z.z.z.z.z.z.z.z.z.z.z.z.z.z.z.7.7.z.z.z.z.z.z.7.7.z.z.7.7.7.7.z.z.z.z.z.z.z.z.z.z.z.z.z.z.z.z.z.z.z.z.z.z.z.z.7.7.z.z.z.z.z.z.7.7.z.z.z.z.z.z.7.7.z.7.7.7.7.7.7.7.7.7.7.7.7.7.7.7.7.7.7.7.7.7.5.5.5.5.5.5.5.5.5.5.5.5.5.5.5.5.5.5.5.5.5.5.5.5.5.5.5.5.5.5.5.5.5.5.5.5.5.5.5.5.5.5.5.5.5.5.5.5.5.5.5.5.5.5.5.5.5.5.5.5.5.5.5.5.5.5.5.5.5.5.5.5.5.5.5.5.5.5.5.5.5.5.5.5.5.5.5.5.5.5.5.5.5.5.5.5.5.5.5.5.5.5.5.5.5.5.5.5.5.5.5.5.5.5.5.5.5.5.5.5.5.5.5.5.5.5.5.5.5.5.5.5.5.5.5.5.4.4.4.4.4.4.4.4.5.5.5.5.5.5.5.5.4.4.5.5.5.5.5.5.4.4.4.4.4.4.4.4.4.4.4.4.5.5.5.5.4.4.4.4.4.4.4.4.4.4.4.4.4.4.4.4.4.4.4.4.4.4.4.4.4.4.4.4.4.4.4.4.4.4.4.4.4.4.4.4.3.3.3.3.3.3.3.3.4.4.4.4.4.4.3.3.4.4.4.4.3.3.3.3.3.3.3.3.3.3.3.3.3.3.3.3.3.3.3.3.3.3.3.3.3.3.3.3.3.3.3.3.3.3.3.3.1.1.3.3.1.1.1.1.1.1.1.1.1.1.1.1.1.1.1.1.1.1.1.1.1.1.1.1.1.1.1.1.1.1.<.<.1.1.1.1.1.1.1.1.1.1.1.1.1.1.1.1.1.1.1.1.1.1.1.1.1.1.1.1.<.<.<.<.1.1.1.<.<.<.<.<.<.<.<.<.<.<.<.<.<.<.1.1.<.<.<.<.<.<.<.<.<.<.<.<.<.<.<.<.,.,.,.<.<.<.<.,.,.,.,.,.,.<.<.<.,.,.<.<.,.,.,.,.,.,.<.<.,.,.,.,.<.<.<.<.<.<.<.<.$.,.,.,.,.,.,.,.<.$.2.d ",
"m.m.m.m.m.c.c.c.c.c.c.c.c.c.c.c.c.c.c.c.c.c.c.c.c.c.c.c.c.c.c.c.c.c.c.c.x.x.x.x.x.x.x.x.x.x.x.x.x.x.x.x.x.x.x.x.x.x.x.x.x.x.x.x.z.z.z.z.z.z.z.z.z.z.z.z.z.z.z.z.z.z.z.z.z.z.z.z.z.z.z.z.z.z.z.z.z.z.z.z.z.z.z.z.z.z.z.z.z.z.z.z.z.z.z.z.z.z.z.z.z.z.z.z.z.z.z.z.z.z.z.z.z.z.z.z.z.z.z.z.z.z.z.z.z.7.z.z.z.z.z.z.z.7.z.z.z.z.z.z.7.7.z.z.7.7.7.7.7.7.7.7.z.7.z.z.7.7.7.7.7.z.z.z.7.7.7.7.7.7.7.7.7.7.7.7.7.7.7.7.7.7.7.7.7.7.7.7.7.7.7.7.7.7.7.7.7.7.7.7.7.7.7.7.5.5.5.5.5.5.5.5.5.5.5.5.5.5.5.5.5.5.5.5.5.5.5.5.5.5.5.5.5.5.5.5.5.5.5.5.5.5.5.5.5.5.5.5.5.5.5.5.5.5.5.5.5.5.5.5.5.5.5.5.5.5.5.5.5.5.5.5.5.5.5.5.5.5.5.5.5.5.5.5.5.5.5.5.5.5.5.5.5.5.5.5.5.5.5.5.5.5.5.5.5.5.5.5.5.5.5.5.5.5.5.5.5.4.5.5.5.5.5.5.5.4.5.5.5.5.5.5.4.4.4.4.4.5.5.5.4.4.4.4.4.4.4.4.4.4.4.4.4.4.4.4.4.4.4.4.4.4.4.4.4.4.4.4.4.4.4.4.4.4.4.4.4.4.4.4.4.4.4.4.3.3.4.4.4.4.4.4.4.4.4.4.4.4.4.4.4.4.4.4.4.3.4.3.4.4.4.4.3.4.3.3.3.3.4.4.3.3.3.3.3.3.3.3.3.3.3.3.3.3.3.3.3.3.3.3.3.3.3.3.3.3.3.3.3.3.3.3.1.3.3.3.1.1.1.1.1.1.1.1.1.1.3.3.1.1.1.1.1.1.1.1.1.1.1.1.1.1.1.1.1.1.1.1.1.1.1.1.1.3.3.3.1.1.1.1.1.1.1.1.1.1.1.1.1.1.1.1.1.1.1.1.1.1.1.1.1.1.1.1.<.<.<.<.<.<.<.<.<.<.<.<.<.<.<.<.<.<.<.<.<.<.<.<.<.<.<.<.<.<.<.<.<.<.<.<.<.<.<.<.<.<.<.<.<.<.<.<.<.<.<.<.<.<.<.<.,.,.,.,.,.,.,.,.<.$.2.d ",
"m.m.m.m.m.m.m.m.m.m.m.m.m.m.m.m.c.c.c.c.c.c.c.c.c.c.c.c.c.c.c.c.c.c.c.c.c.c.c.c.c.c.c.c.c.c.c.c.c.c.c.c.c.c.c.c.x.x.x.x.x.x.x.x.x.x.x.x.x.x.x.x.z.z.z.z.z.z.z.z.z.z.z.z.z.z.z.z.z.z.z.z.z.z.z.z.z.z.z.z.z.z.z.z.z.z.z.z.z.z.z.z.z.z.z.z.z.z.z.z.z.z.z.z.z.z.z.z.z.z.z.z.z.z.z.z.z.z.z.z.z.z.z.z.z.z.z.z.z.z.z.z.z.z.z.z.z.z.z.z.z.z.z.7.z.z.z.z.z.z.z.z.z.z.z.z.z.z.z.z.z.z.z.z.7.z.z.z.z.z.z.z.z.z.z.z.z.z.z.z.z.z.z.z.z.z.z.z.z.z.z.z.7.7.z.z.z.z.z.z.z.z.z.z.5.5.5.5.5.5.5.5.5.5.5.5.5.5.5.5.5.5.5.5.5.5.5.5.5.5.5.5.5.5.5.5.5.5.5.5.5.5.5.5.5.5.5.5.5.5.5.5.5.5.5.5.5.5.5.5.5.5.5.5.5.5.5.5.5.5.5.5.5.5.5.5.5.5.5.5.5.5.5.5.5.5.5.5.5.5.5.5.5.5.5.5.5.5.5.5.5.5.5.5.5.5.5.5.5.5.5.5.5.5.5.5.5.5.5.5.5.5.5.5.5.5.5.5.5.5.5.5.5.5.5.5.5.5.5.5.5.5.5.5.5.5.5.5.5.5.5.5.4.4.4.4.5.5.5.5.5.5.5.5.5.5.4.4.5.5.5.5.5.5.4.4.5.5.5.5.4.4.4.4.4.4.4.4.4.4.4.4.4.4.4.4.4.4.4.4.4.4.4.4.4.4.4.4.4.4.4.4.3.3.3.3.3.3.3.4.3.3.3.3.3.3.3.3.3.3.3.3.3.3.3.3.3.3.3.3.3.3.3.3.3.3.3.3.3.3.3.3.3.3.3.3.3.3.3.3.3.3.3.3.3.3.3.3.3.3.3.3.3.3.3.3.3.3.3.3.3.3.3.3.3.3.3.3.3.3.3.3.3.3.3.3.3.3.3.3.1.1.1.1.1.1.1.1.1.1.1.1.1.1.1.1.1.1.1.1.1.1.1.1.<.<.<.<.<.<.<.<.<.<.<.<.<.<.1.1.<.<.<.<.<.1.<.<.<.<.<.<.<.<.<.<.<.<.<.<.<.<.<.<.<.<.<.<.<.<.<.<.<.<.<.<.<.<.<.<.<.<.<.<.<.<.<.<.<.$.2.g ",
"m.m.m.m.m.m.m.m.m.m.m.m.m.m.m.m.c.c.c.c.c.c.m.m.c.c.c.c.c.c.c.c.c.c.c.c.c.c.c.c.c.c.c.c.c.c.c.c.c.c.c.c.c.c.c.c.c.c.c.c.c.c.c.c.c.c.c.c.c.c.c.c.x.x.x.x.x.x.x.x.x.x.x.x.x.x.x.x.z.z.z.z.z.z.z.z.z.z.z.z.z.z.z.z.z.z.z.z.z.z.z.z.z.z.z.z.z.z.z.z.z.z.z.z.z.z.z.z.z.z.z.z.z.z.z.z.z.z.z.z.z.z.z.z.z.z.z.z.z.z.z.z.z.z.z.z.z.z.z.z.z.z.z.7.z.z.z.z.z.z.z.z.z.z.z.z.z.z.z.z.z.z.z.z.z.z.z.z.z.z.z.z.z.z.z.z.z.z.z.z.z.z.z.z.z.z.z.z.z.z.z.z.z.z.z.z.z.z.z.z.z.z.z.z.7.7.5.5.7.7.7.7.7.7.7.7.7.7.7.7.7.7.7.7.7.5.7.7.7.7.7.7.7.7.7.7.7.5.7.7.7.7.7.7.7.7.5.5.7.7.7.7.7.5.7.7.7.7.7.7.5.5.5.5.5.5.5.5.5.5.5.5.5.5.5.5.5.5.5.5.5.5.5.5.5.5.5.5.5.5.5.5.5.5.5.5.5.5.5.5.5.5.5.5.5.5.5.5.5.5.5.5.5.5.5.5.5.5.5.5.5.5.5.5.5.5.5.5.5.5.5.5.5.5.5.5.5.5.5.5.5.5.5.5.5.5.5.5.5.5.5.5.5.5.5.5.5.5.5.5.5.5.5.5.5.5.5.5.5.5.5.5.5.5.5.5.5.5.5.5.4.4.4.4.4.4.4.4.4.4.4.4.4.4.4.4.4.4.4.4.4.4.4.4.4.4.4.4.4.4.4.4.3.3.3.3.3.3.3.3.3.3.3.3.3.3.3.3.3.3.3.3.3.3.3.3.4.3.4.4.4.4.4.3.3.3.3.3.3.3.3.3.3.3.3.3.3.3.3.3.3.3.3.3.3.3.3.3.3.3.3.3.3.3.3.3.3.3.3.3.3.3.3.3.3.3.3.3.3.3.3.3.3.3.3.3.3.3.3.3.3.3.3.3.3.3.3.3.1.1.1.1.1.1.1.1.1.1.1.1.1.1.1.1.1.1.1.1.1.1.1.1.1.1.1.1.1.1.1.1.1.1.1.1.1.1.1.1.<.<.<.<.<.<.<.<.<.<.1.1.<.<.<.<.<.<.1.1.<.<.<.<.<.<.<.<.<.<.<.<.<.<.<.<.<.<.<.<.<.,.2.g ",
"n.n.n.m.m.m.m.m.m.m.m.m.m.m.m.m.m.m.m.m.m.m.m.m.c.c.m.m.m.c.c.c.c.c.c.c.c.c.c.c.m.m.m.m.c.c.c.m.m.m.m.m.m.m.m.m.c.c.c.c.c.c.c.c.c.c.c.c.c.c.c.c.c.c.c.c.c.c.c.c.x.x.c.c.c.c.c.c.x.x.x.x.x.x.x.x.x.x.x.x.x.x.x.x.z.z.z.z.z.z.z.z.z.z.z.z.z.z.z.z.z.z.z.z.z.z.z.z.z.z.z.z.z.z.z.z.z.z.z.z.z.z.z.z.z.z.z.z.z.z.z.z.z.z.z.z.z.z.z.z.z.z.z.z.z.z.z.z.z.z.z.z.z.z.z.z.z.z.z.z.z.z.z.z.z.z.z.z.z.z.z.z.z.z.z.z.z.z.z.z.z.z.z.z.z.z.z.z.z.z.z.z.z.z.z.z.z.z.z.z.z.z.z.z.z.z.z.z.z.z.z.z.7.7.7.7.z.z.z.7.z.z.7.7.7.7.7.7.z.z.z.z.z.z.z.z.7.z.z.z.z.z.z.z.z.z.z.z.z.z.z.z.7.z.z.z.z.z.z.z.5.5.5.5.5.5.5.5.5.5.5.5.5.5.5.5.5.5.5.5.5.5.5.5.5.5.5.5.5.5.5.5.5.5.5.5.5.5.5.5.5.5.5.5.5.5.5.5.5.5.5.5.5.5.5.5.5.5.5.5.5.5.5.5.5.5.5.5.5.5.5.5.5.5.5.5.5.5.5.5.5.5.5.5.5.5.5.5.5.5.5.5.5.5.5.5.5.5.5.5.5.5.5.5.5.5.5.5.5.5.5.5.5.5.5.5.5.5.5.5.5.5.5.5.5.5.5.5.4.4.5.5.5.5.5.5.4.4.4.4.4.4.4.4.4.4.4.4.4.4.4.4.4.4.4.4.4.4.4.4.4.4.4.4.4.4.4.4.4.4.4.4.4.4.4.4.4.4.4.4.4.4.4.4.4.4.4.4.4.4.4.4.3.3.3.3.3.3.3.3.3.3.3.3.3.3.3.3.3.3.3.3.3.3.3.3.3.3.3.3.3.3.3.3.3.3.3.3.3.3.3.3.3.3.3.3.3.3.3.3.3.3.3.3.3.3.3.3.3.3.3.3.3.3.3.3.3.3.3.3.3.3.3.3.1.1.1.1.1.1.1.1.1.1.1.1.1.1.1.1.1.1.1.1.1.1.1.1.1.1.1.1.1.1.1.1.1.1.1.1.<.<.1.1.1.1.1.1.1.1.1.1.1.<.<.<.<.1.<.<.<.<.<.<.<.<.<.<.<.<.6.g ",
"n.n.n.m.m.m.m.m.m.m.m.m.m.m.m.m.m.m.m.m.m.m.m.m.c.c.m.m.m.c.c.c.m.m.m.m.m.m.m.m.m.m.m.m.m.m.m.m.m.m.m.m.m.m.m.m.c.c.c.c.c.c.c.c.c.c.c.c.c.c.c.c.c.c.c.c.c.c.c.c.c.c.c.c.c.c.c.c.x.x.x.x.x.x.x.x.x.x.x.x.x.x.x.x.z.z.z.z.z.z.z.z.z.z.z.z.z.z.z.z.z.z.z.z.z.z.z.z.z.z.z.z.z.z.z.z.z.z.z.z.z.z.z.z.z.z.z.z.z.z.z.z.z.z.z.z.z.z.z.z.z.z.z.z.z.z.z.z.z.z.z.z.z.z.z.z.z.z.z.z.z.z.z.z.z.z.z.z.z.z.z.z.z.z.z.z.z.z.z.z.z.z.z.z.z.z.z.z.z.z.z.z.z.z.z.z.z.z.z.z.z.z.z.z.z.z.z.z.z.z.z.z.7.7.7.7.z.z.z.z.z.7.7.7.7.7.7.7.z.z.z.z.z.z.z.z.z.z.z.z.z.z.z.z.z.z.z.z.z.z.z.z.z.z.z.z.z.z.z.z.5.5.5.5.5.5.5.5.5.5.5.5.5.5.5.5.5.5.5.5.5.5.5.5.5.5.5.5.5.5.5.5.5.5.5.5.5.5.5.5.5.5.5.5.5.5.5.5.5.5.5.5.5.5.5.5.5.5.5.5.5.5.5.5.5.5.5.5.5.5.5.5.5.5.5.5.5.5.5.5.5.5.5.5.5.5.5.5.5.5.5.5.5.5.5.5.5.5.5.5.5.5.5.5.5.5.5.5.5.5.5.5.5.5.5.5.5.5.5.5.5.5.5.5.5.5.5.5.4.4.5.5.5.5.5.5.4.4.4.4.4.4.4.4.4.4.4.4.4.4.4.4.4.4.4.4.4.4.4.4.4.4.4.4.4.4.4.4.4.4.4.4.4.4.4.4.4.4.4.4.4.4.4.4.4.4.4.4.4.4.4.4.3.3.3.3.3.3.4.4.3.3.3.3.3.3.3.3.3.3.3.3.4.4.4.3.3.3.3.3.4.4.3.3.4.4.3.3.3.3.3.3.3.3.3.3.3.3.3.4.3.3.3.3.3.3.3.3.3.3.3.3.3.3.3.3.3.3.3.3.3.3.3.3.3.3.3.3.3.3.3.3.3.3.3.3.3.3.3.3.1.1.1.1.1.1.1.1.1.1.1.1.1.1.1.1.1.1.1.1.1.1.1.1.1.1.1.1.1.1.1.1.1.<.<.<.<.1.<.<.<.<.<.<.<.1.1.1.1.<.6.g ",
"M.C.n.N.N.m.m.B.n.n.n.n.n.n.n.n.m.m.m.m.m.m.m.m.m.m.m.m.m.m.m.m.m.m.m.m.m.m.m.m.m.m.m.m.m.m.m.m.m.m.m.m.m.m.m.m.m.m.m.m.m.m.m.m.m.m.m.m.m.m.m.m.m.m.m.m.m.m.m.m.c.c.c.c.c.c.c.c.c.c.c.c.c.c.c.c.c.c.c.c.c.c.c.c.c.c.c.c.c.c.c.c.x.c.c.x.x.x.x.c.x.x.x.x.x.x.x.x.x.x.x.x.x.x.x.x.x.x.x.x.x.z.z.g.z.z.z.z.z.z.z.z.z.z.z.z.z.z.z.z.z.z.z.z.z.z.z.z.z.z.z.z.z.z.z.z.z.z.z.z.z.z.z.z.z.z.z.z.z.z.z.z.z.z.z.z.z.z.z.z.z.z.z.z.z.z.z.z.z.z.z.z.z.z.z.z.z.z.z.z.z.z.z.z.z.z.z.z.z.z.z.z.z.z.z.z.z.z.z.z.z.z.z.z.z.z.z.z.7.7.7.7.7.7.7.7.z.z.z.z.z.z.z.z.z.z.z.z.z.z.z.z.z.z.z.z.z.z.z.z.7.7.7.7.7.7.7.7.z.z.z.z.z.z.z.z.z.z.z.z.z.z.7.7.z.z.7.7.z.z.z.z.7.7.7.7.7.7.7.7.7.7.7.7.7.7.7.7.7.7.7.7.7.7.7.7.5.5.5.5.5.5.5.5.5.5.5.5.5.5.5.5.5.5.5.5.5.5.5.5.5.5.5.5.5.5.5.5.5.5.5.5.5.5.5.5.5.5.5.5.5.5.5.5.5.5.5.5.5.5.5.5.5.5.5.5.5.5.5.5.5.5.5.5.5.5.5.5.5.5.5.5.5.5.5.5.5.5.5.5.5.5.5.5.5.5.5.5.5.5.5.5.4.4.4.4.4.4.4.4.4.4.4.4.4.4.4.4.4.4.4.4.4.4.4.4.4.4.4.4.4.4.4.4.3.3.4.3.3.3.3.4.4.4.4.4.3.3.3.3.3.3.4.4.4.4.4.4.3.3.3.3.4.3.4.3.4.4.4.4.3.3.3.3.4.3.3.4.4.4.4.4.3.3.3.3.3.3.3.3.3.3.3.3.3.3.3.3.3.3.3.3.3.3.3.3.3.3.3.3.3.3.3.3.3.3.3.3.3.3.3.3.1.1.1.1.1.1.1.1.3.3.3.3.3.3.3.3.1.1.1.1.1.1.1.1.1.1.1.1.1.1.1.1.1.1.1.1.1.1.1.1.<.<.<.<.1.1.1.1.<.<.<.<.<.<.<.<.2.1.6.M ",
"C.C.C.n.n.M.n.C.n.n.n.n.n.n.n.n.n.n.n.n.n.n.n.n.m.m.m.n.m.m.m.m.n.n.n.n.n.n.m.m.m.m.m.m.n.n.n.n.m.m.m.m.m.m.m.m.m.m.m.m.m.m.m.m.m.m.m.m.m.m.m.m.m.m.m.m.m.m.m.m.c.c.m.m.m.c.c.m.c.c.c.c.c.c.c.c.c.c.c.c.c.c.c.c.c.c.c.c.c.c.c.c.c.c.c.c.c.c.c.c.x.x.x.x.x.x.x.x.x.x.x.x.x.x.x.x.c.c.c.c.x.x.x.x.x.x.x.x.x.x.x.x.x.x.x.x.x.x.x.x.x.x.x.x.x.x.x.x.z.z.z.z.z.z.x.x.z.z.z.z.z.z.z.z.z.z.z.z.z.z.z.z.z.z.z.z.z.z.z.z.z.z.z.z.z.z.z.z.z.z.z.z.z.z.z.z.z.z.z.z.z.z.z.z.z.z.z.z.z.z.z.z.z.z.z.z.z.z.z.z.z.z.z.z.z.z.z.z.z.z.z.z.z.z.z.z.z.z.z.z.z.z.z.z.z.z.z.z.z.z.z.z.z.z.z.z.z.z.z.z.7.7.7.7.z.z.7.7.z.z.z.z.z.z.z.z.z.z.z.z.z.z.7.7.z.7.7.7.z.z.z.z.7.7.7.7.7.7.7.7.7.7.7.7.7.7.7.7.7.7.7.7.7.7.7.7.5.5.5.5.5.5.5.5.5.5.5.5.5.5.5.5.5.5.5.5.5.5.5.5.5.5.5.5.5.5.5.5.5.5.5.5.5.5.5.5.5.5.5.5.5.5.5.5.5.5.5.5.5.5.5.5.5.5.5.5.5.5.5.5.5.5.5.5.5.5.5.5.5.5.5.5.5.5.5.5.5.5.5.5.5.5.5.5.5.5.5.5.5.5.5.5.4.4.4.4.4.4.4.4.4.4.4.4.4.4.4.4.4.4.4.4.4.4.4.4.4.4.4.4.4.4.4.4.3.3.4.3.3.3.4.4.4.4.4.4.3.3.3.3.3.3.4.4.4.4.3.4.3.3.3.3.4.4.4.4.4.4.4.4.3.3.3.3.3.3.3.3.4.4.4.4.3.3.3.3.3.3.3.3.3.3.3.3.3.3.3.3.3.3.3.3.3.3.3.3.3.3.3.3.3.3.3.3.3.3.3.3.3.3.3.3.3.3.3.3.3.3.3.3.3.3.3.3.3.3.3.3.1.1.1.1.1.1.1.1.1.1.1.1.1.1.1.1.1.1.1.1.1.1.1.1.<.<.<.<.1.1.1.1.<.<.<.<.<.<.<.<.2.3.6.M ",
"B. XM.9.C.V.B.M.M.M.M.M.n.n.n.n.n.n.n.n.n.n.n.n.n.n.n.n.n.n.n.n.n.n.n.n.n.n.n.n.n.n.n.n.n.n.n.n.n.n.n.n.n.n.n.n.n.n.n.n.n.n.n.n.n.n.n.n.n.n.n.n.m.m.m.m.m.m.m.m.m.m.m.m.m.m.m.m.m.m.m.m.m.m.m.m.m.m.m.m.c.m.c.m.c.c.c.c.c.c.c.c.c.c.c.c.c.c.c.c.c.c.c.c.c.c.c.c.c.c.c.c.c.c.c.c.c.c.c.c.c.c.c.c.c.c.c.c.c.c.c.c.c.c.c.c.c.c.c.c.c.c.c.c.c.c.c.c.x.x.x.x.x.x.x.x.z.z.z.z.z.z.z.z.z.z.z.z.z.z.z.z.z.z.z.z.z.z.z.z.z.z.z.z.z.z.z.z.z.z.z.z.z.z.z.z.z.z.z.z.z.z.z.z.z.z.z.z.z.z.z.z.z.z.z.z.z.z.z.z.z.z.z.z.z.z.z.z.z.z.z.z.z.z.z.z.z.z.z.z.z.z.z.z.z.z.z.z.z.z.z.z.z.z.z.z.z.z.z.z.z.z.z.z.z.z.z.z.z.z.z.z.z.z.z.z.z.z.z.z.z.z.z.z.z.z.z.z.z.z.z.z.z.z.z.z.z.z.z.z.7.7.7.7.7.7.7.7.z.z.7.7.7.7.7.7.7.7.7.7.7.7.7.7.7.7.7.7.7.7.7.7.5.5.5.5.5.5.5.5.5.5.5.5.5.5.5.5.5.5.5.5.5.5.5.5.5.5.5.5.5.5.5.5.5.5.5.5.5.5.5.5.5.5.5.5.5.5.5.5.5.5.5.5.5.5.5.5.5.5.5.5.5.5.5.5.5.5.5.5.5.5.5.5.5.5.5.5.5.5.5.5.5.5.5.5.5.5.5.5.4.4.4.4.4.4.4.4.4.4.4.4.4.4.4.4.4.4.4.4.4.4.4.4.4.4.4.4.4.4.4.4.4.4.4.4.4.4.4.4.4.4.4.4.4.4.4.4.4.4.4.4.4.4.4.4.4.4.4.4.4.4.4.4.4.4.4.4.4.4.4.4.3.4.3.3.3.4.4.4.3.3.4.4.4.4.3.3.3.3.3.3.4.4.3.3.3.3.3.3.4.4.4.4.3.3.3.3.3.3.3.3.3.3.3.3.3.3.3.3.3.3.3.3.3.3.3.3.3.3.3.3.3.3.3.3.3.3.3.3.3.3.3.3.3.1.3.1.1.1.1.1.1.1.1.1.1.1.1.1.1.1.1.1.1.1.1.1.2.3.6.M ",
"9.n.B.B.B.B.M.m.M.B.M.M.M.M.M.M.M.M.M.M.M.n.M.M.M.M.M.M.M.M.M.M.M.M.M.M.M.M.M.M.M.M.M.M.M.M.M.M.M.M.M.M.M.M.M.M.n.n.n.n.n.n.n.n.n.n.n.n.n.n.n.n.m.m.m.m.n.n.n.n.n.n.n.n.n.n.n.n.m.m.m.m.m.m.m.m.m.m.m.m.m.m.m.m.c.c.c.c.m.c.c.c.c.c.c.c.c.c.c.c.c.c.c.c.c.c.c.c.c.c.c.c.c.c.c.c.c.c.c.c.c.c.c.c.c.c.c.c.c.c.c.c.c.c.c.c.c.c.c.c.c.c.c.c.c.c.c.c.c.c.c.c.c.c.c.c.x.x.x.x.x.x.x.x.x.x.x.x.x.x.x.x.x.x.x.x.x.x.x.x.z.z.z.z.z.z.z.z.z.z.z.z.z.z.z.z.z.z.z.z.z.z.z.z.z.z.z.z.z.z.z.z.z.z.z.z.z.z.z.z.z.z.z.z.z.z.z.z.z.z.z.z.z.z.z.z.z.z.z.z.z.z.z.z.z.z.z.z.z.z.z.z.z.z.z.z.z.z.z.z.z.z.z.z.z.z.z.z.z.z.z.z.z.z.z.z.z.z.z.z.z.z.z.z.z.z.z.z.z.z.z.z.z.z.z.z.z.z.z.z.7.7.7.7.7.7.7.7.z.z.7.7.7.7.7.7.7.7.z.z.7.z.7.7.7.7.7.7.7.7.7.7.7.7.7.7.7.7.7.7.7.7.7.7.7.7.7.7.7.7.7.7.7.7.7.7.7.7.7.7.7.7.7.7.7.7.7.7.7.7.7.7.5.5.5.5.5.5.5.5.5.5.5.5.5.5.5.5.5.5.5.5.5.5.5.5.5.5.5.5.5.5.5.5.5.5.5.5.5.5.5.5.5.5.5.5.5.5.5.5.5.5.5.5.5.5.5.5.5.4.4.5.5.5.5.5.5.5.5.5.5.5.5.5.4.4.4.4.4.4.4.4.4.4.4.4.4.4.4.4.4.4.4.4.4.4.4.4.4.4.4.4.4.4.4.4.4.4.4.4.4.4.4.4.4.4.4.4.4.4.4.4.4.4.4.3.4.4.4.4.4.4.4.4.4.4.4.3.4.4.4.4.4.4.4.4.4.4.4.3.4.4.4.4.3.3.3.3.3.3.3.3.3.3.3.3.3.3.3.3.3.3.3.3.4.4.4.3.3.3.3.3.3.3.3.3.3.3.3.3.3.3.3.3.3.3.3.3.3.3.3.3.1.1.1.1.1.1.3.1.1.1.1.1.1.1.1.1.2.3.5.M ",
"M.M.M.M.M.C.n.N.B.V.B.B.B.M.M.M.M.M.M.M.M.M.M.M.M.M.M.M.M.M.M.M.M.M.M.M.M.M.M.M.M.M.M.M.M.M.M.M.M.M.M.M.M.M.M.M.M.M.M.M.M.M.M.M.M.M.n.n.n.n.M.M.n.M.M.M.M.n.n.n.n.n.m.m.n.n.n.n.n.n.n.n.n.n.n.n.n.n.m.m.m.m.m.m.m.m.m.m.m.m.m.m.m.m.m.m.m.m.m.m.c.c.c.c.c.c.c.c.c.c.c.c.c.c.c.c.m.m.c.c.c.c.c.c.c.c.c.c.c.c.c.c.c.c.c.c.c.c.c.c.c.c.c.c.c.c.c.c.c.c.c.c.c.c.c.c.c.c.c.c.c.c.c.c.c.c.c.c.c.c.c.c.x.x.x.x.x.x.x.x.x.x.x.x.x.z.z.x.z.z.z.z.z.z.z.z.z.z.z.z.z.z.z.z.z.z.z.z.z.z.z.z.z.z.z.z.z.z.z.z.z.z.z.z.z.z.z.z.z.z.z.z.z.z.z.z.z.z.z.z.z.z.z.z.z.z.z.z.z.z.z.z.z.z.z.z.z.z.z.z.z.z.z.z.z.z.z.z.z.z.z.z.z.z.z.z.z.z.z.z.z.z.z.z.z.z.z.z.z.z.z.z.z.z.z.z.z.z.z.z.z.7.7.z.7.7.7.7.z.z.z.z.z.z.z.z.z.z.z.z.z.z.z.z.z.z.z.z.z.z.z.z.z.z.z.z.z.z.7.7.z.z.z.z.z.z.7.7.7.7.7.7.7.7.7.7.z.z.z.z.z.z.7.7.7.7.7.7.7.7.7.7.5.5.5.5.5.5.5.5.5.5.5.5.5.5.5.5.5.5.5.5.5.5.5.5.5.5.5.5.5.5.5.5.5.5.5.5.5.5.5.5.5.5.5.5.5.5.5.5.5.5.5.5.5.5.5.5.5.5.5.5.5.5.5.5.5.5.5.5.5.5.5.5.5.5.5.5.5.5.4.4.4.4.5.5.5.5.4.5.5.5.5.5.4.5.5.5.5.5.5.5.5.5.5.5.5.5.4.4.5.5.5.5.5.5.5.5.4.4.5.5.4.4.4.4.4.4.4.4.4.4.4.4.4.4.4.4.4.4.4.4.4.4.4.4.4.4.4.4.4.4.4.4.4.4.4.4.4.4.4.4.3.3.3.4.4.4.3.3.3.3.4.4.4.4.3.3.3.3.3.3.3.3.3.3.3.3.3.3.3.3.3.3.3.3.3.3.3.3.3.3.3.3.3.3.3.3.3.3.3.3.3.3.3.3.3.3.2.3.5.M ",
"lXuX/./.T.Y.M. XB.B.M.M.M.M.M.M.B.B.B.B.B.M.M.B.M.B.B.B.V.V.V.V.B.B.B.B.B.B.B.B.B.B.B.B.B.B.B.B.B.B.B.B.B.B.B.B.M.M.M.M.M.M.M.M.M.M.M.M.M.M.M.M.M.M.M.M.M.M.M.M.M.M.M.n.M.n.M.M.n.n.n.n.n.n.n.n.n.n.n.n.n.n.n.n.m.m.m.m.m.m.m.m.m.m.m.m.m.m.m.m.m.m.m.m.m.m.m.m.m.m.m.m.m.m.m.m.m.m.m.m.m.m.c.c.c.c.c.m.m.m.m.m.m.m.c.c.m.m.m.m.m.m.c.m.c.c.m.m.c.c.c.c.c.m.c.m.c.c.c.c.c.c.c.c.c.c.c.c.c.c.c.c.c.c.c.c.c.c.c.c.x.x.x.x.x.x.x.x.x.x.x.x.x.x.x.x.x.x.x.x.x.x.x.x.z.z.z.z.z.z.z.z.z.z.z.z.z.z.z.z.z.z.z.z.z.z.z.z.z.z.z.z.z.z.z.z.z.z.z.z.z.z.z.z.z.z.z.z.z.z.z.z.z.z.z.z.z.z.z.z.z.z.z.z.z.z.z.z.z.z.z.z.z.z.z.z.z.z.z.z.z.z.z.z.z.z.z.z.z.z.z.z.z.z.z.z.z.z.z.z.z.z.z.z.z.7.7.7.z.z.z.z.z.z.z.z.z.z.z.z.z.z.z.z.z.z.z.z.z.z.z.z.z.z.z.z.z.z.z.z.z.z.z.z.z.z.z.z.z.z.z.z.z.z.z.z.z.z.z.z.z.z.z.z.z.z.z.z.z.z.z.z.7.7.5.5.7.5.7.7.7.7.7.7.7.7.5.5.7.5.7.7.7.7.7.7.7.7.5.5.7.7.7.7.5.5.5.5.5.5.5.5.5.5.5.5.5.5.5.5.5.5.5.5.5.5.5.5.5.5.5.5.5.5.5.5.5.5.5.5.5.5.5.5.5.5.5.5.5.5.5.5.5.5.5.5.5.5.5.5.5.5.5.5.5.5.5.5.5.5.5.5.5.5.5.5.5.5.5.5.5.5.5.5.5.5.5.5.5.5.5.5.4.4.4.4.4.4.4.4.4.4.4.4.4.4.4.4.4.4.4.4.4.4.4.4.4.4.4.4.4.4.4.4.4.4.4.4.4.4.4.4.4.4.4.4.4.4.4.4.3.3.4.4.3.4.3.3.3.3.3.3.3.3.3.3.3.3.3.3.3.3.3.3.3.3.3.3.3.3.3.3.3.3.3.3.3.3.3.3.3.3.3.3.3.3.3.3.2.3.5.M ",
"VXVXSXPXPXaXT.>.M.M.M.M.M.B.B.B.B.B.B.B.B.B.B.B.B.B.B.B.B.V.V.V.B.B.B.B.B.B.B.B.B.B.B.B.B.B.B.B.B.B.B.B.B.B.B.B.V.V.B.B.B.B.N.B.N.V.V.V.B.B.B.B.M.N.V.V.M.M.M.N.M.M.M.M.M.M.M.M.n.n.n.n.n.n.n.n.n.n.n.n.n.n.n.n.n.n.n.n.n.n.n.n.n.n.n.n.n.n.n.n.m.m.m.m.m.m.m.m.m.m.m.m.m.m.m.m.n.n.n.m.m.m.m.m.m.m.m.m.m.m.m.m.m.m.m.m.m.m.m.m.m.m.m.m.m.m.m.m.m.m.m.m.m.m.m.m.m.m.m.m.m.m.m.m.m.m.m.m.c.c.c.c.c.c.c.c.c.c.c.c.c.c.c.c.c.c.c.c.c.c.c.c.c.c.c.c.x.x.c.c.c.c.c.c.x.x.x.x.x.x.x.x.x.x.x.x.x.x.x.x.x.x.x.x.x.x.x.x.x.x.x.x.x.x.x.x.z.z.z.z.x.x.x.x.z.z.z.z.z.z.z.z.z.z.z.z.z.z.z.z.z.z.z.z.z.z.z.z.z.z.z.z.z.z.z.z.z.z.z.z.z.z.z.z.z.z.z.z.z.z.z.z.z.z.z.z.z.z.z.z.z.z.z.z.z.z.z.z.z.z.z.z.z.z.z.z.z.z.z.z.z.z.z.z.z.z.z.z.z.z.z.z.z.z.z.z.z.z.z.z.z.z.z.z.z.z.z.z.z.z.z.z.z.z.z.z.z.z.z.z.z.z.z.z.z.z.z.z.z.z.z.z.z.z.z.z.z.z.z.z.z.z.z.z.z.z.z.z.z.z.z.z.z.z.z.z.7.7.7.z.z.z.7.7.5.5.5.5.5.5.5.5.5.5.5.5.5.5.5.5.5.5.5.5.5.5.5.5.5.5.5.5.5.5.5.5.5.5.5.5.5.5.5.5.5.5.5.5.5.5.5.5.5.5.5.5.5.5.5.5.5.5.5.5.5.5.5.5.5.5.5.5.5.5.5.5.5.5.5.5.5.5.5.5.5.5.5.5.5.5.5.5.5.5.5.5.4.4.5.5.5.5.5.5.5.5.5.5.4.4.5.5.5.5.5.5.5.5.5.5.5.5.5.5.4.4.4.4.4.4.4.4.4.4.4.4.4.4.4.4.4.4.4.4.4.4.4.4.4.4.4.4.4.4.4.4.4.4.4.4.4.4.4.4.3.3.4.4.4.4.3.3.3.3.3.3.3.3.3.3.3.3.3.3.3.3.3.3.2.3.5.M ",
"tXtXtXtXGXSXbXR.M.M.M.M.M.B.B.B.B.B.B.B.B.B.B.B.B.B.B.B.B.B.B.B.B.B.B.B.B.B.B.B.B.B.B.B.B.B.B.B.B.B.B.B.B.B.B.B.B.B.B.B.B.B.B.B.B.B.B.B.B.B.B.B.V.V.V.V.B.B.B.B.N.N.N.N.N.N.N.N.N.N.N.N.N.N.N.N.n.n.n.n.n.n.n.n.n.n.n.n.n.n.n.n.n.n.n.n.n.n.n.n.n.n.n.n.n.n.n.n.m.m.m.m.m.m.m.m.n.n.n.n.n.m.m.m.m.m.m.m.m.m.m.m.m.m.m.m.m.m.m.m.m.m.m.m.m.m.m.m.m.m.m.m.m.m.m.m.m.m.m.m.m.m.m.m.m.m.m.m.m.m.m.m.c.c.c.c.c.c.c.c.c.c.c.c.c.c.c.c.c.c.c.c.c.c.c.c.c.c.c.c.c.c.c.c.c.c.c.c.x.c.c.c.c.c.c.c.c.c.c.c.x.c.c.c.c.c.c.c.x.x.x.x.x.x.x.x.x.x.x.x.x.x.x.x.z.z.z.z.z.z.z.z.z.z.z.z.z.z.z.z.z.z.z.z.z.z.z.z.z.z.z.z.z.z.z.z.z.z.z.z.z.z.z.z.z.z.z.z.z.z.z.z.z.z.z.z.z.z.z.z.z.z.z.z.z.z.z.z.z.z.z.z.z.z.z.z.z.z.z.z.z.z.z.z.z.z.z.z.z.z.z.z.z.z.z.z.z.z.z.z.z.z.z.z.z.z.z.z.z.z.z.z.z.z.z.z.z.z.z.z.z.z.z.z.z.z.z.z.z.z.z.z.z.z.z.z.z.z.z.z.z.z.z.z.z.z.z.z.z.z.z.z.z.z.z.z.7.7.7.z.z.z.7.7.5.5.5.5.5.5.5.5.5.5.5.5.5.5.5.5.5.5.5.5.5.5.5.5.5.5.5.5.5.5.5.5.5.5.5.5.5.5.5.5.5.5.5.5.5.5.5.5.5.5.5.5.5.5.5.5.5.5.5.5.5.5.5.5.5.5.5.5.5.5.5.5.5.5.5.5.5.5.5.5.5.5.5.5.5.5.5.5.5.5.5.5.4.4.5.5.5.5.5.5.5.5.5.5.4.4.5.5.5.5.5.5.5.5.5.5.4.5.5.5.4.4.4.4.4.4.4.4.4.4.4.4.4.4.4.4.4.4.4.4.4.4.4.4.4.4.4.4.4.4.4.4.4.4.4.4.4.4.4.4.3.3.3.4.4.4.3.3.3.3.3.3.3.3.3.4.4.4.3.3.3.3.3.3.2.4.5.M ",
"ZXZXZXFXSXDXrXrX8X3XE.R.T.M.M. XN.N.N.B.V.M.B.B.N.C.C.Y.C.C.V.N.B. X XY.Y.P.P.K.B.B.K.K.K.B.B.B.B.V.P.P.P.K.B.B.B. XL.K.K.P.P.M.P.K.K.K.P.K.K.P.M.K.K.B.M.M.B.B.B.B.N.N.N.V.B.K.B.B.B.M.M.M.M.M.N.N.N.N.N.N.N.N.n.n.n.n.n.n.n.n.n.n.n.n.n.n.n.n.n.n.n.n.n.n.n.n.n.n.n.n.n.n.n.n.n.n.n.n.n.n.n.n.n.n.n.n.n.n.n.n.n.n.n.n.n.n.n.n.n.n.n.n.n.n.n.n.m.m.m.m.m.m.m.m.m.m.m.m.m.m.m.m.m.m.m.m.m.m.m.m.m.m.m.m.m.m.m.m.m.m.m.m.m.m.m.m.c.c.c.c.c.c.c.c.c.c.c.c.c.c.c.c.c.c.c.c.c.c.c.c.c.c.c.c.c.c.c.c.c.c.c.c.c.c.c.c.c.c.c.c.c.c.c.c.c.c.c.c.c.c.c.c.x.c.c.c.c.x.x.x.x.x.x.x.c.x.x.x.x.x.x.x.x.x.x.x.z.z.z.z.z.z.z.z.x.x.z.z.z.z.z.z.z.z.z.z.z.z.z.z.z.z.z.z.z.z.z.z.z.z.z.z.z.z.z.z.z.z.z.z.z.z.z.z.z.z.z.z.z.z.z.z.z.z.z.z.z.z.z.z.z.z.z.z.z.z.z.z.z.z.z.z.z.z.z.z.7.7.7.7.z.z.z.z.z.z.z.z.z.z.z.z.z.z.z.z.z.z.z.z.z.z.z.z.z.z.z.z.z.z.z.z.z.z.z.z.z.z.z.z.z.z.z.z.z.z.z.z.z.z.z.z.z.z.7.7.7.z.z.z.7.7.7.5.5.5.7.7.5.5.5.5.5.5.5.5.5.5.5.5.5.5.5.5.5.5.5.5.5.5.5.5.5.5.5.5.5.5.5.5.5.5.5.5.5.5.5.5.5.5.5.5.5.5.5.5.5.5.5.5.5.5.5.5.5.5.5.5.5.5.5.5.5.5.5.5.5.5.5.5.4.5.8.5.4.5.5.5.4.4.5.5.5.5.8.8.z.z.5.4.8.8.8.-.5.6.6.6.3.7.z.4.5.5.5.5.5.5.5.5.4.4.4.4.4.4.4.4.4.4.4.4.4.4.4.4.4.4.4.4.4.4.4.4.4.4.4.4.4.4.4.4.3.3.3.3.3.3.3.3.3.3.3.3.4.4.3.3.3.3.3.3.3.3.3.3.4.4.z.M ",
"ZXZXZXZXZXVXVXVXZXVXMXNXcXT.J.e.P.Y.K.P.P.Y.Y.G.gXaXMXAXMXjX4XR.Y.M.M.K. X X X X X X X X X X X X X XB.K.P.P.P.P. X XK.B.K.L. XK. XK.M.M.M.M.K. XL.P.K.K.L. X XK.M.M.V.K. XK.K.M.B.B.B.V.V.V.N.N.N.M.N.M.N.N.N.N.N.M.N.N.n.n.n.n.n.n.n.n.n.n.n.n.n.n.n.n.n.n.n.n.n.n.n.n.n.n.n.n.n.n.n.n.n.n.n.n.n.n.n.n.n.n.n.n.n.n.n.n.n.n.n.n.n.n.n.n.n.n.n.n.n.n.n.n.n.n.n.n.n.n.n.n.n.n.n.n.m.m.m.m.m.m.m.m.m.m.m.m.m.m.m.m.m.m.m.m.m.m.m.m.c.c.c.c.c.c.m.m.c.c.c.c.c.c.c.c.c.c.c.c.c.c.c.c.c.c.c.c.c.c.c.c.c.c.c.c.c.c.c.c.c.c.c.c.c.c.c.c.c.c.c.c.c.c.c.c.c.c.c.c.c.c.c.c.c.c.c.c.c.c.c.c.x.x.x.x.x.x.x.x.x.x.x.x.x.x.x.x.x.x.x.x.x.z.x.x.z.z.z.z.z.z.z.z.x.x.x.x.z.z.z.z.z.z.z.z.z.z.z.z.z.z.z.z.z.z.z.z.z.z.z.z.z.z.z.z.z.z.z.z.z.z.z.z.z.z.z.z.z.z.z.z.z.z.z.z.z.z.z.z.z.z.z.z.z.z.z.z.z.z.z.z.z.z.z.z.z.z.z.z.z.z.z.z.z.z.z.z.z.z.z.z.z.z.z.z.z.z.z.z.z.z.z.z.z.z.z.z.z.z.7.7.z.z.z.z.z.z.7.7.7.z.z.z.7.7.7.7.7.5.7.7.5.5.5.5.5.5.5.5.5.5.5.5.5.5.5.5.5.5.5.5.5.5.5.5.5.5.5.5.5.5.5.5.5.5.5.5.5.5.5.5.5.5.5.5.5.5.5.5.5.5.5.5.5.5.5.5.5.5.5.5.5.5.5.5.5.5.5.5.5.5.5.5.7.5.4.4.5.z.z.8.v.z.z.4.5.z.7.4.<.%.;.9.4.7.5.5.z.6.6.6.3.5.z.4.5.5.5.5.5.5.5.5.4.4.4.4.4.4.5.5.4.4.4.4.4.4.4.4.4.4.4.4.4.4.4.4.4.4.4.4.4.4.4.4.3.3.3.3.3.3.3.3.3.3.3.3.4.4.4.4.3.3.3.3.3.3.3.3.4.5.z.M ",
"SXZXDXDXVXVXDXZXZXZXSXSXAXNXMXMX4XR.J.G.U.uXmXbXIXIXDXGXGXGXDXDX/.Y.M.B. XB.B. X X XK.K.K. X XK.B.B.B.B. X XY.J. XK.K.K. X X X XB.B. X.X|. XB.B.P.P.K.K.P.P.K.B..X XP.K.K.P.P.K.K.K.B.B.B.V.V.V.B.V.V.V.V.V.B.B.N.N.N.N.N.N.N.N.M.M.M.M.M.M.M.M.N.N.N.N.N.N.N.N.N.N.N.N.N.N.N.N.N.N.N.N.N.N.N.N.N.N.N.N.N.N.N.N.n.n.n.n.n.n.n.n.n.n.n.n.n.n.n.n.n.n.M.M.n.n.n.n.n.n.n.n.n.n.n.n.n.n.n.n.n.n.n.n.m.m.m.m.m.m.m.m.m.m.m.m.m.m.m.m.m.m.m.m.m.m.m.m.m.m.m.m.m.m.m.m.m.m.m.m.m.m.m.m.m.m.m.m.m.m.m.m.c.c.c.c.c.m.c.c.c.c.c.c.c.c.c.c.c.c.c.c.c.c.c.c.c.c.c.c.c.c.c.c.c.c.c.c.c.c.c.c.c.c.c.c.c.c.c.c.c.c.c.c.c.c.c.c.x.x.x.x.x.x.x.x.x.x.x.x.x.x.x.x.x.x.x.x.x.z.z.z.x.x.z.z.z.z.z.z.z.z.z.z.z.z.z.z.z.z.z.z.z.z.z.z.z.z.z.z.z.z.z.z.z.z.z.z.z.z.z.z.z.z.z.z.z.z.z.z.z.z.z.z.z.z.z.z.z.z.z.z.z.z.z.z.z.z.z.z.z.z.z.z.z.z.z.z.z.z.z.z.z.z.z.z.z.z.z.z.z.z.z.z.z.z.z.z.z.z.z.z.z.z.z.z.z.z.z.z.z.z.z.z.z.z.z.z.z.z.z.z.7.7.7.7.7.7.7.7.7.7.7.7.7.7.7.7.7.7.7.7.7.7.7.7.5.5.5.5.5.5.5.5.5.5.5.5.5.5.5.5.5.5.5.5.5.5.5.5.5.5.5.5.5.5.5.5.5.5.5.5.5.5.5.5.5.5.5.5.5.5.5.5.z.5.4.4.z.z.7.5.$.3.6.-.-.9.9.%.0.T.gXuXC.%.3.v.5.3.5.7.4.5.z.5.5.5.5.5.5.5.5.5.5.5.5.5.5.5.5.5.4.4.4.4.4.4.4.4.4.4.4.4.4.4.4.4.4.4.4.4.4.4.4.4.4.4.4.4.4.4.3.4.4.4.4.4.4.4.4.4.4.4.4.4.3.6.3.3.4.6.z.M ",
"SXZXDXDXVXDXZXSXZXZXVXwX9XnXVXCXSXMXhXE./.bXSXFXSXZXZXrXrXZXZXSXMXsXT.K.B.B.P.Y.B.B.B.V.V.V.B.K.J.U.L.B.B. XL.U.P.P. X X X XB. X X XK.K.K.K. X X X X X XP.V.K.P.M.Y.P. X XK.B.N.K.K.K.K.B.B.V.V.B.B.V.V.V.B.B.B.V.V.V.V.V.V.V.V.V.V.N.N.M.M.M.M.N.N.N.N.N.N.N.N.N.N.N.N.N.N.N.N.N.N.N.N.N.N.N.N.N.N.N.N.N.N.N.N.N.N.N.N.M.M.M.M.N.N.N.N.N.N.N.N.M.M.M.M.M.M.M.M.n.n.n.n.n.n.n.n.n.n.n.n.n.n.n.n.n.n.n.n.n.n.n.n.n.n.n.n.n.n.n.n.m.m.m.m.m.m.m.m.m.m.m.m.m.m.m.m.m.m.m.m.m.m.m.m.m.m.m.m.m.m.m.m.m.m.m.m.m.m.m.m.m.m.m.c.c.c.c.c.c.c.c.c.m.m.c.c.c.c.c.c.c.c.c.c.c.c.c.c.c.c.c.c.c.c.c.c.c.c.c.c.c.c.c.c.c.c.c.c.c.c.x.x.c.c.x.x.x.x.x.x.x.x.x.x.x.x.x.x.x.x.x.x.x.x.x.x.z.z.z.z.z.z.z.z.z.z.z.z.z.z.z.z.z.z.z.z.z.z.z.z.z.z.z.z.z.z.z.z.z.z.z.z.z.z.z.z.z.z.z.z.z.z.z.z.z.z.z.z.z.z.z.z.z.z.z.z.z.z.z.z.z.z.z.z.z.z.z.z.z.z.z.z.z.z.z.z.z.z.z.z.z.z.z.z.z.z.z.z.z.z.z.z.z.z.z.z.z.z.z.z.z.z.z.z.z.z.z.z.z.z.z.z.7.7.7.7.7.7.7.7.z.z.7.7.7.7.7.7.z.z.7.7.7.7.7.7.7.7.7.7.7.7.7.7.7.7.7.7.7.7.7.7.7.7.7.7.7.7.7.7.7.7.7.7.7.7.7.7.7.7.7.7.7.7.7.7.7.7.7.7.7.7.7.7.z.7.8.z.z.5.3.3.0.&XfXyXR.yXhXpXgXkXVXAXuXM.3.3.6.<.7.z.z.5.5.4.5.5.5.5.5.5.5.5.5.5.5.5.5.5.5.5.5.4.5.5.5.5.5.5.5.4.5.5.5.5.5.5.4.4.4.4.4.5.4.4.4.4.4.4.4.4.4.4.4.4.4.4.4.4.4.4.4.4.4.4.4.4.4.4.4.5.z.M ",
"ZXZXDXVXVXDXZXZXVXCXVX9X9X9X9X9XrXDXnXjXkXCXGXtXFXFXFXHXSXZXCXCXHXCXsX/.U.^./.R.Y.U.U.U.Y.Y.Y.U.9X8XyXU.K.B. X|.P.P. X X XY.Y.U.Y.Y.U.T.T.U.Y.Y.K.V.Y.P.L.P.P.I.Y.Y.Y.Y.Y.B.B. XK.K.K.K.B.B.B.V.B.B.B.B.B.B.B.B.B.B.V.V.V.V.V.V.V.V.V.V.V.V.V.V.B.B.B.B.B.B.B.B.B.B.B.B.B.B.B.B.B.B.B.B.B.B.B.B.B.B.B.B.B.B.B.B.B.B.V.V.V.V.V.V.N.N.N.N.N.N.N.N.N.N.N.N.N.N.N.N.n.n.n.n.n.n.n.n.M.M.M.M.M.M.M.M.n.n.n.n.n.n.n.n.n.n.n.n.n.n.n.n.n.n.n.n.n.n.n.n.n.n.n.n.n.n.m.m.n.n.m.m.m.m.m.m.m.m.m.m.m.m.m.m.m.m.m.m.m.m.m.m.m.m.m.m.m.m.m.m.m.c.c.c.m.c.c.c.m.m.c.m.m.c.c.m.c.c.c.c.c.c.c.c.c.c.c.c.c.c.c.c.c.c.c.c.c.c.c.c.c.c.c.c.c.c.c.c.c.c.c.c.c.c.c.c.c.c.c.c.c.c.c.c.x.x.x.x.x.x.x.x.x.x.z.z.z.z.x.x.z.z.z.z.x.x.x.z.z.z.z.z.x.x.x.x.z.z.z.z.z.z.z.z.z.z.z.z.z.z.z.z.z.z.z.z.z.z.z.z.z.z.z.z.z.z.z.z.z.z.z.z.z.z.z.z.z.z.z.z.z.z.z.z.z.z.z.z.z.z.z.z.z.z.z.z.z.z.z.z.z.z.z.z.z.z.z.z.z.z.z.z.z.z.z.z.z.z.z.z.z.z.z.z.z.z.z.z.z.z.z.z.z.z.z.z.z.z.z.z.z.z.z.z.z.z.z.z.z.z.z.z.z.z.z.z.z.z.z.z.z.z.z.z.z.z.z.z.z.z.z.z.7.z.z.z.z.z.z.z.z.z.z.z.z.z.7.7.7.7.7.7.7.7.7.7.z.7.8.z.7.4.6.m.E.hXMXkX8X9XkXkXMXwXrXrXbXR.Y.0.Y.9.8.z.z.6.5.7.5.5.5.5.5.5.5.5.5.5.5.5.5.5.5.5.5.5.5.5.5.5.5.5.5.5.5.5.5.5.5.5.5.5.5.5.5.5.5.5.4.4.4.4.4.4.4.4.5.5.5.5.5.5.5.5.4.4.4.4.4.4.4.4.8.4.z.M ",
"DXZXDXVXVXDXVXVXnXnXnXnXnXVXAXAX9XwXVXCXSXFXHXGXZXZXGXGXFXFXFXFXGXGXCX8XsXbXbX8XkXMXAXMXkXkXkXAXrXZXCXsX/.U.P.B.L. X XK.Y.T./.4XJ.R.xXAXAXxXR.J.^.J.G.T.uXiXyX/.cXcXgXyXT.U.P. XK.K.K.K.K.B.B.B.K.K.K.K.K.K.K.K.K.K.B.B.B.B.B.B.B.K.B.B.B.B.B.B.B.B.B.B.B.B.B.B.B.B.B.B.B.B.B.B.B.B.B.B.B.B.B.B.B.B.B.B.B.B.B.B.B.B.V.V.V.V.V.V.V.V.V.V.V.B.V.V.N.N.N.N.N.N.N.N.N.M.M.M.M.M.N.N.N.N.N.N.M.M.N.N.N.N.N.N.N.M.M.M.N.N.N.N.N.N.N.N.n.n.n.n.n.n.n.n.n.n.n.n.n.n.n.n.n.n.n.n.n.n.n.n.n.n.n.n.n.n.n.n.m.m.m.m.m.m.m.m.n.n.m.m.m.m.m.m.m.m.m.m.m.m.m.m.m.m.m.m.m.m.m.m.m.m.m.m.m.m.m.m.c.c.c.c.c.c.c.c.c.c.c.c.c.c.c.c.c.c.c.c.c.c.c.c.c.c.c.c.c.c.c.c.c.c.c.c.c.c.c.c.c.c.c.x.x.x.x.x.x.x.x.x.x.x.x.x.x.x.x.x.x.x.x.x.x.x.x.x.x.x.x.x.x.x.x.x.x.x.z.z.x.x.x.x.x.x.x.x.z.z.z.z.z.z.z.z.z.z.z.z.z.z.z.z.z.z.z.z.z.z.z.z.z.z.z.z.z.z.z.z.z.z.z.z.z.z.z.z.z.z.z.z.z.z.z.z.z.z.z.z.z.z.z.z.z.z.z.z.z.z.z.z.z.z.z.z.z.z.z.z.z.z.z.z.z.z.z.z.z.z.z.z.z.z.z.z.z.z.z.z.z.z.z.z.z.z.z.z.z.z.z.z.z.z.z.z.z.z.z.z.z.z.z.z.z.z.z.z.z.z.z.z.z.z.z.z.z.z.z.z.z.z.z.z.z.z.z.z.z.z.z.z.g.4.7.7.7.5.m. X6XxXjX6X8XwXwXwXbXwXrXrX8X4XyXgXpXB.8.z.5.6.6.z.5.5.5.5.5.5.5.5.5.5.5.5.5.5.5.5.5.5.5.5.5.5.5.5.5.5.5.5.5.5.5.5.5.5.5.5.5.5.5.5.5.4.4.4.5.5.5.5.5.5.5.5.5.5.5.5.4.4.5.5.5.5.4.4.4.5.z.M ",
"DXZXZXVXVXVXVXrXnXnX8X8X8XnXnXVXAXCXDXZXZXSXSXSXJXJXJXFXFXFXFXFXZXZXDXVXVXVXCXCXDXDXDXDXDXDXDXDXDXFXHXZXnXjX/.J.P. XP.Y.T.hXnXrXMXMXCXSXSXCXnXMXNXjX8XnXSXSXZXDXAXSXPXPXAXaXE.G.P.P.P.L.L.L.K.K.K.K.L.L.L.L.L.L.L.L.L.K.K.K.K.K.K.K.K.K.K.K.K.K.B.B.B.B.B.B.B.B.B.B.B.B.B.B.B.B.B.B.B.B.B.B.B.B.B.B.B.B.B.B.B.B.B.B.B.B.B.B.B.B.B.B.B.B.B.B.B.B.V.V.V.V.V.V.V.V.N.N.N.N.N.N.N.N.N.N.N.N.M.M.M.M.N.N.N.N.N.N.N.N.N.N.M.M.N.N.N.N.n.n.n.n.n.n.n.n.n.n.n.n.n.n.n.n.n.n.n.n.n.n.n.n.n.n.n.n.n.n.n.n.n.n.n.n.n.n.n.n.n.n.n.n.n.m.m.m.n.n.n.n.n.m.n.n.n.n.n.n.n.n.n.n.m.m.m.m.m.m.m.m.m.m.m.m.m.m.m.m.m.m.m.m.m.m.m.m.m.m.m.c.c.c.c.c.c.c.c.c.c.c.c.c.c.c.c.c.c.c.c.c.c.c.c.c.c.c.c.c.c.c.c.c.c.c.c.c.c.c.c.c.c.c.c.c.c.c.c.c.c.c.c.c.c.c.c.c.c.c.c.c.x.x.x.x.x.x.x.x.x.x.x.x.x.x.x.x.z.z.z.z.z.z.z.z.z.z.z.z.z.z.z.z.z.z.z.z.z.z.z.z.z.z.z.z.z.z.z.z.z.z.z.z.z.z.z.z.z.z.z.z.z.z.z.z.z.z.z.z.z.z.z.z.z.z.z.z.z.z.z.z.z.z.z.z.z.z.z.z.z.z.z.z.z.z.z.z.z.z.z.z.z.z.z.z.z.z.z.z.z.z.z.z.z.z.z.z.z.z.z.z.z.z.z.z.z.z.z.z.z.z.z.z.z.z.z.z.z.z.z.z.z.z.z.z.z.z.z.z.z.z.z.z.z.5.5.8.z.g.m.L././.R.3X7X8XwX6XAXVXrXrXVXAXAXVXnXU.8.z.5.-.g.z.5.5.5.5.5.5.5.5.7.7.7.7.5.5.5.5.5.5.5.5.5.5.5.5.5.5.5.5.5.5.5.5.5.5.5.5.5.5.5.5.5.5.4.4.4.4.5.4.5.5.5.5.5.5.5.5.4.4.4.5.5.5.4.4.4.5.z.M ",
"ZXZXZXVXVXDXVXrXVXnXnXVXVXnXnXnXMXnX9XrXGXGXSXAXFXHXHXHXHXSXSXZXPXCXrXrXVXrXVXAXZXCXCXCXZXZXCXrXPXSXGXtXtXSXAXmXB.L.P.Y./.MXSXtXSXZXZXtXtXrXZXSXSXZXDXGXGXtXtXtXGXtXrXrXrXCXMXmXL.L.P.L.L.L.L.L.K.K.L.L.L.L.L.L. XL.L.L.L.L.L.L.K.K.K.K.K.K.K.K.K.K.K.K.K.K.K.K.K.K.K.K.K.K.K.K.K.K.K.K.K.K.K.K.K.K.K.K.K.K.K.K.K.K.K.K.K.K.K.B.B.B.B.B.B.B.B.B.B.B.B.B.V.V.V.B.B.B.B.B.B.N.N.N.V.B.B.V.B.B.B.B.N.N.N.N.N.N.N.N.N.N.N.N.N.N.N.N.N.N.N.N.N.N.N.N.N.N.N.N.N.N.N.N.n.n.n.n.M.n.n.n.n.N.N.N.N.N.n.n.n.n.n.n.n.n.n.n.n.n.n.n.n.n.n.n.n.n.n.n.n.n.n.n.n.n.n.n.n.n.n.n.n.n.n.n.n.n.n.n.n.n.n.n.n.n.n.n.m.m.m.m.m.m.m.m.m.m.m.m.m.c.m.c.c.c.c.c.m.m.m.c.m.m.c.c.c.c.c.c.c.c.c.c.c.c.c.c.c.c.c.c.c.c.c.c.c.c.c.c.c.c.c.c.c.c.c.c.c.c.c.c.c.c.c.c.c.c.c.c.x.x.x.x.x.x.x.c.x.x.x.x.x.x.x.x.z.z.z.z.z.z.z.z.z.z.z.z.z.z.z.z.z.z.z.z.z.z.z.z.z.z.z.z.z.z.z.z.z.z.z.z.z.z.z.z.z.z.z.z.z.z.z.z.z.z.z.z.z.z.z.z.z.z.z.z.z.z.z.z.z.z.z.z.z.z.z.z.z.z.z.z.z.z.z.z.z.z.z.z.z.z.z.z.z.z.z.z.z.z.z.z.z.z.z.z.z.z.z.z.z.z.z.z.z.z.z.z.z.z.z.z.z.z.z.z.z.z.z.z.z.z.z.z.z.z.z.z.z.z.z.z.z.5.7.x.z.5.-.0.E.3X5X6X8X8XjXjX9X9XVXnXnXnXVXrX9XJ.5.z.x.g.6.8.5.5.5.5.5.5.5.5.7.7.7.7.5.5.5.5.5.5.5.5.5.5.5.5.5.5.5.5.5.5.5.5.5.5.5.5.5.5.5.5.5.5.5.5.5.5.5.5.5.5.5.5.5.5.5.5.5.5.5.5.5.5.5.5.4.5.z.M ",
"ZXZXDXDXVXVXwXwXVXnXnXnXnXnXVXVXVXVXVXDXZXSXSXSXSXSXFXHXHXFXFXHXFXSXDXVXVXVXCXZXFXZXZXZXSXFXSXZXZXSXZXZXZXZXDXDXjXsXE.E.jXSXZXrXZXZXZXZXZXSXFXFXFXZXZXZXSXSXZXGXGXZXZXZXZXDXVXDXMXG.U..XP.I.L. XL.L.L.L.L.P.P.L.P.P.P.P.P.P.P.P.L.L.L.L.L.L.L.L.K.K.K.K.K.K.K.K.K.K.K.K.K.K.K.K.K.K.K.K.K.K.K.K.K.K.K.K.K.K.K.B. XK.K.P.P.L.L.P.P.K.K.P.K.V.P. XK.P.P.K.V.B.K.K.B.B.B.B.B.B.B.B.B.B.B.B.B.B.B.B.V.V.V.V.V.V.V.V.V.V.V.V.V.V.V.V.V.V.V.V.B.B.B.B.V.V.N.N.N.N.N.N.N.N.N.N.N.N.N.N.N.N.N.N.N.N.N.N.N.N.N.N.N.N.N.N.N.N.N.N.N.N.N.N.n.n.n.n.n.n.n.n.n.n.n.n.n.n.n.n.n.n.n.n.n.n.n.n.n.n.n.n.n.n.n.n.n.n.n.n.n.n.n.n.n.m.n.n.n.m.m.n.m.m.m.m.m.m.m.m.m.m.m.m.m.m.m.m.m.m.m.m.m.m.m.m.c.c.c.c.c.c.c.c.c.c.c.c.c.c.c.c.c.c.c.c.c.c.c.c.c.c.c.c.c.c.c.c.c.c.c.c.c.c.c.c.c.c.c.c.c.c.c.c.c.c.c.c.c.c.c.c.x.x.x.x.c.c.x.c.c.x.x.x.x.x.x.x.x.x.x.x.x.x.x.x.z.z.z.z.g.g.g.g.z.z.z.x.z.z.z.z.z.z.z.z.z.z.z.z.z.z.z.z.z.z.z.z.z.z.z.z.z.z.z.z.z.z.z.z.z.z.z.z.z.z.z.z.z.z.z.z.z.z.z.z.z.z.z.z.z.z.z.z.z.z.z.z.z.z.z.z.z.z.z.z.z.z.z.z.z.z.z.z.z.z.g.g.z.z.z.z.z.z.z.z.z.z.z.z.z.z.z.z.z.z.z.8.Y./.5X5X5X8X8XbXnXnXwXVXDXZXZXrXCX4X0.3.z.v.z.7.b.6.4.z.z.6.4.8.7.7.7.7.7.7.7.7.7.7.7.5.5.5.5.5.5.5.5.5.5.4.4.4.5.z.5.5.5.5.5.5.5.5.5.5.5.5.5.5.5.5.5.5.5.5.5.5.5.5.5.5.5.5.5.5.8.z.z.f ",
"VXDXDXVXVXVXrXrXVXVXnXVXVXVXVXVXVXVXVXDXZXSXSXSXZXZXFXFXFXFXFXHXSXZXDXDXVXVXVXDXZXFXHXHXHXHXFXFXZXZXZXSXGXZXZXZXAXNXaX6XMXSXZXrXDXDXZXZXZXSXFXFXFXZXZXSXSXSXZXSXZXZXZXFXFXZXDXVXPXE.I. XL..XI.P. X XL.L.L.L.L.P.P.P.P.P.P.P.P.P.L.L.L.L.L.L.L.L.L.L.K.L.K.K.K.K.L.L.L.K.K.K.K.K.K.K.K.K.K.K.K.K.K.K.L.L.L.L.L.L.K. X X XK.B.K. X X X XB.B.B.B.B.K.L.L.P.K.B.K.K.K.K.K.K.K.K.K.K.B.B.B.B.B.B.B.B.V.V.V.V.V.V.V.V.V.V.V.V.V.V.B.V.V.V.V.V.V.V.V.V.V.V.V.V.V.V.V.V.N.N.N.N.N.N.N.N.N.N.N.N.N.N.N.N.N.N.N.N.N.N.N.N.N.N.N.N.N.N.N.N.N.N.N.N.N.n.N.N.n.n.n.n.n.n.N.N.n.n.n.n.n.n.n.n.n.n.n.n.n.n.n.n.n.n.n.n.n.n.n.n.n.n.n.n.n.n.n.n.n.n.n.n.n.n.n.n.m.m.m.m.m.m.m.m.m.m.m.m.m.m.m.m.m.m.m.m.m.m.m.m.c.c.m.m.m.m.c.c.c.c.c.c.c.c.c.c.c.c.c.c.c.c.c.c.c.c.c.c.c.c.c.c.c.c.c.c.c.c.c.c.c.c.c.c.c.c.c.c.c.x.x.x.c.c.c.c.c.c.c.c.x.x.x.x.x.x.x.x.x.x.x.x.x.x.x.x.x.x.x.x.x.x.x.x.x.x.x.x.z.z.z.z.z.z.z.z.z.z.z.z.z.z.x.x.z.z.z.z.z.z.z.z.x.x.x.x.x.x.x.x.g.g.g.g.g.x.x.x.z.z.z.z.z.z.z.z.z.z.z.z.z.z.z.z.z.z.z.z.z.z.z.z.z.z.z.z.z.z.z.z.z.z.z.z.z.z.z.z.z.z.z.z.z.z.z.z.z.z.z.z.z.z.8.8.J./.sX8X8X8XnXnXnXnXVXVXDXZXDXrXrX8XJ.9.g.g.5.c.=.5.8.z.z.z.z.8.5.5.5.5.5.5.5.5.z.5.z.z.5.5.5.5.5.5.5.5.5.5.5.5.5.5.5.5.5.5.5.5.5.5.5.5.5.5.5.5.5.5.5.5.5.5.5.5.5.5.5.5.5.5.5.5.8.z.z.f ",
"rXVXVXVXVXnXnXVXnXnXnXnXVXVXVXDXCXDXZXZXZXSXSXSXSXZXFXFXFXFXFXHXSXZXZXDXDXVXVXDXZXFXHXHXHXFXHXHXGXFXFXFXFXSXSXZXVXAXNXMXAXSXZXZXDXDXZXZXSXSXFXFXHXSXSXFXFXSXZXZXHXGXZXZXZXZXDXDXmXT.L. XL.|.U.I.I.I.I.I.L.L.L.L.L.L.L.L.L.L.L.L.P.P.P.P.P.P.P.P.L.L.L.L.L.L.L.L.L.L.L.L.L.L.L.L.K.K.L.L.L.L.L.L.L.L.L.L. X X XL.K.L. X XL.K. X XB. X X X X X XB.K. X X XK.K.K.P.K.K.K.K.K.K.K.K.K.K.K.K.K.K.K.K.B.B.B.B.B.B.B.B.B.B.B.B.B.K.B.B.B.B.B.B.B.B.B.B.B.B.B.B.B.B.B.B.V.N.V.N.N.N.N.N.N.N.N.N.N.B.B.N.N.N.N.N.N.B.B.N.N.N.N.N.N.N.N.N.N.N.N.N.N.N.N.N.N.N.N.N.N.N.N.N.N.N.N.N.N.N.N.N.n.n.n.n.n.n.n.n.n.n.n.n.n.n.n.n.n.n.n.n.n.n.n.n.n.n.n.n.n.n.n.n.n.n.n.n.m.m.m.m.n.n.n.n.m.m.m.m.m.m.m.m.m.m.m.m.m.m.m.m.m.m.m.m.m.m.m.m.m.m.m.m.m.m.m.m.m.m.m.m.m.m.m.m.m.m.m.m.c.c.c.c.c.c.c.c.c.c.c.c.c.c.c.c.c.c.c.c.c.c.c.c.c.c.c.c.c.c.c.c.c.c.c.c.c.c.c.c.c.c.c.c.c.c.c.c.x.x.x.c.c.c.c.c.x.x.x.x.x.x.x.x.x.x.x.c.c.c.c.c.c.c.c.c.c.c.c.c.x.x.x.x.x.x.x.x.x.x.g.x.x.x.x.x.x.x.x.x.x.x.x.x.x.x.x.x.x.x.x.x.x.x.x.x.z.z.x.x.x.x.z.z.g.g.g.g.x.x.x.x.x.x.x.x.z.z.z.z.z.z.x.x.x.z.z.x.x.9.9.9.J./.jXnXnXVXnXnXVXVXCXVXDXDXDXrXrXVXuXM.9.6.3.8.g.x.x.z.g.x.x.7.5.5.5.5.z.z.z.z.z.z.z.z.z.z.z.5.5.5.5.5.5.5.5.5.5.z.5.5.5.5.5.5.5.5.5.5.5.5.5.5.5.5.5.5.5.5.5.5.5.5.5.5.5.5.5.5.8.z.z.f ",
"8XnXnXnXwXnXnXnXnXVXVXVXVXVXDXDXDXDXZXZXZXSXFXFXFXFXFXHXFXFXFXHXSXZXZXZXZXDXDXDXZXSXSXZXDXDXZXHXHXHXHXFXSXZXZXDXqXVXCXAXDXZXZXZXDXZXZXZXSXFXFXFXHXSXFXHXHXSXZXSXHXFXZXZXSXSXDXrX4XJ. X.X XU.T.oXI.I.I.I.I.L.L.L. X X X X X X X XL.L.L. XL.L.L.L.L.L.L.L.L.L.L.L.L.L.L.L.L.L.L.L.L.L.L.L.L.L.L.L.L. X X X X X X XL.P.K. X X X XP.Y.I.U.Y.Y.U.I.Y.L.L. X X XL.P.P.L.L.L.L.L.L.L.L.K.K.K.L.L.L.L.L.K.K.K.K.K.K.K.K.K.K.K.K.K.K.K.K.B.B.B.B.K.K.K.K.B.B.B.B.B.B.B.B.V.V.B.B.B.V.V.V.B.B.B.B.B.B.B.B.B.B.B.B.B.B.B.B.B.B.B.B.B.B.B.B.V.N.N.V.B.B.B.B.N.N.N.N.N.N.N.N.N.N.N.N.N.N.N.N.N.N.N.N.N.N.N.N.N.N.N.N.N.N.N.N.n.n.n.n.N.N.N.N.n.N.n.n.n.n.n.n.n.n.n.n.n.n.n.n.n.n.n.n.n.n.n.n.n.n.n.n.n.n.n.n.m.m.m.m.m.m.m.m.m.m.m.m.m.m.m.m.m.m.m.m.m.m.m.m.m.m.m.m.m.m.m.m.m.m.m.m.m.c.m.c.c.c.c.c.c.c.c.c.c.c.c.c.c.c.c.c.c.c.c.c.c.c.c.c.c.c.c.c.c.c.c.c.c.c.c.c.c.c.c.c.c.c.c.c.c.c.c.c.c.c.c.c.c.c.c.c.c.c.c.c.c.c.c.c.c.c.c.c.c.c.c.c.c.c.c.c.c.c.c.c.x.x.x.x.x.x.x.x.x.x.x.x.c.c.c.c.c.c.c.c.c.c.c.c.c.c.c.c.x.x.x.x.x.x.x.x.x.x.x.x.x.x.x.x.x.x.x.x.x.x.x.x.x.x.x.x.x.x.x.x.c.m.M.Y.E.4XjXnXCXVXVXVXVXCXZXDXVXVXVXVX9XnXyXM.b.x.x.x.x.x.z.4.-.g.z.z.z.5.5.5.z.z.z.z.z.z.z.z.z.z.g.g.z.z.z.5.z.z.z.z.5.z.5.5.5.5.5.5.5.5.5.5.5.5.5.5.5.5.5.5.5.5.5.5.5.5.5.5.5.5.5.5.8.z.x.M ",
"nXnXnX8X8X8XnXnXCXCXCXCXDXDXZXZXZXZXZXZXSXFXHXHXHXHXHXHXHXFXFXHXHXSXSXSXZXZXDXZXSXZXDXVXrXrXDXZXSXFXSXSXDXVXVXVXZXVXVXCXDXDXZXZXSXSXZXSXFXFXFXFXFXFXFXHXHXSXZXSXZXZXSXHXHXHXDX9X7XT.I..X.XU.oX|.|.I.|.|.I.I.I.I. X XI.I.I.I.L.L.L.L.L.L.L.L.L.L.L.L.L.L.L.L.L.L.L.L.L.L.L.L.L.L.L.L.L.L.L.L.L.L. X|.|.I.I.L.L.L..X|. X X XL.U.U.pXcXcX4X/.4X4X4X.XI.P. X X XP.I.L.L.L.L.L.L.L.L.L.L.L.L.L.L.L.L.K.L.L.K.K.K.K.K.K.K.K.K.L.K.K.K.K.K.K.K.K.K.K.K.K.K.K.K.K.K.K.B.B.B.B.B.B.B.B.B.B.B.B.B.B.B.B.B.B.B.B.B.B.B.B.B.B.B.B.B.B.B.B.B.B.B.B.B.B.B.B.B.V.V.V.V.V.V.V.B.V.V.V.V.V.V.V.V.N.N.N.N.N.N.N.N.N.N.N.N.N.N.N.N.N.N.N.N.N.N.N.N.N.N.N.N.N.N.N.N.N.N.N.n.n.n.n.n.n.n.n.n.n.n.n.n.n.n.n.n.n.n.n.n.n.n.n.n.n.n.n.n.n.n.m.n.m.n.n.n.m.n.n.n.n.n.n.n.m.m.m.n.m.m.m.m.m.m.m.m.m.m.m.m.m.m.m.m.m.m.m.m.m.m.m.m.c.m.m.m.m.m.c.c.c.c.c.c.c.c.c.c.c.c.c.c.c.c.c.c.c.c.c.c.c.c.c.c.c.c.c.c.c.c.c.c.c.c.c.c.c.c.c.c.c.c.c.c.c.c.c.c.c.c.c.c.c.c.c.c.c.c.c.c.c.c.c.c.c.c.c.c.c.c.c.c.c.c.c.c.c.c.c.c.c.c.c.c.c.c.c.c.c.c.c.c.c.c.c.c.c.c.c.c.c.x.c.x.c.c.c.c.x.x.x.x.x.c.c.c.c.c.c.9.9.e.J.E.3X5XjXnXVXVXVXVXZXSXZXVXrXVXVXVXwXbX^.9.9.c.c.8.C.9.9.9.C.9.g.z.g.g.g.g.g.g.g.g.z.z.z.z.g.g.g.g.5.5.5.5.5.5.5.5.z.z.z.z.5.5.5.5.5.5.5.5.5.5.5.5.5.5.5.5.5.5.5.5.z.z.z.z.5.5.5.5.8.z.z.M ",
"nXnX8X8X8X8XnXnXCXVXDXCXDXZXZXZXZXZXZXZXZXGXHXJXHXHXHXHXHXFXFXHXHXSXSXSXSXZXZXSXSXZXZXZXZXZXVXrXVXDXZXDXVXwXwXnXFXVXVXDXDXDXZXZXSXSXSXZXSXSXFXFXFXFXFXHXHXSXSXGXZXZXZXZXSXHXSXZXAXaXT.I.oXoXoXL.U.U.|.U.I.I.I.I. X XI.I.I.I.I.I.L.L.L.L.I.I.L.I.L.L.I.I.L.L.L.L.I.L.L.L.I.I.I.I.I.I.I.I.I.I.I.I.|. XI.I.I.I.I.I.Y.|..X|.I.U./.uXCXSXPXAXVXCXAXAX$X^.U.L.|. XL.I.L.L.L.L.L.L.L.L.L.L.L.L.L.L.L.L.P.P.P.L.P.P.P.P.P.P.P.P.L.P.P.P.K.L.K.L.L.K.L.L.K.K.K.K.K.K.K.K.K.K.K.K.K.K.K.K.K.K.K.K.K.K.K.K.K.K.K.K.K.K.K.K.B.B.B.B.B.B.B.B.B.B.B.B.B.B.B.B.B.B.B.B.B.B.B.B.B.B.B.B.B.B.B.B.B.B.B.B.B.B.B.B.B.B.B.B.V.V.V.V.V.V.V.V.B.B.B.B.N.N.N.N.N.N.N.N.N.N.N.N.N.N.N.N.M.M.M.M.M.M.M.M.n.n.n.n.n.n.n.n.n.n.n.n.n.n.n.n.n.n.n.n.n.n.n.n.n.n.n.n.n.n.n.n.n.n.n.n.n.n.n.n.n.n.n.n.n.m.n.n.m.m.n.n.m.m.m.m.m.m.m.m.m.m.m.m.m.m.m.m.m.m.m.m.c.m.c.c.c.c.m.c.m.m.c.m.c.c.c.c.c.c.c.c.c.c.c.c.c.c.c.m.m.m.m.m.c.c.c.c.c.c.m.m.m.m.m.m.m.m.m.m.c.c.c.c.c.c.c.c.c.c.c.c.c.c.c.c.c.c.c.c.c.c.c.c.c.c.c.c.c.c.c.c.c.c.c.c.c.c.c.c.c.c.c.c.c.c.c.c.c.c.c.c.c.c.c.c.c.c.c.c.c.c.c.c.m.m.m.9.0.e.E.4X5X6X8XkXVXVXVXDXZXSXZXVXwXVXVXVXMXcXT.0.0.M.C.9./.U.I.OX@XU.C.z.x.x.g.g.x.g.x.g.g.g.g.5.g.z.g.g.z.z.7.7.5.5.5.5.z.z.z.z.z.z.z.z.5.5.5.5.z.z.z.z.z.7.g.g.g.g.g.5.z.z.z.z.5.5.7.7.8.z.x.M ",
"nXnXjX8X8XkXnXnXVXVXVXDXDXZXZXZXZXZXZXZXZXGXFXHXHXHXHXHXHXFXGXFXFXSXZXSXZXZXZXFXFXFXSXSXSXZXZXVXVXDXDXDXVXwXwXnXSX9XwXVXVXDXSXSXSXSXZXZXZXSXFXHXGXGXFXHXFXSXSXFXHXFXZXDXDXSXHXFXFXAX/.T.oXU.oXL.U.U.U.U.U.I.I.I. X X X|.|.|. X XI.I.I.I.I.I.I.I.I.I.I.I.I.I.I.I.I.I.I.I.I.I.I.I.I.I.I.I.|.|.|.|.|.|.I.I.|.|..X.XU.U.|.|.oX@XaXbXDXDXZXZXZXZXZXZXmX4XU.I..X|. XI.L.L.L.L.L.L.L.L.L.L.L.L.L.L.L.L.L.L.L.L.L.L.L.L.L.L.L.L.L.L.L.L.L.L.L.L.L.L.L.L.L.L.L.L.L.L.L.L.K.K.L.L.K.K.K.K.K.K.K.K.K.K.K.K.K.K.K.K.K.K.K.K.K.K.K.K.B.K.K.K.K.K.K.K.K.K.K.K.K.K.K.K.B.K.K.K.K.K.K.K.K.K.K.K.B.B.B.B.B.B.B.B.B.B.B.B.B.V.V.V.B.B.B.B.B.B.B.B.V.V.V.V.V.B.V.V.B.B.N.N.N.N.N.N.N.N.N.N.N.N.N.N.N.N.N.N.N.N.N.N.N.n.N.N.n.N.n.n.N.n.n.n.n.n.n.n.n.n.n.n.n.n.n.n.n.n.n.n.n.n.n.n.n.n.n.n.n.n.n.n.n.n.n.n.n.n.n.n.n.n.n.n.n.n.n.n.n.n.n.n.m.m.m.m.m.m.m.m.m.m.m.m.m.m.m.m.m.m.m.m.m.m.m.m.m.m.m.m.m.m.m.m.m.m.m.m.c.c.c.c.m.m.m.m.m.m.m.m.m.m.m.m.m.m.m.m.m.m.m.m.m.m.m.c.c.c.m.m.m.m.m.m.m.m.m.m.m.m.m.m.m.m.m.m.c.c.c.c.m.m.m.m.m.m.m.m.m.m.m.m.c.c.c.c.c.c.c.c.c.c.c.c.c.m.m.m.C.M.C.9.e.J.4XjX8X8X8XnXnXVXVXVXZXZXZXVXVXVXVXnX8X6X3XE./.pXyX/.nXkXbXMXMXhXP.g.x.x.x.x.x.x.x.x.x.x.g.g.g.g.g.g.x.x.x.x.x.x.x.x.z.z.z.z.z.z.z.z.z.z.z.z.z.z.z.z.z.7.z.z.g.z.5.5.z.z.z.z.5.5.5.5.8.z.x.M ",
"bXnXjX8XjXkXnXAXVXVXVXDXZXZXSXSXSXSXSXZXZXGXGXHXHXFXFXHXFXZXZXGXFXZXZXZXZXZXSXFXHXFXSXZXZXZXZXZXDXZXZXCXVXwXwXnXPXnXnXCXVXrXZXZXSXZXZXDXZXZXFXHXGXSXFXHXFXSXSXHXZXFXHXHXHXHXSXVXrXSXaX@X^.Y..X.X|.U.U.|.U.U.I.I.I.I.I.I.I.I.I.I.I.I.I.I.I.I.I.I.I.I.I.I.I.I.I.I.I.I.I.I.I.I.I.I.I.I.I.I.I.I.I.I.I.I.I.U.|..XoXoXfXOXU.U.@XaXkX9XGXZXZXGXFXZXrXrXAX6XT.U..X|. X X X X X X X X X XL.L.L.L.L.L.L.L.L.L.L.L.L.L.L.L.L.L.L.L.L.L.L.L.L.L.L.L.L.L.L.L.L.L. X XL.L.L.L.L.L.L.L.L.L.L.K.K.K.L.L.L.L.L.L.L.L.L.K.K.K.L.L. X X X XK.K.K.K.K.K.K.K.K.K.K.K.K.K.K.K.K.K.K.K.K.K.K.K.K.K.K.K.K.K.K.K.K.B.B.B.K.K.B.B.B.B.B.B.B.B.B.B.B.B.B.B.V.V.V.V.V.V.V.V.B.B.B.N.N.N.N.N.N.N.N.N.N.N.N.N.N.N.N.N.N.N.N.N.N.N.N.N.N.N.N.N.N.N.N.N.N.N.N.N.N.N.N.N.N.N.N.N.n.n.n.n.n.M.n.n.n.n.n.n.n.n.n.n.n.n.n.n.n.n.n.n.n.n.n.n.n.n.n.n.n.n.n.n.n.n.n.n.m.n.n.n.n.m.m.m.m.m.m.m.m.m.m.m.m.m.m.m.m.m.m.m.m.m.m.m.m.m.m.m.m.c.c.m.m.m.m.m.m.m.m.m.m.m.m.m.m.m.m.m.m.m.m.m.m.m.m.m.m.m.m.m.m.m.m.m.m.m.m.m.m.m.m.m.m.m.m.m.m.m.c.c.m.m.m.m.m.m.m.m.m.m.m.m.c.c.c.c.c.c.c.c.c.m.m.m.m.m.m.m.e.e.M.e.Y.T.jXAXnXnXwXnXnXVXVXCXVXZXZXDXVXVXnXnXrXDXAXnXVXVX9X5XqX9X8X9XIXkXT.9.c.c.c.c.c.c.c.c.x.x.x.x.x.x.x.x.x.x.x.x.x.x.x.x.z.z.z.z.z.z.z.z.z.z.z.z.z.z.z.z.z.z.z.z.z.z.z.z.z.z.z.z.5.5.5.5.8.z.x.M ",
"8XjX8XjXkXnXnXVXVXVXVXDXZXGXGXGXZXZXSXSXSXSXFXHXHXHXHXHXSXDXZXGXSXFXFXSXZXZXSXFXSXFXSXSXSXZXZXZXZXSXZXVXVXVXnXnXAXCXnXnXVXDXDXZXZXDXDXDXZXSXSXSXZXSXHXFXZXGXGXGXSXSXSXHXHXSXSXSXVXVXSXNXT.Y.oXT.T.U.I..X.XI.U.T..XY.Y.T.yXsXbXVXVX6XR.Y.L.|.|.|. X.X.X.X.XU.U.U.I.I..X.X|.I.T.T.W.U.T./.pXyX/./..X|.U.U.E.5XnXVXVXVXVXVXwXwXwXVXDXZXSXSXSXZXCXVXAXAXbXR.J.U.K.|.|.I.I.I.I.I.I.I.|.|.|.|.|.|.|.|.L.L.L.L.I.L.L.L. X X X XL.L.L.I.L.L.L.L.L.L.L.L.L.L.L.L.L.L.L.L.L.L.L.L.L.L.L.L.L.L.L.L.L.L.L.L.L.L.L.L.L.L.L.L.K.K.K. X X X X XK. X XK.V.B.L.P.P.P.L.L.P.P. X XP.P.K.K.K.K.L.L.L.L.L.L.L.L.L.L.K.K.K.K.K.K.K.K.K.K.K.L.K.P.K.K.K.K.K.K.K.K.K.B.B.B.B.B.B.V.V.V.N.N.N.V.V.V.V.V.N.N.N.N.N.N.N.N.N.N.N.N.N.N.N.N.N.N.N.N.N.N.N.N.N.N.N.N.N.N.N.N.N.N.N.N.N.N.N.N.N.N.N.N.N.N.N.N.N.N.N.N.N.N.N.N.n.n.n.n.n.n.n.n.n.n.n.n.n.n.n.n.n.n.n.n.n.n.n.n.n.n.n.n.n.n.n.n.n.n.n.n.n.n.n.n.n.n.n.m.m.n.n.n.n.m.m.m.m.m.n.m.n.n.n.m.m.n.n.n.m.m.m.m.m.m.m.m.m.m.m.m.m.m.m.m.m.m.m.m.m.m.m.m.n.n.n.n.n.n.n.n.m.m.m.m.m.m.m.m.n.m.m.C.m.m.m.m.C.m.m.n.c.c.m.C.9.N.M.m.c.m.m.m.0.Y.Y.J.E.5XnXnXnXnXnXnXnXVXVXVXDXDXVXVXVXVXVXVXVXnXnXnXnX8X5X5X8XbXnX8XwX8X5XR.J.Y.9.9.c.c.m.m.c.c.c.c.c.c.c.c.x.x.x.x.x.x.x.x.x.x.x.x.x.x.x.x.c.c.x.x.x.x.x.x.x.x.x.x.x.x.x.x.g.x.x.x.x.x.b.b.9.g.b.M ",
"8XjXjXjXjXkXnXVXVXVXVXZXZXGXGXGXZXSXSXSXSXSXFXFXFXSXSXSXSXZXZXFXSXFXFXSXZXZXSXFXFXFXFXSXSXZXZXZXZXSXSXDXVXVXnXwXnXkX8XVXDXDXZXZXZXDXVXDXZXZXSXSXSXHXHXHXFXHXFXGXGXFXHXHXHXFXZXDXZXrXZXVX4X).mXNXhX/.T.T.^.@XyXhX+X/.yXmXAXAXCXVXAXMXsX+XU.I.U.|.I.I.I.U.U.^.@XuX@X&XU.U.OX%XuXyXuX@XyXsXaXaXaXsX.X|.OXuXpXbXAXVXVXVXVXVXVXVXVXCXDXZXSXZXVXVXVXVXZXZXCX8XpXuXU.|.|.|.|.I.I.I.I.I.|.|.|.|.|.|.|.|.L.L.I.I.I.I.I.I.I.I.I.I.I.I.I.I. X X X X X X X X X X X X X X X X X X X X X X X X X X X X X X X X X X X X X X X X XL.L.L.L.L.P.P.B. XL.L. X X XK.|.|. X X XL. X XL.L.L.K.K.K.P.L.L.L.L.L.L.L.L.L.K.K.K.K.K.K.K.K.K.K.K.K.K.K.K.L.K.K.K.K.K.K.K.K.B.B.B.B.B.B.B.V.V.V.V.V.V.V.V.V.B.B.B.B.N.N.B.B.B.B.B.B.N.N.N.N.N.N.N.N.N.N.N.N.N.N.N.N.N.N.N.N.N.N.N.N.N.N.N.N.N.N.N.N.N.N.N.N.N.N.N.N.N.N.N.N.n.n.n.n.n.n.n.n.M.M.M.M.M.M.M.M.n.n.n.n.n.n.n.n.n.n.n.n.n.n.n.n.n.n.n.n.n.n.n.n.n.n.n.n.n.n.n.n.n.n.n.n.n.n.n.n.n.n.n.n.n.n.n.n.m.m.m.m.m.m.m.m.n.n.n.n.n.n.n.n.m.m.m.m.m.m.m.m.n.n.n.n.n.n.n.n.m.m.m.m.m.m.m.n.m.m.m.m.n.m.m.m.N.m.n.n.m.m.N.n.m.n.m.m.n.m.0.e.M.Y.J.J.R.6XnXnXnXnXnXnXnXnXVXVXVXVXVXVXVXVXVXVXVXnXnXnXkX8X5X5X8XjXkX8XwXnXjXhX@X.XK.m.c.c.c.9.c.c.c.c.c.c.c.c.b.b.b.b.c.c.b.c.c.c.c.c.c.c.c.c.b.c.c.x.c.b.c.b.c.c.c.c.b.b.b.b.b.b.x.c.c.c.b.b.9.x.b.f ",
"8XkXjXjX8X8XnXVXVXVXDXZXSXGXGXGXSXSXZXZXSXFXSXSXZXZXZXSXSXZXSXGXFXHXHXFXZXZXZXSXFXFXFXFXSXZXZXZXSXSXSXZXDXVXnX8X8X8X8XVXZXZXZXZXZXZXDXZXZXZXZXZXZXSXSXSXFXHXHXHXHXJXJXHXHXHXGXZXZXZXFXSXnXnXPXPXPXMXsXhXsXaXkXkXaXsXjXMXMXnX9XwXnXMXmXiX/.T.T.^.T.T.T.R./.pXaXmXaXyXR.R.@XpXaXaXaXjXjXjXkXbXkXjXT.T.@XcXmXMXCXVXVXVXVXVXVXDXDXSXDXZXZXDXrX9XVXVXZXGXGXVXNXmX/.T..X.X.X|.|.I.I.I.|.|.|.|.|.|.|.|.I.I.I.I.I.I.I.I.I.I.I.I.I.I.I.I. X X X X X X X X X X X X X X X X X X X X X X X X X X X X X X X X X X X X X X X XU.U.I.I.I.I.W..XL. XI.L.L. X XL.L.L.L.L.L. X X XL.L.L.L.P.L.L.L.L.L.L.L.L.L.L.L.K.K.L.L.L.L.L.L.K.K.K.K.K.K.L.L. X X X XL.L.L.L.B.B.K.B.B.B.B.B.B.B.B.B.B.B.B.B.B.B.B.B.B.B.B.B.B.B.B.B.B.B.B.B.V.N.N.N.N.N.N.N.N.N.N.N.N.N.N.N.N.N.N.N.N.N.N.N.N.N.N.N.N.N.N.N.N.N.N.N.N.N.N.N.N.N.N.N.N.N.N.N.M.M.N.N.M.M.M.M.n.n.n.n.n.n.n.n.n.n.n.n.n.n.n.n.n.n.n.n.n.n.n.n.n.n.n.n.n.n.n.n.n.n.n.n.n.n.n.n.n.n.n.n.n.n.n.n.n.n.n.n.n.n.n.n.n.n.n.n.n.n.n.n.n.n.n.n.n.n.n.n.n.n.n.n.n.n.n.n.n.n.n.n.n.n.n.n.n.m.m.n.n.m.m.n.c.9.C.C.0.M.M.9.m.m.c.m.n.9.e.J.Y.Y.T.T.4XsXjX8X8X8XwXnXnXnXnXnXnXnXnXnXnXnXVXVXnXnXnXnXjX6X5X5X6X8XjX8X8X8X5X4XT.U.M.m.m.m.m.m.c.c.c.c.c.c.c.c.c.c.c.c.c.c.c.c.m.m.m.m.m.m.m.m.c.c.c.c.c.c.c.c.c.c.c.c.c.c.c.c.c.c.c.c.c.c.c.c.9.x.b.M ",
"8XjXjXjX8X8XnXCXDXDXDXZXZXSXSXZXSXSXZXZXSXSXSXZXZXZXZXZXZXZXZXZXHXHXHXFXSXZXZXSXFXFXFXFXSXZXZXZXSXSXSXZXDXVXVXnXjX8XnXVXSXZXGXGXSXSXZXZXZXZXZXZXZXSXSXSXSXSXSXSXHXHXHXZXZXFXHXFXZXrXDXVX8X8X9X9XMXkX6X6X6X6X6X6XbX8X8X6X5X5X8X8X8X8XbXaXyX/.4XpXyXhXsXaXjXkXkXkXjXjXjX5X4X4X6XjXjXkXkXjXjXnXnX8X/.R.4XjXbXnXVXrXVXVXVXVXDXDXSXSXZXZXZXZXVXVXDXZXZXGXFXDXAXmX/.^..X.X.X.X.X.XU.U.|.|.|.|.|.|.|.|.I.I.I.I.I.I.I.I.I.I.I.I.I.I.I.I.I.I.I.I.I.I.I.I.I.I.I.I.I.I.I.I.L.L.L.L.L.L.L.L.L.L.L.L.L.L.L.L.I.I.I.I.I.I.I.I.I.I.I.I..X.X.X.XI.W.oXU.L.L.I.|.I.I.L.L. X X X XI.L.L.L.L.L. X X X X X X X X X XL.L.L.L.L.L.L.L.L.L.L.L.K.L.L.L.L.L.L.L.L.L.L.L.K.K.K.K.K.K.K.K.B.B.B.B.K.K.K.K.B.B.B.B.B.B.B.B.B.B.B.B.B.B.B.B.B.B.B.B.B.B.V.V.B.B.B.B.V.V.V.V.B.B.B.B.V.V.B.B.V.V.V.V.V.V.V.V.V.V.V.V.V.V.V.V.N.N.N.N.N.N.N.N.N.N.N.N.N.N.N.N.N.N.N.N.N.N.N.N.N.N.N.N.N.N.N.N.N.N.N.N.N.N.N.N.M.N.N.N.n.N.n.n.N.N.N.N.N.N.N.N.N.N.N.M.n.N.n.n.n.n.n.n.n.n.n.n.n.n.n.n.n.n.n.n.M.M.M.M.M.M.M.M.M.M.M.M.M.M.M.M.n.n.M.M.n.n.n.n.N.M.n.n.n.m.m.n.C.K.U./.OX%XOXY.C.M.M.C.n.C.e.E.J.U.T.R.4X6X8X8X8X8XnXnXnXnXnXnXnXnXnXkXnXnXnXnXnXkXkXkXjX5X5X5X5X6X5X7X5X6X4XE.Y.M.C.m.m.m.m.m.m.m.m.m.c.m.c.c.c.c.c.c.c.c.c.c.m.m.m.m.m.m.m.m.c.c.c.c.c.m.m.m.c.c.c.c.c.c.c.c.c.c.c.c.c.c.c.c.9.b.b.M ",
"8X8X8XjX8X8XnXCXDXDXDXZXZXZXZXZXSXZXZXZXZXZXZXDXZXDXVXVXVXVXVXVXZXSXSXSXSXSXSXFXFXSXFXSXSXZXZXZXZXZXZXDXVXDXCXDXVXnXVXVXZXZXZXGXHXSXZXZXDXDXDXZXZXZXZXVXnX8X8X8XnXnXnX8X8XnXVXVXSXnX8X8X8X8X8X6X5X5X5XhX5X5X5X6X5X6X6XsXsX6XsXaX8X8X6X6XaXjXjXjXjXjXbXnXnXbXjXjXjXkXbXjX7X7X7XsX8XbXnX8XnXnXnXwXbX6X8XnXnXVXDXrXDXDXDXDXZXSXSXSXFXFXSXZXZXSXZXDXZXZXSXDXnXaXT.oX.X.X.X.X.X.X.XW.|.|.|.|.|.|.|.|.U.U.U.U.U.|.|.U.U.U.U.U.|.|.|.|.|.|.|.|.|.|.|.|.|.|.|.|.|.|.|.|. X X X X.X.X.X.X|.|.|.|.|.|.|.|.|.|.|.|.|.|.|.|..X.X X XL.L.P.P.U.+XyX@X^.U.^.OXOX^..X X X XI.U..XU.L.L.L. X X|.L.L.L.L.L.L. X XL.L.L.L.L.L.L.L.L.L.L.L.L.L.L.L. X XL.L.L.L.L.L.L.L.L.L.L.L.L.L.K.L.L.L.L.L.L.L.K.K.K.K.K.K.K.K.K.K.K.K.K.K.K.K.B.B.B.B.B.B.B.B.B.B.B.B.B.B.B.B.V.V.B.B.B.B.B.B.B.B.B.B.B.B.B.B.B.B.B.B.B.B.B.B.V.V.V.V.V.V.V.V.V.V.V.V.V.V.V.V.N.N.N.N.N.N.N.N.N.N.N.N.N.N.N.N.N.N.N.N.N.N.N.N.M.M.N.N.N.N.M.M.M.M.N.N.N.N.N.N.M.M.N.M.N.N.N.N.N.N.M.M.M.M.M.M.M.M.M.M.M.M.M.M.M.M.M.M.M.M.M.M.M.M.M.M.M.M.N.M.M.M.M.M.M.M.M.M.M.M.N.n.n.C.M.K.^././.4X4XaXgXR.J.&X&XY.C.C.Y.J.E.E.E.E.3X5X8X8X8X8XnXnXnXnX8X8XnXnXnX8X8X8XkXnXkXjXkXjX8X5X5X5X3X5X5X5X8XbXhXR.M.M.C.m.m.m.m.m.m.m.m.m.m.m.m.m.m.m.m.m.m.m.m.m.m.m.c.m.m.c.c.c.m.m.m.m.m.m.m.m.m.m.m.m.m.m.m.m.m.m.m.m.m.m.m.m.9.c.m.M ",
"jX8X8X8X8X8XnXCXDXDXDXDXZXZXDXDXZXDXDXDXDXZXDXDXZXZXVXVXVXDXDXDXVXDXZXZXSXFXFXFXZXZXZXZXZXZXZXZXDXZXZXDXDXDXSXSXSXCXVXDXDXDXZXFXSXSXZXDXVXVXVXDXDXVXVXnX8X8X5X5X4X5X6X6X6X6X6XsXnXjXsXaXbXMXbX8XsXsXsXsXhXhXsXjX5X5XsXsXsXsXsXsXjX6X5X6XjXbXjX8XjX8X8X8X8XjXkXkXkX8X8XnXnXbXjX6XwXnXnXbXnXnXVXCXNXnXnXCXDXVXVXrXDXZXZXZXZXZXSXSXHXFXFXSXSXSXDXVXAXCXSXDXVXaXT..X^.oXoXW..XW.W.W..X.X.X.X.X.X.X.X.X.X.X.X.X.X.X.X.X.X.X.X.X.X.X.X.X.X.X.X.X.X.X.X.X.X.X.X.X.X.X.X.X.X.X.X.X.X.X.X.X.X.X.X.X.X.X.X.X.X.X.X.X.X.X.X|. X X|.oXOXOX^.E.hXaXaXyX/./.@X/.T.U.U.I..X^.^.OXoXI.I.L.L.L.L.L.L.I.I.I.I. X XI.I.I.I.I.I.I.I.I.I.I.I.L.L.L.L.L.L.L.L.L.L.L.L.L.L.L.L.L.L.L.L.L.L.L.L.L.L.L.L.L.L.L.L.L.L.L.L.L.L.L.L.L.L.L.L.L.L.L.L.K.K.K.K.L.L.L.L.K.K.K.K.K.B.B.K.K.K.K.K.K.K.K.K.K.K.K.K.K.K.K.K.K.K.K.B.B.B.B.B.B.B.B.B.V.V.B.B.V.V.V.V.B.B.B.B.B.B.B.B.V.B.V.V.V.V.V.V.V.V.B.B.V.V.V.V.V.V.V.V.V.V.N.N.V.V.V.V.V.V.N.N.V.V.V.V.V.N.N.V.N.N.M.N.N.N.N.N.M.M.N.N.M.M.M.M.N.N.N.N.N.N.N.N.M.M.M.M.M.M.N.N.M.M.M.M.M.M.N.N.C.n.n.N.M.M.U.^.4XE.H.t.r.E.3X3XR.gXfXY.C.C.M.Y.E.E.E.E.3X5X8XwX8X8XnXnXkXkX8X8XnXkXkX8X8X8X8X8XjX8XjXjX6X5X5X5X5X5X5X6XjXbXhXR.M.C.C.n.n.m.m.m.m.m.m.m.m.m.m.m.m.m.m.m.m.m.m.m.b.b.c.c.m.m.m.m.C.m.m.m.m.m.m.m.m.m.m.m.m.m.m.m.m.m.m.m.m.m.m.m.9.c.C.j ",
"nX8X6X8X8X8X8XVXDXVXVXVXDXVXVXVXVXVXVXVXVXVXVXDXZXDXVXrXVXDXZXDXrXVXDXZXZXSXSXSXZXZXZXZXZXZXZXZXDXDXDXDXZXSXSXSXSXZXZXZXZXDXDXSXSXSXSXZXZXDXDXZXSXVXnXCXAXAXMXnX5X5X6XjXsX5X5X6X9X6X6XsXkXkX6X7X6X6X5X5X5X4X5X5XjXjX6X5X5X5X6X6XjXsX8X8XjX8X8X8X8X8X8X6X8X8XkXbXnX8X9XnXCXAXnXkXnXnXnXnXnXnXVXZXVXwXVXSXDXVXCXVXDXZXZXZXZXZXSXSXFXFXFXFXSXZXVXrXNXVXZXZXCXbX^..XoXoXoXoXoX.XW.W..X.X.XoXoXoX.XoX.X.X.X.X.X.X.X.X.X.X.X.X.X.X.X.X.X.X.X.X.X.X.X.X.X.X.X.X.X.X.X.X.X.X.X.X.X.X.X.X.X.X.X.X.X.X.X.X.X.X.X.X.X.X.X.X|.L.U.^.iXmXmXkX5XjXkXjXpX4XyXhX4XR.T.T.oXOX/./.+XoXU.I.I..XI.L. X X X X.X.X.X.XI.I.I.I.I.|.I. X|.|.|.|.I.I.L.L.L.L.L.L.L.L.L.L. X X XL.L.L.L.L.L.L.L.L.L.L.L.L.L.L.L.L.L.L.L.L.L.L.L.L.L.L.L.L.L.L.L.L.L.L.L.L.L.L.L.L.L.L.L.L.L.L.P.L.L.L.L.L.L.L.L.L.P.L.P.P.K.K.K.K.K.K.K.K.K.K.K.K.K.K.K.K.B.B.B.B.B.B.B.B.B.B.B.B.B.B.B.B.B.B.B.B.B.B.B.B.B.B.B.B.B.B.B.B.V.V.B.V.V.V.V.V.V.B.V.V.V.V.V.V.V.B.V.V.V.V.V.V.V.V.V.V.V.V.V.V.V.V.V.V.V.V.V.V.V.V.V.V.V.V.V.V.N.N.N.N.N.N.N.N.M.M.M.M.M.M.M.M.M.n.N.M.M.Y.T.pX5XE.J.>.0.J.R.3X3XsXyXY.M.M.Y.J.E.E.E.R.4X5X6X8X8X8X8X8X8X8X8X8X8X8X8X8X8X8X8X8X8X8XjXjX5X4X4X5X5XsXhX6X5X6X4XE.C.C.C.C.m.m.n.n.m.m.m.m.m.m.m.m.C.C.C.C.C.n.n.C.m.m.m.C.C.C.M.M.M.M.n.C.m.m.m.m.m.m.m.m.m.m.m.m.m.m.m.m.m.C.C.C.9.m.C.m ",
"nXjX6X8X8X8X8XVXDXVXVXVXVXVXVXVXrXVXVXVXrXrXVXVXZXDXrX9X9XVXVXVXDXDXDXZXZXZXZXDXDXDXDXZXZXZXZXZXDXZXSXZXZXSXSXZXGXZXZXSXSXSXSXSXZXSXFXFXSXSXZXZXVX8X8XkXAXAXnXjXkX6XjXkXjX5X5XjXVXMXbX6XjX8X6XxX6X5X6XjXjXjXjX6X8X8X8X8XjXjX8X6XsXjXbXbXkXkXkXkXbXjXjX8X8XjXjXjXVXVXDXDXVXVXIXVXnXnXnXVXVXVXDXFXCXwXVXZXDXVXCXCXZXZXSXSXSXFXFXHXZXGXFXFXZXDXDXVXCXVXZXrXZXnX/.^.oXoXoXoXoXoXoX.X.X.XoXoXoXoX.X.X.X.X.X.X.X.X.X.X.X.X.X.X.X.X.X.X.X.X.X.X.X.X.X.X.X.X.X.X.X.X.X.X.X.X.X.X.X.X.X.X.X.X.X.X.X.X.X.X.X.X.X.X.X.X.X.XW.U.T.4XbXAXDXrXnXkX8X5X3X4XhXsXbXsXyX@X@X@X/.4XOXT.U.I..X.X.X.XI.I.I.I.W.W.W.W.I.I.I.I.I.I.I.I.oXoX|.U.I.I.L.L. X X X X X X X X X X X XL.L.L.L.L.L.L.L.L.L.L.L. X X X XL.L.L.L.L. X X XL.L.L.L.L.L.L.L.L.L.L.L.L.L.L.L.L.L.L.L.L.L.L.L.L.L.L.L.L.L.L.L.L.L.L.L.K.K.K.K.K.K.K.K.K.K.K.K.K.K.K.K.B.B.B.B.B.B.B.B.K.K.K.K.K.K.K.K.B.B.B.B.B.B.B.B.K.K.B.B.B.B.B.B.B.B.B.B.B.B.B.B.B.B.B.B.B.B.B.B.B.B.B.B.B.B.B.B.V.V.V.V.V.V.V.V.B.B.B.B.B.B.B.B.V.V.V.V.V.V.V.V.V.V.M.M.V.V.V.V.M.M.M.V.M.M.M.M.N.N.N.B.Y.J.R.6X3XE.Y. XB. XR.3X3X3XE.Y.M.Y.J.R.R.R.R.4X5X5X6X8X8X8X8X8X8X8X8X8X6X8X8X8X8X6X6X6X8X8X8X6X5X3X4X4X3X5XhX5X7X7X4XR.B.N.M.C.m.n.n.N.m.m.n.n.n.n.m.m.n.n.C.C.n.n.n.n.C.C.M.M.M.M.M.M.K.M.M.n.m.m.m.m.C.C.C.C.C.C.C.C.C.C.C.n.n.n.C.C.9.n.C.m ",
"VX8X8X8X8X8XVXDXDXDXDXVXVXVXVXVXnXnXnXnXnXnXnXnXCXVXVXnXkXkXnXMXDXDXVXDXDXDXDXDXDXDXZXDXDXZXZXSXSXSXZXZXZXSXSXFXFXSXZXZXZXSXSXSXFXFXFXHXHXFXSXSXSXnX8XsXsXjXjXkX8X8XkX8X8X8X9XwXVX8X9X8XVXAXnX8X8X8XjXjXjXjXkXnXnXkX8X8X8X8X8X8XjXjXjXjXjXkXkXnXkXkXnX8X8X8XnXVXDXDXDXDXCXnXnXkXjXnXnXVXCXVXVXAXVXCXAXDXDXZXZXSXSXSXSXSXSXSXFXFXFXSXZXZXZXCXVXVXVXDXZXCXnXbX@XT.W.^.OXOXOXoXoX.X.X.X.X.X.X.XoXoXW.W..XoXoXoXoXoX.X.X.X.X.X.X.X.X.X.X.X.X.X.X.X.X.X.X.X.X.X.X.X.X.X.X.X.X.X.X.X.XoXoXoXoXoXoXoXoX.X.X.X.X^.^.^.T.5XjXnXnXnXnXnXkXnXnXnXjX6X5X6XjXrXnXsX/.OXOXOXI..X.X.X.X.X.X.X.X|.|.|.|.|.|.|.|.|.|.|.|.|.|.|.|.|.|.|.|.U.U.|.I.I.I.I.I.I.I.I.I.I.I.I.I.I.I.I.I. X X X X X X X X X X X X X X X XL.L.L.L.L.L.L.L.L.L.L.L.L.L.L.L.L.L.L.L.L.L.L.L.L.L.L.L.L.L.L.L.L.L.L.L.L.L.L.L.L.L.L.L.L.L.L.L.L.L.L.L.L.P.L.L.K.K.K.K.K.K.K.K.B.B.B.B.B.B.B.B.K.K.K.K.K.K.K.K.P.K.K.K.K.K.K.K.K.K.K.K.K.K.K.K.K.K.K.K.K.K.K.K.K.K.K.K.K.K.K.K.B.B.B.B.K.K.K.K.V.V.V.V.V.V.V.V.C.V.K.P.K.M.V.V.V.M.B.B.B.V.N.N.B.B.B.V.V.V.V.M.B.B.V.M.M.J.R.5XT.J.J.J.T.T.&XT.>.M.Y.M.0.>.J.R.E.R.R.4X4X6X6XsX5X5X5X6X6X8X6X6X5X5XsXsXhX5X5X5X8X6X5X4X3XR.E.E.R.E.T.T.yXhX5X4X&XY.M.C.C.C.M.Y.J.Y.Y.Y.M.M.n.n.C.n.n.n.n.m.C.C.C.M.M.M.Y.Y.U.T.Y.Y.M.C.n.n.M.M.M.M.M.M.M.M.M.C.M.M.M.M.M.M.M.C.M.M.Y.m ",
"nXkX8X8X8XkXnXCXVXVXVXVXVXVXVXVXVXVXVXnXnXVXVXVXVXVXVXnXnXnXnXnXVXVXVXDXDXDXZXZXDXDXZXZXDXZXZXSXZXZXSXSXFXFXFXFXFXSXSXSXFXFXFXFXHXFXFXFXSXSXFXFXSXnX5X5X5XsXjXkX8XjXkXkX8X8X8XnXkX8XkXVXAXAXVXkXjXjXjXsXjXjXkX8XnXnXnXnXkXkXjXkXjXjXjX8X8XjXkXkXkXnXnXnX8XnXnXCXZXZXDXDXCXnXnXkX8XkXnXVXVXVXnXVXVXVXCXDXDXZXSXFXSXSXSXSXFXFXHXHXFXFXSXZXCXVXVXVXVXVXrXrXnXbXyXT.+XOX^.&XOXoXT.T.oXoX^.^.^.^.^.^.W.W.oXoXoXoXoXOX.X.X.X.X.X.X.X.X.X.X.X.X.X.X.X.X.X.X.X.X.X.X.X.X.X.X.X.X.X.X.X.XoXoXoXoXoXoXoXoXoX.XW.T.^.+X$XuXsXbXMXnXnXnXbXjX8XnXnXnXbXjXbXbXVXnXaX/.T.oXoXU..X.X.X.X.X.X.X.X|.|.|.|.|.|.|.|.|.|.|.|.|.|.|.|.|.|.|.|.|.U.U.U.I.I.I.I.I.|.I.I.I.I.I.I.I.I.I.I.|.|. X XI.I.I.I.I.I.I.I.I.I.I.I.I.L.I.I.I.I.I.I.L.L.L.L.L.L.L.L.L.L.L.L.L.L.L.L.L.L.L.L.L.L.L.L.L.L.L.L.L.L.L.L.L.L.L.L.L.L.L.L.L.L.L.L.L.L.L.L.K.K.K.K.K.K.K.K.K.K.K.K.K.K.K.K.K.K.K.K.K.K.K.K.L.L.L.L.K.K.K.K.K.K.L.K.L.K.K.K.K.K.K.K.P.P.K.K.K.K.K.K.P.P.K.K.K.B.B.B.K.K.K.K.M.V.B.B.K.K.K.K.K. X XK.B.B.V.B.B.B.K.K.K.B.V.N.K.K.B.V.V.V.B.B.B.M.V.Y.T./.4X5XR.E.E.T.T.T.J.J.M.Y.Y.Y.Y.J.R.yX4X4X4X4X4X5X5X5X6X6X5X5X5X5X5X7X5X5X6X5X5X5X5X5X4X4X4XR.R.R.E.E.J.Y.Y.Y.T.R.R.T.Y.Y.K.K.L.U.&XT.&X&XU.P.B.M.C.n.C.C.C.C.n.n.C.M.M.B.K.Y.Y.J.J.J.Y.Y.M.C.n.n.M.M.M.C.M.M.C.C.C.C.C.C.C.C.C.C.C.C.M.M.Y.m ",
"nXjX8XjXjXjXkXnXVXVXDXDXDXDXDXZXCXVXVXVXVXVXVXVXDXDXVXVXVXVXVXVXVXVXVXVXDXZXZXZXDXCXZXDXDXZXSXSXZXSXFXFXHXFXFXFXSXSXSXFXFXHXFXFXHXHXFXFXZXZXFXHXSXVX8X5X5XsXjXjXjXjXkXkX8XjXnXnX8X8XjXnXCXCXVXVXnXkX8X6X8XjXjX8XkXkXjX8X8X8X8X8XjXjX8X8XjX8XjXkXkXnXnXnXnXnXCXSXFXSXSXDXCXVXnXkXnXnXVXSXSXDXVXCXVXDXDXDXZXZXFXHXHXHXFXFXFXHXHXHXFXFXSXZXDXDXVXVXZXDXrXwXnXMXgX@XgXyX/.^.OX+X+X/.@X@X+X+X/././.T.OXOXoXoXoXoXOXOXoXoXoXoXoXoXoXoXoXoXoXoXoXoXoXoXoXoXoXoXoXoXoXoXoXoXoXoXoXoXoXoXoXoXoXoXoXoXoXoXoXoXOX/.@XpXaXmXnXnXnXnXnX8X8XjX8XnXnXnXnXnXnXMXVXnXaX/.T..XoXW..X.X.X.X.X.X.X.X|.|.|.|.|.|.|.|.|.|.|.|.|.|.|.|.|.|.|.|.|.|.|.|.|.|.|.|.|.|.|.|.|..X.X.X.X.X|.|.|.|.|.|. X|.|.I.I.I.I.I.I.I.I.I.I.I.I.I.I.I.I.I.I.I.I.I.I.I.I.I.L.I.L.I.I.I.I.I.I.I.I.L.I.I.I.I.L.L.L.L.L.L.L.L.L.L.L.L.L.L.L.L.L.L.L.L.L.P.P.P.L.L.L.L.L.L.L.L.L.L.L.L.L.L.L.L.L.L.L.L.L.L.L.L.L.L.L.L.L.L.L.L.L.L.L.L.L.L.P.L.P.P.L.P.P.P.P.P.P.P.K.P.P.P.P.P.K.K.K.K.K.K.K.K.P.K.K.K.K.K.K.K.B.B.B.B.B.B.N.N.B.B.K.L.K.K.K.B.K.K.B.B.B.K.K.K.K.M.Y.T.@XhX4XR.E.R.R.T.T.Y.e.0.Y.e.e.e.U./.hXsX4X4X4X3X3X3X7X5X8X8X6X5X7X4X4X4X5X5X5X5X5X4X5X5X4X4X4X4XyXyX/./.P.B.C.C.V.Y.Y.M.V.Y.Y.J.T.R.R.R.+XT.U.Y.Y.M.M.M.Y.Y.C.C.M.M.V.M.K.K.Y.Y.Y.Y.J.J.Y.M.M.M.C.n.M.M.M.M.M.M.M.M.M.M.M.M.M.M.M.M.M.M.M.M.K.m ",
"jX8X6XjXsX6X8XkXVXVXDXDXDXDXSXSXDXDXVXVXVXVXVXDXDXDXDXDXZXDXVXVXnXVXVXVXVXDXDXZXCXZXZXZXSXSXSXSXFXFXFXFXFXSXSXZXFXFXFXFXFXFXFXSXGXHXHXHXFXFXFXFXZXDXnXjX6X6X6X6XjXkXkXjXjXjXjXbXjXjX8X8XkXVXDXDXVXnX8X6X6X8X8X8X6X6X6X5X5X5X5X5XsXjX8X8X8X8XjXjX8XnXnXnXnXVXDXSXHXSXSXCXCXnXnXkXnXVXDXSXSXSXZXSXCXDXZXZXSXSXHXHXHXHXHXHXFXFXFXFXFXGXFXZXDXDXDXDXFXZXVXrXnXMXmXsXjXsX4X^.OX@XyXpXyXyXyXyXyX4X4X/.+X+XOXOXoXoXOXOXoXoXoXoXoXoXoXoXoXoXoXoXoXoXoXoXoXoXoXoXoXoXoXoXoXoXoXoXoXoXoXoXoXoXoXoXoXoXoXoXoXOX+XyXsXjXbXkXnXnXnXnXnX8X6XjXnXnXnX8X8X8XnXAXVXnXsX/.U..XoXoX.X.X.X.X.X.X.X.X.X.X.X.X.X.X.X.X.X.X.X.X.X.X.X.X.X.X.X.X.X.X.X|..X.X.X.X.X.X|.|..X.X.X.X.X.X.X.X.X.X.X|..XI.I.I.I.I.I.I.I.I.I.I.I.I.I.I.I.I.I.I.I.I.I.I.I.I.I.I.I.I.I.I.I.I.I.I.I.I.I.I.I.I.I.I.I.I.I.I.I.I.I.I.L.L.L.L.L.L.L.L.L.L.L.L.L.L.L.L.L.L.L.L.L.L.L.L.L.L.L.L.L.L.L.L.L.L.L.L.L.L.L.L.L.L.L.L.L.L.L.L.L.L.L.L.L.L.L.L.L.L.L.L.P.P.P.P.L.L.L.L.P.P.P.P.P.P.P.P.P.P.P.P. X XP.L.K.K.K.K.K.K.K.Y.L.L.P.K.B.K.P.L.L.K.K.K.P.P.K.B.K.P.P.L.P.Y.J.E.4X4XE.G.E.E.E.J.J.e.e.0.e.e.e.e.T.R.4X4XR.R.R.3X3X3X7X5X5X5X6X5X4X4X4X4X5X5X5X4X4X4X5X5X3X4X4X4X4X4XR.R.U.P.V.M.V.Y.Y.C.P.Y.J.E.R.R.E.E.E.E.J.J.J.J.Y.U.T.U.Y.Y.Y.K.B.M.Y.Y.Y.Y.Y.U.U.Y.Y.Y.M.M.C.M.M.M.M.M.M.M.M.M.M.M.M.M.M.M.M.M.M.M.M.B.P.m ",
"8X8XsXsXsX6X8XkXVXVXDXCXDXDXDXCXDXDXDXDXDXVXVXVXVXVXVXZXDXZXVXrXnXnXnXVXVXVXVXVXCXCXZXDXDXDXSXSXFXFXSXSXZXZXZXSXHXFXSXSXFXFXFXFXSXHXHXFXSXSXSXZXZXZXCXnX8X5X8XjXnXkXkXjX8X8X8X8XjXjX8X8XkXVXDXSXVXnX8X6X6XsX6X6X5X5X5X5X5X5X5X5X6X6X6X6X8X8X8X8X8X8XnXnXnXVXZXSXSXZXDXVXVXnXnXkXnXnXVXSXSXSXZXSXSXSXSXSXFXFXHXHXJXHXHXHXFXSXSXZXGXFXFXZXDXDXDXCXSXSXDXnXwXnXbXjXjXsXpX/.^./.yXhXhXhXhXhXhXhXpXhX@X@X@XOXOXoXoXOXoXoXoXoXoXoXoXoXoXoXoXoXoXoXoXoXoXoXoXoXoXoXoXoXoXoXoXoXoXoXoXoXoXoXoXoXoXoXoXoXOX^./.yXaXbXkX8XnX8XkXnXbXjXsXjXnXnXnX8X8X8XnXVXAXbXyX^.oXOXoXoXoXoXoXoXoXoXoXoXoXoXoXoXoXoXoXoX.X.X.X.XoXoXoXoXoX.XoX.X.X.X.X.X.X.X.X.X.X.XW..X.XW..X.X.X.X.X.X.X.X.X.X.X.XU.U.U.U.U.U..X.X.XU.I.I.I.I.I.I.I.I.I.I.I.I.I.I.I.I.I.I.I.I.I.I.I.I.I.I.I.I.I.I.I.I.I.I.I.I.I.I.I.I. X XI.I.I.I.I.I.L.L.L.L.L.L.L.L.L.L.L.L.L.L.L.L.L.L.L.L.L.L.L.L.L.L.L.L.L.L.L.L.L.L.L.L.L.L.L.L.L.L.L.L.L.L.L.L.P.P.P.P.P.P.P.P.P.P.P.P.P.P.P.P.P.P.P.P.P.P.P.P. XL.K.K.K.K.K.K.T.T.T./.+X/.T.T.K.K.P.P.P.P.P.P.P.P.P.K.K.P.P.P.U.U.E.R.R.E.J.J.E.E.E.J.Y.e.e.M.0.0.e.Y.E.E.E.H.E.E.R.R.4X4X4X5X3X4X5X4X4X3XR.4X3X3X3X3X3X3X4X4X3X3X3X3X3X3X3XE.E.J.Y.Y.U.T.T.U.T.T.T.E.R.E.E.T.E.E.E.E.E.T.R.R./.T.Y.Y.Y.Y.Y.M.Y.Y.M.Y.Y.U.U.Y.Y.M.M.M.M.M.M.M.M.M.M.M.M.M.M.M.M.M.M.M.M.M.M.M.M.V.K.m ",
"jXjXjXjXsX8XjXnXVXCXDXDXCXVXVXVXVXVXVXCXVXVXVXnXnXVXVXVXVXVXVXwXnXnXnXnXVXVXVXVXVXVXVXVXVXDXZXDXZXZXZXZXZXZXSXFXFXSXSXFXFXHXHXFXHXHXHXSXSXSXHXSXSXHXFXVX9X8XnXAXVXnXkX8XkXjX8X8X6X6X8XkXnXVXVXVXnXjX6X5X5X5X5X5X4X4X4X4X4X4X4X4X5X6X6X6X8XjX8X8X8XjXbXnXnXVXZXZXDXVXVXVXVXnXnXnXkXkXnXDXSXSXSXFXSXSXHXHXHXHXFXHXHXHXHXFXFXSXSXZXZXSXSXZXDXVXVXVXCXCXCXnX8X8X8X8XjXjXsXyX/././.yX5X5X5X6X6XsXsXsXyX4X4X@X/.OXOXOXoXOXoXoXoXoXOXOXoXoXoXoXoXOXoXOXOXOXoXoXoXoXOXOXOXOXoXoXoXoXOXOXoXoXoXoXoXoXoXoXOXoXT.R.4XaXjXjX8X8X6XaXaXaXjXjX8X8XnXnXnXnXnXnXAXjX/.^.oXOXOXOXoXoXoXoXoXoXoXoXoXoXoXoXoXoXoXoXoXoXoXoXoXoXoXoXoXoXoXoXoX^.^.^.W.W.W.^.W.W.W.W.W.W.W.W.W.W.W.W..X.X.X.X.X.X.X.X.X.X.X.X.X.X.X.XU.U..X.XU.U.U.U..X.X|..X.X|.|..X.X.X.X.X.X.X|..X.X|.|..X.X.X.X.XI.I.|.|.I.I.I.I..X.XI.I.I.I.I.I.I.I.I.I.L.L.I.L.L.L.L.L.I.I.I.I.I.I.L.L.I.I.I.I.L.L.L.L.I.I.I.I.L.L.L.L.I.I.I.I.L.L.L.L.L.L.L.L.L.L.L.L.L.L.L.L.L.L.L.L.L.L.L.L.L.L.L.L.P.P.L.L.K.P.P.P.P.L.I.W.4X4X4X5XhX4X/.R.U.P.P.K.P.P.P.L.P.P.P.P.P.P.Y.Y.J.T.R.R.E.J.J.U.E.T.T.T.Y.Y.e.e.9.e.Y.Y.J.J.J.r.J.J.T.T.R.R.R.R.E.R.R.R.E.E.E.E.E.E.R.E.E.E.R.R.5X4X5X5X5X5X5X5XE.E.J.J.T.T.T.T.T.T.E.E.E.T.T.T.R.R.R.R.T.T.R.R.T.J.Y.Y.Y.Y.Y.Y.Y.Y.Y.Y.Y.P.Y.Y.Y.V.M.M.M.M.M.Y.M.M.M.M.M.M.V.V.M.M.M.M.M.M.V.V.M.B.P.m ",
"nXjXjXjX8X8XkXVXDXDXZXZXCXVXVXVXnXVXVXVXVXVXVXnXnXnXnXVXVXVXVXrXnXnXnXnXVXVXVXVXnXVXVXVXVXVXDXDXZXZXZXZXZXSXSXFXSXSXSXFXFXSXZXDXSXSXZXVXCXSXAXVXDXSXFXZXDXDXSXSXDXVXVXnXnXnXnXkX8X8X8XkXnXnXnXjX8X6X6X5X4X4X4X4X/././.R././.4X4X5X5X6X6X6X8X8X8XjXjXjXbXnXnXVXZXVXVXVXVXVXVXVXnXnXnXnXDXSXFXFXHXSXSXFXHXFXFXHXHXHXHXHXFXFXSXSXZXZXSXSXZXVXwX8XkXnXnXnXbXbXbXjX8XjXjXaXsXyX@X@X@X7X5X5X5X5X6X6XsX6X5X5X4X@X@X+XOXOXOXOXOXOXOXOXOXOXOXOXOXOXOXOXOXOXOXOXOXOXOXOXOXOXOXOXOXOXOXOXOXoXoXoXoXoXoXoXoXOXoXT.T.R.4XhXsX5X5XhX4XhXsXjX8X6X8XbXnXnXnXnXnXVXjX/.oX.XOXOXOXoXoXoXoXoXoXoXoXoXoXoXoXoXoXoXoXoXoXoXoXoXoXoXoXoXoXoXoXoXoXoXoXoXoXoXoXoXoXoXoX.X.XoXoXoXoXoXoX.X.X.X.X.X.X.X.X.X.X.X.X.X.X.X.XU.U.W.W.W.W.U.U.W.W.W.W.W.W.W.W.W.W.W.W.W.W.W.W.W.W.W.W.W.W.W.W.W.W.W.W.W.W.W.W..X.X.XW..XW.I.I.W.W.I.I.L.I.I.I.I.I.L.I.I.I.I.I.|. X X X|.|.|.|.I.I.I.I.I.I.I.I.I.L.I.I.I.I.I.I.L.L.L.L.I.I.I.L.L.L.L.L.L.L.L.L.L.L.L.L.L.L.L.L.L.L.L.L.L.L.L.L.I.U.U.U.T.T././.4X4X5X5X4X3XR.R.&X|.I.P.K.P.L.L.P.P.L.L.P.P.Y.Y.J.E.R.E.J.J.Y.|.J.J.J.J.Y.e.e.e.M.M.Y.Y.Y.r.e.e.Y.Y.J.J.J.J.J.J.J.J.J.E.E.E.E.E.E.E.E.E.E.E.E.E.T.T.R.R.R.R.R.R.T.U.U.Y.U.J.J.J.Y.Y.Y.Y.J.J.T.T.T.T.T.U.U.J.J.J.Y.Y.Y.Y.Y.Y.Y.Y.Y.Y.Y.Y.Y.K.K.M.Y.K.V.B.B.K.K.Y.V.V.V.V.V.V.V.K.V.V.V.V.V.V.V.K.M.B.P.m ",
"nXjX8X8X6X8XkXVXVXVXDXDXVXVXVXVXnXnXnXnXnXnXnXnXnXnXnXnXnXVXVXVXnXnXnXVXVXVXVXVXVXVXCXVXVXVXDXZXZXZXSXSXSXSXZXZXZXSXSXFXSXZXrX9X9XwXwXwXnXnX8X5X9XVXZXSXFXFXFXZXSXDXVXVXCXAXMXnXnXnXnXbXnXnXkX8X5X5X5XyXyX/././././.R.R././.4X4X5X5X6X6X6X6X6X8XsXsXjX8X8XwXVXVXVXVXVXVXCXAXVXVXnXnXnXVXSXSXHXHXSXSXSXSXFXFXHXHXHXHXHXHXFXSXZXZXZXSXSXCXnX8X8X8X8X8XjXjXbXbXjX6X6X6XhXhXhXyX@X/.6X5X4X4X7X5X6XsX6X6X6X5XyX@X+X+XOXOXOXOXOXOXOXOXOXOXOXOXOXOXOXOXOXOXOXOXOXOXOXOXOXOXOXOXOXOXOXOXoXoXoXoXOXOXOXOX.XoXOX^.T.T./.4X4X4XyX/.yXsXjX8X6XjXjXjXkXnXnXnXMXjXyXOX.X.XOXOXoXoXoXoXoXoXoXoXoXoXoXoXoXoXoXoXoXoXoXoXoXoXoXoXoXoXoXoXoXoXoXoXoXoXoXoXoXoXoXoXoXoXoXoXoXoXoXoX.X.X.X.X.X.X.X.X.X.X.X.X.X.X.X.XW.U..X.X.X.X.X.X.X.X.X.X.X.X.X.X.X.X.X.X.X.X.X.X.X.X.X.X.X.X.X.XW.W..X.X.XW.W.W..X.X.X.X|.I.I.I.W.W.W.I.I.L.I.I.I.I.I.I.I.I.I.I..X.X.X.X.X.X.X.XI.I.I.I.I.I.I.I.I.I.I.I.I.I.I.I.L.L.L.L.I.I.I.I.L.L.L.L.L.L.L.L.L.L.L.L.L.L.L.L.L.L.L.L.L.L.L.L.OX&XT.R.R.4X4X4XR./.3X3XR.R.R.R.&X&X|.P.K.K.P.L.P.P.L.L.L.Y.Y.Y.r.J.J.J.G.Y.e.Y.e.e.e.e.>.>.>.e.C.0.0.e.e.e.e.e.0.0.e.e.e.e.e.r.Y.Y.J.J.T.R.R.R.T.T.T.T.T.E.E.E.U.U.U.U.U.U.U.U.Y.Y.K.K.Y.Y.Y.Y.P.P.L.P.Y.J.J.E.Y.Y.Y.Y.Y.Y.Y.Y.Y.K.K.L.K.Y.Y.Y.M.K.P.K.M.V.V.M.K.Y.V.B.B.K.Y.Y.V.V.K.K.K.K.K.K.K.K.K.K.K.K.K.K.B.B.P.m ",
"bXjXjXjX6X5XjXbXnXnXnXnXnXnXnXnXnXnXnXnXnXnXkX8XbXbXbXnXnXnXnXnXCXVXVXVXCXCXCXCXnXVXVXVXDXZXZXZXZXZXZXZXSXSXSXZXSXSXSXZXDXVXwX8X8X8X6X6X6X6X6X6X9XVXCXCXZXSXZXDXZXZXZXZXZXDXDXDXDXVXVXnXkX8X6X6XhXhX4X4X/./././././.R.R.R././.4X4X4X5XhXsX6X5X5XsXsX6XjXjXbXnXMXnXnXVXnXnXCXSXVXMXnXnXnXCXSXHXHXVXCXSXCXCXCXCXSXSXHXHXFXFXHXSXSXAXnXnXNXMX8X5X7X6X5X8XnXnX6X7X6X4X4XyX$X/./.4X4XsXsX4X/./.@X@X@X$X+XOXOXOX^././.9X8XsX@X^.OX%XOX%XOXOX%X%XOXoXOXOXOXOXOXOXOXoXoXOXOXOXOXOXOXOXOXOXOXOXOXOXOXOXOXOX^.^.T.R.4X5X6XyX4X/.R.4X4XhX5X5X5XaXjXjXjXbXbXmXpX^.OXOX^.^.+XOXOXOXOXOXOXoXoXoXoXoXOXOXoXoXoXOXOXOX^.^.^.OXOXoXoXoXoXoXoXoXoXOXoXoX.X.XoX^.oXT.T.T.^.^.^.^.^.oXoXoXoXoXoXoXoXT.T.T.T.T.T.T.T.^.^.^.^.^.^.^.^.oXoXoXoXoXoXoXoXW.W.W.W.W.W.W.W.OXoXoXoXW.W.W.W.OXoXoXoXoX.X.X.XU.|..X.X.X.XoX^.|.|.|.|..XW..X.X.X.XW.U.U.W..XU.U.^.^.U.U.W..XI..X|.U.T.^.W.I.L..X.X.X.X.XU.I.U.U.U.U.W.|.|.I.I.I.I.I.I.U.U.U.I.I.I.I.I.I.I.I.I. XL.P.P.L.I.oX&XR.R.3XR.R.R.R.R.R.R.R.R.R.R.R.R.4X4X4XE.T.T.U.Y.J.T.yXyXR.J.Y.B.U.U.Y.e.e.e.M.Y.e.e.e.e.>.e.Y.Y.Y.G.G.e.e.e.e.e.e.e.e.e.e.r.r.r.G.J.E.E.R.R.R.R.T.T.T.T.U.U.P.P.P.P.P.P.P.P.P.P.P.P.P.P.P.P.P.P.P.P.P.P.P.P.P.P.P.P.P.P.P.P.Y.Y.P.P.P.P.P.P.P.P.K.K.K.K.P.Y.Y.Y.Y.P.K.K.Y.Y.Y.Y.K.K.K.K.K.K.P.K.Y.P.K.K.Y.Y.Y.Y.B.P.U.m ",
"MXbXjX6X6X6X6XjX8XkXnXnXnXnXnXnXnXnXnXnXnXnXbXjXkXkXjXjX8XkXkXkXVXVXnXnXVXVXVXnXVXVXVXCXZXSXSXSXZXZXZXZXZXSXSXZXSXSXSXSXZXCXVXnXVXnXjX8X6X6X8XjXwXVXVXDXDXSXZXZXSXSXZXZXSXZXDXVXVXVXVXnXnXjX8XsXhXhX4X/.R.R.R./././.R.R.R././.4X4X4X4XhXsXsXsX6X6X6XsXjXjX8X8X8XjX8XkXnXnXAXAXCXkX8X8XwXVXZXSXSXVXVXCXDXVXVXVXDXSXFXHXFXSXSXSXCXkX8X8XjXjX5X3X7X5X5X6XjXjX6X5X6XyX/./././.4XsXsXjXjXsX4X4XyXyX@X/././.^.^./.sXmXnXMXMXgX@X^.^.^.J.T.@X^.OX%X%XOX^.OXOX+X+XOX^.^.OXOXOXOXOXOXOXOXOXOXOXOXOXOXOXOXOXOXOX@XyXpXsXaX4X/.R.R.R./.4X4XR.4X5XsXsX8XjXbXjX4X^.OXOXOX^.^.OXOXOXoXoXoXoXOXoXoXoXOXoXOXoXoXOXOX^.^.^.^.OXOXOXOXoXOXoXoXoXoXOXoXoXoXoX^.oX^.^.^.^.^.^.^.^.^.^.^.^.^.^.^.^.^.T.T.T.T.^.T.T.T.^.^.^.^.^.^.^.^.oXoXoX.XoXoXoXoX^.^.^.^.^.^.T.T.oXoXoXoXoX^.W.W..X.X.X.X.X.X.X.XT.^.T.U.U.W..XU..X|.|.|..XW.W..X.X.X.XW.U.U.U.I..X.X.X.X.XoXoX.X.X.XOXOXW.W.W..X.X.X.X.X.X.XU.I.|.U.U.W.|.|.|.I.U.|.|.|.U.|.U.U.I.I.I.I.I.I.I.I.I.I.I.I.I.U.T.T.R.R.R.E.E.E.T.T.R.R.R.4X4X4X4X4X5XsXsXpXyX@XOXT./.yXhXyXE.e.0.0.e.e.e.e.e.e.e.e.Y.e.Y.Y.Y.J.J.J.J.J.J.J.Y.Y.Y.Y.J.J.J.J.E.E.R.R.E.T.E.T.R.T.E.E.T.T.T.U.U.Y.P.P.P.P.P.P.P.P.P.P.P.P.P.P.P.P.P.P.P.P.P.P.P.P.P.P.P.P.P.P.P.P.P.P.P.P.P.P.P.P.P.P.P.P.P.K.P.P.Y.Y.Y.K.K.K.Y.Y.Y.Y.K.K.K.K.K.K.P.K.Y.K.K.K.Y.Y.Y.Y.K.P.U.m ",
"bX8X5X6XjXjXjXjX8X8XkXnXnXnXnXkXnXnXnXnXnXnXbXjXjXjX8X8X8X8X8XkXVXVXnXnXVXnXnXnXVXVXCXZXSXSXSXSXSXZXZXDXZXZXZXZXZXZXSXSXZXCXCXCXSXCXVXnXwXwXwXnXVXVXZXZXZXSXSXZXFXSXSXZXDXCXVXnXVXVXVXnXbXjX6X6X5X4X4XR.R.R.R.4X4X/././././././.4X4X4X4X5X5X5X5X4X5X6X6XjX8XnXnXbX8XjXkXkXkXnXnXnXnXnXVXDXZXZXZXVXVXDXVXVXVXVXVXDXSXSXZXDXVXVXnX4X3X3X4X4X3XR.R.4X4X6X6X6X5X4X4XyX@X/./.4XsXjXkXbXbXbXaXsXhXhX4X3X6XaXaXaXjXMXAXVXNXNXMXsX4X6XaXxXmXgX/.T.OX+XOX#X#X+X^./././.$XOXOXOXOXOXOXOXOXOXOXOXOXOXOXOXOXoXOXOX@X@XyXpXhX/.R.R.R.R.R.R.R.E.R.4X5X5X6X8XnXkX4X^.OXOXOXoXoXOXOXoXoXoXoXOXOXOXOXOXOXOXOXOXOXOXOXOXOXOXOXOX+XOXOXOXOXOXoXoXoXOXOXoXoXoXOX^.OX^.^.^.^..X.XoXoX^.oXoXoXoXoXoXoXT.T.^.^.oXoXoXoXoXoX^.oX^.^.^.^.oXoXoXoXoXoXoXoXT.T.T.T.&XT.T.T.T.T.&XOXOXoXoX|..X.X.XW.W.W.^.^.jXsX4X^.T.oX.X.XW.W.U.U.W.W.W.W.W..X.X.X.XoXoXoX.X.X|..XoXU.U.U.P.W..X.X|.oXOXT..X.X.X.XW..XU.U.U.U.W.W.U.U.U.U.|.|.|.|.|.|.|.|.|.|.U.U.|.|.|.|.U.U.W.^.^.T.T.E.T.T.E.J.J.E.T.T.R.R.R.4X4X4X4X4X4X4X5X4X4X4X/.R.yXhXsXsX4XE.J.Y.e.e.e.Y.Y.Y.Y.e.e.Y.Y.Y.J.J.J.J.J.J.J.J.J.J.J.J.E.E.E.E.R.R.R./.T.T.T.T.T.T.T.T.U.U.U.U.U.U.Y.U.P.P.L.P.P.P.P.P.L.L.L.L.L.L.L.L.P.P.P.P.P.P.P.P.P.P.P.P.P.P.P.P.P.P.P.P.P.P.P.P.P.P.P.P.P.P.P.P.Y.P.P.P.P.P.P.P.P.P.P.P.P.P.P.P.Y.P.P.P.P.P.P.P.K.L.U.m ",
"8X6X5X8XbXnXnXbXkXkXkXkXkXnXnXnX8XnXnXnXnXbXjX8X6X6X6X6X8X8X8X8XnXnXnXnXVXVXnXnXnXVXVXCXCXZXZXZXSXZXZXDXDXDXDXDXVXVXVXVXVXVXVXCXVXDXDXCXCXVXVXVXCXSXSXZXSXSXFXSXSXSXZXVXVXnXnXnXnXnXnXnXjX8X6X5X4X4XR.R.R.4X4X4X4X4X4X4X4X4X4X/.4X4X4X4X4X4X4X4X4X4X4X5X8XwXVXSXMXjX8XkX8X8X8X8XZXCXCXSXSXZXDXVXVXVXVXVXVXVXVXVXCXZXZXVXrXwXwX8XR.E.E.R.R.R.R./.4XhXsX5X4XyXyX@X+X/.@XpXsXaXjXjXbXbXbXjXjXsX5X5X8XVXAXAXAXVXAXAXnXnXnXMXbX8XbXAXPXAXnXbXaX/.^.OX%X#X+XOX+X@X@X@XOXOXOXOXOXOXOXOXOXOXOXOXOXOXOXOXOXoXOXOX+X/./.4X4X/./.R.R.R.R.R.T.R./.4X5X6XjXnXAXsX/./.OXOXOXOXOXOXoXoXOXOXOXOXOXOXOXOXOXOXOXOXOXOXOXOXOXOX+X+X+X+XOXOXOXOXOXOXOXOXOXOXOXOX+X/.^.^.^.^.oXoXOXOX^.^.oXoXoXoXoXoXT.T.^.^.oXoXoXoXoXoXoXoXoXoXoXoXoXoXoXoXoXoXoXoXT.T.T.T.&X&XT.&XT.oXoXoXoXoX.X.XT.T././.pXaXbXbXAXAXbX6X/.^..X.X.X.X.X.X.X.X.X.XW..X.X.X.X.XoXoXU.U.^.uXpX4XR.E.R.^.U.I.|.OXOXT..X.X.X.X.X.X.X.X.X.X.X.X.X.X.X.X|.|.|.|.|.|.|.|.|.|.U.U.U.|.|.|.T.T.T.T.T.T.E.E.J.J.J.J.J.E.R.R.3X3X3X4X4X4X4X4X4X4X4X4X4X4X4X4X4X5X6XjX6X4X/.T.U.J.U.T.OX+X&XT.Y.Y.Y.Y.J.r.e.e.e.e.e.J.J.J.J.J.E.E.E.E.E.E.T.T.U.U.U.U.U.U.U.U.U.U.U.U.I.U.U.I.I.I.I.I.I.I.U.U.I.I.I.I.I.I.I.I.U.U.U.U.Y.U.U.U.P.P.P.P.P.P.P.P.P.P.P.P.P.P.P.P.P.P.P.P.P.P.P.P.P.P.P.P.P.P.P.P.P.P.P.P.P.P.P.P.P.P.P.P.P.P.P.P.K.L.U.C ",
"jX8XjXbXnXbXjXjXnXbXjX8X8XbXnXnXnXnXnXnXnXkXjX6X6X6X6X8X8XjXjXkX8X8XkXnXnXnXnXnXnXnXVXVXVXDXDXZXZXCXVXVXVXVXVXVXVXVXVXVXVXVXVXVXrXVXDXZXZXZXZXDXZXSXSXZXZXSXSXZXDXZXDXVX8X8XnXMXVXVXnXnXjXsX5X5X4X4X4X4X4X4X4X4X4X4X4X4X4X4X4X4X4X4X4X4X4X4X4X4X4X5X5X6X8X8XVXDXMXjX8XkX8XkXVXAXSXSXSXZXCXVXVXnXVXVXVXVXVXVXVXVXCXCXDXVXwXnXnXnXR.T.E.R.R.R./.@X4XsXsX5X4XyXyX@X/.@XiXsXsX6X6X8XkXkXnXnXbXjX8X8XSXSXSXVXVXVXVXCXnX8X8XnXnX8X8XnXnX8X8XSXPXNXyX/.oXoXOX%X%X%XOXoX+X+X+X+X+X+X+X+X+X+X+X+X+X+X+X+X%XOXOX+X+X/././.4X4X4X4X/./././.T.T.R.R.4X5XjXnXAXjX4X/.@X@X+XOXOX^.^.OX+X+XOX^.OXOXOXOXOXOXOXOXOXOXOXOXOXOXOX+X+X+XOXOXOXOXOXOXOXOXOXOXOX/.@X/.+X+X+X+X+X+X+X+X^.^.^.^.^.^.^.^.OXOXOXOXoXoXoXoXoXoXoXoXoXoX^.oXoXoXoXoXoXoXoXoXoXoXoXoXoXoXoXoXoXoX.XW.W..XoXoXjXkXnXAXCXSXZXZXZXZXCXnX5X^.U..XoXoXoXoXoXoXoXoXoXoXoX.XU.U.T.T.4X4XsXMXAXAXnXMXnXkXsX@XOXoXoX.XoXoXoXoX.X.X.XW..X.X.X.XW.W.W.W..X.X.X.X|.|.|.|.U.U.U.U.U.U.U.U.T.T.T.T.T.T.E.E.E.E.E.E.R.3X4X4X4X4X4X4X4X4X4X4X5X4X5X5X4X3X3X3X4X5X5X6X5X4X/.R././.R./.4X4X4XR.T.U.J.J.J.J.J.J.J.J.J.J.E.E.R.R.T.T.T.U.U.U.U.U.I.U.U.U.U.I.I.I.P.L.L.U.I.U.U.U.U.U.U.I.I.U.U.U.U.U.I.I.I.I.I.I.U.U.U.U.U.U.U.U.P.P.P.P.U.U.U.U.Y.U.U.U.P.P.P.P.I.I.I.P.P.P.P.P.P.P.P.P.P.P.P.P.P.P.P.P.P.P.P.P.P.P.P.P.P.P.P.P.Y.L.U.N ",
"8X8XbXnXnXnXnXnXnXbXjX8X8XkXnXMXnXnXnXnXnXkXjX6X6X6XsXjXjXjXjXkXkXnXnXnXnXnXnXnXnXnXnXVXVXVXVXDXCXVXVXVXVXVXVXVXnXnXnXnXVXVXVXVXVXVXVXVXDXDXDXDXVXCXCXVXVXCXVXVXVXCXCXnX8X8XnXAXVXnXnXnXkXjX6X5X4X4X5XhX5X4X4X4X4X4X4X4X4X4X4X4XR.R.R.R./.4X4X4X4X5XjXbXnXnXVXDXAXnXnXnXnXVXSXSXDXZXCXVXVXnXnXnXnXnXnXnXnXnXnXnXnXVXVXVXVXMXMXMXT.T.T.R.R.R./.4X4XsXaXsX4XyXuX$X@XyXpXsX5X5X6XjXnXkXnXnXnXkXkXkXDXDXZXVXVXDXVXnXkX8XnXCXCXnX8X8X3X5X8XCXPXPXMX5XyX@X/.OXOXOX%X%X+X+X+X+X+X+X+X+X+X+X+X+X+X+X+X+XOX+X+X/./.@XyXyX4X4X4X/././.R./.R.R.R.R./.4XsXjXkXjXsXsXaXsXpX@X@X@X@XyXpXuX@X/.+X+X+X+X+X+X+X+XOXOXOXOXOX+X+X+X+X+X+XOXOXOXOXOX+XOXOXOXOX+X/.@X@X@X@X@X@X@X@X@XOXOXOXOXOXOXOXOXOXOXOXOXoXoXoXoXoXoXoXoXoXoXoXoXoXoXoXoXoXoX^.oXoXoXoXoXoXoXoXoXoXoXW.W.^.^.+X+XSXSXSXSXFXGXGXtXDXZXZXCXjX4X^.oXoXoXoXoXoXoXoXoX^.oXoXoXOX/.yXsXVXVXDXSXHXHXHXHXFXFXPXMX4XT.I.XXoXoXoXoX^.^.^.^.^.^.^.^.^.^.^.^.^.^.^.^.W.W.W.^.^.^.^.^.W.W.W.U.^.T.T.T.E.E.E.T.R.R.R.4X4X4X5X4X4X4X5X5X4X5XhXhX4X4X4X5X4X4XR.R./.4X4X5X4X4XR.R.R.R.E.E.R.R.R.E.T.T.U.J.J.Y.Y.J.J.J.U.T.T.T.R.R.U.U.U.I.I.|.|. XI.U.U.U.U.U.I.I.U.U.U.I.U.U.U.U.U.U.I.I.I.I.I.I.U.U.U.U.U.U.U.U.U.U.U.I.U.U.U.U.U.U.U.U.U.U.U.U.U.U.U.U.U.U.U.U.I.I.U.U.P.P.P.P.P.P.P.P.P.P.P.P.P.P.P.P.P.P.P.P.P.P.P.P.P.P.P.P.P.I.U.C ",
"kX8XkXnXbXnXnXnXjXjX8X8X8XjXbXnXnXbXkXjXjXjX6X6XsXsXsXjXjXjXjXkXnXnXnXnXnXnXnXnXnXnXnXnXVXVXVXVXnXnXnXnXVXVXVXVXnXnXnXVXVXVXVXVXnXnXVXVXVXVXVXnXnXnXnXnXnXnXnXwXnXnXnXnXnXnXnXVXnXnXnXkXjXsX6X5X5X5X6XhX5X4X4X4X4X4X4X4X4X4X4X4X4X4XR.R.R.R.4X4X3X6XbXnXMXVXCXCXAXCXCXCXVXDXZXVXDXVXVXnXnXkXjXbX8X8XjXbXbXbXbXbXkXnXnXnXnXnXjX5XE.T.R.R.R.R./.4X6XsXjXsX5X4X@X$XpXhXsX5X5X5XsXbXnXkXkXnXnXnXnXnXnXVXDXDXDXCXVXkX8XkXnXVXVXnXbX6XpXjXnXVXDXDXAXnXAXMXjX5X/.^.%X%X+X+X+X+X+X+X+X+X+X+X+X+X+X+X+X+XOX+X/././././.@X4X4X4X/.R.T.T./.R.R.R././.4X4X6XjXsXaXjXkXjXsX4XpXyXyXpXsXsXpX4X+X+X+X+X+X+X+X+XOXOXOXOX+X+X+X+XOXOXOXOXOX+X+X+X@X+XOXOXOX^.+X/././././././././.^.^.^.^.^.^.^.^.OXOXoXoXOXOXOXOXoXoXoXoXoXoXoXoX^.^.^.^.^.^.^.^.OXOXOXOXOXOXOXOXOXOXOX+X@XyXhXsXjXkXnXnXCXDXSXSXCXDXDXSXVXsX/.OXoXoXoXoXoXoXoXoXT.^.oXOX@XsXbXAXSXFXHXGXGXGXHXHXJXHXJXHXVX3XU.oXoXoXoXoXoXoXoX^.^.^.oXoXoXoXoXoXoXoXoXoX.X.XoXoXoXoX^.^.^.W.W.W.^.T.T.T.U.J.J.J.T.T.R./.4X4X4X3X4X4XR.R.4X4X4X4XyX4XyXhXhX4X/./.E.R./.R.R./.R.T.E.E.E.T.T.T.T.T.T.E.J.J.Y.U.U.U.U.U.U.U.U.U.U.U.U.U.U.I.I.I.|. XU.U.U.U.U.U.U.U.U.U.U.U.U.U.I.U.I.U.I.I.I.I.U.U.U.U.U.U.U.U.U.U.U.U.U.U.U.U.U.U.U.U.U.U.U.U.U.U.U.U.U.U.U.U.U.U.I.I.U.U.U.U.U.U.U.U.U.P.P.P.U.U.U.U.P.P.P.P.U.U.U.U.U.P.U.U.U.U.P.I.U.N ",
"AXnXkXkXkX8X8XnX8X8X8X8X8X8XjXjXjX8X8X8X8X8X6X5XjXsXsX6X6X8XjXjXkXnXnXnX8X8XnXnXnXnXnXnXVXnXwXwXnXnXnXnXnXVXnXnXnXnXnXnXVXVXVXVXbXnXVXAXDXVXkX8X8XjXnXnXnXnXnXwX8X8XnXnXVXVXnXnXwX8X8X8XjXsX6X5X6X5X5X5X4X4X4X4X4X4X4X4X4X4X4X4XsXpXhX4X4X4X4X4X6X8XbXnXnXnXnXnXVXVXCXVXVXDXDXrXVXVXnX8X8X6X6XsX5X5X6X8XjXjX8X8X6X8X8XjXkX8X3XH.E.E.R.R.R./.4X4X6XsXjXjX6X4X/.$X4X6X5X6XhXsXaXjXnXkXkXnXnXnXnXVXCXSXDXrXwXVXAXMX8XkXnX8X8XjXjXaXyX5XnXSXZXqXVXPXGXHXHXAXxX/./.).+X+X+X+X+X+X+X+X+X+X$X+X+X+X+X+X@X@X$XpXyX4X/.R.4X4X4XR.T.T.T.^./././.4X4X4X4X4X5X5X5X5X6X8X5X7X5X4X4X4X5X6X5X4X+X+X+X+X+X+X+X+XOXOXOXOXOX+X+X+XOXOXOXOXOX+XOXOX@X@XOXOX^.^././././././././././.^.^.^.^.^.^.^.^.oXoXoXoXOXOXOXOXoXoXoXoXoXoXoXoX^.^.^.^.^.^.^.^.OXOXOXOXOXOXOXOX+X@X@XpXsXjXkXkXaXaXsX8X8XbXnXnXAXVXVXZXCXjX/.^.^.oXoXoXoXoXoXoX^.OXoXOX/.5X8XVXDXFXJXGXGXHXJXHXJXZXGXJXJXkX@X&XoXoXoXoXoX^.^.^.^.^.^.oXoXoXoXoXoXoXoXoXoXoXoXoXoX^.^.^.^.^.^.^..XU.T.T.U.J.Y.Y.Y.Y.J.T.T.E.E.E.R.R.E.E.E.E.R.R.R.E.E.R.R.E.E.T.E.T.R.E.E.T.T.T.U.T.&X&X&X|.|.|.T.T.T.U.U.U.U.U.U.U.U.U.U.U.I.I.U.U.U.U.U.U.U.U.U.U.U.U.U.U.U.U.U.U.U.U.U.I.I.U.U.U.U.U.U.U.U.U.U.U.U.U.U.U.U.U.U.U.U.U.U.U.U.U.U.U.U.U.U.U.U.U.U.U.U.U.U.U.U.U.I.I.I.U.U.U.U.U.U.U.U.U.U.U.U.U.U.U.U.U.U.U.U.U.U.U.U.U.U.U.U.U.P.U.U.N ",
"nXjX8XjXkXkXjX5X6X6X6X6XjXjXbXnXsXsX6X6X6X6XsXsXjXjXjXaXjXjXjXjXnXkXnXnXnXnXnXnXkXkXkXbXbXnX8X8XkXnXVXDXZXSXDXVXkXnXnXnXVXCXCXCXrXrXDXVXrXwX8X8X5X5XsXaXaXjXaXaX8XkXnXnXnXwXnXnXjXjX6X6X5X5X5X5XhXsXsX5X5X4X4X4X4X6XpX4X/.5X6X8XDXnX8X5X4X4X5X5XjXjXjX8X8XjXjXkX8X8XkXkXkXkXbXbX8X8X6X7X7X7X4X4X/.4X4X4X4XyXyX4XyXhXsXyXR.E.E.T.T.T.R.T.E./.yXpX6X9XrXHXMX4XR.gX5X4XuXdXaX6X6XbX8XnXnX8X8XwXVXrXAXCXVX9XnXVXMXjX6X6X6XsXsXsXhX5X7X5X8XnXDXZXFXHXHXGXHXKXSX5XR.yXuX/./.uXiX@X+X%XOX%X%XOX%X%X+X%X@XyX4X4X4X@X@XOXyXyX@X@X/.R./.4X@X@X@X/./.4X4X4X4X/./.E./.yXyXyX4X/./././.+X+X+X%X%X+X@X@X+X%X%X^.@X@XOXOX%X%XOX@X/.+X+X$X%XOXoX(.+X+X@X@X@X+X(.OXOXOXOXOXOXOXOXOXOXOXOXOXOXOXOXOXOXOXOXOXOXOXOXOXOXOXOXOXOXOXOX+X^.^.^.OXOXOXOXOXOXOX^./.4X4X4X4X4X5XsXsXjX8X8X6X6X8XjXkXjXjXsX6X5X6XbXmXaX/.T./.^.^.^.oXoXoXoXoXoXoXOX@X4X5XMXZXFXHXGXGXJXJXGXHXJXJXJXHXSXjXR.oX^.^.^.^.oX.X.X^.^.^.^.^.^.^.^..XoXoXW.W..X.X.X^.^.^.^.oXoXW.U.T.T.^.T.U.U.T.T.U.U.J.T.U.U.T.&XR.R.R.R.R.R.E.E.T.T.E.J.J.J.U.U.T.T.T.U.U.U.W.W.U.U.U.U.U.U.U.U.U.U.U.U.U.U.U.U.U.U.U.U.U.U.U.U.U.U.U.U.U.U.U.U.U.U.U.U.U.U.U.U.U.U.U.U.U.U.U.U.U.U.U.U.U.U.U.U.U.U.U.U.U.U.U.U.U.U.U.U.U.U.U.U.U.U.U.U.U.U.U.U.U.U.U.U.U.U.U.U.U.U.U.U.U.U.U.U.|.L.P.P.I.U.U.U.U.I.I.I.I.I.I.P.U.U.|.P.P.I.U.U.P.U.U.B ",
"bXjX6X5X5X5X4X4X4X4X4X5XsXsXaXjXsX6X6X6X6XsXsXsX6X6XsXsXsXsXjXjXjXjXjXjXjXjXjXjXjXjXjXkXkXkX8X8XVXCXZXZXSXSXZXVX8X8XnXnXnXVXVXCXDXCXVXnXnXbXjXaX5X5X6X6X6X6X6X5X8XjXnXnXnXnXnXkXjXsX6X6X6X6X6X6XsXsXsXsX5X5X4X4X5XR.R.pXpX5XjXAXHX8X3X4XsXhX4X5X5X5X6X6X5X6X6XsXjX8X8X6X5X5X4X4X4X4XR.R.R.T.&X&XE.E.T.E.E.R.E.E.R.R./.R.E.E.E.T.T.T.T.E.R./.4X/./.MXHXZX8XjXMXPXSXmXpXpX6X5X5XsX8XjXjXjXkXnXVXnXnXVXVXwXwX8X6X4X5X7X5X5X4X4X4X4XjXbXnXCXZXSXHXLXHXSXHXLXPXnXaXBXcXpXpXsXpX/./.@XhXsXyX/.@X/./.yX@X4X4XpX4X/.^.OXR././.@X@X@XyXyXOXOX+X+X@X@X/./././.@X@X@X@X4X4X4X4X4X4X/./././.^.OX$X$X(.^.OX%X%X%X%X+X+X+X@X^.+X+X+X+X+X+X%X%X).+X+X+X+X+X+X^.+X+XOXOX+X+X+X+XOXOXOXOXOXOXOXOXOXOXOXOXOXOXOXOXOXOXOXOXOXOXOXOXOXOX^.OXOXOXOXOX^.^.^././.yXpXhX4X4X5XsXsXjXjX8X8X6X6XjXjXjX6X5X5X5X5X6XaXpX/.T.OXOXOXOXOX^.OX+X^.^././.yX4X7XbXVXVXZXSXHXHXSXZXVXZXGXHXJXKXPXMX/.4XpXsXpX/.T.T.^.^.^.oXoXoX.XU.U.U.T.T.T.^.^.U.^.^.^.^.^.^.T.T.T.W.^..XoX^.U.U.T.T.T.T.T.^.T.R.T.T.R.R.R.R.T.T.T.T.T.T.T.T.^.^.T.T.T.U.U.U.U.U.U.U.U.U.U.U.U.U.U.U.U.U.U.U.U.U.U.U.U.U.U.U.U.U.U.U.U.U.U.U.U.U.U.U.U.U.U.U.U.U.U.U.U.U.U.U.U.U.U.U.U.U.U.U.U.U.U.U.U.U.U.U.U.U.U.U.U.U.U.U.U.U.U.U.U.U.U.U.U.U.U.U.U.U.U.U.U.U.U.U.U.U.U.U.U.U.U.U.U.U.U.U.U.U.Y.U.Y.Y.Y.Y.U.U.U.U.U.Y.Y.U.U.U.I.U.T.V ",
"jX6X5X4X4X4XyXyXyXyXyXyXyXpXhXhX6X6X6X6XsX6X6X6X6X6X6X6XsXsXsXjX6XjXjX6X6X6XjXjXkXkXkXjX8X8X8X8XCXDXZXDXCXCXAXnX8XjXkXnXnXnXnXVXMXMXMXbXjXsXsXpX4X4X4X4X5X5X5X5X8X8XkXnXnXnXnX8X6X6X5X5X6XsXsXsXsXsXsXsXsX5X5X5XsXsXpX4X4XsXnXVXHXVX8XsXhXyXyXsX4X4X5X5X4X3X3X3XyXyX/.R.R.E.E.E.T.T.T.U.U.U.|.|.Y.U.J.J.J.T.E.E.J.E.E.E.E.T.T.T.T.T.T.R./.4X5X4X+XmXAX9X9XSXHXGXZX8X7X4X6X8X5X5X5X6XsXsXjXbXbXbXnXnXnXnXnX8X5X7XyX4X4X4X4X5X6XsXkXAXSXZXDXDXCXCXkXkXnXVXnXjXsXcXsXhX7X5X6XjXMXNXPXAXjX7X4X4X4X6XpX4XpXsXpX/.T.T.E.T./.@X@X@X@X@X$X%X%X%X%X%X%X%X+XOX+X%X+X/./.4XE.3X7X6X6XbXMXNXmX7XR.7XxXxX4XR.%XOXOXOX+X@X).).%X%X+X+X+X+X@X@X@X+XOXOX+X%X%X+X+X+X+X+X+X+X+X+XOXOX+X+X+X+X+X+XOXOXOXOXOXOXOXOXOXOXOXOXOXOXOXOXOXOX+X+XOX^././././.@X/./.4X5X6X4X4X4X5X5X6X6X6XbXjXjXjXjXjXjXsXsX4X4X5XsXyX/./.T.OXOXOX^.^./.@X4X6XsXaXbX8X8XnXAXVXCXHXHXSXZXSXCXSXHXFXGXHXHXHXjXnXAXAXAXMXjX6XoXoX^.oXoXOXoX.X/./.4X4XsXsX4X/.T.^.oX^.^.T././.^.^.W.W.W.oX^.^././././.^.^.^.R.T.T.T././.T.T.T.OXT.T.T.T.^.^.^.T.T.T.T.U.U.U.U.U.U.U.U.U.U.U.U.U.U.U.U.U.U.U.U.U.U.U.U.U.U.U.U.U.U.U.U.U.U.U.U.U.U.U.U.U.U.U.U.U.U.U.U.U.U.U.U.U.U.U.U.U.U.U.U.U.U.U.U.U.U.U.U.U.U.U.U.U.U.U.U.U.U.U.U.U.U.U.U.U.U.U.U.U.U.U.U.U.U.U.U.U.U.U.U.U.U.U.U.J.U.U.U.U.U.U.U.U.U.U.^.U.U.U.U.U.U.U.Y.L.U.T.V ",
"nXkX8X5X5X4X4XyX5X5XhX5X4X4X4X4X5X5X5X5X5X5X5X5X5X5X5X5X5X5X6X6X5X5X5X5X5X5X6X6XjXjXjXjX6X6XjXnXVXVXVXVXnXnXbXjXjXjXkXkXkXkXkXnXbXjXjX6X5X4X4X4X/.4X/.4X4X4X4X4X6X8XnXnXnXnXkX8XsX6X6X6XsXsXsXsX5XhXsXsXsXsXsXsX3XsXhXR.R.jXAXAXVXSXMX5XE.R./.R.E.R.R.R.T.E.E.E.T.U.J.J.J.U.J.J.J.J.J.J.J.J.Y.Y.Y.Y.Y.Y.Y.J.J.J.E.T.T.T.T.T.T.T.J.T.R.R.E.R.4X5XpX6X9X9XVXZXZXrXHXDXMXAXSXCX8X7X4X4X4XyXhXsXsX7XsXaXaXsX6X6X5X4XyXyXyX4X5X5XsXsX9XSXSXDXwXwX8X7X4X5X5X3X3X3X4X4XR.3X3X5X8XAXAXNXnXnX6X5XsXjXmXNXgX4X4XaXaX4XR.R.R./.4X4X4X/./././././.^.OXOXOX%X%X+X+X%X$X@XpXBXjXbXnXVXVXVXDXZXFXSXZXFXFXZXDXDXpX4X/.yX$X/./.$XOX%X+X@X/./.yXpXhX/.^.^.#X#X+X+X+X+X+X+X+X+X+X+X+X+X+X+X+X+X+X+XOXOXOXOX+X+X+XOXOXOXOXOXOXOXOXOX+X+X+XOX^./.@XyXiXuX@X/./.4X4X4XR.R.R.4X4X4X5X5X5X5X5X5X5X5X5X5XaX5X4X4XyX/.@X@XoXOXOX+X/./.yXpX6XjXsXjXbXjX6XjXSXSXSXHXHXZXZXSXLXHXHXHXJXHX9X0X8XnXVXVXVXVXnXnXuXyX/./././.+X+XjXjXbXnXMXMXbXsXOXOX^.^././.4XpX$X^.T.U.^.^./.^.@X@XR.R.^.^.^.T.T.T.^.^.^.T.T.T.T.T.T.U.U.U.W.W.T.T.T.^.^.^.^.U.^.^.^.^.^.^.W.U.W.W.U.U.U.U.U.U.^.^.^.^.^.^.^.^.W.W.W.W.^.^.^.^.^.W.^.^.^.^.U.^.U.U.U.U.U.U.U.U.^.^.^.W.U.U.U.W.U.U.U.U.U.U.U.U.U.U.U.U.U.U.U.U.U.U.U.U.U.U.U.U.U.U.U.U.U.U.U.U.U.U.U.U.U.U.U.U.U.U.U.U.U.U.U.I.U.U.U.U.Y.Y.U.U.I.U.U.U.U.U.U.I.I.U.T.V ",
"VXnXnXjX6X5X4X4X3X7X5X5X5X4X4X5X4X4X4X5X4X4X4X4X4X4X4X4X4X4X4X4X/./././././.4X4X3X4X4X4X4X5XjXmXkXkXkXnXjX6X6X4X5X5XsXsX6XjXjXjX8X8X6X5X4X4X4X4X/.R.R.R././.4X4X4XsXbXnXnXkXjXjXaXsXsXsXsXsX6X5X5XsXsXsXsXsXsXsX5X4XyXhX4X3X8XDX9XVXnX5X3X4XR.G.E.J.U.U.U.U.U.U.U.U.U.U.T.T.T.T.J.J.J.J.J.U.U.U.|.U.U.U.Y.Y.U.U.T.T.T.T.T.T.T.T.T./.R.R.3X6XnXnXnXVXZXFXZXVXCXSXrXDXCXSXFXZX8X7X4X4XR.R.R.R.R.R.R.R.R.R.R.R.R.R.R.R.R./.4X5X5X6X9XCXSXVX8X8X6X7XpXaXsX5X4X5XhX5X6XjXMXAXPXPXnX7X7X5X5XsXmXsXyXpXpXR.R.yXgXyXR.R./.4XyX5X6X6XpXpX8X6X6X6XpXyX@X/.$X+XOX$X@X/.aXNXSXSXSXSXFXGXZXZXZXGXFXJXHXFXFXHXSXCXMXMXcX+XoXOXOX@X@XyXpXaXmXMXbXsX7X).)./.+X+X+X+X+X+X+X+X+X+X+X+X+X+X+X+X+X+X+X+X+X+X+X+X+X+X+X+X+X+X+X+X+X+X@X+X+X+X/./.yXiXgXyX/.E././.R.R.R.R.R.R.4X4X4X4X5X5X5X4X5X5X6X6XsX5X/./././././.%X+X@X@XyXpXhXhX6XsX6X5XsXsX5XsXwXZXHXGXGXGXGXFXGXJXKXSX9X3X5XmXkXnXnXnX8XkXnXbXmXjX6X7X4X4X4X5X8XjXkXnXnXnXnXjXuX@X/./.yXpXsX6XiXyX/././.@X/././.4X4XR.OXOXOXoX^.^.^.^.^.^.^.T.^.^.^.^.^.^.W.W.W.^.^.^.^.^.T.T.^.^.^.^.^.^.T.T.^.^.^.^.T.T.T.T.^.^.^.^.^.^.^.^.T.T.T.^.^.^.^.^.^.^.^.^.^.^.^.^.^.^.T.T.T.T.^.T.T.T.T.U.T.T.T.T.T.T.T.T.U.U.U.U.U.U.U.U.U.U.U.U.U.U.U.U.U.U.U.U.U.U.U.U.U.U.U.U.U.U.U.U.U.U.U.U.I.I.|.|.|.|..X.XI.I..X.XI.I.I.I.|.I.I.U.U.U.I. XI.^.^.Z ",
"8XjXsXsX6X5X5X5X6XjXjXsX5X5X4X4X4XyXyXyX4X4X4X4X/./.R.R.R.R.R.R.R.R.R.R.R./././.R.R.R.R.R.R.4X4X4X4X4X4X4X/.R.E./.4X4XhXhXsXsXaXjX8X6X6X5X5X4X4XyXyX@X@X/./.yXyX/.5XsXaX6X6XsXaXsXsX6X5X6X5X5X5X4X4X4X4X4X4X4X4XsXjXmXsX5X5X9XrX9XrXVXCXnX8X8XjX4X/.T.T.U.U.J.J.T.U.J.J.E.E.J.J.J.J.U.J.J.J.J.J.J.J.J.J.J.J.T.T.U.J.J.J.T.T.T.T./.E.E.3XnXPXLXHXJXJXJXHXSXPXPXSXGXZXSXFXHXHXPXPXpX4XR.R.R.E.E.E.E.E.T.R.R.T.E.E.E.R.R.4X5XsXsXaXjXbXnX8X8XjXbXjXmXmXmXaXsXjXjXjXMXMXMXAXAXAXbX3XjXjXsXhXyXE.J.T./.J.J.T.@X/./././.4X5X8XjXbXbXmXCXCXAXNXNXbXaX5X4X4XyXpXyX4XsXMXVXVXDXZXFXFXFXFXPXSXCXSXHXHXSXCXGXGXZXAXmXsXuX%XpXsXsXbXbXMXAXAXPXAXnXMXmXpX@X$X+X+X+X+X+X+X+X+X+X+X+X+X+X+X+X+X+X+X+X+X+X+X+X+X+X+X+X+X+X+X+X+X@X+X+X/././.yXpXyXR.E.E.E./.R.R.R.R.R./././.yXyXyXhXhXhXsXsXjXmXsX4X/././.^.^./.+X/././.4X4XR.R.R.4XR.R.4X4X4XyX9XZXJXJXGXHXHXHXKXrX0X0X6XjXgXgXmXmXMXMXnXnXnXMXnXnXnXkXjX8X6X5X5X8X8X8X8XjXjXjXdXyX/./.pXsXsX5XhXhXhXhXhXhX4X3X3X5X4XR.T.OXOX&XoXoXoXoX^.^.^.^.oXoXoXoXoX^.^.^.W.^.^.^.^.^.T.T.^.^.^.^.^.^.^.^.^.^.^.^.T.T.T.^.^.^.^.^.^.^.^.^.^.^.^.^.^.^.^.^.^.^.^.^.^.^.^.^.^.^.^.^.^.^.^.^.^.^.^.T.T.T.^.^.T.T.T.T.T.T.U.U.U.U.U.T.T.T.T.T.T.T.U.U.U.U.U.T.U.U.U.U.U.U.U.U.U.U.U.U.U.U.U.U..X|.|.I.U.U.U.Y.U.U.U.U.U.U.U.U.I.Y.J.T.T.T.U.P.U.T.T.V ",
"T.T.R.R././.4X4XhXsXsXpX4X/.R.R.R.R.R.R.R.R.R.R.T.T.T.T.T.T.T.T.T.T.T.T.R.R.R.R.R.R.R.R.T.E.E.E.T.E.E.T.E.E.E.E.E.R.R./././.4XyX4X4X4X4X4X4X4X/.@X/././.R.R.R.R.T.R./.4X4X4X4XyX4X4X4X4X4X4X4X4X4X4X4X4X4X5X4X4X3XjXbX4X6XAXHXZXDXZXHXHXZXVXDXHXVXnX6X4X4X4X3X3XE.E.E.E.E.E.E.H.E.E.E.E.E.E.E.E.E.H.H.E.E.J.J.J.U.U.U.E.E.E.E.T.E.E.E.5XVXHXJXJXKXJXJXGXHXLXHXZXFXSXDXDXrXrXwXnXsX4XR.R.R.4X4X4XhX4X/./././.R.4X/./.4X4XhXsXaXjXsX6X6X6X6X8XjXjX6XjXjXjXsXjXjXjXsX5X3X3X5X6X5X4XaXsX5X4X4XR.T.fX/.T.J.J.T.T./././.5X8XnXnXnXnXMXVXnXnXnXnXnXjX8XbXbXmXmXbXkXbXMXVXVXVXnXnXnXnXnX5X8XnXwX8X0X7XwXDXrXrXwXnXAXMXMXnXnXMXCXCXCXDXVXPXSXSXSXAXjXyX$X+X+X+X+X+X+X+X+X+X+X+X+X+X+X+X+X+X+X+X+X+X+X+X+X+X+X+X+X+X+X+X+X+X+X+X+X/.4X4X4XR.R.E.E.E.T.T.R.R.T.T.E.T.T.T.T.R.R.R.R.R./.4XyXpX4X@X+X+XOX+X+X/././.4X3XR.R.E.R.3XR.3X7X5X4X4X8XMXHXJXHXSXCXMXsX4X4XsXmXaX4XR.4X6XaXjX8X8XjXjX8X8XjXkXjXjX6X5X6XsX6X6X6XjXaXsX5X4X4X4X4X5XhX5X4X5XhXpXyX4X4X4X8XnXnXsX/.T.oXOXoXoX^.^.^.^.^.^.^.^.oXoX^.^.^.T.oX.XoXoX^.^.^.^.^.^.^.^.^.^.^.^.^.^.^.^.^.^.^.^.^.^.^.^.^.^.^.^.^.^.^.^.^.^.^.^.^.^.^.^.^.^.^.^.^.^.^.^.^.^.^.^.^.^.^.^.T.^.^.^.^.^.^.^.^.^.^.^.^.^.T.T.T.T.T.T.T.T.T.T.T.T.T.T.T.T.T.T.T.T.T.U.U.U.T.T.T.T.T.T.&XU.T.T././.R.E.T.T.J.J.J.E.T.T.T.R.R.5X5X4XR.T.T.T.T.Z ",
"Y.Y.Y.Y.Y.J.J.J.G.J.E.T.J.J.U.U.E.E.E.J.J.J.E.E.E.E.E.E.E.E.E.E.E.T.T.E.E.T.E.E.T.T.T.T.T.T.T.T.&XU.U.T.T.T.T.R.J.J.E.E.J.E.E.E.J.J.J.E.E.E.J.J.J.E.E.E.E.E.E.E.T.E.E.E.E.R.R.R.4X4X4X4X4X4X4X4X5X5XsXsXsXaXaXaX6X5X5X5XjXnXZXGXSXSXZXDXZXFXFXZXGXZXnX8XjXjXkXkXaXaXsXaXmXmXmXbXbXbXbXnXnXnXnXnXMXmXjXaXyXR.E.E.T.T.T.T.E.E.E.R.yXaXMXAXSXHXJXJXPXFXHXHXHXZXtXtXDXDXDXDXrXrXVXnX6X/.E.3X5XhXjXmXbX7XR.R././.4X7XpXyX4X4X4X4X4X5XpXpX6XsXjX6X6X6X8X8X8XjXjX8X8X8X5X5X5X6X6X4X/./.7X6XjXjXsXR.R.@X@X+XT.U.J.T././.pXsXnXVXVXVXnXnXnXnXjXkXnXMXMXMXwXnXnXjX8X8XkXkXNXMXnXjX5X5X6XbXVXkXnXVXSXAXAXAXPXSXVXrXDXFXGXrXVXVXVXZXSXZXDXrXDXDXZXFXDXjX/.^.+X+X+X+X$X$X$X$X+X+X+X+X@X@X@X+X+X+X+X+X+X+X+X+X+X+X+X+X+X+X+X+XOXOXOX+X@X/./.R.R.@X@X/.T.T.T.T.E.J.J.J.J.J.J.J.T.R.R.R.E.E.R.R.4X/./.+X+XOX^././.yXpXsXhXyXhXhXkXmXbXbXNXNXbXjXcXjXMXCXVX8X7X7X+XOX@XyX4X3X3X5X7X5X6X6X5X5X6X6X5X5X5X6XsXsXsXhXpXsX5X5X5XsX5X4X3X3X3X4X4X4X5XhX4X4X/./././.4X4XrXHXLXNX/.^.OX+XOXOX^.^.^.^.^.^.oXoXOXOXOXOXOX^..XoXoXoXoXoXOXoX^.^.^.^.^.^.^.^.^.^.^.^.^.^.^.^.^.^.^.^.^.^.^.^.^.^.^.^.^.^.^.^.^.^.^.^.^.^.^.^.^.^.^.^.^.^.^.^.^.^.^.^.^.^.^.^.^.^.^.^.^.^.^.^.^.^.T.T.T.T.T.T.T.T.T.^.^.T.T.T.T.T.T.T.T.T.T.T.T.T.T.T.T.T.T.T.T.T.R.4XaXMXMXbXmXsX4X4X4XsXsXsXhX6X8XVXCXnX6X4XOX@X/.Y ",
"Y.Y.Y.Y.Y.Y.Y.Y.Y.Y.Y.Y.Y.Y.Y.Y.Y.Y.Y.Y.Y.Y.Y.Y.J.J.J.J.J.J.J.J.P.P.P.P.P.P.P. XJ.J.J.U.U.U.J.J.E.E.E.E.E.E.E.E.T.T.T.T.E.E.E.E.U.Y.Y.Y.Y.Y.Y.Y.J.J.J.Y.Y.Y.Y.Y.J.J.J.Y.Y.Y.U.U.Y.U.T.&XT.T.&X&X+X+X/.4X4X5X5X4X6X5X4X4XjXnXZXZXSXSXGXZXZXGXFXFXDXDXZXDXDXDXDXDXAXCXVXVXVXZXZXZXGXZXZXFXSXDXIXVXVXVXVXDXDXVXVXrXVXVXVXVXrXrXDXSXDXZXGXFXGXZXFXFXFXFXFXFXGXZXZXZXAXVXnXVXCXVXwXwXVXVXnXnXVXCXZXSXnXnX8X9X8X8X8X8X8X8X8X6X6X5X5X6XiXpXyX/.R.R.R.R.yXyXyXyXyXyXyXyXyXyX/./././.R.R.R.4X4X4X3X4X4X5X6XjXbXMXMXMXMXbXMXbXbXbXjX6XsXjXnXwX8X8X8X6X6XsXjXaXaXjXjXjXbXbXkXbXjX8X8X8X6X6XsXsXhXhXsXsX6X5X8XbXnXCXSXSXZXVXSXZXZXSXFXSXVXnXVXDXSXSXVXbXpX/.$X$X$XuX$X@X@X$X@X@X@X@X@X@X$X$X$X$X+X$X$X+X+X+X$X$X$X@X@X@X@X@X/./././././.4XhX6X6XjXsX5X4XR.R.T.E.E.E.E.E.R.R.E.R././.R./././.+X+XOXOX+X+X/./.sXbXmXMXMXnXnXnXnXVXAXMX8X6X8XbXbX8X5X5X4XR.R.R.E.E.E.R.R.T.R.+X/.R.R.hXsXhXyXhXhXyX4X5X4X4X4X4XT./.R.R.4X4XR.R.@XR.E.R.4X4X4X4XR.4X5X5X5X3X5XmXLXJXJXHXwX3XT.%XOXOXOXOXOXOXOXOXOXOXOXOXOXOXOX^.OXOXOXOXOXOXOXOX^.^.^.^.^.^.oXoXoXoXoXoXoXoXoXOX^.^.oXoXoX^.oXoXOX^.^.^.^.^.^.^.^.^.^.^.^.^.^.^.^.^.^.^.^.^.oXoXT.T.T.T.T.T.T.T.^.^.T.^.^.^.^.^.T.T.T.^.^.^.^.^.T.T.T.T.R./.4X4X3X3X4X5X4X4X/./.T.R.4X5X4X4XR.T.R.4X5X5X3X3X4XpX4X4X4X4X4X5XhXhX6XsXsXsXsXhXhXhXyX5X6XR ",
"Y.Y.Y.Y.Y.Y.Y.Y.Y.Y.Y.Y.Y.Y.Y.Y.Y.Y.Y.Y.Y.Y.Y.Y.U.Y.Y.Y.Y.Y.Y.Y.J.J.J.J.J.J.J.J.Y.Y.Y.Y.Y.Y.Y.U.J.J.U.U.U.U.J.J.T.T.T.T.T.E.R.R.T.T.T.T.E.E.E.E.E.E.E.E.E.J.J.J.J.J.E.U.J.J.J.G.J.J.J.E.E.E.R.R.E.R.5X8X8X8XnXnXAXbX6X5X8XnXDXZXSXSXZXZXGXFXFXSXrXVXDXZXZXDXZXDXCXVX9XrXVXSXSXZXDXVX9XnXnXnXnXVXVXVXVXVXVXVXCXZXSXFXFXFXZXZXZXGXZXZXFXFXSXSXSXFXSXFXJXJXJXHXZXCXCXCXVXVXVXCXCXDXVXVXnXnXnXwXrXrXVXVXVXCXZXZXZXZXCXAXAXAXnXkXkXkXjXjXaXaXsXsXsXsX5X5X5X5X5X5X6X6XsX5X4X4X4X4X4X4X6XsXsX6X6X5XsXaX8X8XjXjXjX8X8X8X8X8X8XjXjX6XsXjXnXnXnXjXjXjXjXjXjXjXaXsX6X8X8X8XjXjXjX8X8XjXjXjXjXjXjXjXkXbXjXjXkXbXVXCXZXCXCXVXDXDXSXFXSXZXCXnXVXDXZXSXSXMXaXpX$X$X$X$X$X@X$X$X$X$X$X$X$X$X$X$X$X$X$X$X$X@X@X@X$X$X@X@X@X@X/./././././.R.R./.4X5X6XsXsXhXhXyXhX@X/./././.@X@X+X/.@X@X@X@X/.@X@X/./.+X+X@X@XyXpX3X4X5X6X8X8XnXnX8X8X8X8X8X6X8XjX5X5X6XbXaX4XR.E.R.R.R.R.T.E.T.T.R.R.E.H.H.E.R.R.4X4XR.R.4X4X/././././.4XsXsX5X5XR.R.3X3X3XR.R.3X5XmXNXNXMXjXkXNXHXrXrXGXSXbX@XoXOXOXOXOXOXOXOXOXOXOXOXOXOXOXOXoXOXOXOXOXOXOXOXOX^.oXoXoXOXoXoXoXoXoXOXoXoXOXOXOXOXOXOXOXOXOXOXOX&XOX^.^.^.^.^.oX^.^.^.^.^.oX^.^.^.^.^.^.^.^.^.oX^.^.^.^.^.^.^.^.^.^.^.^.^.^.^.^.T.T.^.^.^.^.^.^.OX^././.4XsXaXaXjXjXjXjXsXhX4X4X@XyXhXsXsXyX/.T.E.4XsXjX6X5X4X4X4X4X4X4X4X4X4X4X5X5X5X5X5X4X4X4X4X4X5XR ",
"M.M.M.M.M.M.M.M.e.e.M.M.e.Y.Y.Y.Y.Y.Y.Y.Y.Y.Y.Y.Y.Y.Y.Y.Y.Y.Y.Y.J.J.J.J.J.J.J.J.Y.Y.Y.Y.Y.Y.Y.Y.Y.Y.Y.Y.Y.Y.U.Y.U.U.T.T.T.T.T.T.R.R.R.R.R.R.R.3X/.yXyXyXhXsXsXsX4XyXyXyX4X4X4X4XE.E.E.H.E.3X3X3X5X8XCXSXSXZXFXHXHXSXVXnXnXVXZXZXSXSXZXGXGXHXSXDXrXrXDXZXZXZXZXDXVXVX9XIXDXZXZXDXMXnX8X8XnXnXnXVXVXVXVXnXVXVXCXSXSXFXHXHXFXGXZXDXDXZXDXDXDXDXDXZXVXCXSXHXFXSXVXnX9XkXVXVXVXVXVX9XnXnXnXnXnXnXwXVXDXZXSXSXSXSXSXSXFXFXFXSXDXVXVXVX8X8X8XnXnXnXnXnXnXnXnXnXnXVXVXVXMXMXMXMXnXnXnXnXnXMXnXnXbXjXbXnXnXnXkX8X8X8X8X8X8X8XkXbXbXjXjXbXnXnXbXbXbXbXbXjXjXjXjXjXjXjXjXbXjXjXjXkXnXbXbXbXjXjXkXbXnXnXnXnXnXnXnXCXVXnXnXnXrXDXZXSXZXVXVXVXDXDXZXZXSXAXbXsX$X@X@X$X$X$X$XuX$X$X$X$X$X$X$X$X$X$X$X$X$X$X@X@X@X@X@X@X@X@X/././.^.^.^.R./././.4X4X4X4X4X4XyXyXyXyX/.@X@X+X).^.+X+X@X$X@X+X+X@X4X/././.yXsXaXjX6X5X5X5X6X8X8XnXjX8X6X6X6XjXjXsXjXsX5X5X5X4XsXmXmXmXxXsX7X4X4X4X5XMXMX8X8XnXjX5X/.4X7X7X7XsX4X/.@X/./.7XMXAXVXVXNXnXkXVXSXAXMXnX6XnXAXAXCXVXVXCXDXrXrXFXSXbX/.oX+X+X+X+X+X^.OXOXOXOXOXOXOXOXOXOXOXOXOXOXOXOXOXOXOXOXOXOXOXOXOXOXOXOXOXOXOXOXOXOXOXOXOXOXOXOXOXOX&X&XOXOX^.^.OXOXoXOXOXOXoXoXOXOXOXOXOXOXOXOXOXOXOXOXOXOXoXoXoXoXoX^.^.^.OXOXOXOXOXOXOXOXOXOXOXOXT.T././.5XsXjXjXkXbXkXsX5X4X4X4X4X4XsXsX6X4X/.R.R.4XsXjX8X5X4X/.5X4X4X4X4X4X4X5X5X6X6X5X5X4X3X3X/.4X4XR ",
"Y.Y.Y.Y.Y.Y.Y.Y.Y.Y.Y.Y.Y.Y.J.J.Y.Y.Y.Y.Y.Y.Y.Y.Y.Y.Y.Y.Y.Y.Y.Y.Y.Y.Y.Y.Y.Y.Y.Y.Y.Y.Y.U.U.U.Y.Y.Y.Y.Y.Y.U.U.I.I.Y.Y.Y.Y.J.J.J.J.E.E.E.E.E.R.R.R.R.R./.4XhXsXsX6XsXaXjXjXjXnXCXSXSXAXAXAXAXSXSXPXnXCXSXZXrXrXZXGXFXGXSXSXSXSXZXZXSXSXGXGXZXZXDX9XrXVXDXZXDXDXDXDXVXVXVXVXVXVXVX9XjXjXkXnXnXVXVXnXnXVXnXnXnXnXnXnX9XVXDXSXZXDXDXVXCXVXnXnXnXnXnXnXnXwXwXVXVXVXnX8XkXnXMXkXnXMXVXnXnXnXnX8X8XnXCXZXZXZXSXGXGXGXGXGXZXZXZXZXDXDXVXVX9X8X8X8XkXkXkXkXnXnXVXVXVXVXVXVXVXVXnXVXVXVXAXAXnXVXVXnXnXnXnXnXnXnXnXnXnXnXnXnXnXnXnXMXnXnXjXbXjXkXkXbXbXbXbXkXjXjXjXjXbXbXnXMXbXbXnXnXnXnXbXnX8XnXnXnXCXDXDXDXAXVXVXCXVX8XjXMXwXVXZXZXZXDXVXDXDXDXDXDXDXVXbX6XpXyX@X$X$X$XyXpX$X$X$X$X$X$X$X$X$X$X$X$X$X$X@X@X@X@X@X@X@X@X@X@X+X+X^././.@X@X@X/./.R.R.R.R./.R././.@X@X+X/././.@X@X@X@XyX@X@XyXsX6X4X4XhXaXkXnXNXMXbX8X8X8X8X8XnXbX8X6XjXjXsX6XhX5X5XsX6X5XaXmXjX8X8X6X5X7X3X7X0XnXZXVXVXCXnX5X6XbXnXnXMXNXaX/.+X@X/.4XbXMXVXZXAX8X9XVXHXJXSXDXVXZXCXnXVXZXZXSXVXrXZXFXDX6X/.OX+X+X+X+X+X+X+X+XOXOXOXOXOXOXOX^.OXOXOXOXOXOXOXOXOXOX^.^.OXOXOXOX^.^.^.OXOX^.OX^.^.^.OX^.^.^.^.^.&X&XOXOX/.^.^.^.OX^.^.^.oXOXOXOX^.^.^.^.^.^.OXOXOXOX^.^.^.^.OXOX^.^.^.^.^.^.OX^.^.^.^.^.^.R.R.R.&XR.R./.4X5X5X6X8X8X6X5X4XR.R.R.4X4X5X5X5X4X/.R.sXsXsX6X6X5X5X4X4X4X4X4X5X4X5X5X6X6XsXhX5X4X4X4X/./.4XR ",
"E.E.T.T.T.T.T.T.R.R.R.R.R./.R./.R.R.R.R.E.E.R.R././.@X/.R.E.E.E./.R.T.T.T.E.J.J.J.J.G.e.e.G.G.e.J.J.J.J.J.J.J.J.U.J.J.U.T.T.U.U.T.T.T.T.&X&XOXOXyXyXyXhXsX6X5X6X5X6X8X8X8XVXZXHXZXZXDXDXCXVXVXnXnXVXDXDXDXDXZXZXGXZXZXZXFXFXZXDXZXSXFXGXZXDXVX9XVXVXVXVXVXVXVXVXnXVXCXCXVXnX8X8X8XkXnXnXVXVXnXnXnXnXnXnXkX8X8X8X8X8XnXnXVXVXVXVXVXnX8X8XkXnXkX8XwX8XwXwXVXVXnXnXMXMX6X3X7XbXNXMXnXnXnX8X8XwXVXZXGXGXGXGXGXFXFXFXZXDXVXVXAXAXVXnXjXjXjXjXjXjXjXjX8XjXnXnXMXnXnXnXVXnXnXnXVXVXVXVXnXnXnXVXnXnXnXnXnXnXnXnXnXnXnXnXMXnXMXMXnX8X8X8X8XjXjXjXkXbXbXkXjXjXjXjXjXjXjX8XbXkXnXnXVXnXbXnXnXnXVXCXSXSXFXGXFXDXDXSXCXnXnXNXCXCXZXSXSXSXDXZXDXDXVXVXnXnXnXnXaXpXyX$X%X$XyXuX$X$X$X$X$X$X$X$X$X$X$X@X$X$X@X@X$X$X$X$X$X$X@X@X$X@X+X@X@X$X@X@X$X@X/./././././.^.+X$X%XuXpXaXkXaXhX5X6XhXhXsXsXxXsXsX5X6XsXjXkXbXbXjXjXnXnXnXkXbXjXjX6XsX6X6X5XyX4X4X5X5X5X6XwXVXVXCXSXSXSXSXSXZXZXZXZXSXSXSXAXnXVXDXDXCXAXbX4XOX%X/./.5X8X8XVX9X9XrXZXZXrXZXGXFXSXVX9XrXZXZXZXCXrXrXZXVX6X/.^.+X+X+X+X+X/././.+XOXOXOXOXOX^.^.^.^.^.^.^.^.^.^.^.^.^.^.^.^.^.^.^.^.^.OXOXOX^.^.OXOXOXOX^.^.^.^././././././.^.^.^.^.^.^.^.^.^.^.^.^.^.^.^.^.^.^.^.^.^.^.^.^.^.^.^.^.^.^.^.^.^.^.^.^.^.T.R.R.R.R.&XR.R./.4X7X7X7X5X6X6X5X4X4X4X4X4X5X4X5X4X4X4X4XsXsX5X5X5X5X5X4X4X4X4X4X4X4X5X5X5X5X5X5X4X4X4X4XR.R.4XR ",
"/.4X4X4X4XyXyXyX4X4X4X4X4X5X5X5X5X5X5X5X5X5X4X4X5XsXsXsXsX6X5X6XSXSXSXSXSXSXSXSXmXaXhX4X4XhXsXsX5X5X5X5X4X4X4X3X/.R.E.E.R.E.E.J.J.J.J.E.E.T.T.T.4X4X4X5X5X5X5X7X5X8XkXnXnXrXDXGXZXZXDXDXVXnXwX8XnXCXSXSXFXFXSXSXGXZXZXZXZXZXZXZXZXGXFXGXZXDXCXVXVXVXnXnXnXnXnXnXnXnXAXMXnXjX8X8XjXnXMXnXkXkXnXVXnXkX8X8X8X8X8XjX8XjXbXnXnXnXnXnXVXnXnXnXnXnXnXnXwXnXVXZXSXSXCXVX8X6X5X7X8XnXnXnXwXVXVXCXCXDXZXSXGXGXGXGXFXHXHXFXSXCXnXnXAXNXnX8XaXaXaXsXsXsXsXsXjXjXMXMXNXNXnXMXCXCXVXnXnXnXnXnXnXnXnXnXnXnXnXnXnXnXnXnXnXnXnXnXnXnXnXMXbX8X6X8XsXsXaXjXjXjXjXjXsXsXaXjXjX8X8X8XkXjXnXVXVXnXnXnXnXnXVXDXZXSXFXHXHXFXSXSXSXCXVXAXDXCXCXAXAXCXVXVXVXVXVXnXnXnXnXnXbXsXyXuX%X$XyXyX$X$X$X$X$X$X$X$X$X$X$X$X@X@X$X@XyXyXyX$X$X$X$X$X$X@X@X@X@X$X@X@X$X$X$X$XyX$X/./.).).$XuXpXsXkXVXMXjX6XsXjXjXjXjXsXsX5X4X4X5X6X6X5X6X6XjXjXjXjX8X6X6XsXsX6X6X5X5X5X4X4X5X8X8XwXCXDXDXZXFXHXFXGXFXHXZXDXDXZXVXVXVXVXDXDXIXrXnXjXyXOX$X@X4XsXjXnXCXnXVXZXSXFXZXZXZXZXDX9X9XVXSXZXGXSXSXSXSXMX4X/.+X+X+X+X+X/./././.+X+X/./.^.^.^.^././././.^.^.^.^././././././.^.^.^./.^.^.^.^././.^.^.^.^.^.^.^.^./././././././.^.^.^.^.^.^.^.^././.^./.^.^.^.^.^././././././././././././.R.R.R.R././.R.T.R.R.R.T.T.T.R.R./.4X4X4X4X4X4X4X4X4X4XhXsX5X4X4XR.R.R./.4X4X4X4X5XhX5X4X/.4X/././.R.R.R.R.3X4X4X4XR.R.R.T.R.4XR ",
"4X4X4X4X4X4XyXyX4X4X4X4X4X5X5XhXsXsXsXsXsXsX6X5X5X5X6XsXsXsXjXkXqXqXrXrXrXrXZXGXVXnX8X8X8XnXnXnXSXSXSXSXSXSXSXSXLXHXSXSXPXSXAXAXbXbXnXnXnXnXnXMXnXnXVXVXCXCXCXCXkXnXAXAXVXVXDXSXZXZXZXVXnXnXnXnXVXDXZXGXGXGXZXZXHXFXZXZXZXSXSXSXZXSXSXZXZXZXCXVXnXnXnXnXkXkXkXnXbXbXbXjX6X6X6XsX8XbXbXkXjXbXnXbXjXjX8X8X8X8XjXjXnXbXnXnXnXnXnXnXVXnXnXnXnXnXnXnXnXVXCXZXSXDXDXVXwXnXnXCXZXSXDXVXrXDXSXSXSXFXHXJXHXGXGXFXHXHXFXZXCXCXnXnXnXbXjX6XsXsXsXsXhXsXsXsXjXjXjXbXbXnXnXnXnXnXnXnXwX8X8X8XnXnXnXnXnXnXnXnXbXbXbXbXbXjXjXjXbXbXbXbXbXjXsXjXsXsXsXsXaXjXjXbXsX6XjXbXbXbXnXnXbXkXnXCXCXnXkXbXnXVXCXDXZXZXGXHXHXHXFXGXFXSXDXVXVXVXnXnXkXnXnXnXnXnXbXnXnXnXnXnXbXsXyX$X%X$XyXyXyXyXyXyXyXyXyXyXyXyXyX$X$X$X$X$XyXyXyX$X$X$X$X$XyX@X@X@X$X$X@X@X+X$X$XpX$X4XpXpX8X6X5X4XyXsXjXjXMXsX5X6XsXsX6XsX5X4X4X4X4X4X4X5X5X5XsXsXsX6X6X5X5X6XsXsXsXsXpX4X3X3X8XAXSXZXVXVXZXZXSXHXFXGXZXGXFXZXZXFXSXVXnXnXnXVXVXrXwXjXsX@X4XpXsXjXMXCXZXFXbX8X8XVXZXZXrX9XDXDXVXnXAXSXFXJXFXSXAXNXsX/./.uX@X@X+X+X@X@X/./.+X+X+X+X+XOX/./.+X+X+X+X+X/.+X+X+X+X+X+X/./.+X+X/./././.OXOXOX/.^.^.+X+X/./././././././././.^.^.^.^.^./.^./.^./././././././././././././././././././.R.R.R.R.R.R././.R./.R.R.T.T.T.T.T.R.R.R.R.R.R.R.4X4XR.R.4X4X5X4X/.R.R.R.R.R.R.R.R./.4X4X4XR.R.R.R.R.R.R.R.R.E.R.R.R.R.R.R.R.T.R.4XR ",
"4XyX/./././././.@XyXyXyXyXyXyXpX5XsXsXsXsXhX5X4X5XhXhX5X4X4XhXsXnXMXAXAXAXAXAXAXZXZXZXSXSXSXZXDXGXGXGXGXGXGXGXGXtXtXtXtXGXGXGXGXZXZXGXGXGXGXGXGXGXGXGXGXFXGXZXZXnXnXnXnXkX9XVXSXZXZXDXnXnX8XbXbXDXZXGXGXGXGXFXHXSXSXSXSXFXZXZXZXFXGXZXZXZXZXAXnXjXjXkXjXjXjXjXjXbXjX6X5X4X4X5XhX5X6X6X6X6XxXaX6XjXjXbXbXbXjX8X6XnXnXnXnXnXVXVXVXnXnXnXnXnXnXnXnXVXCXZXDXDXDXDXZXZXCXZXZXZXDXZXFXGXFXFXFXSXGXGXHXJXHXFXHXHXHXZXrXVXVXVXnXkXjXjXjXsXsX6X6X6XsXaXaXnXnXnXnXnXnXnXnXbXbXbXbXnXnXnXnXbXnXnXMXMXnXnX8XjXjX8X8X8X8XjXjXjXjXjXjXjX6X6XsXsXsXsXsXsXjXbXbXbXbXbXbXbXbXbXbXMXnXnXAXCXnXkXnXVXCXCXDXZXSXHXJXHXFXGXGXGXGXCXwXVXVXMXbX6X6XwXnXnXkXjXbXMXMXnXnXbX6XyX$X%X$XyXyXyXyXyXyXyXyXyXyXyXyXyX$X$X$X$X$XyXyX$X$X$X$X$X$X4X4XyX4X$X).).$X+X$XuX$X).4XpXsXFXDXkXhXhXsX6X6XhX/.R./.yX4X/.4X3X4X4XyXyXyX4X4X5X5XsXsXsX6X5X5X5X5X5XhXsXpX4X/.bX8X8XnXCXDXDXZXCXCXZXFXFXZXZXGXDXZXZXZXVXVXnXMXMXnXVXCXVXxX).).6XjX8XnXSXSXrXrX6XbXNXSXSXZXCXDXVXVXnXnXMXkXrXGXFX9X7X/.).).@X@X@X@X+X+X+X/././.@X@X@X+X+X+X/./.+X+X+X+X+X+X+X+X+X+X+X+X/./.+X+X/./././.OX+X+X/././.+X+X+X/././././././././.^.^././././././././././././././././././././././././.4X@XR.R.R.R.R.R././././././.T.T././.R.R.R.R.R.R./.yXyX4X/.R.R./.4X/.R.R.R./.R.R.R.R.R.R.R.R.R.R.T.T.T.T.R.R.R.R.R.R.R.R.R.T.T.T.T.R.4XR ",
"@XyX4X4X4X4X4X4X@X/.4X4X4X4X4X4X4X5XsX6X4X4X5XhX5X6XhXyX4X4X5X6XjXbXnXnXnXVXVXDXSXZXZXZXZXZXZXZXZXZXZXZXZXGXGXGXZXZXZXZXZXZXZXZXGXZXZXZXZXGXFXFXFXFXFXZXDXDXSXAXVXnXwXVXVXVXVXVXZXDXVXnXjXjXjXkXSXZXSXSXSXZXDXVXZXFXFXFXSXZXZXGXZXSXZXnXwXnXnXnXjX8X5X5XsXaXaXaXaXsXhX4X4X4X4X4X5X5X5X6X6XsXaXjXjXjXbXkXnXnXnXnXnXnXnXnXnXnXnXMXjXnXnXnXnXnXnXnXVXVXVXCXCXCXCXCXrXZXZXSXZXZXZXFXHXHXSXZXVXVXCXSXGXHXJXHXSXnXnXnXkXkXkXjXjX8X6X6X6X6X6X5X5XhXsXsXbXbXnXnXnXbXbXbXjXjXjXjXjXjXjXjXjXbXbXbXbXbXbXbXjXjXsXsXjXsX6X5X6XsXsXjXjX8XjXjXsXjXbXjX6X6X8XbXmXmXjXNXmX6XAXnXtXSXAXMXAX8XAXmXCXAXVXSXSXFXJXHXHXZXSXHXDXZXSXVX8XNXNXaX5XsXmXjXaXaXMXjXbXbXmX7XsXsXpX4XyX$X@X$XyX4XsX4X/.iX@X%X$XfX@X/.4X7X4XyX/./.4XyXyXyX@X@X).).).+XOX+X/.7X7X7XyXyX@XyX4X5X8X6X/./.sXbX8X6XhXhX4X4XR.R.R./.R.T.T.T.R.R.R.R.R./.yXyX/./.4X7X3XR.4X7X7X7X8X8XnXwX8X8XMXAXDXrXZXZXZXFXHXFXSXZXSXDXVXVXnXnXnXVXVXVXAXMXmXjXsXpXnXnXnXVXDXSXSXZXZXFXGXZXZXZXDXrXAXVXnXjX8X8XkXnXjX7X/.@X%X%X+X$X+X+X).)././.4X4X/././././.+X@X+X+X+X/.+X+X+X+X+X/./././././.+X+X+X+X+X+X@X@X+X+X+X+X+X+X+X+X+X+X+X+X+X+X+X+X+X+X+X+X+X+X+X+X+X+X+X+X+X+X+X+X+X+X/././././.4X4X4XyX4XR.R./.4X4XyX4X4X4X4X4X/././.R.R.R.R.R.R.R.R././.R.R.R.R././././.R.R.R.R.4X4X3XR.R.R.R.R.R.R.R.R.R.R.E.E.E.T.E.E.E.T.R.R.R.R.T././.R ",
"@XyXyX5X5X5XhXhXiXhXyXyXhXhXhXsX5X5X6XhXhX5X5X4X6XsXsXpXpXhX6X6X6X6XjXkXnXnXVXCXVXDXDXZXZXZXZXZXZXZXZXZXZXZXZXFXFXFXGXGXZXZXZXZXZXZXZXSXSXSXSXDXVXVXVXwX9XnXnXkXMXnXnXnXnXnXnXnXVXnXjX8XjXjXbXbXCXVXDXZXZXZXDXVXZXZXSXGXSXZXZXGXSXSXZXnX8XnXnX8XMXMXbXjX6X6X6XsXaXsXsXhXpXpXsXsXhXhXhX6X6X6X6XsXjXjXjXjXjXjXbXnXnXnXbXnXMXMXnXbXnXbXnXnXnXnXnXnXnXnXVXVXCXVXCXVXZXZXSXSXFXSXSXSXDXZXZXDXVXVXCXAXDXZXSXCXnX8X8X8XbXbXbXkXjXjXjXsXsXhX5X5X5X5XsXsXjXjXbXbXjXjXjXjXjXjXjXjXjXjXjXjXjXjXjXjXjXjXjXjXjXjXjXjXjXjX6X6XsXsXsXjX6X6X6XjXbXbXsX6XjXMXMXjX2XwXCXwXwXnX8XSXZXnXMXMXMX8XjXMXVXAXPXSXSXJXJXJXSXZXSXZXDXSXSXnX8X8X6X6XpXsXhXhXmXjXbXNX6X6XxXcX6XsXhX4X4XpXpX/.4XyXdXuXyXfX@X$X/.pXfXfXuX4X/.uX$X@XyXyXyXyXyX$X$X/.7XxXgXyX5XjXNXbXaXpX4X4X6X8XAXbX/.T.yXsXhXpX5XhXhXyX4X4X4X4X/.R.T.R.R.R.R.R.R.R.R.4X4X5X6X6XMXbXbXmXNXMXAXAXCXVX8XwXCXSXDXZXZXZXFXFXFXSXZXZXZXDXVXVXnXnXkXnXVXCXVXnX8X5X6XjXnXMXVXVXVXDXZXZXFXFXFXFXFXGXZXrXVXVXVXnXnXnXnXnXAXjX4X4X@X@X@XuX+X+X+X$X$X$X@X@X+X+X/.@X@X/./.+X+X+X/./.@X+X+X+X/./././././.+X+X/././././.+X+X+X@X@X+X+X+X+X+X+X+X+X+X+X+X+X+X+X+X+X+X+X+X+X+X+X+X+X+X+X+X+X+X+X@X@X@X/././././.yXyXyXyXyXyX/.R./././././.R.R.R././././.R.R.R.R.R./.R.R./././.4X/././././.4X4X4X4X4X4X4X4X4X4X4X/.4X/./.R.R.R.T.R.R.R.R.R.R.R.R.T././.R ",
"yXyXhXhX5XhXsXsXpXpXhXhX5XhXsXsXaXsXaXjXbXbXaXsX5XhXhXpXpXhXhX6X6X6XsX8XjXkXnXnXVXVXVXCXDXDXDXZXDXDXDXDXDXDXDXDXZXZXZXZXSXSXSXSXZXZXSXSXCXVXnXwXwXwXwXwXnXnXnXnXbXbXbXbXjXjXjXbXnX8X6X6X6XbXbXnXnXVXVXDXDXZXZXDXZXZXZXZXZXGXGXZXZXSXDXnXwXnXnX8XNXNXMXbX6X5X5X6X6X6X5X4XpXpXpXsXpXpXpX6X5X6X6X6XsXsXsXsX8XjXjXjXkX8XjXbXMXMXnXjXjXkXbXbXnXnXnXnXnXnXnXnXVXVXVXVXCXVXVXCXSXSXVXVXrXVXVXVXVXVXCXCXVXVXVXnXwX8XbXbXjXjXbXjXjXjXjXaXsXsX5X4X4X4XpXpXsXsXsX6X6X6X6XsXsXsXsXsXsX6X6X6X6XsXsXsX6X6XsXjXbXjXjXjXbXjXjXsXjXjXaXbX6X6XeXbXbX6X6XjXjXjXjXMXPXkXPXMXkXSXSXSXCXAXPXkX8XAXnXAXSXSXPXPXSXHXZXrXZXZXSXZXDXSXAXkX6X7X4XsXiXpXpXsX5X3X0XeX^ 7XpXuX6X6XsXsX4XpXsXyX/.iXfXfXfXuXiX7X6XyX@X@X$XyX@X@X$X$XyX4XyXyX$X$X$XpXwXnXNXbXbXnXAXMXbXsX6XjXnXCXSXmXR.J.R.4X/./.4X4X4X4XpXyXyX@XyX/././.4XyX4X/.4X4X4X5X8XbXnXVXVXnXnXnXVXVXCXCXZXZXVXVXSXSXZXZXDXZXSXSXZXZXZXZXDXDXVXVXnXkXkXnXnXnXkXjX8XjXbXMXnXCXCXVXwXwXVXSXFXHXHXHXHXFXGXDXVXVXDXSXDXVXDXDXVXnX8XjXaX5X7X7X@X@X/.+X+X%X%X%X+X+X+X+X+X@X/./.+X+X@X+X+X+X+X+X+X+X+X+X+X+X+X+X+X+X/./.+X+X+X+X@X@X@X@X+X+X@X@X@X@X+X+X+X@X@X@X+X+X+X+X+X+X@X@X+X+X+X+X+X+X/./.+X+X+X/././././.T.T.R./.+X/./.T./././././././././././././././././././././././.4X/./.R.R.R.R.R.R.4X4X4X4X4X4X4X4XyXyXyX/./.R.R.R.R.R.R.R.R.R.R.R.T./.R.R ",
"yXyXhXsXsX5XhXhXhXhXhX6X6X6X5X5XsXsXsXsXaXaXsX6X5X5XpXpXpXpXhXsXsXsXsX6XsXjXkXbXnXnXnXVXCXVXVXVXnXnXnXnXnXnXnXnXnXnXVXVXVXCXCXDXCXCXVXnXwX8XwXnXnXnXnXnXMXNXMXnX8XjXbXbXjXjXbXnXnXnXkXkXnXnXnXnXnXVXVXVXDXDXDXZXZXZXZXZXSXSXSXZXDXZXVXnXnXnXnXnXnXnXbXjXsX6XsXsX5X5X4X4X4X4X4XyXyXyX4X5X5X6XsXsXhX6X6X6X6XsX6X6X8X8X8XnXMXMXMXbXjXjXjXjXjXjXkXbXnXnXnXnXnXnXnXnXnXnXnXnXVXVXnX8XVXVXCXCXVXVXVXVXnXnXnXkXbXbXbXbXjXjXjXaXaXsXsXsXpXpXpX4X4XyXpXpXpXpXpX4X4X4XpXpX6X6XsXsX6X6X6X6XaXjXaXsXsXsXjXbXaXaXjXjXbXbXbXbXbXjXaXaXsX6X6XgX6XjXbXmXjXbXwXwXMXPXMXAXLXPXSXrXwXCXCX9X` 2X' 2X2X2X2XCXLXHXLXFXFXFXFXSXSXAXMXjX6XsXsXxXpXpXsXxX7X^ / / I _.xXfXsXpXpXsXyXyXiXyXuXcXpXsX6X7XxX7X7X6XdXfX$XuXvXfX$X$XyXyXyX$X$X$X+XmXSXZXDXSXSXnX9XkXnXnXnXCXSXHXSXVX5XR.3X3X4XyX4X4X4X4XyXyX@X@XyX/./.4XyXpXyX4XsXaXjXbXnXVXDXDXDXVXrXVXVXVXVXVXZXZXZXDXSXZXZXZXZXZXZXDXDXDXDXSXZXZXVXnXkXjXbXMXkX8X8XnXAXAXVXnXVXCXCXVXwXVXCXPXFXHXHXHXHXHXFXZXZXZXZXZXZXZXSXHXSXZXSXSXPXAXnXkXbXaX5X4X/.+XOXOX+X+X@X@X$X@X@X@X+X+X/././.+X/./.@X@X@X@X@X@X+X+X+X+X/./.+X+X@X@X@X@X+X+X@X@X@X@X@X@X@X@X@X@X@X@X/./.@X@X@X@X/./.@X@X+X+X/./././.+X+X+X/././.^.^.+XOXOX^.+X@X@X+X/.^././././.+X+X/./././././././././././././.4X4XR.R.R.R.R.R.R.R.R.R.R.R.R.R.R.R.R.R.R.R.R.R.R./.R.R.R.R.R.R.R.R.T./.R.J ",
"4XhXsXsXsX6X5X5X5X6XsXaXjXjXjX6XaXaXsXsX6X6X6X6X6XsXhXpXyXhXhXsXsXsXaXsXjXbXnXnXnXbXnX8X8X8XnXnXnXkXnXkXkXkX8X8XjXjXjXkXbXnXnXnX8X8X8X8X8XwXnXAXVXCXAXMXnXkX9X9X9XVXVXVXnXwXnXnXnXVXVXDXVXVXVXVXVXVXVXVXVXDXZXDXSXZXZXZXZXSXZXZXDXDXDXVXnXnXnXnXnX8X8X8XjXjXaXsXhXpX4X4X4X4X4X4XyX4X4X4X4XhXhXhXsXhX6XhXsXsX6X6X8X8XnXMXnXnXnXMXkXjXjXjXjXjXjXbXnXnXnXnXnXnXnXnXnXMXnXnXnXnXnXnXCXCXVXnXnXnXnXnXkXjXjXjXjXbXbXbXjXjXsXsXsX6X6X5XpXpXpXpXpXpXyXyXyXpXpXyX4XyXpXpX5X5X5X5XsXsXsXsXjXjXjXaXsXaXjXbXjXjXjXjXjXjXjXjXwXsXsXaXaXsXsXgXsXmXmXaXbXCXwX/ Q _ [ wX' wXSXP 2 ~ / wX[ _ ! ! Q _ U 2XwX2XHXLXHXSXSXSXSXnXsXaXpXsXsXpXpXxX6X7X0X/ I 2 2 ^ xXBXgXyXyXuXuX@XyXfXdXxX0X' ' ^ _.E.I _.cXcX@X$XdX%X$XpXuXuXpX$X).)./.bXSXtXDXZXCX9XrXVXDXZXZXZXZXZXGXHXAXnXVXnXnXNXbXjXhX4X4XyXyX@X/./././.4XyXyX4X4XaXMXAXVXVXVXVXDXDXZXZXDXVXVXVXDXZXZXZXSXZXZXSXSXDXVXVXVXDXDXZXZXDXnX8X8X8XbXMXMXnXnXMXVXnX8X9XVXCXCXVXVXDXSXPXFXHXHXFXHXHXHXFXFXGXGXGXGXFXHXHXHXHXFXFXHXSXSXSXSXZXVXnX6X5X7X/.@X@X@X@X@X@X$X$X/./././././././.@X@X@X@X@X@X@X@X/./././././././.@X@X@X@X@X@X@X@X@X@X@X@X@X@X@X@X@X@X@X@X@X@X@X@X@X@X@X@X@X@X@X@X@X@X@X/././././.@X@X/.^././././././.^./././.@X+X/././././././././././.4X4X/././.4X4X4X4X/././././././././.R.R.R.R.R.R.R.R.R.R.R.R.R.R.R.R.R.R.R.T././.J ",
"4X5XsXjXjXjXsXsX5X6XsXjXjXjXjX8XbXjXaXsX6X5X6X6XsXsXpX4X4X4X4X5XsXaXaXsXjXMXMXMXbXjXjX6X8X8XjXkXkXkXkXnXbXkXkXjXbXbXbXbXbXbX8X8X8X8XnXnXnXnXVXCXDXDXAXMXkXkXVXVXGXFXHXSXDXVXwX9XkXDXDXZXDXDXDXDXVXVXVXVXVXVXDXDXSXSXZXZXZXZXZXZXZXZXDXVXnXnXnXnXnXnXkXbXbXbXaX6XpXyX4X4X4X4X/./.@X@X4XyX4X4XyXyXsXhX6XsXaXjXjX6XbXMXMXMXnXbXnXMXnXbXjXjXjXbXbXbXbXbXjXjXkXkXbXnXnXnXnXnXkXkXnXMXnXnX8X8X8X8XnXnXjXjXjXbXbXbXbXbXbXjXaXsXsX6X5X5XyXyXpXpXpXpXyXyXpXpXpXpXpXpXpXpX5X5XpXpXsXsXsXsXaXaXaXaXsXaXjXbXbXbXbXaXsXsXsXsX8XaXaXjXbX6XaXmXmXaXaXmX8X^ ~ ! ! Q / 2 ~ CX2X2 3 2 1 Q Q ! _ [ _ [ ~ ' ' ^ CXHXSXSXCXAXAXjX4XsXxXsXpX5XxXmX7XY / 2 I I I < ^ 7XpXcXgXpXgXdXiXgX7X0X/ Q Q / ^ G.L I E.pXpXpXsX/.pXpXuXpXpXuXpXyXsX8XVXSXDXnXwXVXDXSXSXSXZXZXZXZXGXJXHXFXFXGXSXPXNXMXjXsXpXyXyXyX/./././.yXyXyXyX/.sXMXAXVXwXkXnXVXVXDXDXDXrXrXVXDXZXZXZXFXSXDXSXCXVXnXnXVXCXCXCXCXVXkX6X6X8XnXnXbXMXAXMX8X6X8XkXVXVXVXVXVXZXSXFXHXHXFXFXFXHXHXFXFXFXHXHXHXHXHXFXZXZXZXZXZXZXZXDXGXGXFXSXZXVXnXnXhXpX4X4X/./.@X@X@X@X@X@X/./././.@X@X@X@X@X$X$X@X@X@X/././././.@X@X@X@X@X@X@X@X@X@X@X@X@X@X@X@X@X@X@X@X@X@X@X@X@X@X@X@X@X@X@X@X@X/././././././.R.R././.4X4X4X4X3X4X/././././././././././././././.4X4X4X4X4X4X4X/.4X4X4X4X/./././././././././././././.R.R.R.R.R.R.R.R.R.R.R.R.R.R.T.@X/.J ",
"4XhXsXjXjXjXjXjX5XsXsXjXjXjXjXjX6X5X5X5X5X6X6X5XaXsXpX4X4X4X5X6XsXjXjXjXjXMXnXbXaXaXsX6X6XjXjXjXkXkXbXnXnXnXnXnXnXbXnXbXbXbXnXnXnXnXnXVXCXDXVXVXDXVXnXbXnXCXFXFXFXHXFXZXDXVXVXnXVXVXDXZXZXDXVXVXVXVXVXnXnXVXDXZXSXSXZXDXDXDXZXDXZXZXDXVXnXnXnXnXnXnXnXnXbXjXsXsXyXyX4X4X/./././.@X@X/.@XyXyXyXpX6X6X6XsXbXbXbXjXnXMXnXnXnXkXbXnXnXbXjXjXjXbXbXbXbXjXjXjXjXbXbXnX8XnXnXnX8X8XnXMXnXnXkX8X8XkXbXnXbXbXMXnXbXbXbXbXjXaXsXsXsXpXpXpXpXyXpXpXpXpXpXpXpXsXpXpXsXsXpXsXpXpXsXsXsXsXsXsXsXsXsXsXsXsXaXbXbXbXbXaXsXsXsXsXaXjXmXbXeX0X0XeXwX7XbXPX7XP 1 Q I s I < 2 ' / 1 2 ~ ~ 2 Q Q _ Q Q Q 2 2 2 I ' 2XwXAXCXnXnXjXpXdXaXaXjXmXNXwX^ s I I I I I < < / 3XAXMX7XbXNXbXjX' ~ Q 3 2 ~ I I / L G.xXmXbXbXsXsXpXpXuXpXpXpXsXbXnXVXAXMXsXnXAXZXZXZXDXDXDXSXSXtXZXSXSXFXGXZXAXnXnXbXbXsXpXyXyX/.@X@XyXyXyXyXyX/.hXbXnXnXwXbXbXnXnXAXSXSXCXVXCXVXZXZXZXSXZXVXCXVXnXVXVXVXCXCXCXnXnXjX8XjXnXnXwX8XnXMXMX8X6X8XnXbXnXnXnXVXVXZXFXHXHXFXSXFXHXHXHXFXHXJXJXJXJXFXFXCXZXSXHXHXHXSXDXZXZXHXHXFXSXSXSXMXnXjXsX4X@X@X$XyXyXyX$X$X/././.@X@X@X@X@X@X@X$X/./././././././.@X@X@X@X/.@X/./././.@X@X@X@X/./.@X@X@X@X@X@X@X@X@X@X/./././.@X/.4X4X4X4X4X5X4X5X4X5XsXbXmXMXnXbXsX5X4X4X4X4X/././././././.@X@X@XyX4X4X4X4X4X4X4X4X4X4X4X/././././././././.4X4X4X/././././.4X/.R././././.R.R.R./.R.@X/.Y ",
"sXsXsX8X6X6XsXjXjXjXsXsXjXjXjXjXjXsX6XjXMXNXMXmXjXaXsXpXyXhXaXbXjXkXkX8X8XbXjX6X5X6X5X6X6X6XsX6XjXkXnXnXnXMXnXnXkXkXkXnXnXnXnXnXnXnXnXVXDXDXZXDXVXnX8X8XnXCXSXFXZXSXZXVXVXAXAXAXAXCXVXDXCXCXnXnXVXCXVXnXnXVXDXSXDXDXZXZXDXDXDXZXDXDXVXVXnXnXnXnX8XwXnXnXbXjXjXjXpXpXyXyX/./././././././.yXyXpXpX6X5X5XjXbXMXMXnXbXjX8X8X8XjXbXnXbXkXjX8XjXjXjXjXbXbXbXbXbXnXMXMXnXnXVXVXnXnXAXAXAXAXAXMXMXMXMXNXnXMXMXMXbXbXbXbXaXsXsXsX5XpXpXpXpXpXyXyXyXpXpXpXhXsXsXsXsXsXsXsXpXsXsXsXsXsXsXsXsXsXsXsXsXsXaXaXsXaXaXaXsXsXsXaXhXgXmX8X' ~ ~ _ 0XwXNXNX7X^ / ~ 3 / / ' ' Q 2 Q ~ < 2 1 3 2 2 ~ U 2 I 1 2 / ~ ~ 7XAXAX8XbXmXcXcX4XaXNXPXAX0XI < ^ ' I < < I I I ^ SXCX1XwXPXVX9X_ Q 2 < 2 I 2 2 I < H.PXmXH.3XjXaXsXpXpXpXpXgXcXnXnXnXbXsXsXbXCXCXCXZXDXDXDXDXAXDXAXAXDXFXZXVXAXwXnXMXMXbXsXpXpX/.@X@X@X@X/./.yXyXyXsX8X8X8XjXaXbXjXnXCXSXZXVXVXVXDXDXZXZXDXnXnX8XnXVXVXVXVXCXCXnXnXbXbXMXAXnXwXjXkXnXnXbXkXjXjXkXbXnXVXVXZXGXHXHXHXFXZXGXHXHXHXHXJXJXJXJXJXHXFXAXCXCXCXZXSXSXSXSXHXHXSXDXDXDXSXPXAXMXjXsXyX$X$XuXuXuXuXuXyX$X$X@X@X@XyXyXyX$X$X/././././././././.@X@X@X/././././././.@X@X@X/./.@X@X@X@X@X@X@X@X/.@X/./././././.pXpXsXaXjXbXmXbXaXaXjX8XjX8X8X8XkXjXsX5XpXyX)./.@X@X@X@X@X@X@XyXhXhXhXpX4X4X4X4XyXyXyXyXyXyX/./.4X4X4X4X5XhXhXhX/./././.yXyXyXyX4X4X4X4X4X4XR././.@X4XY ",
"sXsXsXsXsXsXjXjXkXjXjXjXjXsXsXsXjXsXjXMXNXMXbXbXjXjXjXjXjXbXmXmX6XsXsXaXsXsXhX5X4X4X4XyXyXpXgXaX8XjXbXnXnXnXbXbX8XbXAXAXnXnXnXnXkXnXnXVXVXMXnXnXbXbXnXVXVXSXSXSXZXZXDXAXAXAXCXCXDXDXCXCXnXnXnXVXVXVXVXVXVXVXVXVXDXDXZXZXZXDXDXDXCXAXAXCXnXnXnXnXVXVXnXnXbXjXjXaXpXpX4X/././././.+X@X@XyXyXpXpX4XsX5X5X6XaXmXbXjXaXaXaXaXjXjXbXbXbXbXjXsXsXjXjXbXaXaXjXjXnXnXVXCXCXCXCXVXVXVXVXVXAXVXMXnXMXMXVXAXnXnXnXbXbXbXjX6X6X6XsXsXsXpXpXpX6XiX+X@X/.pX4XhX7XlXhX7XgX5X2X5XgXsXhXbX6XbXpXlX4XgXcX6X0X^ 0XmXBX/.xXaXlXgXcX6X7XmX1X0X] ) Q ` ! / MXMX' Q ~ ~ _ 1 ~ ' 2 _ ~ U 2 < + s > : ! / Q 2 I < Q _ ' , I NXPXjXMXkXPXwX/ / 7X8XH.2X2 _ Q Q ~ ~ 2 2 I ^ BX7X/ I 6XBXNX/ ~ ~ 3 ! 2 I L Y 2 ! ! [ ~ 1 H.BXcXeXbXgXgX6X6XmXjXmXNX6X3X6XkXNXZXZXZXDXVXVXVXnXnXnXVXVXVXCXVXnXbXjXkXMXMXxXyX/.@X+X/././.@X@X/.@X/.yXpXpXyXpXcX8X8XkXnXnXVXVXVXDXDXDXZXAXCXVXnXMXnXnXVXCXVXVXZXnXnXnXnXVXCXCXVXbXnXnXnXnXnXnXnXVXVXZXSXHXHXFXSXPXSXSXSXSXSXSXSXFXJXJXFXHXHXFXFXDXCXCXVXCXDXZXZXHXSXSXDXZXDXZXZXZXSXCXnXbX7X4XyXsXsXgXdXdXuX$X@X%X+X/.aXMXMXsX4X$X$X$X$X$X$X$X/.+X+X+X$X$X$X$X@X@X@X@X$X$X$X$X$X@X@XyXyX@X@X@X$X$X+X$X%XuXyX4X6X5X6XjXkXjX8XjXkXjX8XjXjXjXjXsX6XpXpXuXyX4X5X8X9X/./.@X@XyXyX4X4XpXyX4X4XhX6X5X4X5X5X5X5X5X5X5X5X4X4X4X4X4XhX5X4XyX4X/.4X4XsXjXjXsXsXyX4X4X/.R.R././.pXZ ",
"sXsXsXsXsXjXkXbXmXkXjXkXjXjXaXjXjXsXsXjXbXjXjXjXjXsX6XjXjXjXbXbXnXnXbXjXjXsX6X6X7X4X4X4X4X4X4X5XsXsXjXjXjXjX8X8XVXVXAXVXnX8X8X8XnXnXnXnXnXnXnXnXnXVXCXZXZXFXFXSXSXZXVXCXCXVXVXVXDXDXAXMXnXjXnXMXVXnXnXnXnXVXVXCXCXCXCXVXVXVXVXVXDXCXCXCXVXVXVXVXZXAXAXMXnXbXjXsXpXyXyX/././././.@X@X@XyXpXpXpX4XpXpXpXpXsXaXsXsXsXsXsXsXsXsXsXjXbXbXjXaXaXjXjXbXsXaXaXjXjXjXnXnXnXnXnXnXnXnXnXnXMXMXnXnXnXnXMXMXnXnXbXbXbXbXjXsXsXaXsXsXpXpXpXyX/.yX@XfX/.yXyXgX4XfXuX4XuX7X^ H.lX4XY 0X7XsXgXpX6XgXyXBXH./ 2 ' ^ sXlX/.eXgXyXgXOXBXlXP 3 3 ~ 2 Q _ 0XwX] { ) Q ' 3 _ Q Q ! ! ! I Q   , U ~ ! Q ! 2 ' ~ Q ) 2 1 : 7XPXPXMXkXPXNXI / I ~ ~ _ [ ] T ~ ~ / P = s ^ BXH.L ^ R.fXsX^ 3 Q / / Q 3 _ ! I I < Q , < 2 ~ 7XxXaX6X7XNXjXbXsXmXjX6X5X6XbXkXCXVXVXnXnXnXnXnXnXnXVXCXCXCXnXnXMXbXkXjXaX4X/././././././.4X4X4XyXpXsXsX5X4X7X5XbXbXbXbXnXnXnXnXVXVXCXCXVXnXnXnXbXjXbXMXAXZXSXHXMXnXnXnXnXMXnXnXnXnXnXnXnXMXAXAXZXZXZXZXSXSXSXZXSXZXZXZXZXGXHXHXHXFXHXJXJXFXFXZXDXCXVXVXVXCXZXSXCXDXVXVXDXZXZXZXZXZXCXVXbXsXhXpX6X6X6XsXsXsX4X4XpXpX6XNXPXAXMXbXyXyX@X@X@XyX4X4X/./././.@XyXyXyX4X4X4X4XyXyXyX@XyXyXyXyXyXyXyXpXyX@X@X$XyX4X4X5X5X5XsXjXjXbXMXMXbXjXjXjXjXjXsXsX6XpXhXpXpXjXVXSXsX4X/.yXyX4X5XaXhX5X5XhXsXsXhX5X4X5X5X5X5X5X5X5XsXsXsX5X5XsX5X4X4X4X4X4X4X4X6XsXhX5X4X4X4X/././././.hXL ",
"sXsXsXsXjXjXbXnXmXkXkXkXjXaXaXjXbXsX6X6XsX6X6X6XsXsXsXjXjXbXnXnXnXnXkXjXjXjXjXbXjXaXhX5X4X5X5X5XsXsXjXkXbXnXnXnXSXSXVXnXnX8X8XjXkXnXnXnXnXnXnXnXCXZXSXFXHXHXHXSXSXZXDXCXVXVXVXZXDXSXAXnXjXjXnXAXNXMXMXMXMXMXAXAXAXAXMXMXMXMXMXAXZXZXZXDXDXZXSXSXSXSXAXMXnXjXsXsXyXyXyX@X/./.@X+X@X@XyXyXpXpX4X4XyXyXyXyXyXyXyXyXpXpXpXsXsXsXsXaXaXaXsXsXsXsXsXsXsXpXpXsXsXaXjXjXbXbXbXbXbXbXbXbXbXbXbXbXbXbXbXbXbXbXbXmXbXaXsXsXsXsXsXpXpXyXyX@X@XuX%XfX/.yX@XfXdX/.cXfX%X_.! Y fXeX/ / H.E.mXNXlXBXxXeX/ / ~ ^ ^ 2XwX4XcXeX7XlXlXlXBX^ ~ 1 2 ~ ! 2 I / 2 s < 2 , ~ ~ ! 2 1 2 3 Q Q P 2 ! 1 < ! ~ ' < ^ 2 ~ U < = 3XjXNXnX0XH.1X0XU ] ) ) ) ) { ~ ~ 3 < s s L L NX^ ^ 7X@XBXaX_.! _ 2 1 ~ 2 3 ! Q , < ^ ' ^ 2 ~ ^ eX6X0X^ sXR._.4XaXhXaXmXxXmX5XbXbXbXbXbXbXjXaX6XbXnXMXnXnXbXjXNXMXbXsX5X/.T.OX/.R.R./.4X4X4XyXR.4XsXjXjXaXjXmXmXbXjXjXjXjXbXbXbXbXnXnXnXbXbXbXbXbXbXnXMXVXCXZXVXnXnXnXbXbXjXjXbXjXjXjXbXMXNXAXZXZXZXZXZXZXGXGXZXZXZXZXGXGXGXHXDXrXSXHXHXKXFXT SXZXVXVXVXVXCXAXCXVXCXCXZXSXSXSXFXSXSXCXnXjXsXsXnXnXwXnXnXnXnXkXsX8XwXVXZXZXCXVXpXpXyXpXsXsXsXsX6X6X6XsXsXsXaXaXjXaXsXsXsXsXpX5X4X4X4X4X4X4X4X4X5X4X4XyXyX/.4X4XyXyXhXhXhXsXsXsX6X6X6X6XsXsXhX5X5XhXpXyX5X8XVXSXAX8X4X4X4X/.5XMX6X6X6XsXsXsXpXyXhXhXhXhXyXyX5X5XjXjXsX5XsXsX5X5X5X5X5X4X4X4X4XhX4X4X4X4X4X4X/.4X/./.pXL ",
"sXsXaXjXjXkXbXbXkXjXjXjXjXsXsXaXbXaXsXsXsXsXsX6XaXsXaXjXbXnXnXnXnXnX8X8XkXnXMXnXMXmXbXsXsXaXjXjXjXbXbXMXVXCXSXSXSXDXVXnXnXnXbXbXjXjXkXkXkXkXbXbXVXCXSXHXHXHXFXZXDXDXCXVXnXVXDXSXDXDXAXAXnXnXAXAXnXMXMXAXAXAXAXVXnXnXnXnXnXAXAXAXSXZXZXZXSXSXSXSXCXCXMXnXbXsXpXyX@X@X@X/.@X+X+X@X@X@X@XyXpXyX4X4X+X@X@X@X/./././.yXyXpXpXsXaXaXaXpXpXpXsXpXpXpXpXyXyXyXpXhXpXgXgXsXsXgXaXaXaXaXaXaXaXsXsXsXaXaXaXaXxXbXxXaXsXsXsXhXpXpXyXyX/./.+XfX%X@XyX7X7X/.@X/.^ 7XfXR./ ! I /.eXQ 2 I H.bXxXlXMXwX/ ~ Q I < / ~ ' ^ 7XlXlX/.7XeXeX_.< 2 < s ~ ! Q Q / Q ~ / s ^ I P :.u.r o ] ) _ ` U < < O 2 2   Y , P < H.1Xs < rXrX~ U U ) ! [ ] U > > Y 3 Q 2 ~ I : y.BX3XY ^ 7X4XmXH.2 2 1 1 I I I : s 1 1 / I 2 3 1 L ~ 0X0X' / _.^ I yXpXyXuXuXpXyX/.pXpXpXpXpXpXpXpX6XsXmXMXMXMXnXbXMXbXjXsX4X/.OXOXT.T.T././.@X@XyX4XpXaXcXsXsXsXsXsXpXsXpXpXpXpXsXaXaXaXaXjXbXmXmXbXjXbXbXbXnXnXnXnXnXnXjXjXjXsXsXsXsXsXaXjXbXbXMXwXbXnXnXCXDXSXSXDXDXDXDXDXZXZXZX9XLXDXVXHXT , R HXSXAXVXnXMXMXNXVXCXAXAXAXAXCXCXVXVXVXnXjXsXsXsXVXnXwXnXnXAXMXnXnXnXnXwX9X9XwXnXsXsXsXjXbXnXMXMXbXnXbXbXkXbXbXkXnXnXnXbXbXbXbXbXaXaXaXsXsXsXsXsX6X6X7XpXyX4X/.yXyXyX/.4X4X4X/.R.4X4X5X5XsXsX6X5X5XhXhX5X5X8XnXZXHXCX8X6X6X5XjXnXjXjXjXsX6X4X4XyXhXhXhXyXyX4X4X4X5X5X5X5X5XsXsXsX6XjXjXsX5X4X4XyX4X4X4X4X/./.@X@X@X/.hXZ ",
"sXaXjXbXbXjXjXjXjXjXjXjXjXsXsXaXaXaXsXaXjXbXjXsXgXgXsXaXbXnXMXMXnXnXnXnXbXbXkXkXbXjXsXsXsXsXjXbXMXMXnXVXVXVXDXDXVXVX8X8XbXbXbXbXjXjXjXjXjXjXjXjXnXnXCXSXZXSXCXVXnXnXnXnXbXnXAXPXDXDXZXSXSXSXCXCXnXnXVXCXCXVXVXnXnXnXnXnXnXnXVXCXAXCXVXVXAXAXAXAXnXbXjXaXsXpXyX@X/./.+X+X+X+XOXOX/././.@X@X@X/./.&XOX@X@X/.R./.@X@X@XyXuXuXpXpXpXyXyXpXyXyXyXyXyX@X@X@X@X@XyXyXuXyXyXyXyXyXyXyXyXyXyXyXyXyXyXyXyXpXpXpXpXyXyXuXiXyX@X@X@X/.@X@X+X+X/./.R.0X0X7X6X^ _ / 6X3XQ ~ ^ ^ / I 2 2 ^ 7XsXwX0X/ 2 ~ I ~ ~ [ Q ! Q 0XgXBXmXmX/ Q 0XI Q 3 H.Y < : 1 / ) Q ~ / 3 [ ~ ^ < 2 _ ! ] _ { ~ > # I _ tX[ Q 3 / ~ 1 , ` [ [ [ [ ] [ ] [ ] ] Q 3 ] ] ~ _ ! I P = L ^ ^ / / I ^ ^ Q ! I 1 < : > : s # , ~ / / 2 Q ) ' ~ ! ~ ~ ~ ~ Q 2 yX/.@XT.U.^.T.+X/././././././././.4XyXsXsXaXjXjXjXsX6X6XpXyX+XT.oXoXOXOXOXOXOXOX/.@X@X@X/././././././.yX@X@X@X@XpXyXyXyXpXpXsXsX5XhXsXaXjXbXMXMXnXbXbXjXaXsXsXpXsXsXsXsXsXsXaXjXsXaXaXjXmXMXAXAXNXNXNXAXAXAXAXAXnXAXAXPXSX5X5XPXAXCXnXbXbXbXbXbXjXkXbXbXnXbXnXwXbXbXbXbXxXcXmXmXMXbXjXjXnXMXMXbXmXmXnXbXjXjXbXbXhXhXjXkXnXnXnXnXnXnXnXnXkXnXnXnXnXnXnXnXnXMXMXMXaXxXaXaXsXsXaXaXjXsXsXsXpXyXyXyX+X/.@X@XpXpXyXyX/.4X5XsXsXsXsX4X5XhXsXaXjXnXCXSXZXDXnXbXxXbXnXkXbXbXsX6X4X4X4XyX4X4X4X4X4X4X4X4X4X4X4X4X5XhXsXsX8XjXjXsXhX4XyXyX4X4X4X/././././././.pXZ ",
"pXsXaXaXaXaXsXsXjXjXjXjXjXaXaXaXsXsXaXaXbXmXjXsXpXhXpXhXsXaXaXaXkXjXjXjXaXsXhXhXhXpXpXyXyXpXsXsXmXbXbXnXnXnXnXVXnXkXjXjXbXbXaXsXsXsXsXsXsXsXsXaXsXbXnXnXnXbXjXjXbXbXbXmXmXbXMXAXVXVXVXCXAXAXnXwXnXnXMXAXAXMXnXnXnXnXbXbXbXbXbXbXbXbXjXjXjXjXjXaX6X6XpXpXyX@X@X@X/././.+XOXOXOXOX^.^.^./././././.OXOX+X+XOXOX@X@XOXOX@X+X/./././.@X@X@X@X@X+X/./.+X+X+X/././././././././././././././././././././././././././.+X+XOXOX/././.^.OXOXT.^.7X1X^ ~ ^ 7X^ _ ~ 2X2X! ] ^ / I I / ~ / / R.~ ~ 3 1 < I I ~ Q Q Q / rX2X/ yXhX^ Q I I Q ! ~ _.q.r Y / ^ I ' R L 1 I I 3 _ { ) _ { ) U [ ) ~ [ [ 2 ~ ~ ~ ' 2 tX[ _ [ ) [ [ ] ) Q ) [ [ _ 2 1 O P < > s P ^ ~ / / / Q _ Q Q [ ' Q < _.I 2 ' 1 { I < / ' Q Q Q 2 3 Q 2 ~ 3 ! / ^ H.R./.$X+XOX%X@X@X@X@XyXyXyXyX/./././.4X5X5X6XaXaXsXsXsXgXyX/.oXOXOXOXOXT.^./.T.T.T.T.T.R./.R.R.T.R./././.^.^.@X@X/./././.4X4X4X4X5X5X6XaXjXjXaXsXsXsXpXpXpXpXyXyXyXyX4X4X4X4XpXyX/./.4XhXsXaXsXsXsXaXaXjXjXjXjXNXbX5XbXNXMXjXjX6X5X5X4X4X5X5X5X6XsXsX6X6X6X6XbXxXsXsXsXsXxXxXmXaXsXsXsXaXsX6X5XsXsXaXmXmXcXaXyXhXjXnXVXnXnXjXbXbXkXkXkXnXnXnXnXnXnXnXnXkXjXjX5X5XpXpX5XhXsXsXsXsXsXsXsXyXyX@X+X+X@XyXiXiXuXyX@XyXyXhXsXhX4X4X4XhXsXaXjXnXnXnX9X8XnX8XbXbXbXjXsX5X4X/./././././././././.4X4X4X4X4X4X4XyX4XyXpX6XsXsXpX4X/./.@X4X/././././././.+X/.pXZ ",
"pXpXpXpXpXsXsXsXjXsXaXjXjXsXsXaXsXsXsXsXaXmXaXhXyXyXyXyXyXyXyXyX4X4XyXyXyX@X@X@X@X@X@X@X@X@X@XyXpXpXpXpXsXsXaXaXaXsXsXpXsXpXpXpXpXpXpXpXpXpXpXpXpXsXsXsX5XpXpXyXsXsXgXgXgXsXaXmXxXaXaXjXjXjXsX6XaXaXaXmXmXaXaXaXgXgXgXsXpXpXpXpXpXpXyXyXyX@X@X@X/./.@X@X@X+X+XOX/.^./.OXOXOX&XoX^.^.^.^.oXOXOX^.OXOXOXOXOXOXOXOXOXOXOXT.T.T././././.^./.OXOXOXOX@X@X@X+X+X^./.^.OX^.OXOXOXOX+X+X/./.+X+X@X@X@X@X+X/.^.^.^.OX^.^.&XOX^.^.^.^.oXoXOX^.7X^ ~ 2 ~ ` / _ 2 ` _ 3 I I / ~ 3 I I I L < ~ ' _ Q ~ / ~ 2 Q / I 1 ! ~ I 2XPXxX_./ ^ 3 2 Q Q ! ! I < 1 1 P : H.: I , 3 _ Q 2 U ) ) 1 Q ~ { [ [ ' ~ 3 ` ] ' ~ Q _ ] [ [ [ ] y.: < 2 2 / 3 U ^ P > P ^ ' / U 2 ~ _ [ [ ~ ~ ~ Q ~ , ~ 2 ~ ! ) ! 2 < , ~ < I 2 < 2 / I ~ 2 Q ~ 2 / ^ 7XmXpXcXiXgXgXgXgXsXsXaXaXgXiXpXpXxXmXbXkXxXbXbXjXjXbXaXhX@XyXyXpX4X4XyX4XdXdXpX4XyXpX4XR././././././.^.OXOX+X/./././.4X4XpXpXsXpX5XhXsX5XpXpXyX4X4X4X4X4X@X/./././././././.R.R.R.R.R.R.3XR.R./.4X4X4X4X4XaXE.sXBX4XE.yX4XyXyXyX4X/./.4X4XyXpXpXpXpXpXsXsXsX6X6X5X5X5X4X4XhX5X4X4X5X5X5X5X5X5X5XpXsXcXaXpXuXsXkXnXCXnXnXjXjXjXjXjXjXbXnXMXMXnXnXjXjXjX6X5XsXsXsXsXsXsXaXaXpXpXpXsXsXyX@X@X+X+X+X@X@X/././.@X@X@XyXyX4X/./.yXyX4XsXjXjX8X8X7X5X8XjXjXjXsX5XyX4X/./././././.4X4X/./.4X4X/./.yX/.yXyXyX/./.@X4X4X4X/././././././././././././.+XR.hXZ ",
"yXyXyXyXyXpXpXsXsXsXsXsXaXsXsXsXaXaXaXsXsXaXsX5X@X/././.@X@X+X/.+X/.OXOXOXOXOXOX/./.OXOXOXOX^.R.+X+X+X+X+XOXOXOX@X@X@X@X/./././.@X@X@X@X@X@X@X/.@X@XyX/./.@X$X%X4X/.@X$X@X/./.4X+X+X@X@X@X@X@X$X@X@X@X@X@X@X@X@X+X+X+X+XOXOXOXOX@X@X+X+XOXOXOXOXOXOXOXOXOX^.^.T.T.T.T.&XT.&XoXoXoX^.^.^.oXoXoXoXoXoXoXoX^.^.^.^.OXOXOXOXOXOX@X@X@X@X@X@X@X@X@X@X@X@X@X@X@X+X@X+X@X@X@X@X@X$X$X$X@XuXuXuXuXuXuXuXfXfX$X%X%X%XOXOX%X+X+X+X/.+XOXOX%XT.E.^ ] Q ~ ^ Y ~ I ~ _ ! < 2 2 ' ~ 2 : : I 2 [ _ _ 2 ^ I / { I ! ! 3 Q ~ ~ ' 7XBXR.1 2 Z J.~ ^ Q Q ~ Y 5 < Q , : r X : ^ < < 2 ~ ! U I ] s _ { ) { [ [ _ [ ) ' Q ] ] ~ 1 2 ~ { ) ) 2 2 ~ Q ) ! ) _ Q 3 I U ~ ] ' Q Q 2 ~ ~ < Q Q [ _ 3 / < : . > : , Q _ 2 X > e s 3 2 ^ U 3 ) ] 3 1X6X3XPXjXcXaXcXaXbXbXbXbXgXiXuXpXcXmXMXnXgXxXbXsXjXjXbXjXjXbXbXbXbXbXbXnXaXjXjXbXMXAXNXMXiXiXuXyX@X@X%X%XOX@X@X@XuXuXsXxXgXcXcXgXsXaXaXsXpXpXpXpXyX4XyXyXuXuXyXyXyXpXiXgXsXaXmXNXNXMXmXjXmXmXmXMXMXMXmXbXgXcXyX4XcXcXyXdXgXgXdXdXdXiXpXpXiXiXdXdXiXuXiXxXjXbXmXMXMXMXmXmXaXjXjXmXMXMXMXMXMXbXsX5XsXxXaX6X@XpXjXnXVXnXnXbXjXsXsXsXsXjXkXbXjXjXjXjXbXbXbXbXaXaXsXsXpXhXhXsX@X@XyXhXhX4X/.OXT.T.R.^.R./././.+X/./.R./.4X/./.@X/.yXaXMXMXMXbXxXsXjXkXkXjX5X7XdXpX@XyXuXpXpXyXuXuXyX@X/./././.@X@X@XyXyX/.R./././.R.R././././././././././././.OXR.yXZ ",
"@XyXyXyXpXpXpXsXhXpXsXgXgXgXpXpXsXsXsXsXsXsXhXhXyXyXyXyXpXpXyX/.%XOXOXOX+X/.^.^.+XOX^.^.^.^.^.^.OXOXOXOXOXOXOX+X/././././././.@X@X@X+X+XOXOXOXOX@X@X/./././.@X/.@X+X+X+X+X@X@X@X@X+X@X+XOXOXOXOXOXOXOXOX+X+X+X@X/./.+X$X+X+X+X+X@X@X@X@X@X@X@X@XyXyXyXyXyX@X/./.$X@X@X+X^.^.^.^././././././.@X/.yXyXyXyXyXyXyXyXpXpXpXhXhXpXpXpXpXpXpXpXpXpXpXpXiXpXpXpXpXpXyXyX4X4X4X4XyXyXyXpXhXhXsXsXpXiXiXiXsXsXpXpXuXuXuXiX).lXgX/ Q I cXlXfXcX0XQ ~ U U _ ] _ Q ~ ] 2 3 ~ I < ~ / 1 I > e P ' 2 ~ I L ~ ! _ Q 3 [ ~ s s ~ [ ~ s X r s , < I ^ ^ ^ H.s   > I < : , ' Q , ^ Q 3 , ~ ^ < U ] ) ! ~ 3 [ 3 ] ` _ ] ' 1 , 3 1 qX_ , P ~ ! ) ) ` Q ! U R U : r Y / / 1 2 2 ~ 2 1 s : L / Q ! ~ 2 1 ~ Q 1 1 I L P 1 < I > s P , / ~ 1 / 2 ' L wX' sXxXxXpXBXmXR.wXfXlXfXmX6XmXBXlXfXfXpXjXnXnXMXMXbXbXbXMXMXbXbXjXbXjXjXnXVXAXAXnXjXjXjXjXbXbXbXbXjXjXaXaXaXjXjXbXbXbXbXbXbXjXjXaXxXxXxXxXxXxXaXaXnX8XnXMXbXkXPXMXy.nXAXSXSXZXFXGXSXDXPXSXHXHXHXHXZXVX9X9XAXVXAXAXmXmXxX6XsXnXMXbXNXAXnXkXnXAXMXsXsXbXNXAXVXVXVXDXZXZXSXSXDXVXnXwXCXnXaXyX$X$XpXpXpXsXjXbXbXbXaXgXaXsXsXsXsXsXsXaXsXsXsXsXsXsXsXsXsXsXsXhXyX@XyXyX/./././.@X@X+X+X@X@X@X/././././.4XyXyXhXsXgXgXgXpXhXsXkXnXnXbXjXsX6XjXbXbXsX5X5X8XjXbXmXgXpX4X4XuXyXyXpXhXhX4XR.+X^./.+X+X/.^./.R.R.T.T.T.T.T.T.T.T.T.T.T.T.T.T.T.T.yXB ",
"iXiXpXpXpXpXpXpXsXgXaXaXaXgXgXsXgXgXgXsXpXpXpXpXpXpXpXgXgXgXpXpXfXuXyXpXpXhXiXiXyXyXyXyXyX@X@X@X@X@X@X@X@X@X@X@XuXuXuXuXuXuXuXuXpXpXuXyXyXuXuXuXuXuXuXyXyXyXuXuXuXuX@X@X@X@X@X@X/./././.^.^.^.^.+XOX^./.+X@X@X@XyXyXpXiXpXpXpXpXyXyXpXhXpXgXgXgXpXpXpXpXpXhXpXyXyXyX@X@XyXuXuXuXuXuXpXpXpXpXpXpXyXyXyXuXyXyXpXpXpXhXpXpXpXsXpXsXpXpXpXpXpXgXsXgXgXgXgXgXgXgXgXgXaXgXaXaXaXaXaXaXaXaXaXaXgXgXdXdXpXsXpXiXdXiXuXpXzXfXcX^ Q 2 H.lXBXcX1X_ ~ ~ ~ [ _ [ _ ~ ~ 3 1 2 ~ ! ' 2 / I , # < ~ _ ~ 2 _ _ 1 ! Q 3 Q Q I ~ 2 Q Q 2 1 U ' ^ T < I ^ s     = X r r s < ~ ' ' 3 ` ^ P R I [ ) ' Y r s < ] [ [ _ [ 2 _ ' ' ] 2 ) ^ P # s U U P > R < > r ` ` R , 1 1 < / I < 2 ~ Q Q Q ~ ! ! Q 1 s s < I <   < < I I 2 / I 2 1 ' Q 2 2 I ' / 2 < BXfXlXgX7X7X_.^ mXmX0X^ 7X6X6X6XyX4X6XnXCXAXAXMXjXbXmXmXmXbXjXjXmXbXbXnXMXNXMXMXbXbXbXbXbXbXaXaXjXbXbXbXbXbXbXbXjXjXjXbXbXbXbXjXxXxXaXaXaXaXaXxXbXAXAXkXPXNXH.> Y jXNXMXAXAXAXAXjXnXAX8XCXVXHXDXSXLXLXPXVXAXLXY H.5XnXAXAXAXSXSXCXSXDXVXCXPXAXkXsXbXMXAXCXVXCXSXDXZXSXSXDXCXVXnXZXVXbXgXpXyXyX4XpXsXsXjXjXaXsXpXpXpXpXsXsXpXsXsXpXiXgXgXgXgXpXpXhXpXyXyXuXuXuXyXuXpXuXpXuXuXyXyXuXuXpXpXpXpXuXuXsXsXsXsXsXsXsXhXyXpXsXjXjXjXsXsXaXsX6XsXsXsXjXjXnXbXjXsXpXyXpXgXpXpXpXsXaXjXjXjXyX/././././.^./././././.^././.R././././././././.+X/.iXZ ",
"uXuXpXpXpXpXpXpXpXpXpXpXpXpXpXpXiXiXpXpXpXpXpXpXpXpXpXiXiXiXpXpX4XyXhXsXjXjXsXsXsXsXaXaXaXsXhXhXuXuXuXuXuXuXuXuXiXiXiXiXiXiXiXiXaXaXsXsXsXhXhXsXiXiXiXiXiXiXiXiXiXpXpXpXpXpXpXpXpXpXyXyXuXpXpXpXuXyX@X@X@XyXuXiXsXaXaXaXaXaXaXaXsXsXsXsXsXsXsXsXaXaXgXgXsXsXsXsXgXiXiXuXpXiXiXgXiXiXiXiXuXuXiXiXpXpXpXpXpXpXpXpXpXpXpXpXsXgXgXgXaXgXgXgXsXaXaXaXaXaXaXaXaXaXaXaXmXmXmXmXmXmXmXmXaXaXaXaXgXgXgXgXaXgXgXgXgXgXiXuXdXuX5X/ 2 2 Y BXcX7X/ _ Q / 2 ) _ _ Q ~ ~ 2 3 ] / I > s : < 2 1 _ 2 Q { { Q 2 1 1 I 2 2 ! ! Q 2 ! / / ~ 2 2 I < , / Y > s r + + + P > P > < 2 3 Q : X s ~ [ [ ) ~ ~ ` ~ ) ) 3 3 2 3 2 / 2 2 ] _ ~ ,     O R < 2 I ' ` 2 _ ) 3 ! 2 I I < < < I / ~ 1 , < < X 5 r #   # : : s L L s T I 1 ~ ~ / 2 1 2 I ^ ^ _ Q y.BXgXfXcXwX^ ^ 7XlX7X^ ^ mXlXhXwXbXnXCXSXHXPXAXMXsXaXaXaXaXsXsXsXsXsXaXmXmXMXmXbXbXbXbXbXbXbXbXbXbXbXbXmXmXmXmXmXbXbXmXbXmXmXbXbXmXmXbXaXaXjXbXbXNXPXAX5XAXPXH.T aXNXbXaXjXsXjXjXaXNX6XNX5X8XnXPXZX9XSXHXSXLX1X# 1X9XZXSXZXZXSXHXZXSXSXZXSXSXNXbXsXxXMXMXCXCXAXSXDXDXDXDXDXCXCXCXZXAXMXmXcXsXpX4XpXpXsXsXsXsXpXpXpXuXpXpXpXpXpXpXuXuXpXuXpXpXuXuXdXdXuXiXdXdXiXyX5X5XpXpXhXpXsXsXhXpXpXgXgXdXiXdXsXsXsXsX6X6X5X7XpXpXsXsXsXsXpXpXsXhX5XhXsXsXjXMXMXmXsXpX4X4XsXmXsX6X6XjXbXnXnXnXsX5X4X4X4X/./.+X@X@X@X@X@X@X@X@XyXyXyXyXyXyXyXyXyXyXaXY ",
"uXuXuXiXiXpXiXsXyXpXpXpXpXpXpXpXuXuXuXuXyXyXyXyXyXyXyXyXyXyXyXyXhXsXkXMXMXMXjXsXaXaXjXjXaXaXsXsXhXhXhXhXiXsXsXsXpXpXpXhXpXhXpXhXaXsXsXsXsXsXsXsXiXiXiXgXgXgXiXiXsXsXgXgXaXaXcXcXmXmXcXcXcXcXcXcXcXcXgXgXsXgXgXgXsXaXaXaXaXaXaXaXmXmXjXjXaXaXsXsXsXsXhXiXiXpXpXpXuXuXpXiXhXhXhXiXpXpXpXpXpXpXpXpXiXiXiXiXgXgXgXgXsXsXsXgXgXgXgXgXsXsXsXsXsXsXaXaXaXaXaXaXaXaXaXaXbXbXbXbXjXjXjXjXcXaXaXaXgXgXsXsXmXcXgXgXgXgXgXxXgXcXR.I 3 ~ ^ xX6X7X/ _ Q ' ] ) _ Q 3 2 ~ ~ Q ~ ~ ^ < I 0X~ ~ ~ L / [ [ { ! / < < 2 2 P 2 ! _ ' 2 / I Y > # < > , ^ < : H.Y   + , ' ~ P = = < 2 < s ' Q Q I < ' _ [ _ Q ] ` + + s > : > , I ` 3 2 ~ [ [ _ ~ _ ~ ~ Q ' ' ] 2 I R < I I < < , < < 1 I I Q Q ! ! ! Q Q < P Y = e s . r s : L : P < < I s > 0X/ < H.eXeXsXeX0XI Y mXmX3X^ 7XPXPXNXPXCXSXSXSXAXMXbXsXpXpXpXpXpXpXpXpXpXpXpXaXaXbXcXcXaXjXjXbXbXbXmXmXbXbXbXmXmXmXmXbXmXmXmXbXmXbXbXbXmXmXbXbXbXjXbXbX8XNXPXPXT NX6XNXmXbXsXmXmXsXaXmXMXNX5X4XjXjXPXbX9XPXSX9XPXCXP AXZXSXZXDXVXDXZXDXZXZXSXDXCXMXbXaXaXxXbXnXCXAXAXAXDXDXDXDXSXAXCXAXVXVXMXMXmXmXxXsXpXpXgXgXgXgXsXiXiXiXuXpXpXpXpXpXpXpXpXsXsXpXpXpXpXhXpXpXsXsXsX6XjXjXsXsXsXsXaXaXsXsXsXgXsXpXuXyXpXpXpXpXpXyXyX4XpXpXpXpXpXpXyXyXsXhXsXsXsXaXjXjXsXsXsXpXpXpXsXsXbXbXnXnXnXVXVXrXkX8X6XsXhXyX@X@X@X@X@X@X@X@X@XyXyXyXyXyXyXyXyXyXpXpXbXY ",
"uXuXuXuXuXyXyX4XyXpXpXiXiXiXiXgXuXuXuXyXyXyXyXyXuXuXuXyXyXyXuXuXsXsXaXmXmXmXsXpXpXsXpXsXsXpXpXpXpXhXpXhXpXsXsXsXsXsXsXsXpXpXpXpXpXpXpXpXpXpXpXpXpXpXpXpXgXgXgXpXsXsXsXsXsXaXaXmXbXbXaXaXaXaXsXsXmXmXmXmXmXaXaXsXsXgXgXsXsXsXsXsXhXsXpXpXgXgXgXgXpXpXpXpXuXpXpXuX/.yXpXiXuXuXiXiXpXpXpXpXpXsXgXgXsXgXgXgXgXgXgXgXgXgXgXgXgXaXaXgXsXsXsXsXsXaXaXaXjXjXjXjXjXjXjXjXmXmXmXmXbXbXjXjXcXcXcXcXcXcXcXcXcXcXmXaXaXaXcXcXcXNX_./ 2 2 / R.H.H./ Q ! ~ ] ) _ Q I ~ 2 ~ Q 1 3 ! ' ~ 1 < < ^ Z 2 ! _ [ Q / / X 1 2 U I < 3 2 ~ / > < : P ^ ^ > : , < P < < I ~ Q ] ,   s / ! I ~ 1 ^ s ~ [ Q 1 U 2 1 _ [ _ ] R R P > < ^ ~ 1 _ ] , , ] [ [ ) [ _ _ Q U > = 5 < < s > :   < < 9 R s # , 1 ! ! Q Q ' , < T < P 2 I s X = Y ^ I 2 , 2 Q ~ 2 2 Q / 0XwXeXQ 2 0X7X' ~ 2 ^ ^ rXrXCXSXPXSXAXnXbXxXcXsXpXpXpXpXpXpXuXpXgXgXaXaXaXxXcXbXbXbXbXbXbXbXbXjXjXbXbXbXbXbXbXmXbXbXbXbXbXbXjXjXbXbXbXbXjXaXaXNXnX3X  8XNXjXbXNXAXNXNXMXbXNXNXPXT   kXPXPXnXAXPXAX8XAXnXAXPXSXPXSXAXAXAXAXCXnXAXAXAXMXMXbXgXpXxXbXbXnXVXCXCXVXAXCXAXSXAXAXAXVXVXnXnXnXmXMXmXmXsXgXgXdXdXgXgXsXdXdXiXpXpXsXaXaXbXbXbXbXbXbXbXbXjXjXbXMXMXnXVXAXAXNXMXbXkXjXjXjXjXjXaXaXgXpXyX/.@X@X@X@X@X@X$X$XyXyXyXyXyXyXpXpXjXjXaXaXaXsXaX6X4X5XsXgXgXpXsXsXbXbXnXnXVXVXrX9XnXkXjXbXbXaXyXyX/./././.4X4X4XyXyXpXpXpXpXuXuXuXpXpXbXR ",
"@X@X@XyXyXyXyXyXuXuXuXpXiXiXdXdXiXiXuXuXuXuXuXuXuXuXuXyXyXyXuXuXpXpXyX4X4XyX@X@XyXyXyXpXuXuXyX$XpXpXpXpXpXpXiXiXiXiXiXiXiXpXiXiXuXuXpXuXuXpXuXuXsXsXsXaXaXaXaXaXaXsXsXsXsXsXsXsXsXsXsXaXaXjXjXjXjXjXjXmXmXaXaXsXgXxXxXgXsXsXsXaXsXsXpXsXiXiXfXiXsXsXgXxXxXiXuXpX6XsXxXcXxXiXiXiXpXpXpXsXsXsXgXgXgXgXgXgXgXgXgXgXaXaXaXaXaXaXaXgXcXaXaXaXaXaXcXcXjXjXjXbXmXbXbXbXmXmXmXmXmXmXaXaXcXcXcXcXcXcXmXmXgXmXmXnXbXbXmXBXpXwX^ ^ I 1 2 H.H.^ ] _ _ I Q ) ~ 3 I ^ ~ 2 2 < , ^ I / 2 0X# e L : ' _ 1 Y 0X! s Q 3 3 P I I ~ 1 Q 3 Q Q _ ~ < ^ I ^ ' ~ ~ ' 2X2XU ^ I , ^ _ ) ~ U s R U _ ) ) ) { ) ) _ 3 3 ~ I 1 3 ~ ] 2 2 [ ~ < O = P 3 1 U 3 2 _ Q 1 1 ~ < < < :   : < L < 1 2 1 1 I L L < Q 2 ' ~ 1 , 2 ' Q 2 I s s s , , e e R I < +   2 I ^ 0X' Q ~ ' ' ~ < : < < NXPXPXAXAXAXbX6X6XpXgXmXmXbXxXxXxXxXxXcXcXxXjXbXbXxXaXmXmXmXmXbXbXjXjXbXbXjXjXbXbXbXmXmXmXmXmXmXmXmXmXmXmXbXbXbXbXbXbXnXnXAXkXMXLXPXMX8XnXkX8XnXAXAXH.SXPXPXSXSX8XAXnX8XnXAXPXnXnXnXNXMXNXAXAXNXNXAXAXAXNXMXNXMXcXgXdXcXbXbXnXnXMXnXnXAXAXAXAXSXAXCXnXnXnXnXbXbXbXmXmXsXsXgXiXdXgXaXaXiXiXpXsXsXbXmXMXnXnXnXnXnXnXnXnXMXNXAXAXVXVXVXAXMXMXMXmXkXjXmXaXjXjXjXaXsXpX4X4X@X@X@X@X@X@X$X$X4XyXyXpXpXsXbXmXVXMXbXsXpXsXaXjX6XsXpXgXgXgXsXsXaXjXjXbXnXVXnXwXnXnXkXbXmXjXsXpXpXpXpXpXpXpXsXsX4X4XpX4X4X4X4X4XpXpXbXY ",
"@X@X@XuXiXiXiXiXuXuXuXuXuXuXpXpXiXiXiXiXiXiXiXpXuXuXuXuXyXyXuXiXcXiXpXyXuXuXfXfXuXuXyXyXuXuX$X$XuXuXuXuXuXuXuXuXuXuXuXuXuXuXuXuXuXpXuXgXgXgXgXgXaXaXjXmXmXmXmXmXcXcXaXaXaXaXaXaXbXbXbXbXmXmXmXMXjXjXjXjXjXaXaXaXaXaXxXaXaXaXxXmXNXNXMXmXmXcXaXgXjXbXmXmXmXbXaXaXMXMXMXMXxXaXaXaXaXaXgXgXaXaXaXaXgXaXaXaXaXaXaXaXaXaXaXaXaXaXaXaXcXcXaXaXaXaXcXcXaXaXaXaXmXmXjXmXcXaXaXgXaXaXaXaXgXgXaXcXcXcXmXmXBXmXwX2X0X7XxXBX4X^ ~ ^ I 2 2 ^ ^ ^ ~ _ _ U 3 ! Q 2 I ^ ~ 2 2 I < ^ I 2 2 ! _ Q I ' / I 0X' 1 I ~ ~ Q 3 ~ I 1 , ~ [ _ [ { [ ' 2X' ' ' ' ] ] ] ] 2 ~ 1XT 1 ' ! 3 U > P [ { ) [ ' ^ 3 < ^ ^ 3 Q ) Q ' [ Q Q ] 2 , R > , ] ] , s r + A R < R s 1 : < s : < s P s   > I 2 1 2 / ' ~ / 1 2 3 ~ _ _ ! 1 2 ^ , , < ~ ~ ! , ! _ ! _ _ _ I ' ~ ~ I I ~ Q I < , ; p BXBXPXLXLXLXPXPXPXPXPXMXMXMXmXbXmXmXmXmXmXbXMXMXMXbXbXmXmXmXmXmXmXmXmXmXmXmXbXbXbXmXMXbXbXbXbXmXMXNXNXMXmXmXmXmXmXMXNXPXAXAXPXMXMXMXMXMXNXNXNXnX8XT   AXAXnXMXnXAXMXnXPX6XMXbXbXNXnXnXMXMXNXMXnXnXAXSXAXMXMXAXNXmXaXaXcXmXmXMXnXnXMXMXAXAXAXAXAXAXCXVXAXMXnXbXbXmXmXmXaXaXgXgXgXsXaXaXiXpXsXsXaXbXMXMXnXnXnXnXnXnXnXnXnXnXbXjXjX6X6X6XjXjXjXaXaXaXaXaXsXaXaXaXaXsXsX6XgXsXsXpXhXhXsXpXpXsXgXsXsXjXnXCXZXCXnXaXsXsXbXbXsXsXpXpXiXpXsXsXpXhXsXaXbXnXnXnXMXkXjXjXkXjXsXsXsXsXsXsXsXaXaXaXsXsXsXsXsXsX6X6XiXsXmXY ",
"fXfXfXdXdXdXdXdXdXdXiXiXuXuXuXuXpXpXpXpXpXpXpXpXiXdXdXfXuXuXdXdXpXpXpXpXuXuX%X%XuXuXuXuXuXuXuXuX$X$X$X$X$X$X$X$X$X$XuXuXuXuXuXuXpXhXsXsXaXgXgXgXjXjXmXmXmXmXmXmXmXcXcXcXcXcXmXmXmXmXmXmXmXmXmXmXMXMXmXmXmXaXaXaXaXjXjXjXjXbXmXmXnXnXnXbXbXjXaXsXkXnXMXMXMXMXkXjXDXAXAXMXbXbXmXmXmXmXmXmXcXcXcXcXaXaXaXaXcXcXcXcXxXaXaXaXaXaXaXaXgXgXgXgXgXgXgXcXaXcXaXcXcXmXmXmXcXcXcXcXcXcXcXcXcXcXcXmXmXmXmXmXBXmX7X' ~ ^ 7XcX5X/ Q I I ~ 2 I / 0X] _ Q ^ ~ [ ! ' I , 1 Q 2 < < I s L s < 2 _ { ~ I / 1 < U ^ _ I 2 1 _ ~ ' [ [ [ ~ ' ' ' U ' [ _ Q Q [ [ [ ' [ 2 0XU ] 3 U ^ Q ! _ ` I ] 3 ! _ ) ) ] 1 1 ' Q Q 2 2 ] ] U ` ^ ] _ ) ~ T R P ~ s 5     A < 1 / I s > Y s : # : : < 2 Q 2 1 1 2 2 ~ 3 2 ' 2 / < = > s T I ^ I / ~ 2 ' ^ Q ! ! < ! Q Q ~ r t.2X~ ` 2 2 / 7XPXxXwXZXZXZXAXSXPXSXVXAXAXNXMXNXmXmXmXmXmXMXAXPXPXNXMXbXbXmXmXMXmXNXNXMXmXMXmXmXMXNXNXbXbXbXbXbXbXmXbXmXbXbXjXjXbXMXNXnXAXnXnXnXMXMXbXmXmXMXPXMXnXSXVXPXMXNXjXNXbXMXNXsXAXMXmXNX6XPXbXnXnXnXVXCXVXVXVXnXwXnXAXAXMXjXjXaXmXmXMXnXMXMXNXAXAXAXCXAXAXAXAXAXMXMXMXMXMXmXmXbXxXxXgXxXxXxXbXgXsXaXsXjXjXbXnXbXbXmXmXmXmXbXbXMXmXjXjXmXmXmXcXkXkXkXbXaXaXsXsXaXaXaXbXmXbXbXbXkXkXkXjXjXjXjXjXcXcXcXsXsX8XwXVXZXZXVXkXsXcXmXbXsXsXpXpXpXpXpX4XgXiXpXpXsXjXjX8XMXjX6XsXjXjXjXjXsXsXsXsXsXsXsXsXbXbXMXmXbXkXkXkXiXpXxXY ",
"gXgXgXgXiXiXiXgXdXdXdXiXdXiXiXiXiXiXiXiXiXiXuXiXgXiXiXpXpXiXiXiXgXgXgXgXgXgXgXgXpXpXpXpXpXuXuXuXuXuXuXuXfXfX%X$X%X%XfXfXuXuXpXuXiXiXiXdXdXdXdXdXgXgXcXgXgXgXgXgXgXgXgXgXgXgXcXcXmXmXmXmXmXmXmXmXbXbXmXmXbXbXbXbXjXjXjXaXaXxXgXcXgXgXgXgXgXgXgXgXaXxXmXmXmXmXmXmXgXaXcXcXcXcXcXcXxXxXxXaXaXaXsXsXaXxXcXmXmXmXcXcXcXcXgXgXsXsXsXsXgXgXgXgXgXgXaXaXmXmXgXaXmXmXmXmXlXaXeXxXxXBXBXmX9XwX7XxXBXfXlXBXBXNX~ ~ ~ P t.fXBXL ! _ 3 I : < / ' ~ / 2 ~ ' ~ ' ~ < P 3 ~ 2 T / ! ! 2 = r ^ ~ 2 / 1 [ [ 2 / ~ < s ] [ [ [ _ ^ [ ] U ' / 2 ` T _ Q [ ] ~ Q _ { U ~ _ ) [ ' ^ P I : Y ~ / s > ` ] 3 U ~ 3 U ^ P ] ] U I P   , P > , U ` 2XU 1XJXs + r O R I ~ ~ 3 Y O I 1 $ s 1 2 ! ~ : : O O @   = = > L I ~ Q ! 1 ~ ' U I < 1 I / < I I 1 ~ _ ) _ P < Q _ 2 < , 2 / PXAXCX[ { tXGXHXCXPXPXNXwXMXPXNXmXmXmXmXBXNXAXAXAXPXAXMXMXmXmXbXbXbXbXbXbXbXmXmXmXmXmXmXmXmXmXbXjXbXbXMXNXjXMXsXmXmXcXhXmXaXBXxXxXxXmXmXMXNXmXPXMX8XPXAXPXPXMX5XsXmXmXbXbXbXbXbXbXMXMXMXMXbXbXMXMXNXNXMXMXnXMXMXMXMXmXcXxXmXmXmXMXAXAXSXZXDXZXZXAXAXAXAXNXMXMXMXMXbXbXbXbXmXcXaXsXsXsXsXsXsXsXjXjXkXbXnXnXbXnXnXnXMXnXbXbXnXnXMXmXmXmXmXmXmXjXjXjXjXjXkXmXaXjXjXjXkXkXkXkXMXnXbXnXVXAXnXkXjXjXjXjX8XjXMXNXSXAXAXnXjXjXjXjXpXpXuXuXuXyXyXyX6XsXjXjXjXbXnXnXnXnXnXnXkXjXjXkXnXnXkXAXAXnXbXbXnXCXSXDXVXVXnXwXpXsXmXY ",
"iXgXgXgXiXiXiXiXdXdXdXiXiXdXuXiXiXdXdXiXiXiXiXiXpXpXpXpXpXpXiXiXgXgXgXgXgXgXgXgXsXsXaXaXaXaXaXaXgXaXaXgXgXgXpXpXyXyXyXpXpXiXiXdXiXiXiXiXdXdXdXdXiXiXiXiXiXiXpXpXgXgXgXgXgXgXgXgXaXaXaXaXaXaXxXxXjXbXmXmXbXbXjXjXaXjXaXaXgXgXpXiXgXgXgXgXgXgXgXgXsXsXsXaXaXgXaXsXiXiXgXgXgXgXgXgXgXgXgXgXgXgXgXgXsXgXaXcXcXgXgXsXxXiXiXiXiXiXiXiXgXgXgXgXgXgXgXcXgXxXgXgXcXcXcXmXcXxXxXBXBXlXpX7XH.I 2 _.BXBXgXeXlX7X/ ~ Q ~ I eX0XI < < 2 ~ 2 ' / 2 1 2 2 2 ~ Q Q _ Q 2 ' ) Q P < ~ _ _ ^ X s 2 Y I ~ [ { [ 2 Y ! _ { ! ' U 3 3 2 3 , ~ I ^ 1XR [ ) ~ U ] ~ ! ! ) _ ] 2 Q _ [ Q < , , 2 1 ^ ` 2 R P U E > P R > R R P s = + +   + + > E y.Y 3Xt.=   > 1 Q _ ! 3 Q O r T < s + : A 2 ~ / Q I L   # :       < I 3 ^ s r O 5 r r s < ^ e O s < 2 ! ^ / ^ : < / , = 5 s : < 2 / ] _ ^ PXPXPXBXBXBXNX2XwXwXaXlXmXmXNXMXMXAXSXPXSXAXAXmXmXmXmXmXMXMXMXMXMXMXMXmXmXMXNXMXMXMXMXMXMXMXMXAXMXMXNXBXmXNXmXmXsXPXNX5XjXPXsXNXAX3XPXLXAXPXVXPXjXPXNXmXbXbXMXmXbXmXMXMXMXMXMXMXMXMXMXMXnXnXnXMXMXMXmXbXbXxXaXxXmXmXMXNXAXAXCXSXAXAXAXNXMXMXmXaXbXbXxXxXxXbXmXmXmXxXaXaXaXcXmXmXmXmXmXmXMXMXMXMXMXMXMXMXMXnXbXnXnXnXMXmXmXmXmXbXbXnXnXMXMXMXmXbXbXbXnXMXMXAXAXnXnXnXVXZXSXAXVXMXMXMXnXbXbXMXMXnXnXMXbXsXsXaXsXpXpXpXuXsXsXsXaXbXbXbXbXbXbXbXbXnXVXAXAXnXnXnXnXnXnXnXMXMXbXbXnXVXCXSXDXVXVXnXnXsXaXmXY ",
"iXiXiXiXiXiXiXiXfXuXfXuXuXuXuXuXiXiXiXiXiXiXdXdXiXiXiXiXiXdXdXdXdXdXdXdXgXgXgXgXjXjXjXjXbXbXbXbXmXmXmXmXbXjXjXjXmXbXxXgXsXpXpXpXiXiXiXdXdXdXdXdXiXiXiXiXiXiXiXiXgXgXgXgXgXgXgXgXsXsXsXsXgXgXaXcXxXmXmXmXmXmXxXxXmXmXaXaXgXsXpXuXgXgXgXgXgXgXgXgXsXsXgXgXgXsXpXpXpXpXuXpXpXpXpXuXpXiXiXiXiXdXdXdXdXdXdXdXiXiXuXpXdXdXiXuXuXiXdXdXiXiXiXiXiXdXdXdXpXsXxXcXcXiXcXcXzXvXlXlXlXfX_.' Q ! _ _ ' 2X' / 7X0XI ~ Q Q Q ! ! ~ I s P 2 Q ! / I 1 3 2 I / ! I Q ' Y ^ ! Q   # I ~ ! ~ 1 # : Y 2 _ ' 0X_ 3 2 _ { ) , T P ^ ] I U ~ ~ > > > R ^ ` U 2 ] ~ ` 0XQ Q ~ U P < _ ) I 1 / / Q 2 ` < P I ` ` U > 3 ~ U I U P s s Y < + + r + + O 5 M 5 O 0X] _ _ Q / ~ + O P U , y.T   s < 1 < I Q _ ^ Y : : :   > > r > < , < , X e 1 ~ _ 3 2 ~ 3 2 1 ~ Q { ! I 1 Q Q 1 < ^ ' ~ _ ! Y PXMXMXmXNXaXH.! Q ' wXNXBXBXmXMXMXAXPXSXAXAXnXNXNXMXNXMXNXNXNXNXNXMXMXbXMXNXNXNXNXAXAXAXAXMXMXjXMXPXNXmXNXMXbXNXPXT   8XLXjXLXy.  PXSXHXLXAXPXs X bXMXNXNXMXjXmXmXMXMXMXMXMXMXMXMXMXMXMXMXNXAXNXMXMXbXjXxXxXxXbXbXMXNXMXMXMXMXPXNXbXbXmXmXmXsXpXgXgXgXgXcXcXcXmXmXbXbXbXmXMXMXNXMXMXmXmXmXmXmXmXmXmXbXbXnXnXMXbXbXbXnXbXnXbXmXbXnXAXAXAXAXMXMXMXMXnXnXMXMXAXAXkXnXnXVXZXSXCXVXMXNXNXMXbXbXbXbXjXbXbXaXsXgXgXiXpXpXpXsXaXbXbXmXMXMXbXnXbXbXnXnXVXVXAXAXAXVXnXnXDXVXnXbXjXjXnXAXVXCXAXVXnXnXbXjXjXjXMXY ",
"pXpXiXiXiXiXiXiXuXuXuXuXuXuXuXuXuXuXuXuXuXuXuXuXiXiXiXiXiXdXdXdXiXiXiXiXiXiXiXiXaXsXaXaXaXaXaXaXaXjXmXmXbXjXbXmXNXNXMXmXcXgXpXpXiXiXiXdXdXdXdXdXgXgXgXdXgXgXgXgXdXdXdXdXgXgXgXgXdXdXdXiXdXgXcXcXcXcXcXcXcXcXcXcXmXcXcXcXgXgXiXdXiXgXiXgXiXiXiXiXdXdXdXdXdXdXdXiXdXdXdXdXdXiXiXuXpXuXpXiXiXdXdXdXcXdXdXdXiXiXiXiXfXfXuXuXuXfXfXfXfXfXuXfXiXfXfXfXiXiXcXcXfXfXvXfX>XvXzX7XeX' ) ) _ _ _ Q ! _ [ _ _ ' ~ ] _ Q _ 3 2 2 ! ~ I I / , 2 ~ / ~ / ~ ~ 3 P < / ^ 2 Q ] > , ^ / 3 2 ^ > e < ~ ' < < ~ _ ) [ Q P + 2 1 T r T ] _ ] P O r P 1X1XR P T P P P A P 3 < : O T Q P 3 Q 3 1 ' 2 ^ wXT s R R + s T ] ~ ' 2X' ~ U Q T y.E : > O A 5 r r 2X] Q Q 2 I 3 P : ' _ 1 ] 3 e + < 2   . : +       r s X > : > # : s I > < ^ 0X2 3 _ ~ 3 < : 2 / 1 ~ I ~ < < 1 ~ 2 ! ) ! Q ^ 1 2X' 0X' wX2X' _ Q Q _ ' 7XmXBXBXMXAXPXAXAXAXMXmXMXMXMXMXMXMXNXNXNXMXMXnXMXMXNXmXNXAXSXSXSXAXAXLXbXy.R.PXmX  PXNXP T DXT SXAX6X1XE KXrX9X9XSXnXPX3XPXbX6XmXNXMXMXMXMXMXMXMXMXMXnXnXnXMXNXAXAXAXNXNXMXmXmXmXmXmXbXMXNXNXmXmXbXmXMXmXsXsXaXcXcXgXaXaXcXcXcXmXmXmXbXbXbXbXbXMXMXMXMXbXbXaXsXaXgXxXdXgXsXaXjXbXMXMXnXnXbXnXnXnXnXnXjXbXAXAXAXAXnXnXMXnXnXbXnXnXnXnXjXjXbXnXnXnXnXbXbXbXmXbXbXjXjXjXjXjXaXgXiXgXgXiXpXpXpXsXsXaXjXkXbXkXkXjXbXbXnXnXVXDXCXCXVXnXnXnXDXVXbXxXsXjXnXDXnXnXVXnXbXbXjXjXbXbXAXT ",
"uXuXuXuXiXiXiXiXuXuXuXuXuXuXuXuXuXuXuXuXuXuXuXuXiXuXpXuXuXuXuXuXpXpXpXpXpXpXpXpXfXfXuXuXuXuXuXuXpXpXgXgXgXgXgXcXbXbXbXmXmXcXcXdXiXiXdXdXdXdXdXdXdXdXdXdXdXdXdXdXdXdXdXgXdXdXdXdXdXdXdXiXdXdXcXcXgXgXgXgXcXcXgXgXcXcXcXdXdXdXdXgXiXiXdXdXdXdXdXdXdXdXdXdXdXdXdXdXcXcXcXdXdXdXdXdXdXdXdXdXdXdXdXdXdXdXuXuXuXuXuXiXuXuXuX%XuXuXfXfXuXuXuXuXuXuXuXuXfX$XfXfX%XdXlX%X%XlX7X~ Q Q 3 P P 3 Q ' ` U ] ) _ 2 ' ' [ _ ' ' / / Q ~ 1 < <   2 2 ~ ~ ~ 3 ! Q _ ^ 2 _ _ ~ ' ~ ~ U s s < 1 , > : , ' _ ~ < 1 _ ' { { ] ` r r : > ' _ ] I + R Y y.T ~ ] ] ~ ` Y A = > I < , P Y ^ ~ ~ 2 1 Q 1 ^ < 2 P Y     = s s > , > s > s T   R VXIXIX1Xr R ~ ~ _ ) _ _ _ Q ~ Q _ ) [ _ _ { e + I ' r r O 5 X e # > : X < > T ,   I I < < U # < 1X2 1 ] _ [ / 3 2 , / ~ I R I s X P 2 [ [ ) [ _ ! _ [ _ ! _ ' ] ] [ ' 0XeX7XcXcXmXmXmXmXBXcXmXmXmXmXmXmXmXMXMXMXMXMXMXbXbXMXmXMXAXSXSXSXAXAX7X> # LXs X 8XnXMXAXT   HXLXP   T VXDXLXLXHXLXAXAXnXNXNXNXNXbXbXmXMXNXNXMXMXMXMXAXAXNXAXAXAXMXnXMXmXmXmXmXmXmXmXbXMXNXNXmXxXaXxXcXaXgXaXcXcXcXcXmXmXmXmXmXmXmXmXMXMXMXMXMXMXMXMXbXbXaXsXsXpXiXiXdXaXaXjXkXnXMXMXMXMXMXMXMXMXMXMXjXnXVXCXDXVXnXbXnXnXnXnXbXkXjXjXgXgXsXaXjXjXaXaXaXjXbXbXjXjXjXjXjXmXaXpXpXgXgXdXsXsXsXsXsXsXjXjXjXaXjXjXjXkXbXbXCXCXVXnXnXnXnXnXVXnXbXsXxXbXnXVXkXnXnXbXjXjXjXjXMXMXAXT ",
"uXuXuXuXiXiXiXiXuXuXuXuXuXuXuXuXuXuXuXuXuXuXuXuXdXdXuXpXuXuXuXuXuXuXuXuXuXuXuXuX%X%X%X%X%X$X$X$X$X%XfXfXfXfXfXfX5X6XsXaXaXgXdXdXiXiXdXdXdXdXdXdXiXiXdXdXdXdXdXdXcXgXgXgXgXgXgXgXdXdXdXdXdXdXdXdXiXiXiXiXiXiXuXuXiXiXiXiXiXiXdXdXdXdXdXdXdXdXdXdXiXiXiXiXdXdXdXcXcXcXcXcXdXdXdXdXdXdXdXdXdXdXdXdXdXdXdXdXdXdXdXdXfXfXuXuXuXuXfXfXuXuXfXuXfXfX%X%XfX@XfXdXyXxXxX).eXwX0X~ U U U Y ~ U 3 U U 2 ] _ [ 3 3 ~ tX{ [ [ Q ' ^ / ~ ~ / H.~ ~ Q 3 2 2 ~ ~ Q < ^ Q Q P < ~ 3 ~ : X I I 2X~ I I ^ 2 2 T ` ) ) _ 3 Q [ ] s s Y ` U < > Y s P [ ) ) ~ Q 2 _ ) ^ ^ T I ^ 0X^ 1 I 2 2 / / 3 2 / 3 ~ 2 ~   s Y P r R     = +   X X + + T 9XT R UXQ _ _ Q < < ~ Q / _ [ Q 2 ` 1 ! < , ~ ^ :     , = X X s > , < I T ^ I ~ 2 2 > + : I 2 Q _ _ ! ! Q L A < ~ , # :   I 2 [ [ ) 3 / 3 _ [ ] 2 ] ) ] Q 2 3 3 3 2 ~ ~ BXNXbXbXNXmXcXBXmXmXmXmXmXmXmXmXbXmXMXMXmXbXbXbXmXMXAXSXSXSXAXAXPXAXnXMXNXAXPXLXMXnXPXKXSXPXAXPXPXLXHXDXSXHXSXLXCXPXMXNXNXmXmXNXbXMXNXNXMXMXMXMXAXNXMXNXAXAXMXbXxXxXxXxXcXcXcXcXxXbXmXmXcXaXcXcXcXmXmXmXmXmXmXmXMXMXbXbXbXbXbXbXbXbXbXMXbXbXbXbXmXmXbXxXxXxXcXcXmXmXMXMXMXMXMXMXMXMXMXMXMXMXNXNXMXMXAXAXAXAXAXMXbXbXMXMXMXmXkXjXdXgXgXsXsXsXaXcXjXjXbXbXbXbXmXmXbXbXaXsXsXaXaXaXaXaXsXpXsXsXaXjXaXaXaXjXjXjXjXjXMXMXnXbXbXkXjXbXkXjXaXsXaXmXbXjXkXbXbXbXbXaXjXbXbXMXAXT ",
"fXfXuXfXfXfXfXfXdXdXdXdXiXiXiXiXuXuXuXuXuXuXuXuXdXfXuXuXuXuXuXuXuXuXuXuXuXuXuXuX%X%X%X%X%X%X%X%X%X%XuXuXuXuXuXuXpXiXiXiXiXpXpXuXiXiXdXdXdXdXdXdXdXdXdXdXdXdXdXdXgXdXdXdXdXdXdXdXdXdXdXdXdXdXdXdXiXiXiXiXiXiXpXpXuXpXiXuXiXdXdXdXiXiXiXiXdXdXdXdXgXgXgXgXdXdXcXcXiXiXgXiXiXdXdXdXgXdXdXgXdXdXdXdXdXdXdXdXdXdXdXdXdXfXuXuXuXuXuXuXfXfXfXfXfXfXfXfXvXuXcXpX_._._./ ! ! 2 2 2 Q Q _ ) ~ I 2 _ [ [ _ [ ] 1 ~ [ ) { Q ) _ I 2 ' _ Q 2 3 ] ~ 2 I ^ ~ 2 2 , H.2 I s r ^ ~ 2 < < 1X, 2 2 ~ Q 2 ~ ^ 1X2X) ` ` 2 3 ) _ 2 ` P T y.> # R   T _ ! ) ) { _ Q ! 2 U ^ < > < 1 2 2 I   < , / ~ 1 , T T 1X> + + + + R     : : s :     +   > U U U 3 Q ] 2 : > U _ ~ _ _ Q ~ ~ ~ / U _ ! Q ' <   : : # P T Y < , s 1 ^ R O O r s > : P 2 1 / ^ < r ! _ 1 ~ ~ ) ) ~ ) { { [ _ _ _ _ ] Q Q [ ] U 2 U 2 ~ ~ ~ ~ Q 3 3 eXwXeX0XwXNXxXBXmXmXmXmXmXmXmXmXmXmXmXmXmXmXmXmXmXMXAXSXSXSXAXAXMXnXAXNXPXAXVXPXPXAXAXPXMXAXAXAXPXMXPXPXHX9XLXVXCXPXAXMXPXbXmXMXbXMXNXNXMXMXMXMXMXbXbXMXNXNXNXmXxXxXxXxXxXcXxXcXgXgXgXcXcXcXcXcXmXmXmXmXmXmXmXmXmXmXmXmXmXmXmXbXbXbXmXmXmXbXbXbXmXmXmXmXmXmXmXmXmXMXMXMXMXMXMXbXmXmXmXbXbXmXMXMXNXNXAXAXAXAXMXMXbXbXmXmXmXmXmXmXaXcXmXbXbXbXbXmXmXmXbXjXjXbXmXbXbXbXjXjXjXbXbXjXjXaXsXpXuXpXgXgXgXgXgXaXsXsXsXaXbXbXjXjXaXaXaXaXpXsXsXsXsXaXjXaXkXkXbXxXaXsXsXaXaXjXMXY ",
"dXfXfXfXfXfXfXfXdXdXdXiXiXiXiXiXfXfXfXuXuXuXuXuXuXuXuXuXuXuXuXuXfXfXfXfXfXfXfXfXuXuXuXuXuXuXpXpXfXuXuXuXiXdXiXpXfXfXfXuXuXdXdXdXiXiXdXdXdXdXdXdXiXiXiXiXdXdXdXdXdXdXdXdXdXdXdXdXiXiXiXiXiXiXpXpXdXdXdXdXdXdXuXuXiXuXiXuXdXdXdXdXuXuXuXiXiXiXiXiXpXsXpXpXpXsXgXgXpXsXsXgXgXgXgXgXiXiXiXgXgXgXgXiXiXiXgXgXiXiXpXuXdXdXiXiXiXpXpXpXfXfXfXfXfXfXfXfXvXpXxX7X^ I 2 1 :.B Z U Q 3 2 I 2 U / ~ ~ ~ ) [ { [ [ _ ) { _ ] ) ) [ _ _ Q _ Q ~ ] ~ 3 < I I / Q ' 1 1 ^   : , ^ ' ' , > < < U 3X~ [ ~ < ~ U U E P ` Q > > < R : R r A Y # , > _ _ ] 2 ~ U 2 _ 3 s A O U ' I R 3 P > < < I 2 ! : ^ T ` U P > + + 1XT 0Xy.Y H.P s > P T U ] _ ! ] ! Q 2 ~ 2X' ) { ) ! Q ! ! ~ / [ { ! U < + t.: P I U ,   s < < Q ] I I 1XP s T 2X^ < : 2 ~ ~ Q 1 I < I < I 3 _ _ { { ) _ 3 2 _ _ _ ! ! Q ] 2X3 I ' ] ) ) Q 2 I 3 U 2 2 ' 0XH.6XmXcXcXcXmXmXmXmXcXmXmXmXcXmXmXmXmXmXAXSXSXSXAXAXAXAXPXAX8XPXPXCXMXNXmXbXNXnXAXAXNXPXVXCXSXSXSXSXDXVXAX6XNXbXNXbXbXMXNXNXMXnXMXMXmXmXmXmXmXmXmXMXmXmXcXcXcXcXcXcXcXcXgXgXcXcXcXcXbXbXbXbXbXbXbXbXcXcXcXcXcXcXcXcXjXbXmXmXmXmXbXbXgXgXaXaXjXjXjXjXbXnXnXMXMXMXbXbXaXaXsXsXaXbXbXbXbXbXnXnXnXnXkXjXbXbXbXjXaXaXaXaXbXbXMXnXnXnXnXbXmXmXjXsXsXaXjXbXnXnXnXbXMXMXMXbXbXxXsXpXuXpXfXfXpXhXhXpXpXpXsXsXsXsXsXsXgXgXgXpX).pXgXsXsXaXaXaXkXjXaXxXsXpXsXsXsXsXmXY ",
"iXiXiXiXdXiXiXiXdXdXdXiXiXuXuXuXuXuXuXuXuXuXuXuXuXuXuXuXiXuXuXiXpXpXpXpXpXpXuXuXuXuXuXuXpXpXuXpXuXuXuXuXuXuXuXuXiXiXiXiXiXiXiXiXdXdXdXdXdXdXdXdXdXdXdXdXdXdXdXdXdXdXdXdXdXdXdXdXdXdXdXdXdXdXdXdXiXiXuXuXuXuXuXiXiXiXiXuXuXuXiXiXiXiXdXdXiXiXiXiXdXdXdXdXdXdXdXdXdXdXdXdXdXdXdXdXfXfXfXfXfXfXfXfXfXfXfXfXfXfXfXfXuXuXuXuXuXuXuXuXuXuXdXdXdXdXdXdXlX7X^ I I < Q _ / eXR.L L < I Y 2 ^ / _ ! _ ~ ] { ` [ ) ) ' [ _ [ Q { ) ! 3 / I 3 2X] 2 Q 2 1 ~ ~ Q / < 3 I : 2 ] 2X` > ] ) ! Q ~ ' ~ ~ I U ~ [ ^ ^ / Q Q < s t.P : > P ^ U U , R P , 1 2 ] ] 3 E P r s 3 Q ~ T ^ < , I 2 1 Q Q U U T T T ` 2X2X0X1X0XT ` ` ` ` U T R ^ ~ ] Q 2 ! Q ~ 1 ~ ' ~ ` Q Q 2 I I ~ ~ _ ' / Q ' /   Y R , s E.: 1 / , r I ^ Y e r q.^ ' { _ / I ~ 1 P s ; I / ~ : O < { _ U I Q 1 ~ ~ ! ) ' / 2 I ~ ~ < [ 2 2 I < 2 I I J H Z I 2 2 ^ NX6XmXmXcXBXBXmXmXmXmXNXNXNXNXMXMXMXnXnXMXMXNXNXAXAXAXAXAXAXNXMXMXmXmXmXmXNXNXNXNXmXNXNXAXAXAXAXAXAXNXMXMXmXmXmXmXMXMXMXmXmXmXmXmXmXcXcXcXcXcXcXcXmXmXcXmXcXcXcXcXcXcXcXcXcXcXcXcXcXcXcXcXcXcXcXcXaXaXaXaXaXaXaXaXxXxXxXmXmXmXMXMXbXbXnXMXMXMXMXAXMXMXAXAXAXMXjX6XsXsXaXaXaXcXcXmXaXxXbXbXbXjXjXjXxXxXbXbXbXnXnXMXMXMXnXbXbXbXxXxXjXaXaXsXsXaXmXmXbXbXbXbXbXbXbXbXbXbXjXjXkXbXnXnXMXbXbXaXsXsXjXjXsXsXsXsXsXaXaXaXbXbXbXbXbXbXbXbXmXbXbXjXjXbXbXmXaXaXMXY ",
"iXiXiXiXdXiXiXiXdXdXdXdXuXuXuXuXuXuXuXuXuXuXuXuXuXuXuXuXiXiXuXuXpXpXpXpXuXuXuXuXuXuXuXuXuXuXuXuXuXuXuXiXuXiXiXiXiXiXiXiXiXiXiXiXdXdXdXdXdXdXdXdXdXdXdXdXdXdXdXdXdXdXdXdXdXdXdXdXdXdXdXdXdXdXdXdXiXiXiXiXiXiXdXiXiXiXiXiXiXiXdXdXuXuXuXuXuXuXuXuXdXdXdXdXdXdXdXdXdXdXdXdXdXdXdXdXfXfXfXfXdXdXdXdXdXdXdXdXdXdXdXdXdXdXdXdXdXdXfXdXdXdXdXdXdXdXfXfXfXBXT.A y.^ I < 2 / I p A A L < I # < Q ! _ ] Q { ~ [ { [ _ ) 3 Q Q ) Q ' / ~ ~ 1 Q ~ ~ ~ / ~ I I ~ ~ I 2 Q 2 [ Q ^ < 2 _ ' wX[ { { [ [ [ { ) ~ { { { [ [ ~ I ~ [ _ [ [ ! ! _ Q ` T A = ' ) 3 U Q ] < > , 2 _ ~ ~ _ ] ~ , < < < ^ U U ` 1X` 1X2XT T 2X1X` U U U T P T 2X] 3 3 _ ~ 3 3 1 1 / [ ) Q I I I I s , Q 3 3 ~ ~ 2 < , : 1 I < < s :   s 2 ! Q ~ U U I 3 2 ~ 1   = X < ] = < 1 2 3 Q [ 2 ! 2 > s / P = O I I 3 2 s r I ^ 2 2 I Y Y L > s H.^ / / / L I / R.mXmXcXcXgXsXmXmXmXmXNXMXMXmXbXMXMXMXMXMXmXbXbXMXmXmXmXmXmXmXmXmXmXmXmXmXmXbXbXcXmXbXbXbXnXbXbXmXmXmXmXmXmXmXmXmXmXmXmXmXcXxXxXxXxXcXcXaXaXxXxXaXaXcXcXcXcXcXcXcXcXcXcXcXcXcXcXcXcXcXcXxXxXxXxXcXcXcXcXaXaXcXcXxXxXxXxXxXmXmXmXcXmXmXmXmXmXmXmXmXmXMXMXMXmXcXxXaXaXaXaXaXaXaXaXaXxXbXbXbXbXjXjXbXbXbXmXbXbXMXMXMXmXbXjXaXsXsXsXmXmXjXjXjXmXmXmXMXMXMXmXbXbXbXbXbXjXjXjXjXbXbXmXmXbXbXaXaXxXbXkXaXaXaXaXaXaXjXjXaXaXaXaXaXaXaXaXaXaXsXsXsXsXaXaXxXaXMXY ",
"iXiXiXiXiXiXiXiXdXdXuXuXuXuXuXuXuXuXuXuXuXuXuXuXuXuXuXuXuXuXuXuXuXuXuXuXuXuXuXuXiXiXuXuXuXuXuXuXuXuXiXiXdXdXdXdXiXiXiXiXiXiXiXiXiXiXiXdXdXdXdXdXdXdXdXdXdXdXdXdXdXdXdXdXdXdXdXdXdXdXdXdXiXiXiXiXiXiXiXiXdXdXdXdXiXiXiXiXiXdXiXdXuXuXuXuXuXuXuXuXuXuXuXuXfXfXuXuXuXuXfXfXfXfXfXfXdXdXdXdXdXdXdXdXdXdXdXdXdXdXdXdXdXdXdXdXdXdXdXdXdXdXdXdXdXdXdXdXeXcXr.s ^ / I I < Q Q Q I I L < < O s ' ! _ ~ ~ ) ] _ ) [ Q ! [ ~ ~ _ ~ ~ ~ ] _ ~ Q U 2 3 I ~ I Q ] [ [ [ [ [ [ ^ ~ 3 ~ U I < 2 / ! { ) Q ! ) [ ! ' ' 3 < ] [ 3 3 _ _ ) Q _ Q [ ! 2 P r 3XI 1 ~ ' U , s T ' [ ! U 2 ' 2 U U T T T ` T ` 2X2X` ` P T rX2X1XP U T U U T ` ~ Q 3 1 2 _ _ Q 3 ~ ~ Q ~ : : , , s > , 1 3 _ 3 < Y U 2X= P < U / ~ _ Q > Y / 3 ! [ _ 2 _ ~ ^ I   P 2X) [ Q ' < P ' 3 ~ '   s :     s ^ 2 > < < T 1 2 < + : < 2 < s Z :.^ I < L Y H.Y 9 ).xXmXcXcXcXmXBXmXmXmXmXmXmXmXmXMXMXmXmXmXmXxXxXxXxXxXxXxXxXxXxXmXmXmXmXmXmXmXbXmXmXmXbXbXbXbXxXmXmXmXmXcXmXmXmXmXmXcXxXxXxXxXxXxXxXxXxXxXcXcXcXaXaXcXcXcXcXcXcXcXcXcXcXcXcXcXcXxXcXcXxXxXcXcXcXmXcXcXcXcXcXcXcXcXxXxXxXxXaXaXaXxXxXxXxXxXaXsXsXxXxXaXaXaXsXxXxXaXaXaXaXaXaXaXaXxXxXbXbXbXbXbXjXmXbXbXbXbXbXbXbXmXmXbXaXaXaXaXaXjXjXjXjXjXjXaXaXmXmXbXbXaXsXsXaXaXaXaXaXjXjXbXjXjXjXaXaXaXxXbXmXbXbXbXbXbXjXjXjXaXsXsXsXsXsXsXsXsXsXsXsXsXsXsXsXaXaXMXY ",
"iXiXiXiXiXiXiXiXdXdXuXuXuXuXuXuXuXuXuXuXuXuXuXuXuXuXuXuXuXuXuXuXuXuXuXuXuXuXuXuXuXiXuXuXuXuXuXuXuXuXiXiXdXdXdXdXiXiXiXiXiXiXiXiXiXiXiXdXdXdXdXdXiXiXiXiXiXiXiXiXiXiXiXiXiXiXiXiXdXdXdXiXiXiXuXuXiXiXuXuXiXiXiXiXiXiXiXiXuXuXuXuXuXuXuXuXuXuXuXuXfXfXfXfXfXfXfXfXdXdXdXdXdXdXdXdXdXdXdXdXdXdXdXdXdXdXdXdXdXdXdXdXdXdXdXdXdXdXdXdXdXdXdXdXdXdXdXdX6XsXgXE.H.< s H.U Y E.r.^ I ~ Q > + < 3 [ _ ~ Q ' ~ ~ [ 2 ~ Q / I 2 ~ / ~ ~ _ _ Q ] U I U ] ~ ] { [ [ ! 2 ~ Q > 1 _ [ 3 ~ [ 2 3 ] 3 [ ) ) { ) { ) 2 Q ! < 1 Q ~ ] ~ ] ~ ] ] ] ' ' ' , I U 1 _ { { { { [ ~ 3 ~ _ H.T ~ ] ' ' 0X0X` 1XT P T 1X` ` ` U ` W 2X` ` I U T I 2 3 Q ~ ~ 1 3 ~ 1 _ ~ 1 I I ^ U : : P 2 T 2 U ) ' 0XR U [ 2XP P ~ Q Q ~ ^ s R s 1 ! ) _ ' ) [ U U _ _ ! ) ~ 1 ' _ ~ I Y L # e ; < ^ / _ ) 3 P 2 2 1 Q Q ~ O R s s L L I ^ ! 3 < I 1 / ^ ^ NXNXmXcXcXmXcXxXcXcXcXcXmXmXmXmXmXmXmXmXmXmXxXcXcXcXcXcXcXcXcXcXMXmXmXmXmXmXmXmXmXmXmXmXmXmXmXmXmXmXmXmXmXmXmXmXmXmXmXmXmXcXcXcXxXxXcXcXcXcXcXcXcXcXcXcXcXcXcXcXcXcXcXcXcXcXcXcXcXcXxXcXcXcXcXcXmXmXmXcXcXcXaXaXcXcXcXcXxXgXgXgXxXxXxXxXaXsXsXsXxXgXsXpXpXpXpXpXsXsXaXaXaXxXcXcXxXbXbXbXbXbXbXjXmXbXjXaXaXaXaXaXaXxXaXaXaXaXaXaXaXaXaXaXaXaXsXsXsXsXsXsXsXsXsXsXsXsXgXaXaXaXaXaXsXsXsXsXsXaXaXaXbXbXbXjXjXjXjXjXaXgXaXsXsXsXsXsXsXsXsXaXgXgXgXgXaXjXMXY ",
"dXdXiXiXiXdXdXdXdXdXuXuXiXuXuXuXuXuXuXuXuXuXuXuXuXuXuXuXuXiXiXuXuXuXuXuXuXuXuXuXuXuXuXuXuXuXuXuXuXuXuXuXuXiXiXuXiXiXiXiXiXiXiXiXiXiXdXdXdXdXdXdXdXdXdXdXdXdXdXdXiXiXiXiXiXiXiXiXdXdXdXiXiXuXiXiXuXuXuXuXuXuXuXuXuXuXuXuXuXuXuXuXuXuXuXuXuXuXuXuXiXiXiXiXdXdXiXiXdXdXdXdXdXdXdXdXdXdXdXdXdXdXdXdXdXdXdXdXdXdXdXdXdXdXdXdXdXdXdXdXdXdXdXdXdXdXdXdX)./ / 2 ^ I ~ 2 ~ 2 ^ / / > A j I T P Q ) [ U U P I ~ ~ P I 2 U I ~ 3 1 ~ ] Q ) 2 ` 1 , 3 ] ) [ ) ' [ Q P T P r 3 T T , 3 ' I I < +   [ { 3 ] ) < ! / I ) _ 2X[ [ ) ) [ [ _ ! [ [ 3 Q ~ ! [ Q ~ _ [ ! ! 1 1 U U P ^ Q Q ~ ` rX2XU ` 1X2X2XT U ` ` U ` W ` U T T y.T I I I ^ ^ ^ P > > / ! ~ Q 2 : , > R r Y 0X1XU qX] ` T T ^ Q ~ I T I ~ _ Q ' Q Q ~ ' [ _ ~ U ~ / 2 ~ _ _ Q I Q s r 1 ) ) ! 1 3 : s , 1 2 3 ~ ~ e e   I Q / r O + L ~ 2 ~ 1XY Y Y ^ H.R Y H.^ 7X7XsXxXcXmXmXxXmXcXcXcXmXmXmXmXmXmXmXmXmXmXmXmXmXmXmXmXmXmXmXmXbXmXmXbXbXmXMXMXMXMXmXmXmXmXmXmXmXmXmXmXmXmXmXmXmXmXmXmXmXmXmXmXcXcXcXcXmXmXmXmXmXcXcXcXcXcXcXcXcXcXcXcXcXcXcXcXxXxXxXcXxXcXmXmXmXcXcXcXcXaXaXaXcXcXcXcXcXcXcXcXcXcXcXcXmXmXmXaXcXgXaXcXaXaXaXaXaXaXxXxXcXmXmXmXxXxXbXbXmXmXbXbXmXmXbXjXaXaXaXxXsXsXsXsXaXaXaXaXaXaXaXaXaXaXsXsXsXgXsXsXaXgXsXsXpXpXsXgXgXsXsXpXpXsXsXsXsXsXsXsXaXaXaXaXaXaXaXaXaXaXgXaXaXsXsXsXsXsXaXaXaXaXaXaXbXbXMXY ",
"iXdXiXiXiXdXdXdXdXdXuXuXiXuXuXuXuXuXuXuXuXuXuXuXiXuXuXuXuXuXiXiXuXuXuXuXuXuXuXuXuXuXuXuXuXuXuXuXuXuXuXuXuXiXuXuXdXdXdXdXdXdXdXdXdXdXdXdXdXdXdXdXdXdXdXdXdXdXdXdXdXdXdXdXdXdXdXdXdXdXdXdXiXiXiXiXiXiXiXiXiXiXuXuXiXiXiXiXiXiXiXuXiXiXdXiXiXiXiXiXiXiXiXiXiXiXiXiXdXdXdXdXdXdXdXdXdXdXdXdXdXdXdXdXdXdXdXdXdXdXdXdXdXdXdXdXdXdXdXdXdXdXdXdXdXdXdXdXlX@XsXG.E.w.t.L ^ I / I H.s 2 ! 2 s T 1 3 3 I 3 , , ' / . , ~ I I I 3 1 2 / ] _ I 2 1 ~ ~ _ ! ! 3 2 _ { [ [ ! Q 2 P P 2X[ [ ~ P 2 r s ) ) { ) 3 5 1 2 I { { _ ) ) [ ) ) _ [ 3 [ 0X2X_ ) ) ! ) ! ! { ) { [ ] I P P ` ~ 3 _ ] JXrX2X` U U 0X0X` U ^ T U U T U T U y.T T 1XH.T s , s s , ' < T ` ~ 3 ~ ~ ~ 2 2 2 ) I ' 2X2X9X1X2X~ 2XFX9Xy.s I _ ) [ ~ U ^ I U ^ < I [ Q ! Q ' ~ 3 [ [ 2 / ] ) [ Q Q < < 2 < # s < 0X2 1 Q L P 1 3 ~ I I < < < < < ^ I I 2 ~ 2 / I H.R.aXBXmXmXNXNXmXmXmXmXmXmXmXmXMXMXmXmXmXmXmXmXMXMXMXMXMXMXMXMXbXbXbXbXbXmXMXMXMXMXMXmXmXmXMXMXmXmXmXmXmXmXmXmXmXmXmXmXmXmXmXmXmXmXmXmXmXmXmXmXmXmXmXmXcXcXcXxXxXxXxXxXxXxXxXxXxXxXxXxXxXxXxXxXcXcXcXcXcXaXaXaXaXaXxXxXxXxXxXcXaXaXaXaXaXaXaXaXaXaXaXcXcXmXmXkXmXcXmXcXmXmXxXxXxXxXbXbXmXmXmXbXmXmXbXbXbXbXxXcXbXbXbXbXaXaXaXsXaXaXaXaXaXsXsXsXxXxXaXaXaXaXsXsXpXsXgXgXsXsXsXsXaXaXjXjXjXaXaXsXaXaXaXaXaXaXaXaXaXaXaXaXaXsXsXsXsXsXsXaXsXsXsXsXaXjXMXY ",
"iXiXiXiXiXiXiXiXdXdXdXdXiXuXuXuXdXdXiXiXdXdXdXdXiXiXuXuXuXuXiXiXuXuXuXuXuXuXuXuXuXuXuXuXuXuXuXuXuXuXfXiXdXdXdXdXdXdXdXdXdXdXdXdXdXdXdXdXgXgXcXcXdXdXdXdXdXdXdXdXdXdXdXdXdXdXdXdXdXdXdXdXdXdXdXdXdXdXdXdXdXdXdXdXdXdXdXdXdXdXdXdXdXdXdXdXdXdXdXdXgXgXgXgXgXgXgXgXgXgXgXgXgXgXgXgXgXdXgXgXdXdXdXdXdXgXgXgXgXgXgXgXgXgXgXgXgXgXgXgXgXgXgXgXgXgXgXgXBXdXBX7XPX7X^ I Z Y I I Y R s > L $ = < ! ~ ~ ~ U ~ ~ < r P ! 2 2 3 ~ ] 2 / ' 2 ' I ~ _ ' ~ ] ] _ { ) ) { { ) { { { ) ) ! ) { 3 r   3 2X0XU ~ [ { _ { { _ _ ) Q ] ] 2 3 , I 1 3 1 _ ) ) ~ I I 2 / I < 2 ~ ~ 2 1XT ' 1 ! 3 Q Q 2 U ` 0X` P I I I 2 ^ ` ` U P U T y.1X1X0XR + X P 1X` ~ 2 0Xy.T T 0Xs t.< < Y P 1 / < ` GXKXU ` ' tXtXtXLX3Xr Y < Y r P H.Y > : < ~ _ ! ! ~ 3 1 ! ' { { { _ ~ , < # I ' 2 / A < / I : < I # X : A I < / ~ 1 I L Z H.Y Y L / ^ 5XgXbXbXAXPXNXmXMXbXmXmXmXmXmXMXNXNXNXNXMXMXMXmXmXmXMXMXMXAXAXAXAXAXMXMXMXMXMXMXMXMXNXNXNXNXNXNXAXAXMXmXmXmXmXmXmXmXmXmXmXmXbXbXbXmXMXMXmXmXmXmXmXmXmXmXmXmXmXmXmXmXmXbXmXmXmXmXbXbXmXmXmXmXbXbXbXbXcXcXcXcXcXcXcXcXbXbXbXxXxXxXxXxXaXaXaXgXaXaXgXgXaXaXgXxXxXxXmXaXmXmXmXcXcXcXaXaXxXxXbXbXbXmXbXbXbXbXbXbXbXbXbXbXbXmXbXmXmXbXxXaXaXaXaXsXsXsXaXaXxXaXaXaXbXbXjXaXxXaXaXaXsXsXsXsXaXxXbXbXbXbXxXaXaXjXjXaXjXjXjXjXaXxXaXaXxXxXaXaXaXaXaXaXaXaXaXaXsXjXMXY ",
"iXiXiXiXiXiXiXiXdXdXdXdXdXuXuXuXdXdXiXiXdXdXdXdXiXiXuXuXuXuXuXiXuXuXuXuXuXuXuXuXdXdXdXdXdXdXdXdXdXdXdXdXdXdXdXdXdXdXdXdXdXdXdXdXdXdXdXgXgXcXcXcXdXdXcXcXcXcXcXcXdXdXdXdXdXdXdXdXdXdXdXdXdXdXdXdXdXdXdXdXdXdXdXdXdXdXdXdXdXdXdXdXgXgXgXgXgXgXgXgXgXgXgXgXcXcXcXcXcXcXcXcXcXcXcXcXcXcXcXcXcXcXcXcXcXcXcXcXcXcXcXcXgXgXgXgXgXgXgXgXgXgXgXgXgXgXcXcXzXBXlXA 1XI 2 U I ` Y I I ^ I P ; & e < ' 2 < ] ] _ ! 2 : ' Q _ ^ ' ] ~ 2 I < , 1 Q ' 1 2 3 U < 2 { ) Q ) 3 ~ [ ) [ [ ! Q 3 I Q ! ) { _ Q { { ] Q ] ~ 3 ~ / ~ 3 1 3 I ^ ^ U < 0X~ ~ 2 ~ 2 ^ I < 3 < : # 3 ] ] rX) ) ! ! Q / I 1 0X1X0X0XT I 2 I I U I T U T T I 1XLXKX0X: 5 = X   > : : P tXU KXDXI 9XP I I 3 / < ^ > tXqXtX' < T 9X9XJXtX~ P j T wX' ~ ^ P R nX] I s L ~ 2 ~ / ! ~ 2 ! ~ ' ~ ~ ' 1 3 ! _ , < / { ) _ [ Q [ Q < : : R > s Y I eXG.^ < I ^ NXBXPXPXMXMXNXNXNXPXMXNXNXNXNXNXNXNXNXNXAXAXAXAXNXNXNXNXAXAXAXAXAXAXSXAXNXNXMXMXMXMXNXAXAXNXNXNXAXAXSXAXNXNXMXmXmXmXmXmXmXmXMXMXMXMXMXMXMXMXMXMXMXMXMXMXMXmXmXMXmXmXmXmXmXmXmXmXmXmXmXmXmXmXmXmXmXmXmXcXcXcXcXcXcXcXcXbXbXbXbXxXxXxXxXxXxXcXcXxXxXxXxXcXxXxXzXzXxXxXbXaXxXxXxXcXcXcXcXxXxXbXbXbXmXbXbXbXbXbXbXbXbXbXbXkXbXbXbXmXmXxXxXmXcXcXxXxXcXcXcXaXaXaXbXmXmXmXbXxXxXaXaXaXaXaXbXaXjXkXbXbXbXbXxXjXbXbXbXbXbXbXbXbXbXbXbXbXbXbXmXmXbXbXbXbXbXbXbXbXbXAXT ",
"mXmXaXaXkXmXmXcXcXgXgXcXlXlXlXlXmXmXmXmXmXaXaXaXaXaXaXaXaXaXaXaXxXxXxXcXcXcXcXcXgXcXcXcXcXcXcXcXcXcXaXaXmXmXaXaXlXlXlXlXlXlXBXBXmXcXcXcXcXcXmXmXcXcXmXcXcXcXmXBXmXmXmXmXmXmXmXmXcXcXmXmXmXmXcXcXcXmXmXmXmXlXmXcXvXvXvXvXvXvXvXcXcXcXcXcXxXxXxXxXmXmXmXmXmXmXmXmXMXmXmXmXmXmXMXMXlXBXmXbXbXMXmXgXvXBXcXdXBXBXpXmXmXmXmXbXxXmXmXmXcXcXcXcXcXcXcXcXvX)./ 2 3 2 P I r y.Y < I T T O U > ; # U / / L # : r s < I 1 3 Q ] ~ 2 1 P I I ~ 1 I >     ' ) [ ) [ _ 3 ! ) { [ _ Q 1 ! ) Q 1 _ 3 Q ] ) ) ! 1 2 3 ^ ] ) _ I : > Y s R > ] _ _ Q 2 Q 3 3 Q [ ) I R : < ) ) [ wX1X2 2 / 2 Q 2 I 1XZX` 0XP U U U U E T Y R T T Y y.8XLX1XY # = = X . : X # > s Y 2X~ ] ] E   T T P I I ` ' ] 2 ~ ] ' ' KXrXT T s 2XFX9XDX^ ` rXrX' ~ / 2 2 2 2 Q ! ~ , # s < ~ _ ' [ ) ) { _   H.[ / _ ! 2 ! [ # r X e e Y H.s 6X1 Q ~ ~ / / wXnXPXmXcXBXNXNXNXBXwXPXBXnXCXmXAXZXNXAXPXAXAXPXAXNXSXVXPXAXPXCXPXSXAXAXAXAXAXAXAXAXPXAXAXAXAXAXAXAXNXNXNXNXNXNXNXNXnXNXNXNXNXNXNXNXNXNXNXNXNXNXNXNXNXNXNXNXNXNXMXMXMXMXNXNXNXNXNXmXBXMXmXmXmXmXmXmXNXBXBXmXmXmXmXmXmXmXmXmXmXmXcXcXxXxXxXxXxXmXmXmXbXbXbXbXbXbXxXxXmXmXmXmXmXmXmXmXmXmXmXmXmXmXmXmXNXmXmXbXmXbXbXbXmXmXcXcXcXmXmXmXmXcXcXcXcXcXcXmXbXbXbXbXbXMXMXMXmXaXmXmXMXmXmXmXbXbXbXbXbXbXbXbXmXmXmXbXxXxXxXxXbXbXbXbXbXbXbXbXnXMXMXnXnXnXbXbXBXcXcXUX",
"c.c.c.c.c.c.c.x.C.C.C.C.C.9.9.9.6.6.6.5.g.g.g.x.x.g.g.6.6.6.6.6.9.9.9.9.9.9.9.9.9.9.9.9.9.9.9.9.g.g.g.g.g.g.g.g.-.-.-.-.-.-.-.-.6.6.6.6.6.6.6.6.6.6.6.6.-.-.%.-.-.%.-.%.%.%.-.-.%.-.-.-.-.-.%.%.$.$.$.$.$.%.%.%.| | | | | | | | } } } } } } } }  . . . . . . . .%.%.o.o.o.o.....n ..,.1.$.| ..n  . . .M ..%. .2.} } } } } } } $.| | | | | | | | 0.0. .y g G s > 1 2 ' / Q 2 I ^ ] ' eXI < / 1 , I < 2 2 / T r O = s s < I [ _ ! / / ^ I U Q [ ) { ! ) U U I 2 U 2 1 3 ` ' ] 2 T Q , > < 3 ! ) I U < 3 ! ) ) Q _ ] 1 s : , ^ ] _ U 1 ] ' ] ' Q ! { { [ [ { ) _ ' ' < > : < , , 2 0X9X` 2XT T U ^ ` U U 1XT s T T T 0X9X1XR s s . : > : : : > > : > I rX2XKX0X0XE P s T 1X` I 2 Q / ~ 2XGXGXrXI 5XrXGXKX9XP 2XZXtX3XH.I I U U 3 Q 3 Q Q Q ! 3 , 1 Q ' ^ < < < , < :   > Y I 0Xs   < s Y < H.U < , H.> s s < ~ 2 / >. . .u.M M  .u.M  .|  . .} | M k c c M k M k f  . .|  .M  .|  . .| |  . .| | } |  . . . . . . . . . . . . . . .| |  . . . .| |  . . . . . . . . . . . . . . . . . . . . . . . .M  . . . . . . .b b  . . . . . .M  . . . . . . .|  . . . . . . . . .| | | | | | .......... . ...| | } } | | | | } } | | } } } } | |  . .| | | |  . . ..... . . .............| | ................| | | | } $.$.$. . . . . . . . . .| | |  .| | | | | | | | | | | m S #.7 ",
"| |  . . . . . . . . . . . . . .} } | | | | | | } |  . . . . . . . . . . . . . . . . . . . . . . . . . . . . . . . . . . . . . . . . . . . . . . . . . . . . . .u.u.u.u.u.u.u.u. . . . . . . . . . . .u.u.u.u.u. . . . . . . . . . . . . . . . . . . . . . . . . . . . . . . . . . . . . . . .|  . . . .} }  .|  . . . . . . . . . . . . . . . . .M  .O.B L I ^ ~ / Q ~ ~ 2 ^ > Q Q ! ' / P P I ~ I P s Y I 2 1 e L > T 1X  2 3 1 1 I ' [ ) ) ! 2 Q ~ < P > > s       P < > : R Q 3 , > , U > + # P 3 ] ~ ' 2 U ) _ > : R Y U 2 R : ^ ^ 2 ] _ _ P , [ ) _ 3 _ Q rXT , P P U 2XqXT U U ` U T ^ ` I U P Y s R SXAX9XGX0X9XT 1XY R R Y s I P > > # A e P P SXKX` U R Y T U 2XU ~ ' ~ U 0XGXJXKXZXHXrXrXKXFX1XZXKXJX^ ` U ` U   > LX` ~ ! ! _ ' I I s r   . L ' ] Q > I s ; 2 ~   0X[ ' ' ^ P 2 ' / 1X> Y : y.s * g } u. . .G G._._.t.M |  .M  . .M u.u.u.u.u.u.u.u. .u. .|  . . . . . . . .M M  . . . . . . . . . . . . . . . . . . . . . . . . . . . . . . . . . . . . . . . .| |  . . . . . . . .M M b  . . .b M u. . . . . . . . .| } } |  .| }  .| | | |  . . .u.u.u.u. . . . . . . . .u.u.u.u. . . . . . . . . . . . . . . . . . . . . . . . . . . . . . . . . . . . . . . . .|  . . . . . . . . .u. . . . . .1.<.<.,.$.$.} }  . . . . . . . . . . . . . . . . ...O.w ",
"%.%.%.%.%.%.| | ,.<.1.1.3.3.4.8.%.%.%.%.%.%.%.| %.%.| | | | %.%.%.%.%.%.%.%.%.%.-.-.-.-.%.%.%.-.%.%.%.%.2.2.2.%.3.3.3.3.3.6.6.6.6.6.6.g.6.6.-.-.6.-.-.-.6.g.g.6.g.g.g.g.g.g.g.g.g.g.g.g.g.g.g.g.-.-.-.-.-.6.6.-.O.O.............v v v v v v b b .................... . . . . ...}  .M j m O.| } &.X.O.n n O.b X.c c c c n n n n %.%.%.%.%.%.%.O.%.O.J I 3 1 1 / / : > P T ^ y.R ^ 3 ! ~ I P > 1 Q ~ / / I U > O , I > : R y.y.r s < I ' ) ) ~ U T P >   < > : > r : + > E P > + O   , < :   , ] P ' _ _ 2 ^ 3 1 ) [ I 1XT R 1X> : # s >     1 , + : ' [ ' ' ~ 3 9XZXrXrXJXHXUXUX` T ` T I T ^ U I I I P P VXLX1XtXJXGX1XHX1X9X2XP P P R Y T Y > A A : > 9X1X0X<   > P P qXU ` ` < 1XP T rXJXKXGXrXqXqXHXJXJXKXqXT I U ~ 2 ` 2X3 1 , I s > : 1XP L < > : I L I s 2 3 ~ I 1 3 ' Q ! ~ 1 I ^ ^ / ] ) ! _ ! 3 I L G.F.F F.^ ^ ' ~ _ _.F.h.s.D s.d.d.j.j.j.h.h.l.l.h.d.d.i.s.D s.d.d.s.s.d.d.d.s.s.i.*.*.i.i.i.i.s.s.i.i.i.i.i.i.i.i.s.s.d.d.f.d.s.s.s.s.d.d.d.d.s.s.i.i.i.i.i.i.i.i.#.#.#.@.@.i.i.s.j.j.j.j.j.j.h.h.h.h.j.j.j.j.h.h.k.k.k.k.j.h.j.k.d.j.j.j.j.j.d.d.d.d.d.d.d.d.j.j.h.h.h.j.j.k.k.k.j.j.j.j.j.j.j.j.k.k.j.j.k.k.j.h.g.l.l.v.v.l.l.v.g.g.l.l.l.l.l.l.Z.Z.Z.Z.v.v.Z.Z.Z.Z.Z.Z.Z.Z.Z.Z.j.d.d.d.j.j.j.k.s.s.s.s.s.s.d.d.j.j.j.d.d.d.d.j.j.j.j.k.k.j.j.j.v.v.Z.b ",
"j.h.h.h.j.j.h.f.v.v.v.v.v.v.Z.Z.k.Z.Z.Z.Z.Z.Z.k.Z.Z.k.k.k.Z.Z.Z.k.j.l.l.l.l.l.l.l.j.l.l.l.l.l.v.Z.Z.Z.Z.Z.Z.Z.Z.Z.Z.Z.Z.Z.Z.Z.Z.k.Z.Z.Z.Z.Z.k.k.A.Z.k.k.Z.Z.Z.k.k.k.k.k.k.k.k.k.k.k.k.k.k.k.k.k.k.k.k.k.Z.k.Z.Z.Z.k.k.k.k.k.k.k.v.v.v.Z.Z.Z.Z.Z.k.k.k.k.k.k.k.k.k.k.k.k.v.k.k.k.d.d.k.v.Z.Z.S.d.v.z.k.d.d.d.b.b.x.x.x.x.x.v.v.v.f.f.a.s.a.s.s.s.%.g.C.L 2 U P a p e O   > 2XSX5XkX^ / I s > > 2 2X` 2 2 3 2 < s ^ < X = Y R r R 9XZX' Q ! ) 1 < ,     < T > : P s > > P P > > P P 0X] U + r + > R P ` U U 3 ' _ > < < P > E r r U < P T s : r r y.' ) ! Q ' ' [ 0X2X[ [ tX0XSX1X1XU ` U I T U I T P Y ^ 2XLXLX0XtXKXJXJXLXVXJXKX1XP > R T T P P $ s <     s 9X1X1XP R T T > 1XP ^ T T T U JXKX2X` JXZXGXrX0XGXrXI U 3 1 2 ^ ` U 3 < s r y.y.T   > R # : > ' Q _ ~ 0X~ , s > ~ / ~ ~ ^ U 1XT ^ , < I ^ / , I U ^ ' / ' ^ ` 1XP P L C.z.g.b.g.v.b.l.l.f.a.f.g.l.f.v.}.g...f b.v.g.k.h.h.j.Z.Z.Z.v.Z.Z.Z.Z.Z.Z.Z.Z.Z.k.k.j.j.j.k.k.h.l.l.v.v.v.v.k.g.l.v.v.v.v.v.v.v.v.Z.v.Z.v.v.v.v.k.k.k.v.v.Z.Z.c.c.c.x.x.x.x.c.a.a.a.a.d.f.d.f.l.l.d.a.a.d.f.l.x.x.x.x.x.x.x.b.v.v.v.v.v.v.v.v.h.h.l.l.l.l.l.l.v.v.v.v.v.v.v.Z.v.k.l.v.v.l.l.l.j.k.k.Z.k.k.k.k.j.k.k.k.k.k.k.k.k.k.k.k.k.k.k.k.l.k.v.Z.v.v.l.l.v.v.v.v.v.v.v.v.Z.Z.v.v.v.v.v.v.x.x.x.x.x.v.v.v.v.v.v.v.v.v.v.v.v.Z.k.v ",
"{.{.v.Z.{.{.{.{.Z.Z.Z.Z.Z.A.Z.Z.v.{.{.Z.Z.{.Z.v.Z.Z.Z.v.Z.Z.Z.Z.{.{.{.{.{.{.{.{.Z.Z.{.{.Z.{.{.{.{.{.{.{.{.{.{.{.Z.Z.Z.Z.Z.Z.Z.Z.{.{.{.{.{.{.{.v.{.{.v.v.{.{.{.{.{.{.{.{.{.{.{.{.{.{.{.{.{.{.{.{.{.{.{.{.{.{.{.{.{.{.{.{.{.{.{.{.{.{.{.{.{.{.{.{.{.{.{.{.{.{.{.{.{.{.{.{.{.{.{.Z.{.{.=X{.{.{.{.=X}.{.=X=X{.{.{.S.{.{.{.{.{.{.{.{.{.{.{.{.{.{.{.{.S.{.{.s.K T P ; O = : 9XHXGXKXqXt.5XT H.Y 1X0XP I > > Y 0X~ ~ _ e ; e R s : s 8X2X2X) ! ) ' U ` U ] 0X` ^ > : = > > P U R > U ` R >     : :   , +   > R + + > > r > , > R > + s P : T T U ^ U ` T ` ) ! Q Q _ ) ~ _ ' ~ wX` U ` U < I I I I P P R s s T 9XSXKX9XJXGXtXJX0X0XZXGXLXVXVX5XH.1Xy.y.< < I s Y + LX1XP T 2XLX2XE T ` I ` 1XT 1XZXrX2X2XHX2X9XDXqXGXJXP ^ ^ s s r A s tXrX0XP s y.> : , I I 1 1 I P R ~ ^ ' 2 s r I Y 2 ` 9X9XLX0XE > : s Y < U ] 1 ~ ~ ] ] U ^ 1XY I < D.v.z.v.g.v.v.x.v.v.z.z.v.x.z.v.f.=.f.p.f.v.{.b.x.g.6.x.x.x.x.g.g.g.g.g.g.g.g.x.x.g.g.g.g.g.g.x.x.g.g.x.b.b.c.x.x.x.x.c.c.c.c.g.g.x.x.x.x.x.x.b.b.c.x.x.x.x.x.k.j.j.h.h.j.k.Z.x.x.x.x.v.v.v.v.Z.v.v.v.v.v.Z.Z.Z.v.v.v.v.v.v.v.v.v.v.v.v.v.v.v.v.v.v.v.v.v.v.v.v.v.v.v.v.v.v.{.v.v.v.v.v.v.v.v.x.x.v.v.x.x.x.v.x.x.v.v.v.v.v.v.v.Z.v.v.v.v.v.v.v.v.v.v.v.v.v.v.v.v.v.v.v.v.v.v.v.v.v.v.v.v.z.z.v.v.v.v.v.v.v.v.v.v.v.v.v.v.v.v.c.l.b.n ",
"{.{.{.{.{.{.{.{.*X}.}.}.*X*X*X`.*X*X=X=X=X=X*X*X{.{.=X=X=X=X{.{.=X=X=X=X=X=X=X=X=X=X=X=X=X=X=X=X{.{.{.{.{.{.{.{.A.A.A.A.A.A.A.A.{.{.{.{.{.{.{.{.{.{.{.{.{.{.{.{.{.{.{.{.{.{.{.{.{.{.{.{.{.{.{.{.{.{.{.{.{.{.{.{.{.{.{.{.{.{.{.{.Z.Z.Z.Z.Z.Z.Z.Z.{.{.{.{.{.{.{.{.{.{.{.{.{.{.A.S./ Q Q ) ) 3 3 _ / ( ~.XX}.}.{.A.{.{.A.A.A.A.A.A.{.{.{.{.{.{.{.{.A.Z.{.Q.7XrXrXnX1X3XkXrXqXGXqXqXFX1XY Y U 1XH.3X8XH.T ^ ^ < r A # # s y.s kXY SX9X] ) ) 2 I U ' ] U P : > s R + + + , P T R I < ~ P       : : r 1 2 > P , P P r r > , P P > P , > > T U U ` 2 U ` ] _ _ ~ ^ I I Q ~ Q ' ` ^ I U T I I U I I s s L s Y R 9XDXqXP KXKXtXJX~ ' 0XFXKX` ` CX0Xs P 9X0X2 2 U T Y T U T T P ^ 1XwXP T P ` P ^ ` ` 0XI 2XrX1XqXZXZXZXKXr P s s R X : HXKXrXFX0X  P P s 5 r s ' ' [ ~ P 2 , ] ^ T H.0X^ 0X^ 1XFXHXHXDXwXR t.p s T 2X> q.Y ^ / ~ ] ] ~ Q ] G.c.6.;.;.-.-.z.z.z.z.z.z.z.g.;.d v F.C.D O.9.D D #.#.@.@.@.*.i.i.i.i.i.i.i.i.s.a.f.f.h.f.d.a.s.i.i.i.i.i.s.s.a.a.s.s.s.s.s.s.h.h.h.h.h.h.h.h.h.h.h.h.h.h.h.h.#.D #.#.#.i.i.i.5.6.g.g.g.g.z.z.5.6.g.g.g.g.g.g.*.*.*.=.=.*.*.*.a.a.f.h.h.h.h.h.v.v.v.v.v.v.v.v.j.j.k.k.k.k.k.k.j.j.j.k.k.k.k.j.v.v.v.v.v.v.v.v.v.v.v.Z.Z.v.v.v.v.v.v.v.v.v.v.v.v.v.v.v.v.v.v.z.h.f.a.a.h.h.h.f.s.s.p.a.g.b.b.b.a.f.f.a.s.i.i.i.h.h.h.j.k.k.k.k.v.k.Z.S ",
"D.*X*X*XD.D.D.;X*X=XA.A.=X=XA.A.D.*XD.D.D.;X;X;XD.D.`.`.*X*X*X`.*X*XD.D.D.D.D.D.*X*X*XD.D.D.*X*X*X*X*X*XD.D.S.S.{.{.{.{.{.{.{.{.A.A.A.A.A.A.=X=X=X=X=X=XA.A.A.A.A.A.A.A.A.A.A.A.A.A.A.A.A.A.A.A.A.A.A.A.A.A.A.A.=X=XA.A.A.A.A.A.{.{.{.{.{.{.{.{.A.A.A.A.A.A.A.A.D.}.{.{.{.S.D.D.) 3 1 3 ! 3 3 ) ! 3 ) ) ) / `.=X{.{.{.{.{.{.{.{.A.A.A.A.A.A.A.A.=X{.}.R.qXGXqX3XR 1X1XIXrXtXGXZXqX9X5X0X9X` 2XR H.Y O 5 X @ e r r 5 y.: VXLXKXU + E Q 2 r O   Q U : + r s : s   + +   P s s P U T R T R R R s : U T s + > P P : + P > > r UX> 3 ] ~ 2 U ` T R T 9X> ^ 3 Q ~ ) ) ~ ~ _ ) ~ ^ < s R ^ U I I ^ Y K = s PX9XHXHXrXGXSXKXKXqXqX~ ^ HXtX2X` ` ^ ` 0XU ` ^ ~ ~ U 1X> ` R ` T P E KXT 0X2XJXR P 0X' ^ ^ ` 9XT 9XqXGXrX` ~ U < < r A : I > 1X9XVX5X3XY y.s = O r > < ' Q R 0X2XT 9X1XR I 3X2XZXrXtXqXKXrXGX1XwXSXrXrXPXK F.( / ^ ` U U ] ] ;.v.v.i.l.v.v.s.b.b.d.d.b.d.s.x.g.k.a.h.a.l.*.y l X.-.*.*.=.=.%.%.&.%.-.-.-.-.$.-.6.6.x.6.6.6.6.6.9.9.9.6.-.-.g.-.=.&.&.&.-.*.6.6.3.3.-.3.3.3.3.3.3.6.6.6.5.5.g.g.g.g.6.6.6.6.=.i.s.s.s.=.*.@.@.s.a.a.s.*.*.i.=.=.=.g.g.g.g.g.6.6.g.g.g.g.g.g.p.p.p.p.p.p.p.p.g.g.v.v.v.l.g.g.x.z.x.x.v.x.z.g.a.d.b.s.s.s.s.a.a.d.l.l.l.h.a.a.f.f.f.f.f.f.f.f.f.g.a.*.@.i.p.p.-.=.-.-.=.=.p.a.g.g.=.&.o.....b *.=.g.g.g.g.g.g.g.f.g.g.l.k.l.k.x.v.v.v ",
"-XXXXXXX:X:X:X:X:X-X-X-X-X-X-X;X-X-X-X-X-XQ.D.D.Q.'.;X;X-X-X-X-X;X;X;X;X-X-X-X-X#X#X-X;X*X*XD.A.=X=XA.A.A.A.A.=XS.D.A.`.*X*X*X*X;X*XD.D.D.`.A.A.A.A.A.A.D.*X*X*X*X*X`.A.`.*X*X*X=X=X=X=X=X=X=X=X*X*X{.A.*X*XS.A.{.{.{.{.=X{.{.{.A.A.`.*X*X=XA.A.=X{.=X=X=X=XA.=X*X=XA.=X=X=X[.3 1 ) ) 3 3 ) Q , 3 Q 3 ! ! ! ) ! =X=X=XA.A.{.{.{.{.{.=X{.{.=X{.=X=X{.Q._.9XrX9XH.2X9X2XrXJXKXW JXnX9X2X` ` VXhXr.A A + A s L H.R V = > DXrXHXwX<   E ' E : > > s : P r s y.Y P E O O . Y +   s r , T P Y Y R > R T R P > +   + + > P + r R s : > E T U U ` ` ` 1XqXqX1X: P < < ^ ! Q / / 3 Q / I Y T Y R R R t.y.rX1X9XKXIXFXqXGXJXJXtX~ U I ] ' tXJXT ^ ' U wXY 9X` P T T P T P R H.^ P 2XT U 1X2XVX` T T 0X3 ^ I U ` ~ tXJXGX2XA e r A A   y.Y 7 5   3XLXLX0X: t.= > s   X O O : H.P 1X0X` 2X0X9X9XrXZXrXJXtXtXrX0X1X2XFXFXqX0X8.P.` ^ ( H.^ ] T.~.F.k.Z.Z.Z.S.{.Z.Z.A.{.Z.{.Z.Z.Z.Z.k.v *.Z.A.A.Z.A.Z.k.A.{.k.Z.Z.Z.v.l.l.l.g.a.f.g.p.=.f.g.f.l.l.l.v.v.l.g.g.l.g.g.v.v.l.g.g.b.Z.A.A.A.Z.v.b.j.v.v.v.v.{.{.Z.Z.Z.Z.v.l.l.l.g.v.v.v.v.v.v.v.Z.v.v.v.v.v.v.v.v.f.l.l.l.l.l.j.k.Z.k.h.l.k.l.h.l.v.v.v.v.l.l.l.l.g.g.g.g.f.f.l.l.v.v.v.v.v.v.l.g.v.l.l.f.f.f.f.l.g.g.g.g.a.g.g.g.l.g.g.g.6.=.-.&.f.g.l.k.l.g.g.g.g.g.g.g.g.g.g.a.g.g.l.l.a.=.*.p.g.g.=.=.g.g.v.v.v.l.f.f.g.f.l.l.l.k.k.d ",
":X:X:X:X,X,X,X:X:X:X:X-X-X-X-X-X-X:X-X-X-X-X-X-X:X:X:X:X:X:X:X-X-X-X-X:X:X:X:X:X,X,X,X,X-X;X;X;XD.D.;X;X<X<X;X;X,X,X-X;X-X-X-X-X-X-X;X;X;X;X;X*X*X*X*X*X*X;X;X;X*X*X`.S.S.*X*X*X*X;X;X;X;X;X;X;X;X*X*X*X;X;X*X*X*X*X*X*X*X*X*X*XS.D.*X*X*XD.D.*X*X*X*X*X*X*X*X`.}.*XS.*X{.A.~.3 3 1 1 3 3 3 3 1 3 3 3 3 > + r r Y G.D.*X=X=X=XA.A.A.{.{.*X*X*XXX{.;XuX9XrX2X0X9X` ` 2XZX9XZXqXJX1XHX2XGXHXPXr A Y H.A 5 y.H.s # e 5 1XKXrX9X0X^ 1XI ^ > R R Y P y.P s T I   + R :   P T E > : > : s s T s > T E T U T U T T < , + >     s : P I U U U U U U ` ^ ` U >   : ,   < 2 < < < < I Y P T T T Y VXT R 7XKXqXqXSXSXLXKXKXGXKX2XP < I 2 ~ tXKXLX> 1 ~ HXPX1X9XT R P y.T s P I ^ 2XT Y Y T T 1X9X` 1XU ` P ` ^ ^ U ' tXJXqXY R r r R + H.> % >   I 9XFXVX9X+ = s Y H.R Y 5 = r s T 9XrX` 9X2X9X2XKXU KXJXtX9XSX1X9X9XFXrXGXv.S.D.W ] I s F.S.S.A.A.{.{.Z.Z.Z.{.A.A.{.{.Z.{.=XZ.b.}.k.Z.A.S.{.v.Z.{.{.Z.A.{.Z.Z.Z.Z.Z.Z.Z.Z.A.{.Z.Z.Z.Z.A.Z.A.Z.Z.Z.Z.Z.Z.Z.{.{.{.{.{.{.Z.Z.A.{.A.Z.v.Z.Z.Z.S.S.{.Z.Z.Z.Z.Z.A.{.Z.Z.Z.Z.v.v.Z.Z.v.l.l.l.v.Z.v.v.v.l.l.l.v.v.k.k.k.k.k.k.v.Z.Z.v.k.v.v.v.v.Z.Z.Z.Z.Z.Z.Z.v.v.Z.Z.Z.Z.Z.Z.Z.Z.k.v.k.v.Z.Z.Z.Z.Z.Z.Z.Z.Z.Z.{.{.v.v.v.v.v.v.k.v.Z.Z.v.v.v.v.v.l.l.k.Z.Z.Z.v.v.l.v.v.v.v.v.v.v.v.f.j.k.k.l.h.k.Z.Z.Z.Z.v.Z.Z.Z.Z.{.Z.v.Z.{.{.Z.Z.v.Z.Z.n ",
",X>X:X:X>X,X>X>X,X,X,X,X,X:X:X:X:X:X:X:X:X:X:X:X,X,X,X,X>X:X:X#X#X(.#X:X:X#X#X:X:X:X:X:X:X>X>X>X>X>X>X>X:X(.(.(.-X-X;X;X;X;X;X;X:X:X:X:X:X-X-XXX-X-X-X-X-X-X-X-X-X-X-X;X;X-X:XXX:X:X:X:X:X,X:XXX-X-X;XXX-X:X-X;X-X:X:X:X:X-X-X-X<X;XXX;X;X<X<X-X;X;X;X;X;X;X;X;XXX;XD.;X*X*XQ.I , 1 3   , 3 , , E 3 1 3 ) 3 3 ! W ' ).;X*X*X`.`.`.*X*X`.;XD.<X;X<X~.9XqX9XrX2XIXqX2X0X9X2XqXZXGXqXKXrXLXAXAX> R H.O X H.bXY 9 5 o s AXLXZXGX1XT 3XY ^ > Y Y Y < R P P P < U T E P T P T ` 0XU UXR > T R > P 1X2XI ^ ~ ~ ~ U ` ^ T T P E R P T ` U I U T U P ` ^ U < < < s L   , s : # # P U U < P P 2XJXZXZXKXrXrXGXGXrX1X1X9XGXFXHX1XU ^ 0X^ ` JXJXLXJXtXJXKX9XT PXkXT y.y.Y H.^ ^ I ^ 1XH.R H.y.3X9XHXT P R T T T T ^ T 9XZX2X1X9XT : : s 3XY / / 0X` 0XrXFXLXs # X   T H.s : r y.Y r R PXSXrXZX9XZXGX2XGX9XZXqX9X2XqX2X2XZXrXeX0Xt.G.^ ^ D }.Z.A.{.{.{.{.{.=XZ.*Xh.a.S g.k m.A.i.a.{.=XA.A.Z.Z.Z.{.{.v.{.=Xv.Z.Z.A.A.A.A.{.A.A.A.A.A.A.{.{.A.=X{.A.A.A.{.=X=X{.A.{.{.{.A.Z.A.Z.Z.Z.Z.Z.{.{.{.S.S.A.Z.Z.A.A.Z.Z.Z.Z.Z.Z.{.{.A.Z.S.A.Z.Z.Z.Z.A.A.A.A.A.A.A.A.A.{.{.A.A.{.{.{.{.Z.{.{.{.Z.{.{.{.A.A.Z.Z.Z.Z.Z.Z.Z.Z.Z.Z.Z.v.v.v.Z.Z.Z.Z.Z.Z.Z.Z.v.v.Z.Z.Z.Z.v.v.Z.Z.Z.Z.Z.Z.Z.Z.Z.Z.Z.Z.{.{.A.Z.Z.Z.{.{.{.A.Z.Z.Z.Z.Z.Z.Z.Z.Z.{.}.{.{.{.{.{.{.{.A.A.A.A.A.A.Z.Z.{.Z.Z.Z.{.{.Z.Z.Z.{.A.D ",
">X>X>X>X>X>X>X].>X>X>X>X>X>X>X>X,X>X>X>X>X>X>X>X>X>X>X>X>X:X:X:X>X>X>X>X>X>X>X>X:X:X:X>X>X>XzXzX,X:X].].].:X,X,X$X$X>X>X>X>X>X>X>X>X>X>X>X>X>X>X>X>X:X:X:X:X:X:X#X>X,X,X>XvXvX>X-X-X-X-X-X-X-X'.>X,X-X'.:X:X:X:X>X>X>X>X>X>X>X>XvX:X~.Q.-X,X,X#X:X-X-X-X-X-X-X,X,X,X].:X-X;X<X(.G.; K Y s : # L 1 3 3 ) 1 ! 3 1 1 I ^ !.,X,X-X'.-X;X;X;X;XD.;X*X_.H.1XqXtXrX2XqX2X2X9X1XIXqXZXZXrX9XT s X Y 1XVXVXSXy.H.Y # $ w e s nXHXKXKXtXGXY > < T ^ T P P 3 P R R r > U U T 1XT 1XT 1XT > R y.1XP > T U ` ~ 2 ~ 2 2 ~ 2 U U U U U U ` I ~ ~ ` T T ` T U 2 I I / ^ I ^ U I I ^ H.^ U 2 I I ^ CXrXrXHXKXtXqXrXKXGXZXT T 1XHXGX` U 2 I P H.H.rXKXLXKXrXKXKX9XT LXPXT : > T y.^ I T ^ Y P Y Y R 8XHX` 0XP T T 1X1XT T P ^ wXDXrXJX9XR E H.P : I I ` 3 rXGXZXKX7X  # : : 3X8XU : : y.r s DXDXLXrXGX2XJXHXqXZXIXqXFXqXrXqXZXqXJXSXS.8.B.L ` U 1X;X;X*X{.{.Z.A.A.=XA.=X#.A.d.k.=Xb.i.j.A.=XZ.{.A.=X*XZ.Z.*X{.k.{.A.A.A.A.A.A.A.A.Z.A.A.A.A.A.A.A.k.k.Z.S.S.S.Z.Z.A.A.{.{.{.A.A.{.*X*X{.{.A.Z.Z.Z.S.A.A.A.A.A.A.Z.{.A.A.Z.Z.{.{.Z.Z.A.{.{.{.{.A.A.{.{.{.{.{.A.{.{.A.A.A.Z.A.A.A.A.Z.A.{.Z.Z.Z.A.Z.{.{.A.A.Z.Z.Z.Z.Z.Z.A.{.{.{.{.{.A.A.Z.Z.Z.Z.Z.Z.Z.Z.Z.Z.Z.Z.Z.Z.Z.Z.Z.Z.Z.Z.Z.Z.Z.Z.Z.A.{.{.A.A.{.{.{.{.{.{.A.A.{.{.{.{.{.{.{.{.}.}.{.{.{.{.{.{.A.{.{.{.{.Z.Z.v.{.{.{.{.{.{.{.{.{.{.A.O.",
"].>XzXzXzX].].].].>XzXzXzX>X>X>X>X>X>X>XzXzXvXvX>X>X>X>X>X:X:X:X:X>X>X>X>X>X>X:X>X>X>X>X>X].].].!.'.:X:X,X,X,X,XzXzXzX>X>X>X>X>X>X>X>X>X>X>X>X>X>X>X>X>X>X>X>X>X,X,X:X'.'.].,X,X'.'.'.'.'.'.:X,X>X>X:X:X>X>X].:X].>X>X>X>X>X>X>X>X>X:X'.'.].>XzX:X:X:X:X:X:X:X,X-X,X>X].:X,X<X<X,XBXBX:X>X,X(.vX!.K : s Y /.r Y >X>X].!.(.(.XX<X:XXX:X<X-X,X;XQ.^ U ` rX` ` JX9XFX2XqXE U P 2X9XGXLXAXY : H.VXFXKXDXH.1XP # = A Y H.9X2XJXGXtXKXSX9X1X1X9XZX2X` ` U E R R P U ` R R 9XR T P > s P T > SXKX2XU U 2 I 3 ^ ` U ` U U U ` ` T 0XT ` ` ` T T T ` U < 3 I 2 2 2 < / ~ 2 I s I ^ ^ ^ ^ P 1XKXLXwXT U 2 rXKXGXHX1XR T HX2XU ] [ ` P y.y.T 9XKXnX0XLXUX1X2X1XT LXAXSXAXY y.H.y.Y P s < I P 9XrXrXrXZXR y.T 1Xy.T T U 2XZXqXGXGXrX9X9XY Y : > 9XrXJXKXJXHX^ P # >     H.T ^ SXAXVX5X1XVXrXrXqXGXGXrX9XFX1XZX2XFXqX` qXrXqX2X` [._.1X7X#X*X*X*X*X*X=X=X`.S.`.S.*X`.S.*XA.=XD.S.=X=X*XS.*X*XD.D.*X;XD.F.*X<XXX;X;X;X;X;XXXXX*X*X*X*X`.S.A.=X*X*X*X;X;X*X*X`.A.A.A.A.A.A.A.A.k.k.S.S.S.A.=X=X{.A.A.{.{.{.A.A.`.}.{.A.A.A.A.A.Z.Z.{.{.{.{.A.A.{.{.{.A.A.{.{.{.A.A.A.{.{.{.A.S.A.{.{.Z.A.{.{.Z.{.{.A.Z.A.A.{.{.A.A.A.A.A.A.A.A.A.A.A.A.{.{.{.{.Z.Z.Z.Z.A.A.A.{.A.A.Z.Z.Z.A.A.A.Z.Z.{.{.{.{.{.{.{.{.{.{.{.A.A.Z.A.A.{.{.{.{.A.A.Z.Z.A.A.A.{.{.A.{.{.{.{.{.Z.v.v.Z.Z.A.{.Z.Z.Z.Z.{.{.A.D ",
"zXzXzXzXzXzXzXzXzXzXzXzXzXzXzXzX].>XzXzXzXvXvXvXzXzX>X>X>X>X>X>X].].>X].].>X].].zXzX>X>X>X].].].$X$XzXzXzX>X$X).].].].].:X:X:X,XzX].].].].>X>X>X>X>X>X>X>X>X>X>XvX,X>X>X].].].>X].>XzX].).>XzXvX).].].].>X>X].>X>X>X>X>X>X>X>X>XzXvX,X,X:X>XvXzX>X>X:X:X:X].].>X-X>X>X].].>X:X<X,X-X,X<X:X<XvX].,XvXvXY.9 hXE.G.-X,X>X].zX>X;X;X<X,X:X,XzXzXcX4X` ^ wX1X2XqXrXKXqX2XFXUXDX2XrXHXHXHXSXy.  H.SXrXwXT 9X3XY MX3XR < R P P rXJXJXJXZXZXDX0X2XtXJXrX0X2X^ 3 < < >   >   P P : # R P U 2X1XrXT P U ` 1XT ` T T ` U ` T T U U T U 0X` P E P U P ^ 2XI ^ U I / / 2 I 2 Y Y R Y P Y Y y.P P R T T Y I L ` 2XHXHXrXT P T qX[ Q ) ~ T Y H.H.R PXLXT 5XT CXwX1XT 9XSX1X0X1XH.jXy.R T ^ 2 ^ 1XT 2XHXKXLXT T 1X3X1X9XHXSXZXqXDXrXrXGXLXT 1X0X1XDXFXJXGXJX2XrX1XR s s : # T T ^ JXKX2X9XrXrXrXrXGXrXrX9XP qXP GX2XKXqXGX1X0XqX^ ` ' ^ ~.'.D.=X`.`.D.D.;X;X-X,XBX%XvX,X:X,X;XD.*X;X<X*X`.`.;X<X<X'.-X,X,X<X,XF.%X%X,X,X,X,X%X%X;X;X;X;X;X;X;X;X*X`.`.`.`.*X`.`.,X:X#X,X,X,X:X,X<X,X,XvX%XXX}.}.A.A.A.{.`.=X=XA.D.D.D.S.A.A.=XA.}.}.}.}.A.A.D.`.=XA.A.A.A.A.{.{.*X*X*X*X*X*X*X*X*X*X*X*X*X*X*X*X{.{.{.A.{.`.*X*X*X*X`.D.A.A.A.A.{.{.{.}.}.{.{.{.A.A.A.Z.Z.A.A.A.{.A.A.Z.Z.A.A.A.Z.{.{.{.{.{.{.{.{.{.A.{.A.A.A.S.S.S.S.S.S.Z.Z.Z.A.A.A.A.A.A.A.A.Z.Z.A.A.Z.Z.A.A.Z.Z.Z.Z.k.k.k.Z.{.A.A.D ",
"zXzXzXzXzXzXzXzXzXzXzXzXzXzXxXxXzXzXzXzXzXzXzXzXzXzXzXzXzXzXzXzXvXvXvXzXzXvXvXzXzXvXvXvXvXvXzXzXxXxXxXxXxXxXxXmXzXeXzXzXzXxXxXmXvXvXzXzX>X>X>X>X>X>XzXzXzXzXzXzXxXxXxXmXmXxXzX7XzXvXzXzXzXzXzXzX).>X].].zXzX>X>XvX>X>XzXvXvXvXzXzX>X].(.>XvXzX).vXzXzX>X>X>X>XzX:XvXzX:X,XzX).,X].,X#X].vX<X:X].lX<X,X,X>XE.( ).vXvX,X>XzXvXvX,X>XvXzXxX8XT SX0X0XT SX2XLXKXrXGXrXFXqX1XSX2X2XSX2X2XVXDX1XSXKXKX` 1XPXR P 1XY 1X0X^ P ` JXJXrXGXKXJXLXGX2X3 U 0X9X` U ~ ] ` T > > I < 0XU U T I T U ` ` T 1XT U I U T ^ 1X1X0X` 1X1X` ` T R CX9X1XU 9XrX9X0XSX8X1XY P Y Y Y s P s r r R R Y y.y.I 1XR Y P y.s T I 2 ' rXKXHXT > 0X2X] Q Q ~ 2 2 1XI T HXT DXVX1XY 1XH.P 1Xy.R 1XT T 1X5XT T ^ / T Y 1XH.9XnX1XT T 1XY 1X9XFXJX2XH.T P 0XJX0X9X0XSXFXtXJXtXJX9X> P s P s 1X8XP 8X1X1XwXZXHXrXDXVXFXJXZXKXZXZX9XDXGX2XqXKXrX0X0X1X[ _ W 1XpX<X*XgX<X<X-X!.Q.Q.#X%X-X-X~.-XD.,XQ.;X*X;X-X-XQ.;X-X:XF.<X-X'.,XF ; F.`.`.`.`.Q.*X*X*X!.!.!.:X:X-X-X,X-X;X;X*X*X;X;X;X;XQ.D.*X*X*X`.`.`.`.;X,X-X*X=X=XA.D.D.XX;X*X=X=XA.A.=X`.D.XXXX#X;X;X;X;X;X;X;X-X:XXXQ.Q.Q.XXXXXXQ.-X-X-XQ.Q.;X-XD.D.D.XXQ.D.D.'.*X*X*X;X;X;X;X-X,X>X:X:X:X:X-X-X*X;X;XXXXXD.D.D.*X*X*X*X*XD.D.D.{.{.A.A.A.A.Z.Z.{.{.{.{.A.Z.A.{.A.A.A.A.A.`.*XD.*X*X*X*X*X*XD.D.A.A.A.A.D.D.S.S.S.D.D.D.S.S.=X=X*X}.S.S.A.`.*X*X}.{.A.F ",
"7XzXxXzXxXzXxXxXzXzXzXzXzXzXzXzXzXzXzXzXzXzXzXzXzXzXzXxXxXxXbXmXxXxXxX7XzXzXzXzX>X>XzXzXzXxXbXbXzXzXzXzXzXzXzXzXzX].].].].].zXzXxXzXzXzX].].].>XzXzXzXzXzXzXzXzXzXzXzXzXzXvXzXzX>X>X>X>X>X>X>X].zXvXzXzXzXzXzXvXzXzXzXzXzXxXzXzX>XzXzXzX].zXvXvXcXxXvXvXvXvXvXvX>XcXdX:XvXNXxXvXeXzXcXzXzXvXzX].vXvXzXvXvX,X$XY ].].].:XuX4XH.T T 8XwXDXrXE SX` 1XrX1XUXLXCXGXJXJXJXrXDX2X` 9XrX2XDX9XrXJX9XU 9X2XT AXy.3X9XrXKXPXLXSXqXGXGXrXKX2XtXqX9X~ ~ 2 < 2 1 2 ~ 3 U 0X^ 2 ~ ] ' ] 2X' ] U ` U I U ` ` P ` 9XAX2XT ^ H.1X0X2X9X9XR y.8X8X8X1XHXJXJXP T y.PX5Xy.R P nX5XPXs R 5XkX2X1XwXVXHXHX9XH.Y R R H.2 2 U U 0XHXy.> R T ' _ ) Q ] ~ I 0X` ` 1X9XHXtX3Xy.y.PXP y.: kX1XR T T H.R T I 1X1XH.R Y R R y.s H.T T P 2XKXtX3X3X1X9XZXKXJXFXtXKXJXtXGXHXLXP Y H.H.H.Y H.: 3XPX> rXKXrXrX9XSX9X0XrXqXqXGXJX0XGXJXtXGXJXHXKX2XIXT 0X2XtX2XDX!.;X;X;X;X*X`.*X*XQ.<X,XQ.vX:X:X:XQ.;XD.;X:XvX].'.,X-X-X,X:X,XvX>X:X:X:X:X>X>X>X>X,X:X:X:X,X:X:X:XiX>X:X:X-X:X>X>XvX>X:X:X,X:X-X!.:X:X].'.'.'.;X;X;X;X:X>X:X'.`.A.D.*X*X*X*X*X*X*X'.].].>X>X].].].>X:X'.'.'.'.:X,X:X:X>X:X!.!.:X,X-X-X:X,X:X!.'.:X-X-X:X:X:X].].].!.'.'.].:X:X:X:X:X:X>X>X:X-X-X;XQ.*XXXXXXX*XQ.D.{.{.{.{.{.{.Z.Z.{.{.{.{.A.A.A.{.Z.Z.Z.S.D.*XXXXXXXXXQ.D.D.D.D.D.}.}.D.XX:X,X>X:X,X,X,X:X-XQ.Q.'.;X*XS.S.*X*X*X;X*X*X`.G ",
"xXzXzXzXeXzXxXxXzXzX7X).7X7XzXzX).7XzXzXzX7XzXzXzXeX7XzXxXxXxXxXxXzXzXzXzXzXzXzXxXxXzXzXzXzXxXxXzX7XzXzXzX7XzXzXzXzXzXzXzXzXzXzXzXzXzXzXzXzXzXzXzXzXzXxXxXzXzXzX].].].].].].].].zXzXzXzXzXzXzXzXzXzXzXzXzXzXvXmXxXzXxXzXzXzXzXvX].zXvXvXvXzXzXzXzXzXzX).).zXzXeXzXzXzXzXzXvXzXxXcXxXvX>X].].zXeXvXbX2X2XrXeXwX0XkXVX9XrXKXKXDXZXHXrXHXZXVX9X2X0XrX2X0X0X0XVXFX0XT ZXqXKXGXP 1X9XHXSXrXSX9XH.T H.P y.AX9XDXKXZXZXJXJXGXqXGXJXKXGXJXKXFX1X] Q 2 < 2 2 ~ 2 1 ~ ` U U ] U ' ] ~ ] ~ 2 < I I s P < I HXKXKXHXKXtXrX2X0XT P T nXH.H.LXJXGXJXKXSXDX1XT 5Xy.H.9XT 9XKXKXKXKXKXtXGXJXJXHXHX2XrXP ^ P Y H.rXU ` 2 I ` 0XT UXP U 1 3 ] 3 ~ H.I ^ T T 3XH.R LX2X2XLXFXKX0XT ` T R Y T T ^ R U T R R > P H.3X0X0XT 0X1XT ZX0X0X2XR 1X` ` FX0XrXZXrXJXJXGX2XZXJXGXJXJX9X9X0XT 9X^ 1X1XT nXVXrXVX9X9XSX1X1XqXtXGXKXHXJXrXZXKXP 9XrX0X0X9XT ZXtX6XxX).].:X'.S.S.S.*X*X;X:X,X!.].D.S.`.[.[.*X'.,X'.;X-X-X'.:X,X:X'.'.:X:X:X,X,X,X].].].>X>X].:X>X>X>X>X>X>X>X>X#X'.'.'.].:X].].'.:X:X'.Q.'.:X,X>X!.!.!.'.'.'.'.-X'.`.`.'.vXcXzX:X-X'.].].>XzXzXxX>X>X>X>X>X#X!.!.XXQ.Q.Q.-X'.'.-X#X:X,X:X-X'.:X:X>X>XzXvXcXvX>X(.-X#X#X>XvXvXvX>X!.!.!.!.XX;X;X;XQ.-X:X-XQ.D.D.D.D.D.Q.'.-X-X-X-XQ.Q.D.D.Q.'.-X,X>X>X>X,X,XXXQ.XXQ.Q.D.Q.'.-X-X-X>X>X>X,X,X,X-X'.D.Q.-X:X-XQ.Q.XX~.!.!.#X:X'.Q.~.:X:X>XK ",
"xXzXzXzXzXxXxXxXxXxXxXzXzXzXzXzXzXzXzXzXzXzXzXzXzXeXeXeXzXzXzXzXzXzXzXzX).).zXzXxXxXzXzX7X7XzXxXzXzXzXzXzXzXzXzXzXzXzXzXzXzXzX].zXvXvXvXzXzX].].>X].].).).).].>X).7XzXvXvXzXzX7X].].].].>X>XzXzXvXvXzXzXzX].zXzXvXvXvXzXzXzXzXzXzXzXzXzXzX].].].].].].].>XvXvXvX,X,X>X>XzXzXzXzX].vXvXBX>X].NXSX7X1X1XqXCXCX0XIXVXKXLXFXHXZXKXHXqXHXrXZXFX^ 1XrXHXrXFXKXKX9XHX9X1XZXrXrXZXSXVXAXrX> 1X0XP H.T P 1XAXy.T LXZX` tXDXGXHXrXGXGXJXHXJXLXkX0X~ ~ 2 < < 2 2 1 2 U U ^ ^ ` < U ` U U U I U T 0X^ P P T 0XZXLXLXKXLXSXFX9XVXnXSXPXT 1X0XGXJX` T 0XSX9X1X1XH.9XHXIXZXHXrXDXKXJXHXKXZXKXKXKXKXHX2X0Xs P s P I U P > 9X1X9X9X1XU ` U U ' ] ^ H.T P y.P 1X^ 9XKXKXrXZXHXZXLXHX1XT Y T T R T U T 5XT 2X9XKXR 1X5X1XP T T T 1XT y.y.R P ^ 0XnXFXKXGXJXJXJXqXrXGXJXGXrXKXHXrXVXDXP Y y.R H.9XZX0XHXHX9XT 0XFXGXZX2XE DXHXSX2X2X2X2X2XqX1X9XFXtXtXJXIXIXDXSXVXkX7X7XxXBX>X:X!.,X:XvXvX:X].vX>X;X'.-X-X'.'.'.-X'.'.'.-X'.!.'.'.Q.,X:X:X,X>X>X#X>X'.'.'.'.].>XzXuX>X>X>X:X-X-X-X;XQ.-X<X,X,X:X].!.,X:X>X,X>X>X>X>XxXxXcXvXvX>X:X>X:X:X:X-X-X-X-X-X'.'.'.:X:X-X:X,X;X;X'.;X;X'.Q.Q.-X'.Q.Q.!.!.(.(.'.'.'.'.'.'.'.'.XX!.!.!.].>X>X>X#X:X:X:X-X-X-X-X'.;X-X-X-X-X-X-X:X:X:X:X>X$X%X$X,X:X-X-X-X-X:X:X>X].:X:X-XQ.Q.-X#X#X#X#X:X>X>X>X>X>X$X>X:X-X'.D.D.D.Q.!.!.~.Q.Q.:X:X:X:X:X-X-X-X:X:X,XK ",
"zXzXzXzXeXzXeXzXxXxXxXxXzXzXzXzXzXzXzXzXzX7XzXzXzXzXzXzXzXzXzXxXxXxXzXzX).).zXxXmXxXzXzXzXzXxXcXzXzXzXzXzXzXzX7XzXzXzXzX).).).).].].>X>X>X].].].>X].(.(.!.(.(.].].].>X>X>X>X>X>X].].].].].>X>X>X>X>X>X>X>X>X>X].zX].].>XzX>X].).].zXzXzXzX].].].].].].(.).].].].'.'.].].].].].].].,X-X>XbXSXHXwXT 9XqXJXrXwX9XLX9X2XKXrXGXKXJXLXZXrXtXGX9XY 1X9XrXrXrXFX9XT SXHXFXLXT 1X9X9XVXSXKXrXKXSXy.0XVX8X9X0X0X1XKXJX` GXrXGXKXHXJXGXJXJXKXSX1XH.< I s L ^ ^ 2 2 T U U U Y 1X0X9XT ` 9X2X0XT ` 9X9Xy.1XVXPXVX9X1X9XLXPXSXLXVX0X9XKXHXHX1XVXLX1XT T 9X9X1XY T 9XHXHXFXLXLX9XP P 0XDXKXJXtXKX2XKXJXKX1Xs R T P 1XI s LXR R 2XU 0XU U 3 U U T I T T T H.KX9X` 1XrX` ZXKXZXZXrXP R P ^ 1XT 0XI ^ T ZXHXGXKXU R y.3X5Xy.T 3XR A s 5XH.r Y H.1XrXKXHXJXJXKXrXGXHXJXrXHXU KXDXP 9X9Xs R H.1X> DXUXU qX9XDXHX9XHXqXLX` FX9XDXKXKXFXGXGXqX^ 1XFXrXrXtXrXHXHXCXrXDXtXGX0X` T 7XBX~.,X#XW.Q.W.@X(.D.!.'.'.Q.Q.'.'.'.].:X-X'.'.'.-X!.D.D.D.Q.-X:X:X,X,X,X-X;X;X;X'.*X].:X'.'.!.#X#X%XD.Q.XX!.Q.Q.Q.'.Q.Q.!.:X>X>X#X>XD.Q.Q.D.`.S.S.S.!.!.!.!.'.'.D.D.>X>X).$X$X$X>XvX,X:X:X:X:X:X>X>X;XD.D.S.`.`.'.'.(.(.(.!.!.Q.'.-X:X-X'.'.Q.'.].(.>X>X,X,X-X!.Q.'.Q.Q.Q.!.#X:X:X#X'.'.'.'.-X-X-X-X(.#XXX#X(.(.(.(.:X(.!.!.!.!.-X,X'.'.'.;X;X;X'.Q.'.'.!.!.!.!.!.!.-X-X:X:X].:X:X-X:X:X:X:X(.!.-X:X:X:X,XK ",
"zXzXzXzXzXzXzX7XzXzXeX7X7XzXzXzXzXzXzXxXzX7X7XzX7X).7X7XzX7X7XzXzXzXeXeXzXxXxXzXzX7X).).).).).).).zXzXzXzXzXzX7XzXzXzXzX].).(.(.!.(.(.(.(.(.].>XzX>X].'.'.'.:X>X].'.'.!.!.'.'.'.].].].].].].>X>X(.(.(.(.>X>XzXzX].].].>XzXzX>X].].].zXzXzXzXzX>X>X>X>X>X>X>X>X>X'.'.'.].:X>X>X>XBX!.~.xXSXT > 7X1XFXUXrXVXHXLXJXDX1XrXrXJXJXKXKXKXJXtXJX9XT DX2XqX9X1X9X2XqXZX0XqXHXP ZXSXT 1X9X0XrXSX1XR 5XLXT wX0X9XLXFXrXGXJXSXHXKXJXJXHXJXJX9XDXAXPX^ I > X > , I T P T LXKXLX8XT 0X0XwX9X` 2XqXJXVXZXHXHXFX1XT y.P R T 1X2XqX0X9X0XVXFXJXJXLXKXKXSX0XrXLXSX8X2XrXtXZX0XT R VX8X3Xy.> 9XJXJXJXKXtXKXKXR PXY R Y 1XY P 9XE 1X2XqXU ` U U I I T T H.^ T LXKXFXP 1X1X1X1XqXKXrX` < s L T 0XT y.< P < T GXtXJXJXs R T y.s R 9XR R y.wXnXq.Z 3X1X2XFXFXJXGXJXGXJXHXqXrXrX0XHXLX0X9X2X8XPX5X1X1XHXLXKXJXZXrX0XVX0XT LXrXKXrX` KXHXrXJX2X2XT R rXGXrXtXrXKXKXZX9X9XKXE 9XKX1X0X9XDXF.A.A.=X*X`.`.`.!.'.'.!.'.'.'.'.(.(.!.D.D.Q.Q.Q.*X`.D.D.D.D.D.D.D.D.D.D.~.!.!.~.'.'.'.D.D.Q.XX#X$X$X%X,X-X*XS.S.S.S.S.`.*X`.`.`.*X`.S.`.Q.Q.*X`.Q.!.-X:X>X$X$X$X'.'.Q.Q.Q.Q.~.Q.D.D.D.D.D.Q.'.-XiXuX:X-XQ.Q.-X,X).$X:X:X:X(.$X$X].'.'.'.'.Q.!.(.).>X:X:X-X!.Q.Q.!.Q.~.Q.!.!.!.~.#X:X:X#X#X#X(.(.#X#X#X#X#X#X#X#X!.!.!.:X:X!.!.:X:X:X(.:X:X:X:X(.(.(.(.!.'.-X;X'.:X:X>X>X>X>X:X:X!.!.(.(.(.!.!.!.XXXX,XK ",
"7X7XzXzXzX).).).zXzX7X).).).).zX7XzXzXzXzXzX7X7XzX).).zXzXzXzX].).).7XzXxXxXzX7XvXzXzXzXvXzXzXpX).).zX].zXvXvXzXzXzXvXvXzX>X>X>XvXvXvXvXvXvXvXvX>X>X-X-X-X:X:X>XzXzXzXzXzXzX7X).].].].(.(.].>X>X(.(.(.(.(.>X>X>X(.(.].].].].>X>XzXzXzXzXzXzX>X>XzXzXzXzXzX>X>X>X:X:X:X:X].].].].vX: 2XLXY   P 9X0XKXrXCXwXVXKXLXDX1XFXKXKXZXHXJXHXJXJXqXHXVX0XJXZX9X2XZXFXKXrX1XHXKXLXKXSX1X> T wX9X1XT 9X1X1XkXKXKXKXLXZXrXJXKXLXJXJXZXJXHXJXHXrXZXGXrX` T ` T 1XKXKXZXFXT E R y.T s H.VX2XT rXHXJXKXJXHXrXGXHX9X9XSX0X` 1XrXSX0X1X9X9XHXHXrXFX2X0XHXSXZXJXJXrXKXLXJXrXGXDX1XR I CXT 1X3XT GXJXJXKXJXGX2XP kX3X0XP < PX9XrX0XU 1X2XT T P T P P UX9XI < Y LXR 0X1X8Xy.1X9XLXqX1X^ I s P P 1XT Y 9X9X9XT UXLX2XqXY s P H.SX2XT KXy.kX` T T R 1XHXVXqXGXKXGXGXJXJXKXKXHXJXrXZXZXZXIX1X2X1XLX^ T 1XDX9X9X2X1X1XDX9X1XHX2X2XKX2XrXrXqX2XqX0XVXT HXtXGXKXJXKXJXKXGX2XwXP 0XZXqXrX2XU R ).'.-XK.XX-XW.'.'.'.-X:X:X>X:X>X,X,X'.'.-X:X#X:X-X'.Q.Q.Q.D.D.:X#X#X$X>X>X>X>XuX$XXXD.S.S.S.S.S.S.D.XX#X$XvXvX,X#X#X#XXXQ.D.D.;X*X*X;X#X%X%X#XQ.Q.XX:X:X>X>X:X#X#X>X>X>X>X>X$X#X#X(.(.(.#X$X$X#X#XXX!.~.~.!.(.'.'.Q.'.'.-X#X#X~.~.Q.Q.Q.!.#X#X].(.(.!.!.!.!.Q.#X#X#X#X!.!.Q.Q.!.(.#X#X#X#X#X#X:X:X#XXX!.!.!.XX!.!.-X:X:X:X(.(.#X(.!.!.(.(.(.(.;X;X;X-X:X>X$X$X:X:X>X].>X>X#X#X(.!.!.!.:X:X:X(.Q.!.:XK ",
").).).).).).).).].].>X].).).).).).).).>X).).).).].).).].>X].).).).).zXzXzXzXzX7X].zXzXzXzXpX).).).).).).].>X>X).).].>X>X>X].#X>X).$X>X>X).).(.).:X:X'.-X-X:X:X(.>X>X>X>X>XzXzXzX>X>X>X>X>X>X>XzX>X>X>X).].>X>X>X(.].).(.(.(.).>XvXvXvXzXzX>X].].pX).zXzX].).(.(.:X:X:X>X>X>X>X>XY R GXLXPXnX9XDXLXKXKXLXJXJXJXKXDX0XKXKXJXJXrXZXDXHXJXJXFX0X9XFXKX9XrXZXZX9X9XLXJXJXKXHX9X9XY 6XH.R T 1XT UX9X1XJXSXKXSXHXKXKXKXKXJXHXDXJXJXKXHXGXJXJXGXGXGXJXHXrXrXGXJXKXVX3XR P Y R 1XZXFXrXHXKXJX2XrXZX` rXrXrXKXKXKXZXKXrX0X1XrXDXKXKXHXrXHXGXqXGX0XrXKXJXJX9XDXZX0XrXJXDX9X0XKXVXH.9XT KXtXKXJXKXKXZX9X2XLXrXT Y T T T T 1X1XR 9XR T T y.R H.T CXLXR 1XrXZX3XkXT DX0XT y.R 1XH.s L s T 1Xy.LXDX9Xy.P y.IXqX1X1X1XH.2XwX` 2XT 9XrXZXLXZX9XKXLXqXrXKXJXJXJXGXFXDXKXKXGXGXKXZXLXKXKX0X9XT 0X1X9X1XrX> > AXHXKXKXKXFX0XrXKXHXJXqXqXJXJX1XnXFXrXJXLXZXHXZXJXHXwXFXT SXZXVXZX` rXqXIX1XQ.S.D.D.S.D.D.Q.Q.XXXX#X#X!.!.'.Q.Q.!.!.!./.).$X>X:X:X:X(.#X(.!.!.D.D.S.S.Q.Q.D.D.S.S.S.S.D.D.D.F.F.F.D.;XD.D.F.S.S.S.S.S.S.D.Q.Q.S.S.D.D.D.D.Q.D.D.D.S.S.D.D.D.'.'.;X'.Q.Q.Q.'.Q.Q.Q.D.D.S.S.S.`.Q.'.'.!.'.Q.Q.Q.!.:X:X$X!.!.!.!.!.!.:X:X:X:X!.!.#X-X!.!.#X#X:X:X-X!.-X-XD.Q.Q.Q.Q.Q.-X-X!.!.~.~.~.Q.!.!.XX!.-X-X'.(.'.(.!.Q.Q.D.D.Q.Q.'.(.(.!.!.!.'.'.Q.(.(.(.].>X>X#X$X:X(.!.!.(.>X>X>XXX!.,XK ",
"zXzXzXzXzXzXzXzX].].).].$X).).).).).).).).).).).(.(.~.(.(.(.!.!.).].zXzXzX7X].>X>XzXzXzXzXzXzXzX>X].).>X>X).(.).(.(.(.(.(.).).).zXzXvXvX>X>X>X>X].(.(.(.].].].!.'.!.Q.~.~.Q.'.'.:X>X>X>X>X>X>XvX>X>X>X>X>X>XzXzX>X>X>X>X>X>XzXzXzXzXzXzX>X).(.(.).).).>X>X>X>X,X:X:X>X,X>X>XvXvXGX9X2XHXKXJXSXLXJXZXLXKXJXKXHXHXLXLXFXJXGXrXJXZX9XKXKXqXLX9X` KXKX9X2XZXSXrXrXLXZXJXJXFXwX9X1X1XT P : R y.9XLXKXKXKXLXKXSX9XrX` KXKXLXZXJXKXKXJXJXJXGXJXGXHXtXtXrXqXJXKXKX0XY s > s T 1XT rXGXrXZXKXHXHXHXKXKXZX2XKXZXGXqXGXGXZXZXLXFXKXGXLXFXGXGXJXKXHXrXKXrXqXrXSXKXHXZXZX1X2XKXVXLXrXFX9XJXqXJXKXJXU rXHX0X9XrXT 8XR P Y 1XH.T T T 0XT R 1XY Y Y ^ KXKXJXKXKXKXVXDXDX9X1X1X1X1XH.K L P I H.y.UXVX1XLX1Xy.VXrX9XH.H.y.> 1XKXJXrX9XFXFXGXJXZXKXKXZXZXJXKXJXFXGXLXLXHXKXKXJXZXKXZXKXFX9XT 0X1XR R T 0X0X1X3X9XKXKXFXKXHXqXFXDXHX2XqXKXJXT 9XJXtXKXHXrXJXGXGXJXJXJXP 2XKXZXrXHXZXKXJX2XeX~.D.D.`.D.D.D.D.D.D.D.D.D.'.'.Q.Q.;X;X'.(.#X:X!.!.!.(.^.S.`.`.`.D.S.S.A.S.A.S.D.D.~.~.Q.~.Q.Q.*XD.D.D.Q.D.D.D.D.D.D.D.*XD.Q.#XXXD.`.D.Q.*X'.'.D.D.S.S.S.Q.XXXXQ.Q.XXXX!.#X#X#XXXXX;XQ.D.S.D.D.!.>X>X>X:X#X(.!.!.!.!.XX-X;X;X-XXX!.!.'.'.'.!.!.!.#XXXXX!.!.!.!.Q.Q.!.#X:X,X,X>X$X(.W.W.(.(.!.!.!.!.XX-X:X!.!.!.!.!.!.!.!.$X$X#X(.!.!.(.#XQ.Q.Q.Q.!.!.(.(.W.!.(.(.(.(.(.(.:X(.!.!.!.:X>X$X#X#X,XK ",
"zXzX].].).).).).].(.(.(.(.$X$XuX>X>X>X>X>X>X>X>X>X>X].].].].>X,XvX>X).).pXzX>X).).).).).).).).>XzX).].zXvXzX>XzX>X>X:X:X>X>XzXzX>X].].(.!.!.'.'.].].(.(.].].].'.(.(.].>X>X:X(.(.!.(.].].].:X>X>X).].>X].).).).).(.(.!.(.).>X).).).).pXzX>X).(.(.>X).].].].~.~.~.Q.!.!.!.!.!.!.!.0XqX2XZXGX1X2X2X2X2X9XJXJXKXKXHX0X9XFXKXKXJXGXGX0XZXGXZX2X0XKXJXqXZX9XFXqXDXrXZXqXJXKXSXVXVXVX1Xy.y.LXKXDXKXqXFXKXKXKXHXSXDXDXKXLXKXKXHXLXKXKXHXKXKXGXKXHXJXZXKXJXtXJXtXKX1Xs Y 1X3XAXLX9X1XU P T T rX9X1XIX0XLX9XJXZXJXJXqXGXJXHXZXHXZX1XKXHXLXKXJXHXLX^ VXHXLXFX2X9XHXLXZX1XrXLXKXZX2X9XrXJXIXZXKXKX, KXLX1X0X9X2XR Y H.Y H.Y P T 1XLXLX1XI I K P P JXKXKXHXKXtXKXKXT HXCX9XT R Y t.L T T 1XR R ` 0XT T H.PXZXT 1XAX3Xs 1X1XtXJXJXHXDXGXtXqXLXKXKXJXJXKXJXGXJXKXLXKXU JX9XKXJXLXKXLXKXLX8Xt.y.> Y ^ 1XMXPX9XHXGXJXrXZXZXqXZXFX0XJXHXJX1XrXHXtXHXFXrXHXtXGXJXGXJXJXHXrXJXZXGXLXCXKXtXJX).`.*X XD.D.D.S.S.S.S.`.D.`.Q.D.D.D.D.S.D.D.D.S.F.D.-X,X>X>X>X:XXXD.S.A.A.A.D.;X!.'.'.;X,XQ.D.D.`.Q.Q.Q.'.D.Q.!.!.~.Q.XXD.D.D.D.D.Q.;X;XD.D.D.Q.Q.Q.XXXXD.D.D.D.D.D.XXQ.#X#XQ.D.S.S.S.S.Q.XX#X$X(.Q.D.`.Q.Q.XXQ.D.S.S.S.S.S.D.~.!.Q.D.D.D.Q.Q.!.XX!.!.!.D.D.D.D.~.~.(.$X!.!.!.Q.~.Q.-X:X>X#X#X!.!.!.!.!.!.!.!.!.!.!.!.Q.!.XX-XQ.Q.~.Q.Q.#XXX!.!.!.:X:X:X:X:X,X>X:X:X#X$X(.(.(.(.#X#X(.).#X#X>XK ",
"!.(.(.$XzXvX>X>X>X>X$X).).>X>XvX>X>X>X].#X>X>X$X!.-X:X(.).zXzX).,X].(.:X:X!.!.!.].].XXXXXX#X>XvXvXzX].].>X>X>X:X>X#X-X*XS.A.A.A.S.S.S.D.*X;XXX#XQ.Q.!.'.'.'.'.-X>X>X>X#X(.(.:X,X].>XvXvXzXzXuXzXvX>X(.(.(.(.:X,X].].].].].>X>X].>X$X$X>X>XzXzXpXzXzXzXzX).(.].vX:X:X].(.>X>X>X].~.!.!.~.!.:X>X$X>X).T.T.pXxXE.B + R 8X9XDXIX9X1XDXIX2XIXqXFXqX2XVX9XVX9X9XqX2XZXJXJXJXJXHXHXJXJXKXJXJXKXJXtXrXrXJXKXKXJXJXJXJXKXFXKXKXKXKXZX0X1XKXJXGXGXJXGXtXJXHXHX` T GXHX2X0X7XKXGXrXwXY NXSXt.3XZ X 8 & . 3X2X9XZXrXrXrXwXrX2XGXGXJXJXKXGXKXKXGXKX1XT R DXVXrXrXZXSXJXrX2XqXGXtXqX` ^ 1X0X3X1X2XSXrXGXKXVX0XeXY s Y s t.y.y.H.R H.LXLXH.s s Y s 9XKXGXGXKXKXZXKXKXKXLXqX0XJXVXT 1X1XT T T 1XR R LXP 9X2XFXGXqX2XKXKXHXrXHXZXrXJXJXHXKXKXCX9XtXGXHXJXKXKXJXtXKXKXLXLXIXGXHXJXKXJXJXtXtXJXJXKXLXP T rXKXJXrXJXrXZXZXFX9XZXZXrXGXrXJXHXJXqXGXJXHXGXrXGXJXKXJXKXFX1X2XLXFXGXJXJX6Xs 9XGXFX).'.D.!.:XQ.D.'.-X-X!.Q.Q.D.D.D.;X*XD.S.S.D.Q.XX-X;X*XQ.-X-XQ.'.-X-XQ.~.-XQ.D.D.'.'.;X!.].!.'.,X-XQ.'.`.D.D.~.Q.Q.Q.D.D.D.D.Q.Q.Q.Q.D.F.S.S.S.S.S.D.D.].].'.!.Q.D.S.A.k.S.S.D.D.D.S.S.D.D.D.D.D.D.D.Q.-X'.D.Q.Q.Q.D.D.D.D.;XQ.XX:X,X>X,X:X-X-XXXXX#X#X).).(.(.!.!.!.!.+X#X#X-X-XXX!.W.D.~.Q.XXXX#X#X#X:XXX!.(.#X$X$X$XXX#X#XXXXXXXXXXX!.XXXX#X#X!.W.~.Q.!.!.#X#X#X$X$X:X:X#X!.!.!.Q.Q.(.!.:Xx ",
"(.(.$X$X).(.(.!.'.!.!.Q.Q.Q.Q.Q.!.!.Q.Q.Q.'.'.D.Q.Q.!.!.(.(.:X:X!.~.~.!.!.Q.Q.Q.~.~.Q.Q.Q.!.(.(.).).(.(.(.!.!.W.D.D.D.D.D.D.'.-X;X;X'.'.'.Q.~.~.!.!.!.!.!.!.!.!.Q.'.'.'.Q.Q.D.D.!.(.(.).).).).).).].>X].].(.(.!.].].(.(.(.(.(.(.].].'.'.'.].].].>X>X>X>X:X!.!.'.:X:X:X(.].>X>X>X,XvX<X:X:X:X:X(.~.'.:X:X].>X:X(.!.-X<X].].].(.(.(.]._.~.G.G.K K Y L y.H.3X8X5XVX1X1X1X1X1X1X0X2X1X1X0XDXDXFXGXJXZXFXCXnXCXDXVXGXrXrXZXHXHXFXZXwXKXKXLXLXKXKXJXJX0X9XU P 9XKX2X:   ` qXJXHX2XZXGXH.: P 3XT R 1XJXKXKXJXIX2X0XUXUXwXwX9XLXLXLX^ 1XqX2X2X0XT 1X2X1X2X9XJXKXqXJXKXGXIXDXFXDXUXR R R P T 2X2XrXJXrX9XP < P T P P P R R UX2XqXtXJXrXT L s P H.PXKXLXLXwXLXCX0X0XrX2X0XHXVXZX9X2XFXFXrXHXSXU KXKXDXFXZXKXGXGXJXHXJXKXJXqXGXGXtXtXZXJXKXLX1XUX9XFXLXLXLXJXHXJXLXLXJXKXJXLXLXKXFXHXLXLXKXKXPXLXLXHXHXDXDXGXDXIXIX9XIXIXDXrXwXZXrXSXrXJXKXrXGXZXZXrXFXFXKXAXP < 2XCXSXKXKXH.W IXGXJXFXnX_.D.;X;X'.'.!.!.(.~.Q.~.D.D.Q.D.D.S.S.D.D.D.D.D.S.~.!.!.~.!.!.~.~.!.,X'.D.Q.Q.~.Q.!.].!.~.Q.D.F.D.D.Q.Q.XX-X-X-XQ.D.D.D.D.Q.!.Q.D.Q.XXXXQ.Q.Q.Q.Q.!.!.Q.Q.Q.D.D.S.A.`.Q.!.Q.Q.#XuX(.W.!.!.Q.~.Q.XXD.S.S.D.Q.!.XX:X!.XXXXXX#X#X(.W.!.Q.Q.Q.Q.XX-X:X:X:X:X(.(.(.(.(.!.XX!.!.!.!.!.!.yX$X$X!.Q.D.D.D.Q.Q.!.!.!.XX#X#X!.!.XX#XXXXXXXXX~.!.!.XX#X#XXXXX!.!.!.!.!.!.(.#X!.!.!.!.!.(.(.!.(.(.>XB ",
"W.(.$X$X).(.(.].~.!.!.(.(.(.!.!.).).(.!.!.!.Q.D.D.Q.Q.Q.!.!.!.!.D.D.~.Q.'.Q.D.'.!.!.!.XX!.!.(.(.(.(.(.].!.!.!.!.D.Q.'.:X:X>X).7XzX>X].].].'.'.Q.#X#X:X:X:X!.!.~.D.Q.'.'.Q.Q.D.D.!.!.!.(.:X>X>X>X).].>X>X>X:X].].(.(.(.(.(.].>X>X].].].'.'.'.].].vXvXvXvXvX>X$X>X#X:X:X].(.:X:X:X].:X-X-X-X-X:X:X,X,X,X>X>X>X>X>X<XXX;X~.!.!.'.,X!.'.-X-XQ.Q.Q.Q.*XD.*X*XD.D.F.D.~.Q.Q.D.D.D.Q.Q.D.D.D.D.F.F.F.G.y.y.G.G.G.y.Y y.E.H.5XjX3XUXy.A T 1X3XH.H.E.1X1X1X3XR P > T R + > T T 1X1XT P > P > T T R T ^ I Y P P s s P s s E > > T UXUXE UX2X2XUXqX1XIX2X0X2X2XIXIXU 2XtX2XtX2XrXtX2X2XGXZX9XrXGXqXqXZXqX9XtX2X2XqX2XqX2XT P 1XwX9XqXHXHX2XrXZX` U ' qXqXKX0XT ` HXKXJXtXKXKXGXKXHXFXKXJXJXKXKXKXJXKXJXHXHXJXKXKXKXJXJXJXLXKXJXJXtXtXGXJXJXLX1XAX0X1XLXLXKXLXPXLXLXLXHXLXLXLXLXT DX0XKX9X2XLXKXKXJXqX2XqXZXSXCXCXAXAX8X7X9X2X9XrX9XZXZXJXGXZXHXZXDXZXLXFXDXLX2X0XVXqX1X2XrXVX0XqXZXFXLXLXLXvX(.~.~.'.-X!.Q.(.:X].!.!.~.Q.~.:X:X,X,X#X(.#X$X(.#X#X>X>X>X#X(.~.!.Q.~.!.!.!.:X(.:X'.!.Q.D.D.'.Q.!.#X:X:X-XXXQ.Q.D.D.'.-X-X;XQ.`.*X*XD.Q.D.D.D.XXQ.D.D.Q.XX'.D.`.Q.(.(.!.!.#XpX,X:X-X;XQ.D.S.`.#XQ.D.D.D.D.D.`.Q.D.D.D.D.D.D.D.Q.Q.D.D.D.D.Q.Q.D.Q.Q.Q.XX#X#X#XD.D.D.~.Q.!.!.-X#XXXQ.D.S.S.A.A.~.Q.XXXXQ.~.Q.Q.~.!.!.!.!.!.!.XX:XXXXX!.!.XXXXXX#X#X!.!.!.!.!.!.$X$X:XXXQ.Q.D.D.-XQ.;XD ",
"^.(.).$X#X#X:X:X$X#X$X>X>X>X$X$X$X$X$X(.(.!.!.~.Q.!.'.-X-XXXQ.D.Q.Q.Q.XX-XQ.Q.'.(.#X:X:X:X:X#X#X:X:X:X:X#X!.#X#X#X#X#X:X#X!.(.(.7X7X).].].].].].>X>X:X:X:X'.!.!.(.(.(.(.(.(.#X#XQ.Q.~.!.!.].].].).].>X>X>X>X>X>X:X].].(.(.>X>X>XzXvXvXvX>X>X].].).).$X$X$X(.(.(.!.XX!.!.!.!.(.].!.Q.!.'.'.Q.Q.'.>X(.!.(.>XvX>X>X,X#X,X#X$X>X(.$XzX$X$X#X>XOX#XW.%XOX%X+XOX%XOX%X-XXXXXXXXXXXXXXXD.*XD.XXD.,X,X,X;X;X;X-X:X-X*X`.A.S.D.*X*X*X;X*X;X<X;XD.D.S.F.F.~.D.F.'.F.Q.;X-X*X=Xj.S.*X<X*X=X`.;X<X-X<XvX!.:X,X:X,X:X,X,X-X-X'.;XD.'.D.F.d.Q._._.G.E._._._._._._._.(._.zXeXNXKXGXJXJXJXKXKXHXJXJXJXtXtXJXJXKXGXZXGXHXJXKXKXKXLXLXKXKXKXJXJXKXHXLXKXHXLXKXLXLXHXKXKXKXJXKXKXZXKXHXKXKXKXKXJXKXJXKXKXJXJXGXJXJXKXKXJXKXJXJXZXGXHXHXKXKXHXKXKXHXqXE 0X2X2XJX' U W W W W qX2XqXwXJXrXrX0XrX0XrX0XU GXJXJXGXKXKXJXGXtXqX2XrXrXrXGX9XqXVX2X9X2X2X1X2XtXtXtXqXtXrXqXqX2XqXqXtXtXtXqXUXY T 1XUX0X0XIXSX3XY t.4XcX$X$XzXzXzX>X>X).#X#X(.!.!.-X!.!.:X>X(.(.).>X>X>X>X>X:X#X(.#X(.!.!.#X(.(.(.(.!.Q.~.Q.~.!.#X#X#X!.Q.D.!.Q.D.Q.Q.Q.D.D.D.Q.!.(.#X#XXXQ.XXD.D.D.D.;X;X;X(.!.Q.!.:X:XXXD.D.D.D.D.D.S.S.S.Q.D.D.'.-XQ.D.D.D.D.D.D.D.D.`.*X-X'.Q.D.D.D.D.~.Q.Q.Q.Q.-X:X-X-X;X;X-X!.(.!.Q.Q.`.`.D.D.S.D.D.`.XX-X-X-XXXQ.Q.Q.!.!.!.!.!.!.!.XX:X#X#X!.!.!.Q.Q.(.#X:X:X-X'.Q.~.D.D.D.D.Q.-X-X#X:X#X,XG ",
").(.(.(.(.!.~.~.!.!.!.Q.!.!.Q.Q.D.D.D.D.~.Q.!.!.(.(.:X:XXX!.~.~.Q.Q.!.XX!.!.!.!.#X(.(.(.(.(.#X#X#X#X!.!.~.~.!.#X%XOXW.P.~.~.!.:X#X#X#X#X#X#X#X#X(.!.!.!.!.'.'.!.(.#X#X(.(.:X>X>X:X!.!.!.!.'.!.!.(.(.(.(.(.].].>X,X,X>X:X].(.(.(.).#X>X#X#X!.!.(.Q.Q.'.Q.D.D.D.D.XX!.!.!.!.!.!.!.:X'.'.-X'.Q.Q.'.D.D.Q.'.'.'.'.-X:X:X,X:X'.,X:X:X(.W.(.!.<X,X<X:XXXQ.XX!.Q.Q.Q.XX%X#X#X#X%X,X,X:X#X%X#X#X!.,X#X#X,X:X#X$XuXzX,X-X-X,X].].].).(.].#X#X(.XX-X-XXX,XXX#X!.-X-XQ.Q.D.XXS.=XS.XXXX}.{.}.S.D.XX:X:XXX<X`.`.*X*X*X;X*X*X;X;X;X;X;X;XD.;X;X;X-XXX-XQ.'.;XQ.*XD.D.;X'.F.'.F.D.D.D.D.`.S.S.}.}.*X}.{.{.{.v.).zXBXvX7X).pXxXvX).).7XxXNXPXPXJXGXJXJXJXJXJXJXLXLXKXKXGXGXJXJXGXFXJXGXZXJXJXJXKXKXFXKXZX2XqXqXtXFXrXSXwX2X` 2XFXDXFXHXHXLXZXT U W qX1XE 2X2XE W W W W W W qXGXrXFXFXDXqX2XZXZX0XFXrXDXqXrXrX2X2X9XwX8XAXwX9X0XjXjXbX3XH.H.H.3XM..X XXXXXXX XXX}.}.}.v.}.*X*XZ.D.!.!.'.'.vX).>X'.'.Q.!.'.'.].,X).).).$XzXzXzXzX#X!.~.Q.~.!.(.(.(.(.(.(.(.(.(.(.>X#X(.#X(.!.!.(.).$X$X>X#X(.!.~.!.!.#X#X!.Q.'.'.#X-X-X'.!.!.Q.'.D.D.Q.(.#X:X-X'.D.D.S.S.D.D.D.D.D.D.D.D.*XXXD.D.Q.Q.Q.Q.Q.~.D.~.~.D.D.D.Q.Q.D.D.-XXXXXXXXX!.(.:XXX!.Q.Q.Q.!.XXXXXXXXQ.Q.Q.Q.D.D.D.Q.!.:X:X#X!.!.'.;XXXXX#XOX#X%X#X#X#X#XXX!.!.!.!.!.!.!.Q.Q.!.XX!.!.!.!.Q.!.Q.!.!.XX#X-X-XXXQ.D.cXcX%X#X!.Q.Q.D.D.D.D.l ",
">X>X(.(.(.!.W.~.W.~.~.~.~.!.Q.Q.Q.Q.Q.Q.!.(.#X>X$X(.(.!.!.!.!.(.!.(.(.(.#X(.(.(.#X(.(.(.(.(.(.#X(.!.!.~.~.~.!.!.XX!.Q.Q.!.!.#X>XXX-XXX#X#XOX#X#XQ.~.~.~.Q.!.!.!.Q.Q.Q.'.'.'.'.'.:X!.!.!.!.:X:X:X!.(.(.(.(.(.!.!.!.!.!.!.!.(.(.(.~.Q.D.D.D.D.Q.Q.'.-X-X-X'.'.;X;X:X-X!.'.:X:X:X:X(.!.'.-X-X'.'.-X!.-X:X:X!.~.~.Q.~.~.Q.~.~.:X'.].:X].>X(.:X~.!.~.~.Q.'.-X-X-X;X;XD.D.F.D.D.D.D.D.!.-X'.'.'.-X'.'.Q.D.S.S.S.D.D.D.F.!.!.(.zXzX(.>X:X-X!.'.*XD.F.D.Q.;X;XD.*XF.D.;X!.~.,X!.'.~.D.D.XXW.#X!.!.].Q.'.*XD.*XD.D.D.F.D.-X;XD.XX;X;X;X;X#X#X#X#X#XXXV.D.D.D.XXD.XXXX~.!.*X<X*XS.S.S.S.S.k.k.S.S.A.A.A.A.S.S.S.S.S.S.D.S.D.S.S.F.F.~.~.F.Y.P.OXOX.X.XL.%X7X5XbXNX5X8X8X5XqXVXnX9X9XSXZXqX0X1XSXT R R s Y 1XqXDXZX9X1XUX9XjXkXnX5Xy.1X1XT /.e.G.G.A B E.E.;.G.t.Y t.G.F.d.D.D.F.D.D.D.D.F.D.D.F.D.D.F.D.;X:X,X-XD.Q.XXXXQ.(.:X,X,X:X!.:X<XvX>X~.!.:X,X].].Q.-X-XD.F.F.D.D.D.Q.D.;XD.!.(.>X).zXvXzXuX).).zX].).).$X>X>X$X$XxX).).$X$X$XuX$X:X:X].(.!.!.!.!.(.!.(.(.(.!.:X:X>X#X#X#X(.>X>X#X'.!.!.!.!.!.Q.'.(.(.'.'.!.!.'.-XD.D.D.Q.Q.D.D.D.D.D.D.D.'.Q.D.D.D.D.Q.D.S.S.S.D.;X'.Q.-XQ.Q.Q.Q.$X!.~.D.D.D.D.`.D.D.;X-XXX!.!.(.!.!.!.!.!.!.!.!.XXXX!.!.Q.D.D.S.F.F.~.!.-X-X-X-XXX#X#X#X#X#X!.!.#X(.!.!.!.XXXXXXXXXX!.!.Q.!.!.XXW.!.!.!.!.!.XXXX!.!.!.!.Q.Q.!.Q.S.S.S.S.S.D.D.Q.!.!.:XF ",
"(.(.(.(.(.(.(.#XuX$X@X$X$X>X:X:X$X$X$X).).).$XpX(.!.!.!.(.(.(.$X(.(.(.$X$X>X$X#X#X#X(.(.(.(.(.!.(.(.!.!.!.(.(.(.!.!.-X:X:X#X(.(.!.!.#X(.(.(.(.#X!.~.~.~.!.!.!.!.Q.Q.Q.'.'.'.!.!.!.~.~.~.~.!.!.!.!.!.:X:X].!.!.!.~.~.~.!.!.!.(.!.:X'.'.!.-X-X:X:X(.).(.(.#X#X:X:X:X:X:X:X:X:X:X>X:X:X:X-X!.!.Q.!.$X$X$X$X#X#X#X#X!.!.!.#XW.#X~.(.(.(.>X#X>X$X,X,X:X:X:X:X-XQ.Q.D.D.Q.Q.Q.Q.D.D.D.~.Q.~.Q.~.'.Q.!.Q.D.S.S.S.D.D.D.S.}.D.D.~.Q.XX<X'.:X-X'.;X*XD.;X#X#X~.:X:X!.~.~.'.~.!.~.D.D.D.D.=X`.`.`.;XD.F.;XQ.D.Q.~.~.Q.~.-XD.Q.D.-X-XD.Q.D.-X-XXX*X*X*XD.D.S.S.S.Z.h.S.D.D.D.D.S.S.`.`.D.D.S.S.j.S.S.S.S.S.D.D.D.S.S.j.Z.{.D.D.*X;XXX~.W.(.;X'.Q.D.;XQ.F.D.`.D.D.'.D.D.D.Q.~.~.~.Q.'.~.~._.G.w.w.E.G.G.G.~.D.F.F.d.S.D.D.Q.D.F.d.d.F.D.;X'.;X*X*X*XD.*X;XQ.`.;XQ.Q.!.].!.!.#XW.#XW.XXXX.XXX.X%X,X,X%X%X%XU.P.I.W.XXXX#X#X#X!.-X-X-X-XQ.Q.Q.(.,X'.'.D.D.~.:XzX).$X>X(.~.~.~.Q.S.S.,X-XD.D.(.$X$X$X(.:X:X].].>X>X>X>X#X(.(.(.Q.~.!.'.Q.Q.'.'.!.].].!.!.!.!.~.:X!.:X>X!.!.!.~.Q.~.~.~.~.!.:X#X!.!.~.!.!.(.(.!.W.~.~.~.~.W.!.!.$X$X).(.(.!.!.(.XX-X-X-X:X#XQ.D.XX#X#XXXS.A.`.;XF.F.D.D.D.D.*X*X*XD.D.D.Q.!.!.XXS.D.D.D.Q.'.Q.Q.!.!.Q.Q.Q.~.~.~.XX#X#X#XXX-X;X'.-X-X-X;X*XD.D.D.Q.Q.!.-X!.Q.D.D.!.!.Q.!.!.!.!.!.!.!.!.!.!.!.!.!.!.!.!.XXXXXXXX#X!.Q.Q.Q.!.!.XX#X@X$XOX.XXXXX#X#X'.Q.;XD ",
"~.~.~.~.W.W.^.OX#X(.!.Q.Q.D.D.F.W.(.(.!.!.!.'.'.~.~.!.].:X(.).).:X:X(.(.$X>X#X(.!.!.(.(.(.(.W.~.!.!.!.].:X:X(.(.).(.~.!.~.~.~.!.(.(.(.(.(.(.(.(.!.!.!.(.#X#X(.(.#X#X#X(.(.(.).).].(.(.(.!.!.!.!.XXXXXX!.!.!.#X-X'.'.'.:X:X:X].!.).).).).$X).).).:X].(.!.'.-X'.Q.!.!.!.].(.!.].>X:X:X:X!.!.!.!.(.'.:X:X!.~.~.'.-X,XQ.Q.XXXX:XQ.:X-X'.Q.Q.!.!.XX!.#X>X(.!.!.!.XXXX#X:X>X>X$X#X!.!.*X*XD.;XXXXX!.#XXXD.XX:XXXXX*XS.D.D.'.,X(.!.'.~.Q.:X'.D.S.D.D.Q.~.Q.D.;XF.'.-X-X-X#X$X,XQ.*X*XXXB.B.D.D.D.;XD.XX-XQ.-X:X,X,X!.-XQ.-XD.D.Q.Q.-XQ.(.!.Q.F.D.S.;XD.`.S.d.S.S.*XS.`.*XS.A.A.S.D.-X#X(.(.!.-X-X~.!.!.>X(.!.D.D.S.k.S.S.k.Z.A.S.D.;X-XQ.D.!.Q.D.Q.Q.D.~.!.W.(.W.$X$X$X$X>X#X#X#X(.).>X#X:X!.:X,XD.;XD.~.XX-XD.;X;X,XXXQ.D.D.XXXXQ.~.~.Q.D.D.D.!.~.~.!.^.%XXXXX~.~.D.-X'.D.Q.F.D.D.D.'.:X~.!.!.~.~.>X].].'.~.].~.~.~.].!.!.~.~.~.!.!.!.~.Q.D.D.D.D.D.D.(.~.(.:X-XXX-XQ.!.(.^.!.W.pXxX(.S.D.D.~.].>X).W.(.(.:X:X(.!.!.:X~.!.>X>XW.~.~.Q.!.>X>X:X].>X>X>X~.~.].>X(.].:XQ.'.Q.'.'.D.~.:X!.!.!.W.(.(.$X$X).$X#X!.!.:X>X>X#XuX$X(.].!.Q.!.#X!.!.!.^.^.^.!.Q.~.D.D.D.~.(.$XuXfX$X#X#X!.~.D.D.!.Q.Q.;X-XXXD.D.XXXXQ.~.Q.-X'.~.-X-X-XXXXXXX-X-XD.Q.!.!.(.!.!.!.XXQ.D.S.S.S.S.D.D.Q.!.:X$X:X:X:XXXXXXXXX!.!.!.!.Q.!.XXXXXXXX!.!.Q.Q.Q.Q.Q.!.XX#XQ.Q.XXXXXX#X#X#XQ.Q.D.D.D.D.Q.~.!.Q.-XF ",
").).(.(.(.(.(.(.).).).].].].].].$X).).(.(.(.(.>X$X>XzXzX$X).(.).(.).(.(.(.].].].(.(.].].].].].(.(.(.!.!.!.(.(.).).).).).>X>X>X:X:X:X#X!.W.W.(.).(.(.(.(.(.(.(.!.!.].].].!.!.!.!.(.(.!.!.!.'.'.-X:X>X>X>X(.(.].>X>X#X(.(.:X:X!.!.Q.!.!.!.!.!.!.-X-X'.!.(.(.(.(.(.].].].].>X$X#X#X'.'.:X~.:X].(.vX).).(.(.:X:X#X(.(.(.).).(.>XzX].-X'.~.~.Q.!.!.~.!.!.~.Q.Q.!.(.:X(.>X>X(.(.(.:X>X(.(.!.!.!.!.(.(.!.,X:X#X!.D.F.F.D.D.Q.Q.:XQ.:X~.D.D.D.Q.XX-X-XQ.Q.Q.Q.!.'.'.'.'.;X'.D.'.'.D.'.'.!.XXXXXXQ.Q.D.D.!.D.Q.Q.!.-XQ.D.D.D.*XS.S.Z.Z.A.D.D.`.S.S.d.S.A.A.A.S.S.D.D.Q.Q.*XD.S.S.D.D.F.Q.D.D.D.D.F.F.D.D.F.Q.D.~.F.D.F.S.S.S.S.S.S.D.*XXXQ.~.D.D.D.S.S.S.*XD.Q.!.~.!.W.(.#XXXXX~.~.'.F.D.Q.Q.!.!.!.!.~.~.D.F.!.!.(.~.(.#X'.:X~.~.~.!.~.Q.F.!.-X~.F.D.D.F.!.F.!.!.D.!.~.F.~.'.~.~.~.Q.:X:X].>X(.!.!.(.(.~.(.(.!.~.~.Q.!.!.!.'.'.D.d.S.j.d.F.Q.D.~.~.:X(.~.~.~.'.~.~.(.(.].).].'.D.D.F.,X'.!.!.(.:X'.!.(.).'.'.~.~.~.!.].].'.Q.~.~.!.:X:X-X>X>X,X,X-XQ.D.D.S.D.D.'.'.D.D.S.`.S.F.D.*XD.D.*X~.!.!.].!.!.Q.Q.D.D.D.Q.Q.Q.Q.Q./.^.^.).).+X+X#X:X:X#X!.!.!.Q.Q.!.!.!.Q.Q.!.!.!.D.D.D.Q.~.~.~.~.!.Q.D.D.D.D.*X'.;X;X'.'.'.'.D.D.'.Q.Q.Q.Q.Q.'.'.Q.Q.Q.Q.Q.Q.'.'.-X-XQ.Q.~.~.Q.Q.XXQ.D.D.D.Q.XX#X!.!.!.!.!.!.!.!.!.!.!.!.!.!.:X:X!.!.!.!.!.!.!.!.Q.!.!.'.!.!.!.!.Q.Q.Q.Q.!.'.'.~.^.-X'.K ",
"$X>X>X>X>X$X$X$X$X).).(.(.!.~.~.(.(.(.(.(.W.W.W.J.T.(.).).(.).).$X).).(.(.(.(.!.(.).).).(.(.(.(.(.(.#X#X:X,X,XvXvX>X(.~.~.~.~.V.D.~.~.~.~.!.#X,X,X,X,X:X:X#XXXXX(.(.).$X$X$X>X>X#X#X#X#X!.Q.~.~.~.!.(.(.(.(.(.:X(.(.(.(.].:X:X].(.(.].:X:X>X>X,X:X:X:X:X>X,X>X>X,X,X>X>X,X,X,X:X,X-X,X-X,X,X:X:X,X-X;X;X;X-X-X-X-X-X-X-X;X;X;X'.W.(.>X>X>X>X,XvX:X-X-X-X!.Q.!.!.(.#X!.!.!.!.!.!.!.Q.Q.Q.Q.Q.!.!.Y.W.#X#X#X#X-X:XD.D.D.Q.-XQ.-X-XD.D.XX,X,X:X-X-X;X-X-X-X-X-X-X;XXXXXXX,X,X:X<X,X,X,X:X:X-X-X;X;X-X;X;X-XQ.Q.D.S.D.D.S.S.A.=X=XA.A.A.*X*X*XF.S.S.A.S.S.S.D.D.D.F.F.S.D.D.*XD.D.Q.D.~.!.XX#X#X#XXX-X-XXXXXXXXXQ.D.;XQ.;XXXXX#X,X,X,X-X-X,X;XD.D.*X*XS.*X*X*X`.S.S.S.S.D.D.!.>X).cX(.#X$X$X).(.W.!.:X(.>X>X).^.).(.W.(.^.$X$X>X(.$X(.(.~.~.!.,X:X!.!.~.!.~.~.(.!.!.).>X).$XzX$X).(.:X:X:X:X:X:X,XBX].>X>X>X>X>X>X].,X-X:XXX~.,X,XBX;X<X-X:X!.:X!.!.~.!.,X>X#X$X>XvXcXvXvX].:X!.#X(.].!.~.!.!.!.(.).:X:X:X:X:X:X].(.-X:X:X,X:X(.~.~.~.D.D.D.F.D.D.*XXX#X:X>X>X>X:X-X,X:X:X:X:XXXXX:X-X-X:X:X:X#X!.!.!.!.!.Q.~.D.D.D.'.'.'.'.'.'.'.'.!.!.!.!.'.'.'.!.-XXX!.Q.~.~.Q.~.XX:X:X,X,X,X,X,X%X#XXXQ.Q.~.~.!.K.K.P.L.L.I..XXXQ.Q.Q.XXXX-X-X-X-X-XXXXXXX!.Q.Q.XX-XXXXXXXXXXXXXD.D.D.D.D.D.Q.XX#X#XXXXX#X#X#X#X#X#X#X#X#XXX:X:XXXXX#X#X#X#X#X#XXXXX:X:X:X:X:X:X,X,X-XXXXXXXXX!.OX-X-XJ ",
"F G >.Y.Y.U.W.W.%X%X$X$X$X#X#X#X#X#X#X,X,X:X#X#X%X%X>XvX>X>X>X,X$X$X#X#X(.!.!.!.W.W.W.W.W.W.U.U.L.P.C.;.;.D c c D c l l c D D D D D D c l l l l i d l D D ;.s.s.F.F.V.V.V.D.D.~.!.!.XXXXXXXXQ.Q.#X:X:X:X#X#X(.(.].].(.(.(.(.].].>X].].(.(.).(.(.XX#X:X#XXX!.!.!.~.V.V.V.V.V.V.F.P.;.F.F.;.C.C.;.b.s.s.s.s.F.F.F.F.F.F.D.D.F.C.D.~.~.~.!.!.!.!.!.,X,X,X,X-X-X-X-X-X-X-X-X-X,X,X:X;XD.D.D.D.XX;X;X<X<X,X:X:X-XQ.XX;X;XXXXXXXD.Q.Q.XXXXXXQ.C.;.F ;.;.O.O.;.O.v l c f n n n l n ;.f F F F F F F D D D h.j.j.S.S.Z.A.j.S.S.S.j.A.A.Z.S.D.*X<X<X<X-X;XXXXXXXXX:X:X#XQ.*XS.S.k.S.S.D.*XD.-X<X,X,XXX!.#XXXXX!.W.W.W.!.~.F.F.F.F.s.;.;.D D v c D n d d x D d c D D #.D D s.F.F.F.~.!.W.>XXXXX:X:X:X-X-X-X:X!.:X:X>X#X>X#X^.$X#X>X>X>X(.#XvX>X!.:X:X!.!.!.,X:X>X#X#X,X$X,X#X#X~.W.#X~.~.~.C.;.n m F n y y %.o.o.o...o.%.%.n l O.D D #.#.X.D #.s.C.F.~.~.!.D.S.j.S.j.S.D.S.~.~.,X!.-X:X!.,X<X,X,X,XvX,X>X:X$X>X,X,X,X>X#X!.#X#X%X#XOXW.W.W.V.C.F.F.;.D S S v c n M x n n b n n n v l d d k D D ;.F.C.V.V.~.'.'.-X-X:X:X>XvX!.!.(.:X:X:X>X>X^./.).$XzXzX>X>X-X-X-X-X-X-X-X,XD.D.F.F.s.#.D D k k k c l l k k v v b b ........b b v b b D ..X.;.s.F.C.V.Q.XXXXXX#X#X:X:X:X#X#X,X:X-XXXXX#X%X%X#X#X#X#X#X#X#X#XI.L.V.C.;.;.D D c c c c v v c c c c v v v v v v S S ..O.;.C.C.C.Y.V.~.B ",
";.;.;.;.;.D v k d d d l l k c v D b b S D O.D D F F O.O.F D D D l l l l l l c c k k v v v v k k ;.;.;.-.-.-.s.b.d.s.d.b.b.b.b.b.b.b.b.b.b.b.b.b.N.C.C.b.d.s.*.@.n n n n n n n n D S S D O.;.;.;.C.V.P.~.!.!.#X#X,X,X>X:X#X(.#X:X#X!.~.~.~.~.~.V.F.F.F.s.#.D S S s.s.i.;.;.>.>.G >.m y l t m l q q y g M x z B V >.G m G >.G C >.F F l l l l d d g l n F ;.C.C.C.V.V.V.V.V.~.~.C.D.C.F.F.C.D.D.D.F.s.D D ;.F v c l l c l n i D D d c f q 0 y l F c d d O.>.>.>.>.e.w.:.>.>.>.>.C d n F F F >.F g d m d m C m q f w t 7 g q 0 q u d d y F F s.D #.F.F.d.d.F.F.F.F.j.d.i.i.S.d.d.s.l D D D n l y i y l h h 8 q t h Z C C >.>.>.>.Z >.>.m G >.e.w.:.t.Z :.J J q.:.H A B j h n D v D n F F F F F F F F.F.D.~.~.~.Q.~.XX-XXX!.!.Q.~.Q.XX~.Q.Q.D.F.s.F.D D D D D D l D d n i i l d l d >.>.:.J.OX@XT.G.G G m m m m G :.A :.J.:.>.>.>.d n v n n l n d l ;.k d c f k O.k D c c d l l a D F F F F C F D D l l l l l d i i c c l d d d v D D O.;.C.C.C.C.C.l.b.b.b.b.b.b.l.b.b.b.b.a.f.l.b.s.a.s.i.+.X.S S l c D D D D i.s.F.F.F.F.F.V.V.V.~.~.D.D.F.F.s.i.-.&.#.X.D S b b v v b ..O.O.;.;.s.a.a.h.l.l.l.b.v.v.v.v.v.v.k.v.l.l.b.b.b.b.b.b.i.*.@.o.X.S v c l c v S S S S S O.D b v c c c n b b b b b b b b c b ..#.*.s.b.b.m.b.b.b.b.b.b.b.b.m.b.m.b.b.b.b.m.b.b.-.-.-.&.o.b #.#.7 ",
"+.@.*.s.s.s.s.s.C.b.b.b.b.b.b.b.b.b.;.-.-.-.-.-.@.*.s.s.s.s.s.s.s.s.s.s.s.s.d.d.s.s.s.b.b.b.b.b.s.s.s.s.s.i.i.i.s.s.s.s.p.s.@.@.i.s.p.p.p.p.s.a.*.*.p.p.p.a.a.a.h.h.h.h.f.a.a.a.C.b.b.b.b.C.V.V.b.b.b.s.;.F D D v b S b v v S X.D D D #.;.F.C.V.D.D.XXD.D.C.b.m.l.l.f.b.C.>.t.t.t.t.A z N G p p w w p p j A A Z J t.Y Z J Y Y t.r.y.y.t.J Z q.r.e.:.C m m C m g F G F F G ;.m i n n n n m >.G m >.C m V Z A A Z C :.e.:.e.:.e.>.e.J.>.q q C :.:.m u h Z t.t.w.t.t.Y J w.q.:.e.:.j :.:.Z :.r.w.z A q.A t.E.H.t.J.J.:.h J.T.E.G.J.r.w.V J G >.G F l l l d i l l l m x m x >.C :.:.>.>.z Z r.E.t.Z >.G.>.e.B :.Z :.R.E.r.E.J.r.r.:.r.J.w.:.J.T.J.>.:.C w.w.t.r.q.:.e.w.V Z :.q.:.:.q.q.q.q.w.w.:.:.l l ;.F F l n l v F v l l l l v n n D F F D l d Z q.q.t.t.R R q.A r.y.y.r.t.r.t.B t.E.E.E.E.J.w.V H J w.t.q.Y Y B G G.V J t.y.R C m >.m >.e.>.>.A q.y.E.t.Z t.q.e.e.:.q.q.Z q.e.>.;.F x z >.C.D.V.V.C.C.b.C.C.D.S.D.D.D.D.D.S.S.S.S.S.S.k.k.l.l.k.k.j.j.j.k.k.k.k.k.k.j.k.Z.Z.k.j.j.k.k.l.l.l.b.k.k.l.f.s.-.;.;.b b b n n n n n f f k v b S S ..X.o.+.=.g.b.m.n.S.k.l.j.h.h.h.h.h.h.h.j.j.h.h.h.h.h.h.j.j.j.k.k.j.j.h.h.f.f.f.a.h.l.l.l.b.b.b.b.s.s.d.d.d.d.d.d.h.a.s.s.i.i.i.i.g.g.g.g.f.f.g.g.b.b.b.l.h.a.a.a.f.f.f.f.l.l.h.h.h.l.l.h.f.a.a.a.i.s.s.s.a.d.b.a.b.k.F.l ",
"s.i.i.i.i.i.i.i.i.i.*.*.@.@.@.@.-.-.-.s.s.=.*.@.s.p.s.s.s.s.s.s.s.s.s.s.a.a.a.a.i.i.p.p.p.p.p.p.i.i.s.s.d.d.d.d.s.s.s.a.a.h.l.l.f.f.a.a.s.s.s.i.f.f.f.f.f.f.f.f.a.g.b.b.g.g.g.b.f.g.g.s.g.s.s.s.b.b.b.b.C.D.D.D.n.N.N.N.N.N.}.}.*X}.S.b.l.f.f.f.s.d.b.b.a.a.a.f.j.h.h.h.b.>.t.y.t.H.Z V Y Y A p p p a t a p j A Z t.w.H q.r.G.E.t.t.t.q.J Z Z J t.q.V N Z w.q.Z N V C N C G N p :.w.w.w.r.r.r.q.:.w.w.w.Z p j q.Z t.y.t.q.A :.A q.r.V 5 u :.w.q.w.Z Z q.t.t.Y Y y.y.Y r.r.H H V Z r.w.V Z r.r.A :.>.a G.G.G.>.>.E.t.A 3X3X3XE.E.Y.e.H J q.t.q.Z y.y.3X3X3X3XE.E.J.E.R.r.J.w.E./.>.C C :.e.J.e.C H q.Z H Z r.q.Z J.G.:.e.e.>.Y.>.Z t.q.Z :.w.:.G n m >.q.q.t.t.w.>.>.B Z t.t.y.t.q.:.q.:.:.:.:.Z :.q.G.t.t.J w.:.r.G.J.r.J.r.r.r.:.w.e.q.:.:.:.q.>.G C >.:.B H :.p r.y.y.t.t.r.r.B y.R.E.y.E.H.t.>.>.>.e.e.>.>.e.G.G.G.G.G.G.G.J.J.r.E.:.e.J.w.C x >.>.G.>.x G G Z N A q.e.:.E.r.>.>.>.V V >.b.A.l.k.k.l.l.l.k.k.j.j.j.k.k.k.h.d.k.j.j.j.j.j.k.k.j.j.k.k.v.k.j.k.k.k.j.h.j.k.k.h.k.k.k.k.k.k.k.k.b.b.b.v.l.l.l.j.Z.Z.Z.Z.Z.Z.Z.v.Z.Z.Z.v.k.k.k.j.l.l.l.l.f.f.f.f.b.b.g.g.g.g.g.h.l.l.l.l.l.h.h.f.d.j.j.j.j.l.l.l.j.j.j.h.h.h.h.h.h.h.h.h.h.h.h.h.l.l.h.h.h.h.h.l.l.l.l.h.h.h.h.h.f.f.h.h.h.l.l.l.a.h.h.h.h.f.f.h.s.d.d.d.h.h.h.h.s.d.d.d.s.s.d.d.d.h.h.d.s.d.s.i.f.j.h.i ",
"i.i.i.i.@.@.@.@.i.i.i.i.i.i.i.i.#.@.i.s.s.s.s.s.i.i.s.i.i.i.*.@.i.i.i.i.i.i.i.i.s.s.s.s.s.s.s.s.s.s.s.s.s.i.i.i.s.s.i.i.i.i.s.s.i.i.s.s.a.f.f.h.s.s.s.a.a.a.a.a.a.d.h.h.h.h.h.j.a.a.h.h.h.h.h.a.s.s.s.s.a.a.a.a.s.a.a.a.a.s.s.s.f.f.a.a.s.a.f.h.f.h.h.h.h.f.f.f.f.h.j.l.f.F.w.t.t.t.Z Z w.t.t.A B N x x x z z z V e.w.J q.H V w.G.G.e.e.e.w.J G r.t.Z N B J Y Z V H V A A H Z A Z q.t.t.t.r.r.w.>.>.>.>.>.h g >.Z J q.t.r.V q.w.q.e.N 7 j :.J q.Z V Z q.t.t.w.w.t.E.w.J H h q u J q.J B Z w.q.N q.t.p r.y.H.y.Y G.G.G /.E.G.G.J.>.>.w.w.G.y.y.t.J t.G.E.E.E.E.G.>.G.^.G.J.:.w.e.>.>.Y.Y.G G >.G :.q.e.V r.J.E.q.3XE.q.r.t.J r.q.Z e.w.q.r.e.:.w.:.Z q.J A J J Z q.q.A V :.J q.:.w.e.e.>.>.>.e.G.Z J t.t.t.q.t.q.t.y.E.y.E.t.t.t.t.t.t.Z A A Z t.w.H G e.:.N :.:.G e.w.G.G.H w.J.q.J.E.H.y.E.G.:.y.Y Y Y Y Y Y y.UXy.UX3Xy.r.q.G.E.e.J.:.e.r.>.C >.G.h m >.m G G G.C >.Y.Y.>.J.e.:.>.>.H Z >.s.k.j.k.k.k.k.j.j.k.k.k.j.j.k.k.k.k.l.b.b.v.v.l.l.l.j.l.l.l.l.l.l.j.k.l.l.l.l.h.h.l.h.j.k.k.k.k.k.k.k.k.k.k.k.v.v.S.h.h.h.j.j.j.k.k.h.h.h.l.l.l.v.v.l.l.l.l.l.l.l.l.k.k.k.k.j.j.j.j.s.s.a.a.a.f.f.f.a.a.a.a.s.s.s.s.d.d.d.d.f.f.f.a.d.d.d.d.d.f.f.f.h.h.f.a.a.a.a.a.s.s.s.s.s.s.s.s.a.a.a.a.a.a.a.a.s.s.d.s.s.s.a.d.f.h.h.h.h.h.h.h.a.f.f.f.a.a.h.h.s.a.a.s.i.s.s.i.a.d.d.i ",
"@.@.@.@.@.i.i.i.i.i.i.i.i.i.@.@.i.i.s.i.i.i.i.s.i.i.i.s.s.a.s.p.s.s.s.s.s.s.s.s.i.i.i.i.s.s.s.s.s.s.p.s.a.a.s.s.s.s.s.s.s.s.s.s.a.s.s.s.s.s.s.s.a.a.a.a.s.s.s.s.a.a.d.a.s.s.s.s.f.h.f.h.f.h.h.h.h.h.h.h.h.h.h.h.d.d.h.h.h.h.d.d.s.d.d.d.d.d.d.d.l.h.f.a.f.d.d.d.s.h.j.j.h.s.F.G.G.q.V V w.r./.q.A A Z J q.:.Z A p Z q.q.t.Z A w.y.y.y.y.t.Y Y Y w.w.J B B J Y J Y w.J A A A A p z K q.q.t.t.t.Y y.q.Z q.t.Z p j J V G q.q.w C >.w.>.h q m G H G.>.:.w.w.w.w.>.>.Y E.w.j C x x m :.:.H J :.w.>.G :.r.C G.t.R.R.q.t.r.A E.H.H.G.t.y.r.J.w.G.>.>.G J w.r.G.H.H.G.t.H.H.E.t.E.t.E.y.t.:.y.y.Z :.J.w.r.J.yXZ E.r.R.q.G.e.C >.>.>.G.>.>.>.>.w.E.r.J t.N N q.J J :.G m :.w.B V J G :.J t.t.r.w.Z Z t.y.>.>.e.J :.G >.m q.t.G.w.G.w.t.r.w.G p h B K H J q.Z Z G.:.A q.J Y q.w.E.E.w.w.G.m e.T.E.r.r.J.J.r.e.e.e.0.0.0.0.>.w.G.G.q.J.r.J.J.q.J.:.G.e.>.>.w.J.N :.r.:.q.e.3XA E.J.J.w.J.t.:.:.G H J >.b.A.k.k.Z.k.k.k.k.Z.l.l.l.l.l.k.j.j.k.k.k.k.k.k.k.k.j.j.k.k.j.k.j.j.k.k.k.k.k.j.k.Z.l.l.k.k.j.h.h.h.j.j.j.h.h.h.d.h.j.j.j.j.j.j.j.j.j.j.j.j.j.h.h.h.j.j.h.h.h.f.f.d.a.a.f.h.h.h.d.d.h.h.h.d.h.d.h.h.h.h.h.h.h.h.h.h.h.h.h.h.h.l.g.f.d.d.d.d.d.a.a.a.h.h.h.h.h.f.a.a.h.h.h.h.h.h.h.h.f.f.f.a.a.a.a.a.d.d.d.a.s.s.a.d.a.a.a.a.f.f.f.f.f.f.f.f.a.a.a.f.a.f.a.p.p.s.g.s.f.h.d.i ",
"i.i.i.i.i.i.i.i.i.i.i.i.i.i.i.i.i.i.i.i.i.i.i.i.i.i.s.s.s.s.p.p.s.s.s.s.s.s.s.s.p.p.p.p.s.s.s.s.s.s.s.s.s.s.s.s.s.s.s.s.s.s.s.s.s.s.a.a.a.a.s.s.f.f.a.a.a.f.f.f.a.a.a.f.f.f.f.f.f.f.f.f.f.f.f.f.a.a.f.f.f.f.f.f.h.h.h.f.f.f.h.h.h.h.h.h.f.f.f.f.h.h.h.h.h.h.h.h.h.h.h.h.h.f.f.f.y.t.N j G.H.t.y.w.Z B Z Z V C z p j Z B w.q.q.B Z r.G.r.t.t.w.t.Z B Z Z j q.B B q.:.q.Z p p V V p B J Y q.t.r.r.w.r.Z r.t.r.A V N H J :.w.H Z e.q.e.y d q H r.t.e.V :.:.>.:.e.Z B q.w.N e Z w.:.Z :.H V H e.w.H q.e.H e.r.E.t.r.E.:.:.J H.y.E.r.E.e.J.w.G.r.w.m r./.H.H.H.E.t.J.R.yXE.E.e.q.E.y.Y.e.J.Z Z w.T.:.>.>.T.r.t.E.@X:.G.q.e.G.w.r.J.e.J.>.w.J.r.G.:.:.h V :.Z :.w.:.j A e.V V :.:.:.:.C Z :.h e.:.:.:.e.H G.G.:.:.:.w.t.Y E.t.t.e.w.C G.N N :.H :.w.:.H V V w.w.Z Z w.:.:.J.t.G.q.J.e.j :.E.Y E.G.E.r.G.w.w.G.J j r.J.G.r.r.E.r.J.E./.E.E.e.q.e.G.e.:.e.>.C >.J.>.C :.E.q.q.E.R.Z G.e.t.>.:.y.3XV.k.v.k.k.k.k.k.k.k.k.k.k.k.k.k.k.k.k.k.k.k.k.k.k.k.k.j.j.j.j.j.j.j.j.j.j.j.j.j.j.j.j.j.j.j.j.j.j.j.j.j.j.j.j.j.j.j.h.j.j.j.j.j.j.j.j.j.j.h.h.j.j.j.j.h.h.h.h.h.h.h.h.h.h.h.f.f.f.h.h.f.f.f.f.h.h.h.f.h.h.h.h.h.h.h.h.h.h.h.h.h.h.h.h.h.h.h.h.f.f.f.f.f.f.f.f.f.f.f.f.f.f.f.f.f.f.f.f.f.f.f.f.f.a.f.f.a.a.a.a.a.a.a.a.a.a.a.a.a.a.a.a.a.a.a.s.s.s.s.s.s.s.s.s.s.s.s.s.p.h.d.i ",
"i.i.i.i.i.i.i.i.i.i.i.i.i.i.i.i.i.i.i.i.i.i.i.i.i.i.s.s.s.s.p.p.s.s.s.s.s.s.s.s.p.p.p.p.s.s.s.s.s.s.s.s.s.s.s.s.s.s.s.s.s.s.s.s.s.s.a.a.a.a.s.s.f.a.a.a.a.f.f.f.a.a.a.a.f.f.f.f.f.f.f.f.f.f.f.f.a.a.f.f.f.f.f.f.h.h.h.h.f.f.h.h.h.h.h.h.f.f.f.f.h.h.h.h.h.h.h.h.h.h.h.h.h.a.f.f.>.G.G C r.r.Y r.t.Z j p w w p h p A V A B Z Y q.J t.r.t.t.w.Y Y w.J q.:.N q.Z Y :.V :.J j j B B A A V Y w.q.w.t.t.r.Y r.t.r.A Z V A B w.w.N A w.J :.q g g H q.J q.N Z C Z B :.H B :.e.:.V :.w.H Z :.:.Z H w.w.H e.e.J e.r.J.w.w.J.w.:.J H.H.E.J.E.w.e.:.t.r.e.0.e.E.H.H.H.E.G.E.E.E.J.G.e.r.E.r.>.>.e.:.e.J.J.w.C G r.q.q.E./.:.E.q.w.r.w.e.J.w.:.:.:.J.r.e.:.:.Z :.:.Z H q.q.Z V e.V N :.Z Z Z N H B h C C N N Z j :.:.V :.:.:.t.t.G.G.J r.:.C r.H H q.:.H :.H q.Z V :.q.H :.r.Z :.G.r.t.q.r.e.V J E.y.E.r.E.r.e.q.q.G.q.V r.J.H.G.r.E.t.J.J.E.J.r.w.e.J.e.:.:.>.:.C e.e.>.C C r.J :.E.E.:.J.e.r.>.e.E.R.V.k.k.k.k.k.k.k.k.k.k.k.k.k.k.k.k.k.k.k.k.k.k.k.k.k.k.j.j.j.j.j.j.j.j.j.j.j.j.j.j.j.j.j.j.j.j.j.j.j.j.j.j.j.j.j.j.j.j.j.j.j.j.j.j.j.j.j.j.h.h.j.j.j.j.h.h.h.h.h.h.h.h.h.h.f.f.f.f.h.h.f.f.f.h.h.h.h.f.h.h.h.h.h.h.h.h.h.h.h.h.h.h.h.h.h.h.h.h.f.f.h.h.f.f.f.f.f.f.f.f.f.f.f.f.f.f.f.f.f.f.f.f.a.a.f.f.a.a.a.a.a.a.a.a.a.a.a.a.a.a.a.a.a.a.a.s.s.s.s.s.s.s.s.s.s.s.s.s.p.h.d.i ",
"i.i.i.i.i.i.i.i.i.i.i.i.i.i.i.i.i.i.i.i.i.i.i.i.i.i.s.i.s.s.p.p.s.s.s.s.s.s.s.s.s.s.p.p.s.s.s.s.s.s.s.s.s.s.s.s.s.s.s.s.s.s.s.s.a.s.a.a.a.a.a.a.f.f.a.a.a.a.f.f.f.f.f.f.f.f.f.f.f.f.f.f.f.f.f.f.a.f.f.f.f.f.f.f.h.h.h.h.f.f.h.h.h.h.h.h.h.h.h.h.h.h.h.h.h.h.h.h.h.h.h.h.h.f.a.a.d.b.;.>.:.:.J G.G.t.J A 9 w j j w N B V A V V V J t.r.r.H.G.t.t.q.:.q.:.j J q.t.:.Z J J N p A B Z j A J w.Y Y t.t.r.q.G.w.t.V Z H j V e.w.N B q.q.:.h m m >.w.q.w.Z :.:.:.V :.w.Z J w.w.q.w.w.H V J :.H J w.e.w.q.q.H w.r.E.t.w.r.w.C J E.H.H.J.E.q.e.H t.G.r.>.e.G.E.E.H.H.r.J.J.r.r.e.e.J.J.w.C >.:.:.r.J.:.:.C :.r.q.q.E.R.:.E.t.w.r.w.w.e.w.N :.Z J.G.w.:.G :.:.:.H H H H Z H e.Z N :.:.:.Z N :.h z w Z z Z H N :.:.V :.:.J w.t.G.G.J e.Z C w.w.q.w.q.H Z :.:.Z H q.w.q.:.q.Z :.r.H.t.w.e.r.:.V H.H.E.t.J.e.w.:.:.G.t.Z w.e.E.H.G.G.t.G.G.r.J.w.q.J.J.:.C >.C :.>.Y.>.:.C C e.:.:.J.E.q.J.r.r.e.r.E.T.F.k.k.k.k.k.k.k.k.k.k.k.k.k.k.k.k.k.k.k.k.k.k.k.k.k.k.j.j.j.j.j.j.j.j.j.j.j.j.j.j.j.j.j.j.j.j.j.j.j.j.j.j.j.j.j.j.j.j.j.j.j.j.j.j.j.j.h.h.h.h.h.h.h.h.h.h.h.h.h.h.h.h.h.h.h.h.f.h.h.h.f.f.h.h.h.h.f.f.h.h.h.h.h.h.h.h.h.h.h.h.h.h.h.h.h.h.h.h.h.h.h.h.f.f.f.f.f.f.f.f.f.f.f.f.f.f.f.f.d.d.f.f.a.f.d.f.a.a.a.a.a.a.a.a.a.a.a.a.a.a.a.a.a.a.s.s.s.s.s.s.s.s.s.s.s.s.s.s.p.h.d.i ",
"i.i.i.i.i.i.i.i.i.i.i.i.i.i.i.i.i.i.i.i.i.i.i.i.i.i.s.i.s.s.p.p.s.s.s.s.s.s.s.s.s.s.s.s.s.s.s.s.s.s.s.s.s.s.s.s.s.s.s.s.s.s.s.s.a.a.a.a.a.a.a.a.f.f.a.a.a.a.a.a.f.f.f.f.f.f.f.f.f.f.f.f.f.f.f.f.f.h.f.f.f.f.f.f.h.h.h.h.f.f.h.h.h.h.h.h.h.h.h.h.h.h.h.h.h.h.h.h.h.h.h.h.h.f.a.a.h.d.d.s.;.>.w.y.H.G.G.q.A A B j N V N V B J A p A J q.t.r.r.w.w.q.J :.H N Z q.t.w.:.J J B p j N J A A B Y q.q.t.t.t.q.r.w.e.Z Z H B J w.:.J :.H :.Z h g x V :.q.q.Z :.:.:.N Z Y :.H q.w.q.:.q.q.V :.q.:.J :.w.w.H :.H q.r.G.t.w.w.w.N J H.H.r.J.G.:.e.:.r.G.r.:.q.t.E.R.H.r.t.t.J.w.r.w.e.E.e.:.C >.C e.e.r.V :.z :.J.r.q.E.E.C r.e.r.e.q.w.e.:.C e.V J.G.q.:.V :.:.:.:.J V B B V q.H B H :.:.:.C :.N Z h :.Z :.H V H J V :.:.N q.t.E.t.t.q.w.:.:.e.:.J w.:.Z :.H :.:.q.w.w.J V H :.r.G.t.q.w.w.C V G.H.H.t.E.q.w.:.w.G.e.Z Z :.H.H.E.G.w.r.r.w.r.w.w.J.J.:.z >.z >.:.J.:.:.h :.G.e.:.J.J.:.r.e.r.r.r.J.Y.b.k.k.k.k.k.k.k.k.k.k.k.k.k.k.k.k.k.k.k.k.k.k.k.k.k.k.j.j.j.j.j.j.j.j.j.j.j.j.j.j.j.j.j.j.j.j.j.j.j.j.j.j.j.j.j.j.j.j.h.h.h.h.j.j.j.j.h.h.h.h.h.h.h.h.h.h.h.h.h.h.h.h.h.h.h.h.f.h.h.h.h.h.h.h.h.h.f.f.h.h.h.h.h.h.h.h.h.h.h.h.h.h.h.h.h.h.h.h.h.h.h.h.f.f.f.f.f.f.f.f.f.f.f.f.f.f.f.f.d.d.d.f.f.f.f.f.a.a.a.a.a.a.a.a.a.a.a.a.a.a.a.a.s.s.s.s.s.s.s.s.s.s.s.s.s.s.s.s.p.h.d.i ",
"i.i.i.i.i.i.i.i.i.i.i.i.i.i.i.i.i.i.i.i.i.i.i.i.i.i.i.i.s.s.p.p.s.s.s.s.s.s.s.s.s.s.s.s.s.s.s.s.s.s.s.s.s.s.s.s.s.s.s.s.s.s.s.s.a.a.a.a.a.a.a.a.f.a.a.a.a.a.a.a.f.f.f.f.f.f.f.f.f.f.f.f.f.f.f.f.f.f.f.f.f.f.f.f.f.f.f.f.h.h.f.f.h.h.h.h.h.h.h.h.h.h.h.h.h.h.h.h.h.h.h.h.h.f.f.f.h.a.h.l.s.F.G.y.t.t.G.t.Z A j p :.H j j p Z B B A Z Y q.t.q.J J t.q.q.:.H Z w.q.q.q.J J J B N B Z B A A Z q.t.t.t.w.:.w.q.w.:.V V N H q.J J q.Z J V m g h C H :.w.:.C Z Z C V q.:.Z :.w.J V J w.H q.w.:.:.:.:.:.H q.:.:.t.t.w.Y q.w.N q.H.H.t.J.r.:.>.:.G.G.r.:.Z Y H.E.E.y.r.w.J.w.J.w.w.J.w.Z m C :.T.w.J.:.:.j e.E.G.q.r.r.Z :.r.J.e.:.e.e.:.:.J.N w.e.:.:.N C C Z :.:.Z B B B J :.V V H :.:.:.:.:.Z N C Z :.H V H :.:.:.q.N q.e.G.q.r.q.w.:.H e.J N w.w.Z :.w.q.J H :.q.:.:.:.Z r.t.r.Z q.H C H E.H.t.r.J.:.q.:.e.J.r.H B :.y.H.E.G.w.w.e.w.e.e.e.r.e.:.m :.C J.:.r.:.:.q e.J.r.Z r.r.V q.r.r.y.y.Y.C.j.k.k.k.k.k.k.k.k.k.k.k.k.k.k.k.k.k.k.k.k.k.k.k.k.k.k.j.j.j.j.j.j.j.j.j.j.j.j.j.j.j.j.j.j.j.j.j.j.j.j.j.j.j.j.j.j.h.j.h.h.j.j.j.j.j.j.h.h.h.h.h.h.h.h.h.h.h.h.h.h.h.h.f.f.f.h.h.h.h.f.h.h.h.h.h.h.h.f.h.h.h.h.h.h.h.h.h.h.h.h.h.h.h.h.h.h.h.h.h.h.h.f.f.f.f.f.f.f.f.f.f.f.f.f.f.f.f.f.f.f.f.f.f.f.f.f.a.a.a.a.a.a.a.a.a.a.a.a.a.a.a.a.s.s.s.s.s.s.s.s.s.s.s.s.s.s.s.s.p.h.d.i ",
"i.i.i.i.i.i.i.i.i.i.i.i.i.i.i.i.i.i.i.i.i.i.i.i.i.i.i.i.s.s.p.p.s.s.s.s.s.s.s.s.s.s.s.s.s.s.s.s.s.s.s.s.s.s.s.s.s.s.s.s.s.s.s.s.a.a.a.a.a.a.a.a.a.a.a.a.a.a.a.a.f.f.f.f.f.f.f.f.f.f.f.f.f.f.f.f.f.f.f.f.f.f.f.f.f.f.f.f.h.h.f.f.h.h.h.h.h.h.f.h.h.h.h.h.h.h.h.h.h.h.h.h.h.h.f.f.g.s.a.h.d.d.e.y.q.Y t.t.Z A A j p z j p w j N V B Z J Y w.Y J w.w.J Z H :.J r.w.Z J J :.w.:.V V B B A A A J w.w.t.w.q.q.H :.H j Z j B w.w.Z H w.J Z :.x m G H V r.w.C C C :.H t.J Z q.e.H N H w.H :.q.:.:.q.w.q.:.w.w.:.G.G.r.w.q.w.B t.H.H.t.J.t.Z >.:.r.H.G.w.Z t.E.H.E.H.r.q.e.e.J.e.e.J.e.:.m :.w.&Xw.J.e.H N e.E.G.Z w.e.w.J G.J.e.:.w.:.C e.J.C :.w.e.:.Z C C B Z H H H H Z :.e.H N Z Z H :.V :.Z Z C :.Z w.J J e.w.:.w.V :.G.q.t.q.w.:.:.J e.H j :.w.:.:.q.:.:.:.q.q.q.:.w.J G.t.E.J w.H V w.E.H.t.G.J.V q.q.r.J.G.q.V e.y.G.E.G.e.:.e.w.e.r.e.e.e.:.C :.:.J.w.r.e.:.h J.J.G.V e.e.J w.J.G.y.y.V.S.j.j.k.k.k.k.k.k.k.k.k.k.k.k.k.k.k.k.k.k.k.k.k.k.k.k.k.j.j.j.j.j.j.j.j.j.j.j.j.j.j.j.j.j.j.j.j.j.j.j.j.j.j.j.j.j.j.j.j.h.h.h.h.h.h.h.h.h.h.h.h.h.h.h.h.h.h.h.h.h.h.h.f.f.f.f.h.h.h.h.f.h.h.h.h.h.h.f.f.h.h.h.h.h.h.h.h.h.h.h.h.h.h.h.h.h.h.h.h.h.h.f.f.f.f.f.f.f.f.f.f.f.f.f.f.f.f.f.f.f.f.f.f.f.f.f.f.a.a.a.a.a.a.a.a.a.a.a.a.a.a.a.a.s.s.s.s.s.s.p.p.s.s.s.s.s.s.s.s.p.h.d.i ",
"i.i.i.i.i.i.i.i.i.i.i.i.i.i.i.i.i.i.i.i.i.i.i.i.i.i.s.s.s.s.p.p.s.s.s.s.s.s.s.s.s.s.s.s.s.s.s.s.s.s.s.s.s.s.s.s.s.s.s.s.s.s.s.s.s.a.s.s.a.a.a.a.a.a.a.a.a.a.f.f.f.f.f.f.f.f.f.f.f.f.f.f.f.f.f.f.f.f.f.f.f.f.f.f.h.f.h.h.h.h.f.f.h.h.h.h.f.f.f.f.h.h.h.h.h.h.h.h.h.h.h.h.h.a.f.f.a.a.s.s.d.d.;.w.r.q.w.r.q.Z Z H u j V N N N N j j j A B J J H :.q.Z B V :.V r.q.Z q.J Z q.q.V N p p j j j N Z J t.w.w.q.V V Z N H V V q.w.H H r.Z C :.q x G C u :.w.N j z H V q.q.J w.e.H N H w.H H :.:.q.w.w.q.:.:.:.H J.E.G.w.w.:.C G.H.y.t.r.e.:.>.:.t.G.G.e.:.G.E.y.E.H.r.:.:.e.r.r.r.J.J.:.>.e.e.J.w.J.w.Z Z J.E.E.q.w.e.e.t.G.r.q.w.:.:.C e.J.:.Z :.r.:.:.H C B V Z J H B H :.r.:.C :.:.:.Z z Z Z Z C w.:.q.V N w.:.B :.N :.r.Z Y Y t.q.:.H e.J N :.e.:.Z :.H :.w.w.q.:.:.:.Z r.G.G.q.w.:.Z r.E.y.t.r.e.H w.q.r.G.J.e.Z G.y.t.E.G.r.:.w.>.r.r.e.e.r.:.:.:.w.:.:.J.e.H C e.r.R.:.w.w.w.r.J.G.y.y.C.k.k.l.k.k.k.k.k.k.k.k.k.k.k.k.k.k.k.k.k.k.k.k.k.k.k.k.k.j.j.j.j.j.j.j.j.j.j.j.j.j.j.j.j.j.j.j.j.j.j.j.j.j.j.j.j.j.j.j.j.h.h.h.h.h.h.h.h.h.h.h.h.h.h.h.h.h.h.h.h.h.h.f.f.f.f.h.h.h.h.f.f.f.f.h.h.h.h.h.h.h.h.h.h.h.h.h.h.h.h.h.h.h.h.h.h.h.h.h.h.f.f.f.f.f.f.f.f.f.f.f.f.f.f.f.f.f.f.f.f.f.f.d.d.f.f.f.f.a.a.a.a.a.a.a.a.a.a.a.a.a.a.a.a.s.s.s.s.s.s.p.p.s.s.s.s.s.s.s.s.p.h.d.i ",
"i.i.i.i.i.i.i.i.i.i.i.i.i.i.i.i.i.i.i.i.i.i.i.i.i.i.s.s.s.s.p.p.s.s.s.s.s.s.s.s.s.s.s.s.s.s.s.s.s.s.s.s.s.s.s.s.s.s.s.s.s.s.s.s.s.s.s.a.a.a.a.s.a.a.a.a.a.a.a.f.f.f.f.f.f.f.f.f.f.f.f.f.f.f.f.f.f.f.f.f.f.f.f.f.h.h.h.h.h.h.f.f.f.h.h.h.f.f.f.f.h.h.h.h.h.h.h.h.h.h.h.h.h.a.f.f.h.l.b.s.h.h.d.F.G.q.w.G.t.J J :.J J :.N :.Z :.z J Z A B Y J H J t.:.Z V H j q.Z w.r.Y A Z H N j a a p N j p p H q.q.t.q.N N :.V B :.J H q.:.J w.t.:.:.7 z >.G h H e.Z Z Z w.H q.e.q.w.w.Z B :.r.w.:.:.:.q.w.:.V q.:.Z A r.r.t.V w.:.C J.y.y.t.e.e.:.e.:.t.r.r.w.H G.E.Y E.E.G.w.:.e.e.r.r.J.T.>.>.J.w.Z :.J.w.:.:.J.E.R.w.w.:.w.J.r.q.q.w.:.Z :.q.r.:.V :.e.V J :.:.Z C Z H B e V V w.H V w.:.:.:.N C Z N C :.Z q.V N w.q.Z e.q.:.e.Z B r.q.r.q.V w.:.V :.e.w.:.w.:.H :.H Z J w.V V w.G.t.q.q.q.Z w.r.y.t.t.:.>.e.q.e.r.J.G.Z G.H.t.H.G.G.:.>.>.r.t.e.G.J.w.:.w.e.j :.J.w.C :.:.r.yXw.:.:.e.r.w.G.y.y.F.k.k.l.k.k.k.k.k.k.k.k.k.k.k.k.k.k.k.k.k.k.k.k.k.k.k.k.k.j.j.j.j.j.j.j.j.j.j.j.j.j.j.j.j.j.j.j.j.j.j.j.j.j.j.j.j.j.j.j.j.h.h.h.h.h.h.h.h.h.h.h.h.h.h.h.h.h.h.h.h.h.f.f.f.f.h.h.h.h.h.f.f.f.h.h.h.h.h.h.h.h.h.h.h.h.h.h.h.h.h.h.h.h.h.h.h.f.f.h.h.h.f.f.f.f.f.f.f.f.f.f.f.f.f.f.f.f.f.f.f.f.f.f.d.f.f.f.f.a.a.a.a.a.a.a.a.a.a.a.a.a.a.a.a.s.s.s.s.s.s.p.p.s.s.s.s.s.s.s.s.p.h.d.i ",
"i.i.i.i.i.i.i.i.i.i.i.i.i.i.i.i.i.i.i.i.i.i.i.i.i.i.i.i.i.i.i.s.s.s.s.s.s.s.s.s.s.s.s.s.s.s.s.s.s.s.s.s.s.s.s.s.a.a.a.a.a.a.a.a.a.a.a.a.a.a.a.a.a.a.a.a.a.f.f.f.f.f.f.f.f.f.f.f.f.f.f.f.f.f.f.f.f.f.f.f.f.f.f.f.f.f.f.f.f.f.f.f.h.h.h.h.h.h.f.f.h.h.h.h.h.h.h.h.h.h.h.h.h.f.f.f.f.f.f.f.f.f.f.f.Z t.y.Y H :.w.q.:.w.Y q.q.V H B H J V V Z V J Z N :.N w.:.p J V w.:.q.q.J A j N h g q u h z z z Z J t.q.e.:.:.C h H w.:.V H q.J :.C m d g C Z :.V e.w.C C :.H q.J J Z J.H N :.:.J q.w.w.q.q.w.t.J t.Z Z w.e.w.J e.q.Z E.G.t.G.G.e.Z J.:.e.G.H.t.C G.R.H.H.E.t.t.e.e.G.G.w.J.T.e.>.C e.r.e.w.J.C >.e.r.hXr.V H >.J.:.e.e.r.>.e.C >.e.:.:.w.q.V V H H H H Z V N N N V Z V B Z :.V Z C C C C Z C C V N H r.e.V V e.:.:.:.w.e.e.w.q.H :.w.j :.:.:.:.q.:.:.q.w.q.q.q.J N w.e.r.H J :.N E.t.G.t.E.e.:.r.r.q.E.G.J.B e.E.H.t.E.G.q.q.e.r.t.q.J.J.>.:.C :.:.e.J e.H :.e.y.hXJ.z G >.w.q.y.G.C.v.Z.k.k.j.k.k.k.k.k.k.k.k.k.k.k.k.k.k.k.k.k.k.k.k.k.k.k.k.j.j.j.j.j.j.j.j.j.j.j.j.j.j.j.j.j.j.j.j.j.j.j.j.j.j.h.h.j.j.j.j.h.h.h.h.h.h.h.h.h.h.h.h.h.h.h.h.h.h.f.f.f.f.h.h.h.h.h.f.f.f.h.h.h.h.h.f.f.f.f.h.h.h.h.h.h.h.h.h.f.f.f.f.f.f.f.f.f.f.f.f.h.h.f.f.a.a.a.a.f.f.f.f.a.a.a.a.a.a.a.a.a.a.a.a.a.a.a.a.s.s.s.s.s.s.s.s.a.a.a.s.s.s.s.s.s.s.s.s.s.s.s.s.p.p.p.p.p.p.s.s.s.d.d.i ",
"i.i.i.@.@.@.i.i.i.i.i.i.i.i.i.i.i.i.i.i.i.i.i.i.i.i.i.i.i.i.s.s.s.s.s.s.s.s.s.s.s.s.s.s.s.s.s.s.s.s.p.s.s.s.s.s.a.a.a.a.a.a.a.a.a.a.a.a.a.a.a.a.a.a.a.a.a.a.f.f.f.f.f.f.f.f.f.f.f.f.f.f.f.f.f.f.f.f.f.f.h.h.f.f.f.f.f.h.f.f.f.f.h.h.h.h.h.h.f.f.h.h.h.h.h.h.h.h.h.h.h.h.h.h.f.f.a.f.f.f.f.f.f.f.G.r.q.Z w.G.q.A m Z Z q.q.Z Z q.H J V Z Z V Z j V V j w.e.N H :.H J q.w.q.Z V V C z h h j h p j Z J e.q.w.:.w.w.h z H H V J q.J h j m g y x N :.V H V z :.q.H J J V B e.V h C Z e.q.q.w.e.w.q.q.q.G.G.q.w.w.J J w.J Z G.t.r.r.G.r.H e.w.w.G.G.t.Z r.E.H.E.R.r.r.e.w.J.r.e.e.J.>.>.z :.r.q.w.e.w.:.:.t.E.E.J :.>.J.:.w.:.:.:.e.:.:.e.:.:.w.w.Z Z V C Z H H V j h N V H V N H :.V C C C Z :.:.:.H :.V J e.w.V V H w.:.Z :.w.r.e.q.H :.>.z :.:.:.:.J w.w.w.:.J q.e.J.q.w.w.q.H w.r.B G.t.r.r.E.r.:.e.r.J E.G.G.Z q.H.H.r.E.G.q.t.w.J.G.w.r.r.:.:.x V :.w.:.:.w.:.:.J R.J.:.:.w.r.t.r.Y.b.k.v.k.k.j.k.k.k.k.k.k.k.k.k.k.k.k.k.k.k.k.k.k.k.k.k.k.k.k.j.j.j.j.j.j.j.j.j.j.j.j.j.j.j.j.j.j.j.j.j.j.j.j.j.j.h.h.j.j.j.j.h.h.h.h.h.h.h.h.h.h.h.h.h.h.h.h.h.h.f.f.f.f.h.h.h.h.f.f.f.f.h.h.h.h.f.f.f.f.f.h.h.h.h.h.h.h.h.h.f.f.f.f.f.f.f.f.f.f.f.f.h.h.f.f.a.a.a.a.f.f.f.f.a.a.a.a.a.a.a.f.a.a.a.a.a.a.a.a.s.s.s.s.s.s.s.s.a.a.a.s.s.s.s.s.s.s.s.s.s.s.s.s.p.p.p.p.s.p.s.s.s.d.s.i ",
"i.@.i.@.@.@.i.i.i.i.i.i.i.i.i.i.i.i.i.i.i.i.i.i.i.i.i.i.i.i.i.i.s.s.s.s.s.s.s.s.s.s.s.s.s.s.s.s.s.s.s.s.s.s.s.s.a.a.a.a.a.a.a.a.a.a.a.a.a.a.a.a.f.f.a.a.a.a.a.a.f.f.f.f.f.f.f.f.f.f.f.f.f.f.f.f.f.f.f.f.f.h.f.f.f.f.f.h.h.h.f.f.f.f.f.f.h.f.f.f.h.h.h.h.h.h.h.h.h.h.h.h.h.h.f.f.a.a.a.f.f.f.f.f.>.w.q.Z H :.H j g N Z A N z j J q.q.Z J J H H j B p p Z :.Z N N B H w.w.q.:.:.H >.C z C N p u h A Z q.Z Z N V V C C Z H H :.q.J V C >.m g j z H q.Z h h C :.:.w.q.B V w.w.B :.:.e.:.H :.w.J H J q.q.w.H w.J.J Z w.Z J t.t.G.t.G.r.H :.w.q.G.r.t.N q.G.y.H.E.r.t.r.w.E.E.J.w.J.>.:.C N J.w.w.:.r.:.:.q.r.R.w.w.>.J.:.e.:.:.:.e.w.C >.:.:.q.e.q.Z :.H C B B C V V B Z :.Z B J :.C C C C C Z Z H :.N j N H q.:.J J :.C N V w.r.e.q.:.H w.V H w.w.J V :.w.J V V :.:.e.q.q.r.q.:.:.w.J w.t.r.r.r.G.:.H G.Z G.r.t.H Z y.H.G.G.G.w.e.q.G.G.q.w.>.:.>.x z e.:.:.V e.>.>.Z E.E.r.:.:.t.t.C.F.l.k.k.k.j.k.k.k.k.k.k.k.k.k.k.k.k.k.k.k.k.k.k.k.k.k.k.k.k.k.j.j.j.j.j.j.j.j.j.j.j.j.j.j.j.j.j.j.j.j.j.j.j.j.j.h.h.h.h.h.h.h.h.h.h.h.h.h.h.h.h.h.h.h.h.h.h.h.h.h.h.f.h.h.h.h.h.h.h.h.f.h.h.h.h.f.f.f.f.f.h.h.h.h.h.h.h.h.h.h.f.f.f.f.f.f.f.f.f.f.a.a.f.f.f.f.a.a.a.a.a.a.a.a.a.a.f.f.a.f.f.f.a.a.a.a.a.a.a.a.s.s.s.s.a.a.s.s.a.a.s.s.s.s.s.s.s.s.s.s.s.s.s.s.s.s.s.s.s.s.s.s.s.s.d.i ",
"i.i.i.i.i.i.i.i.i.i.i.i.i.i.i.i.i.i.i.i.i.i.i.i.i.i.i.i.i.i.i.i.s.s.s.s.s.s.s.s.s.s.s.s.s.s.s.s.s.s.s.s.s.s.s.s.a.a.a.a.a.a.a.a.a.a.a.a.a.a.a.a.f.f.f.a.a.a.a.a.f.f.f.f.f.f.f.f.f.f.f.f.f.f.f.f.f.f.f.f.f.f.f.f.f.f.f.h.h.f.f.f.f.f.f.f.h.h.f.f.h.h.h.h.h.h.h.h.h.h.h.h.h.f.a.f.a.a.f.f.f.f.f.f.;.G.G.t.J J :.:.m :.t.A u m j J :.w.H J J H J V V V J B H r.Z j j H w.w.q.:.:.H :.V C C C z j j A V w.J :.N V N Z H :.Z V q.w.J :.Z C g q h h A q.H B N C C J t.J A V H w.N :.:.J V V H V j z G V j :.N :.J.J H w.Z q.r.t.E.t.r.e.B N w.:.G.r.y.C Z t.y.H.H.t.w.r.q.E.G.J.:.r.:.>.:.C :.e.w.Z w.e.w.q.t.R.r.:.:.:.C w.:.:.:.e.:.C :.w.:.:.e.w.Z :.:.B N B Z H :.H :.w.J V :.:.C N C C V C C C :.C B N C :.:.H N :.C N Z e.G.r.q.w.H w.J V :.q.Z V G V j j V V z V Z V G.q.q.J H w.t.t.H.t.t.r.Z B G.Z r.G.t.q.C t.H.G.r.t.w.r.:.G.J.w.w.>.:.>.C z :.:.:.V :.>.>.J r.J.r.Z A w.:.F.l.k.k.k.j.k.k.k.k.k.k.k.k.k.k.k.k.k.k.k.k.k.k.k.k.k.k.k.k.k.k.j.j.j.j.j.j.j.j.j.j.j.j.j.j.j.j.j.j.j.j.j.j.j.h.h.h.h.h.h.h.h.h.h.h.h.h.h.h.h.h.h.h.h.h.h.h.h.h.h.h.f.f.h.h.h.h.h.h.h.h.f.h.h.h.h.f.f.f.f.h.h.h.h.h.h.f.f.h.h.h.f.f.f.f.f.f.f.f.f.f.a.a.f.f.f.f.a.a.a.a.a.a.a.a.f.f.f.f.f.f.f.f.a.a.a.a.a.a.a.a.s.s.s.s.a.a.s.s.s.s.s.s.s.s.s.s.s.s.s.s.s.s.s.s.s.s.s.s.s.s.s.s.p.d.d.i ",
"@.i.i.i.i.@.i.i.i.i.i.i.i.i.i.i.i.i.i.i.i.i.i.i.i.i.i.i.i.s.s.i.s.s.s.s.s.s.s.s.s.s.s.s.s.s.s.s.s.s.s.s.s.s.s.s.a.a.a.a.a.a.a.a.a.a.a.a.a.a.a.a.f.f.a.a.a.a.a.a.f.f.f.f.f.f.f.f.f.f.f.f.f.f.f.f.h.h.f.f.f.f.f.f.f.f.f.f.h.f.f.f.h.h.h.f.f.f.h.h.h.h.h.h.h.h.h.h.h.h.h.f.f.a.f.f.f.f.f.f.f.f.f.f.;.>.:.Z B V j w M C t.H j x h q.J q.H Z V V :.J Z H w.B V e.V j j H q.q.J :.:.Z z V H C V H G z p p H H w.:.:.Z z V H N j :.r.q.J V C g g m N Z Z V H w.:.H Z H Y V J H :.N C :.:.Z Z H N p h N N N e.V j :.C :.q.Z q.r.t.E.t.t.e.C h >.:.e.r.y.:.H t.H.H.H.r.r.J.w.E.G.E.q.J.:.e.>.C j e.e.:.V >.w.:.w.r.J.:.:.w.:.e.e.w.:.e.:.C >.w.:.:.e.e.Z C C C Z H Z C C H :.:.:.Z :.:.H C Z :.:.Z V Z H :.J H Z :.:.H N :.:.Z :.e.G.r.e.w.J w.q.V :.:.H C G N h h C N h H H A w.H J q.:.w.r.t.E.w.r.e.:.j G.Z t.G.e.w.C Y H.H.r.t.e.r.:.J.E.r.e.e.>.>.>.m z :.q.:.C >.>.:.:.w.r.:.Z e.>.l.k.k.k.k.l.j.j.k.k.k.k.k.k.k.k.k.k.k.k.k.k.k.k.k.k.k.k.k.k.k.k.j.j.j.j.j.j.j.j.j.j.j.j.j.j.j.j.j.j.h.j.j.j.j.h.h.h.h.h.h.h.h.h.h.h.h.h.h.h.h.h.h.h.h.h.h.h.h.h.h.h.h.h.h.f.f.f.f.f.f.h.h.h.h.f.h.h.f.f.f.f.h.h.h.f.f.f.h.h.h.h.f.f.f.f.f.f.f.f.f.f.f.f.f.f.f.f.a.a.a.a.a.a.a.a.a.a.a.f.f.f.f.f.a.a.a.a.a.a.a.a.s.s.s.s.a.s.s.s.s.s.s.s.s.p.p.p.s.s.s.s.s.s.s.s.s.s.s.s.s.s.s.s.p.s.s.i ",
"i.i.i.i.@.@.i.i.i.i.i.i.i.i.i.i.i.i.i.i.i.i.i.i.i.i.i.i.i.s.s.s.s.s.s.s.s.p.s.s.s.s.s.s.s.s.s.s.s.s.s.s.s.s.s.s.a.a.a.a.a.a.a.a.a.a.a.a.a.a.a.a.f.f.a.a.a.a.a.a.f.f.f.f.f.f.f.f.f.f.f.f.f.f.f.f.f.h.f.f.h.f.f.f.f.f.f.f.f.f.f.f.h.h.h.h.f.f.f.h.h.h.h.h.h.h.h.h.h.h.h.f.h.a.f.f.f.f.f.f.f.f.f.f.b.F.>.Y q.:.C q q w B J G g u t.:.w.J H V B :.J Z N H V V H A B N G J J H H Z C u V J V V w.:.N p u j j :.H :.Z C :.:.N j H w.J V Z >.:.m C Z q.H N B :.:.:.J B J Z :.J w.H C w.e.:.H H H C z z H Z e.Z j :.J :.:.V Z r.r.E.t.t.e.:.N :.:.q.G.t.w.Z r.H.H.H.r.G.E.t.E.G.E.r.J.:.e.e.:.g e.J.r.Z >.>.>.>.:.J.:.e.J.:.r.e.:.:.e.>.:.:.e.:.:.w.e.:.C C Z Z Z Z Z Z Z C H :.Z H :.J C Z :.:.Z V C C G G V C H :.:.V :.:.C V Z :.w.w.J J w.w.V :.H :.C :.:.C j j C V :.:.N :.H Z w.H J r.q.E.q.r.w.w.j w.H q.G.e.w.V Y H.H.G.r.r.J.w.t.G.r.r.e.:.>.>.C h >.J.r.C >.>.>.:.q.r.w.>.C.b.k.k.k.k.k.l.j.k.k.k.k.k.k.k.k.k.k.k.k.k.k.k.k.k.k.k.k.k.k.k.k.k.j.j.j.j.j.j.l.j.j.j.j.j.j.j.j.j.j.j.j.j.j.j.j.j.h.h.h.h.h.h.h.h.h.h.h.h.h.h.h.h.h.h.h.h.h.h.h.h.f.h.h.h.h.h.f.f.f.f.f.h.h.h.h.f.h.h.f.h.f.f.h.h.a.a.a.a.f.f.f.f.f.f.f.f.f.f.f.f.a.a.a.a.f.f.a.a.a.a.a.a.a.a.f.a.a.a.a.f.f.f.f.f.a.a.a.a.a.a.a.a.s.s.s.a.s.s.s.s.s.s.s.s.s.p.s.s.s.s.s.s.p.p.p.p.s.s.s.s.s.s.s.s.p.s.d.i ",
"i.i.i.i.@.i.i.i.i.i.i.i.i.i.i.i.i.i.i.i.i.i.i.i.i.i.i.i.i.s.s.s.s.s.s.s.p.p.p.p.s.s.s.s.s.s.s.s.s.s.s.s.s.s.s.s.a.a.a.a.a.a.a.a.a.a.a.a.a.a.a.a.f.a.a.a.f.f.f.f.f.f.f.f.f.f.f.f.f.f.f.f.f.f.f.f.f.f.f.f.h.f.f.f.f.f.h.h.f.f.f.f.h.h.h.h.f.f.h.h.h.h.h.h.h.h.h.h.h.h.h.f.h.f.f.f.f.f.f.f.f.f.f.f.s.s.>.Y Z V z g m A A J >.x N w.J w.J J J H :.H :.H :.:.J J Z :.z N V J J H C N j Z J V Z :.:.V G j A j :.H :.:.:.:.:.:.V Z :.J V Z :.m j z z V J N N C C :.q.J B A B Z :.:.z :.w.q.:.:.:.:.G m :.:.:.H Z e.e.:.q.Z B r.r.r.t.t.r.:.C :.:.J J.t.w.V t.H.y.y.r.J.G.t.r.y.G.J.J.Z e.e.:.m >.J.J.:.:.m >.>.>.e.>.>.e.:.:.Z C N :.:.:.:.w.w.:.q.r.q.:.:.Z C N C :.:.H B V :.H C Z H C C C Z Z V C C :.G B N V G C h Z C N N V H :.:.Z q.w.w.Z J V w.H :.:.:.C N C :.J J B q.w.Z w.B V G.t.G.w.t.w.w.z :.J J G.e.:.Z Y H.G.r.r.r.J.r.q.t.r.J.e.:.>.>.>.h Z J.e.:.>.m >.:.:.q.>.;.b.h.k.k.k.k.l.l.k.k.k.k.k.k.k.k.k.k.k.k.k.k.k.k.k.k.k.k.k.k.k.k.k.k.l.l.j.j.j.j.j.j.j.j.j.j.j.j.j.j.j.j.j.j.j.j.j.j.h.h.h.h.h.h.h.h.h.h.h.h.h.h.h.h.h.h.h.h.h.h.h.h.f.f.h.h.h.h.f.f.f.f.h.h.h.h.f.f.h.h.h.h.f.h.h.h.f.f.a.a.f.f.f.f.f.f.f.f.f.f.f.f.a.a.a.a.f.f.a.a.a.a.a.a.f.f.f.f.a.a.a.a.f.f.a.a.a.a.a.a.a.a.a.a.s.s.a.a.s.s.s.s.s.s.s.s.s.s.s.s.s.s.s.s.s.s.p.p.s.s.s.s.s.s.s.s.i.s.s.i ",
"i.i.i.i.@.i.i.i.i.i.i.i.i.i.i.i.i.i.i.i.i.i.i.i.i.i.i.i.i.s.s.s.s.s.s.s.p.p.p.p.s.s.s.s.s.s.s.s.s.s.s.s.s.s.s.s.a.a.a.a.s.a.a.a.a.a.a.a.a.a.a.a.a.a.a.a.f.f.f.f.f.f.f.f.f.f.f.f.f.f.f.f.f.f.f.f.f.f.f.f.h.h.f.f.f.f.h.f.f.f.f.f.h.h.h.h.f.f.h.h.h.h.h.h.h.h.h.h.h.h.h.f.h.a.f.f.f.f.f.f.f.f.f.f.j.b.>.q.J Z z g :.q.A p h x Z A Z J H J :.J J B H q.:.Z V J :.V z j B J :.H C N V H :.H H :.:.H V p j j J Z :.Z :.C Z w.:.H :.q.w.Z C j m :.Z Z V B H :.z C q.:.J H Z :.w.G.N :.V q.q.:.C H :.G Z :.:.:.C :.r.:.r.q.B G.r.t.t.t.e.:.H :.:.H E.t.w.N t.H.y.t.r.E.E.J.E.E.E.4XE.:.w.e.>.C m e.q.:.m M 0.m m >.>.m J.:.:.:.Z C e.>.:.:.:.w.H :.r.w.Z :.:.Z C N C Z :.C Z q.H N B Z C C Z H :.:.V C C j p j G :.:.V C N V H w.e.w.w.V t.t.w.Z J A w.:.H Z H H Z Z Z J J B J t.H J.J B G.r.t.t.q.w.w.B H :.J r.e.Z Z Y t.t.r.r.t.J.G.r.J.J.T.J.C >.>.>.h j e.:.:.m M m C j A C ;.b.Z.l.l.j.l.l.l.k.k.k.k.k.k.k.k.k.k.k.k.k.k.k.k.k.k.k.k.k.k.k.k.k.k.j.j.j.j.j.j.l.j.j.j.j.j.j.j.j.j.j.j.j.j.j.j.j.j.h.h.h.h.h.h.h.h.h.h.h.h.h.h.h.h.h.h.h.h.h.h.h.h.f.f.h.h.h.h.f.f.f.h.h.h.h.h.f.f.h.h.h.h.f.h.h.h.f.f.f.a.f.f.f.f.f.f.f.f.f.f.f.f.a.a.a.a.f.f.a.a.f.f.a.a.a.f.f.f.a.a.a.a.a.f.a.a.a.a.a.a.a.a.a.a.s.s.a.s.s.s.s.s.s.s.s.p.s.s.s.s.s.s.s.s.s.p.p.p.s.s.s.s.s.s.s.s.i.s.s.i ",
"i.i.i.@.i.i.i.i.i.i.i.i.i.i.i.i.i.i.i.i.i.i.i.i.i.i.i.i.i.i.i.i.i.i.i.i.i.i.i.i.s.s.s.s.p.p.s.s.s.s.s.a.a.a.a.a.s.a.a.a.a.a.a.a.a.a.a.a.a.a.a.a.a.a.a.a.f.f.f.f.a.a.a.a.f.f.f.f.f.f.f.f.f.f.f.f.f.f.h.h.f.f.f.f.f.f.f.f.f.f.f.f.h.h.h.f.f.f.h.h.h.h.h.h.h.h.h.h.h.h.h.f.f.f.f.f.a.a.a.a.f.f.f.f.f.f.d.;.:.J Z z N N J V J N Z V V V Z H Z Z Z Z V w.w.V N J w.:.C h H :.V H :.:.H H N j N :.:.N p j h i m :.Y A B V V Z J J J H q.:.Z Z Z Z Z Z Z N J H Z J V V w.Z Z w.r.w.J J q.H J V :.N H :.J :.e.w.Z Z :.q.B :.B :.e.H Y t.w.e.V j :.w.w.J.w.V Z G.E.G.t.H.r.t.H.3XR./.E.m e.r.N z C r.q.w.m M 0.m >.:.>.m q.e.:.>.j C >.e.w.:.:.V :.V :.e.:.J H :.J H H :.:.:.H J J Z V Z N V Z C V V V V H N j V :.:.:.:.C H B N H :.:.r.q.q.w.w.q.H Z H J Z V Z Z V Z :.w.t.B J q.q.N q.V w.:.Z w.t.Y t.C j H J :.r.:.C Z r.r.t.r.r.w.e.y.J.E.E.J.z >.>.C j O.>.:.J 0.M b ..o.=.g.l.l.l.k.k.k.k.k.k.k.k.k.k.k.k.k.k.k.k.j.j.j.j.j.j.j.j.j.j.k.k.j.j.j.j.j.j.j.j.j.j.j.j.j.j.j.j.j.j.j.j.j.j.h.j.h.h.h.h.h.h.h.h.h.h.h.h.h.h.h.h.h.h.h.h.h.h.h.h.h.h.h.h.f.f.h.h.h.f.f.f.f.f.f.h.h.h.f.f.f.f.f.f.f.f.h.h.f.f.f.f.f.f.f.f.a.a.f.f.f.f.a.a.f.f.a.a.a.a.f.f.f.f.f.f.f.f.f.f.a.a.a.a.a.a.s.s.s.s.s.s.s.s.s.s.s.s.s.s.s.s.s.s.s.s.p.p.s.s.i.i.i.i.i.i.i.i.i.i.i.s.i.i.i.i.i.i.-.s.s.i ",
"i.i.i.@.i.i.i.i.i.i.i.i.i.i.i.i.i.i.i.i.i.i.i.i.i.i.i.i.i.i.i.i.i.i.i.i.i.i.i.i.s.s.s.s.p.p.s.s.s.s.s.a.a.a.a.a.a.a.a.a.a.a.a.a.a.a.a.a.a.a.a.a.a.a.a.a.f.f.f.a.a.a.a.a.f.f.f.f.f.f.f.f.f.f.f.f.f.f.h.f.f.f.f.h.f.f.f.f.f.f.h.f.h.h.h.h.f.f.h.h.h.h.h.h.h.h.h.h.h.h.h.f.f.f.f.f.a.a.a.a.f.f.f.f.a.h.b.F.>.Z A j A A V N H B H H B B B V Z H H H H H J q.:.H J w.Z B :.:.V Z Z Z N H J Z H :.J N p p p t h H J B V B V Z J J J J Z H :.Z Z Z Z Z V B q.:.V Z Z J :.V N :.w.q.J H w.J :.Z :.B Z Z Z Z :.J Z J w.q.H t.J q.w.Z q.r.r.r.Z N :.:.J r.w.V Z r.E.E.G.H.R.E.R.5XR.yXT.>.q.w.:.C >.r.e.w.O.m 0.m C m >.m :.:.:.>.j C :.:.e.q.:.Z :.V :.r.q.J Z Z Z Z J :.H Z Z H H V V Z V Z H Z Z H H V H V A B H :.:.:.C Z C C H H H J J J q.q.:.H Z V q.J Z Z Z C C Z B J A J q.q.V t.Z w.:.Z q.w.w.t.G j Z V H e.:.C N e.G.G.E.E.G.E.E.R.R.@XT.C :.C >.m m :.q.J O.M g.g.l.l.l.j.j.h.k.k.k.k.k.k.k.k.k.k.k.k.k.k.k.k.j.j.j.j.j.j.j.j.j.k.k.k.j.j.j.j.j.j.j.j.j.j.j.j.j.j.j.j.j.j.j.j.j.j.j.j.h.h.h.h.h.h.h.h.h.h.h.h.h.h.h.h.h.h.h.h.h.h.h.h.h.h.h.h.f.f.h.h.h.h.f.f.f.f.f.h.h.h.f.h.f.f.f.f.f.h.h.h.f.f.f.f.f.f.f.f.a.a.f.f.f.f.a.a.f.f.f.a.a.a.f.f.f.f.f.f.f.f.f.f.a.a.a.a.a.a.s.s.s.s.s.s.s.s.s.s.s.s.s.s.s.s.s.s.s.s.p.p.s.s.i.i.i.i.i.i.i.i.i.i.i.i.i.i.i.i.i.i.-.s.d.i ",
"i.i.@.@.i.i.i.i.i.i.i.i.i.i.i.i.i.i.i.i.i.i.i.i.i.i.i.i.i.i.i.i.i.i.i.i.i.i.i.i.s.s.s.s.p.p.s.s.s.s.s.a.a.a.a.a.a.a.a.a.a.a.a.a.a.a.a.a.a.a.a.a.f.f.a.a.f.a.a.a.a.a.a.a.a.a.a.a.f.f.f.f.f.f.f.f.f.f.f.f.f.f.h.h.h.f.f.f.f.f.h.h.h.h.h.h.f.f.h.h.h.h.h.h.h.h.h.h.h.h.h.f.f.f.f.f.a.a.a.a.a.a.a.a.f.a.d.b.;.C A B N N V B H V J J Z V B B V Z Z Z J H :.e.w.Z V :.H H e.q.Z :.Z B V :.:.V N V V N B N h u u j B B B B B Z Z J J J Z :.:.Z V Z :.H :.B Z Z H q.J Z H A j Z q.:.H Z w.:.:.H :.V Z Z H Z Z Z Z w.r.q.Z w.q.q.q.J t.H.G.G.q.Z :.:.Z r.w.V V t.E.E.E.E.R.E.H.E.w.G.w.x H :.:.C :.:.e.:.>.m m m m m :.C C :.:.>.j C C :.w.q.:.q.q.:.J G.w.:.H H Z V Z H V V H H Z V V V Z H H H Z H Z V J V B V Z H J :.C N V H G H J H Z J J :.J H C B q.:.J Z C Z V C N Z V q.e.q.V w.:.:.:.:.:.t.G.G.>.V H V Z w.:.C h w.J.E.E.G.G.J.E.G.q.w.Z z C >.>.m j V q.J m b Z.v.k.k.k.k.k.k.k.k.k.k.k.k.k.k.k.k.k.k.k.k.k.k.j.j.j.j.j.j.j.j.j.j.k.k.j.j.j.j.j.j.j.j.j.j.j.j.j.j.j.j.j.j.j.j.j.j.h.h.h.h.h.h.h.h.h.h.h.h.h.h.h.h.h.h.h.h.h.h.h.h.h.h.h.h.h.h.h.h.h.h.h.h.f.f.f.f.h.h.h.h.h.h.f.f.f.f.f.f.f.f.f.f.f.f.f.f.f.f.a.a.a.a.a.a.a.a.f.f.a.a.a.a.f.f.f.a.a.a.a.a.a.a.a.a.a.a.a.s.s.s.s.s.s.s.s.s.s.s.s.s.s.s.s.s.s.s.s.s.p.p.s.s.s.s.i.i.i.i.i.i.s.s.i.i.i.i.i.i.i.i.-.s.d.i ",
"i.i.@.i.i.i.i.@.i.i.i.i.i.i.i.i.i.i.i.i.i.i.i.i.i.i.i.i.i.i.i.i.i.i.i.i.i.i.i.i.s.s.s.s.p.p.s.s.a.s.s.a.a.a.a.a.a.a.a.a.a.a.a.a.a.a.a.a.a.a.a.a.f.f.a.a.a.a.a.a.a.a.a.a.a.a.a.a.f.f.f.f.f.f.f.f.f.f.f.f.f.f.h.f.h.h.f.f.f.f.f.h.h.h.h.h.f.f.h.h.h.h.h.h.h.h.h.h.h.h.h.f.f.f.f.f.a.a.a.a.a.a.a.a.h.a.a.d.;.F Z t.H H H Z H Z H H J H Z V V B N N V H :.:.J H Z V V Z q.J H q.Z N Z :.:.V N V V V H V z p u p j V A A B Z Z H H H :.q.:.V N Z :.q.q.B Z Z H w.H V Z A A V J H Z Z J H H Z H Z :.:.q.:.H V Z w.r.:.Z :.q.:.:.J w.t.G.r.:.:.q.:.J r.:.V B w.E.E.E.E.r.G.r.r.Z r.w.>.q.:.e.C m C r.w.:.h m x m j H C Z :.:.:.j C :.:.:.q.:.r.e.w.H r.:.:.:.:.J H H H V H :.:.Z B N V H H H V V C N N J H H H H H J :.V C H :.H J q.J Z J J J H H V z H J J C C H :.V Z Z V w.e.:.V :.:.:.:.H J e.G.e.>.:.J V Z w.:.z j :.G.G.r.t.r.J.w.w.H e.:.:.>.>.>.C j Z t.q.m b j.j.j.h.j.k.k.k.k.k.k.k.k.k.k.k.k.k.k.k.k.k.k.k.j.j.j.j.j.j.j.j.j.j.k.k.j.j.j.j.l.l.l.l.l.l.l.l.j.j.j.j.h.h.h.h.j.j.h.h.h.h.h.h.h.h.h.h.h.h.h.h.h.h.h.h.h.h.h.h.h.h.h.h.h.h.h.h.h.h.h.h.h.h.f.f.f.f.h.h.h.h.h.h.f.f.f.f.f.f.f.f.f.f.f.f.f.f.f.f.a.a.a.a.a.a.a.a.a.f.a.a.a.a.f.f.f.f.a.a.a.a.a.a.a.a.a.a.s.s.s.s.s.s.s.s.s.s.s.s.s.s.s.s.s.s.s.s.s.s.p.p.s.s.s.s.i.i.i.i.i.i.i.i.i.i.i.i.i.i.i.i.-.s.d.i ",
"i.i.i.i.i.i.i.i.i.i.i.i.i.i.i.i.i.i.i.i.i.i.i.i.i.i.i.i.i.i.i.i.i.s.i.i.i.i.i.i.s.s.s.s.s.s.s.s.a.a.a.a.a.a.a.a.a.a.a.a.a.a.a.a.a.a.a.a.a.a.a.a.f.f.a.a.a.a.a.a.a.a.a.a.a.a.a.a.f.f.f.f.f.f.f.f.f.f.f.f.f.f.f.f.f.f.f.f.f.f.f.f.f.f.f.f.h.h.f.f.h.h.h.h.h.h.h.h.h.h.h.f.h.f.f.f.a.a.a.a.a.a.a.a.h.s.a.h.s.F Z t.J :.J J V Z Z H H H J H V N N N A B V Z H J J H Z V Z A Z :.V B N H :.:.:.q.:.Z B j h p u p z V j A B Z Z Z V V H :.J V N Z q.w.Z V w.:.V V V H V B B Z Z V V Z V V V V V Z :.:.J H H B N J q.H :.:.:.:.Z H J q.r.t.:.:.:.:.q.r.w.:.J w.r.G.H.E.J.E.E.J.q.e.e.>.e.e.J.>.C Z J.r.C x C z C z H C :.:.q.e.B :.:.:.:.:.H e.q.w.H e.:.:.:.J :.:.w.w.H J :.:.H C V Z Z V C C V V N N H :.:.:.J J J :.:.V H H V H J V J J J H G H V z V H H V C H :.C V N N Z w.:.Z Z :.H C C H w.w.J :.:.J H H q.w.C B H w.t.t.r.J.J.r.e.:.e.:.w.:.>.q.:.j V t.:.m O.k.k.j.j.h.h.l.l.k.k.k.k.k.k.k.k.k.k.k.k.k.k.k.k.j.j.j.j.j.j.j.j.l.l.j.j.j.j.j.j.j.j.j.j.l.l.l.l.j.j.j.j.j.j.j.j.j.h.h.h.h.h.h.h.h.h.h.h.h.h.h.h.h.h.h.h.h.h.h.h.h.h.h.h.h.h.h.h.h.h.h.h.h.h.h.h.h.h.h.h.h.h.h.h.f.f.f.f.f.f.f.f.f.f.f.f.f.f.f.f.f.f.f.a.a.a.a.f.a.a.a.a.a.a.a.f.a.a.a.a.a.a.a.a.a.a.a.s.s.s.s.s.s.s.s.s.s.s.s.s.s.s.s.s.s.s.s.s.s.s.p.s.s.s.s.s.i.i.i.i.s.i.i.i.i.i.i.i.i.i.i.i.-.s.d.i ",
"i.i.@.@.@.i.@.i.i.i.i.i.i.i.i.i.i.i.i.i.i.i.i.i.i.i.i.i.i.i.i.i.i.s.i.i.i.i.s.i.s.s.s.s.s.s.s.s.a.a.a.a.a.a.a.a.a.a.a.a.s.a.a.a.a.a.a.a.a.a.a.a.f.f.a.a.a.a.a.a.a.a.a.a.a.a.f.a.f.f.f.f.f.f.f.f.f.f.f.f.f.f.f.f.f.f.f.f.f.f.f.f.f.f.f.f.h.h.f.f.h.h.h.h.h.h.h.h.h.h.f.f.h.f.f.f.a.a.a.a.a.a.f.a.h.a.h.h.a.#.N A H :.J :.B V V J B V Z Z Z V V V H N N H J Z Z :.q.H V A Z J V J V Z H H H H V N j h p p p u u h p j B V V V V V B V Z Z Z H J q.:.V :.H B Z V V Z V V H H V V V V H C Z N :.Z :.Z V Z V N V :.J w.C H Z B H q.G.G.t.q.:.:.w.t.t.e.w.q.w.t.r.r.H.E.E.E.t.q.:.:.C J w.G.:.C :.e.w.C z H V :.:.e.:.:.w.e.r.H :.H V :.:.Z H H :.J w.e.w.:.H Z :.:.q.H H :.:.:.Z Z H V B B V H Z C V Z :.:.:.H J :.J G N N N V H H V J J H V V H V z H J H V C V C C C j j N :.:.:.B Z C N B :.r.r.w.:.:.J q.:.q.e.>.:.H :.w.w.e.G.r.J.q.:.:.C C C e.w.C M m >.G F ;.k.l.j.j.l.l.l.l.k.k.k.k.k.k.k.k.k.k.k.k.k.k.k.k.j.j.j.j.j.j.j.j.l.l.j.j.j.j.j.j.l.l.l.h.l.l.l.l.h.h.j.j.h.h.h.h.j.j.h.h.h.h.h.h.h.h.h.h.h.h.h.h.h.h.h.h.h.h.h.h.h.h.h.h.h.h.h.h.h.h.h.h.h.h.h.h.h.h.h.h.h.h.h.h.a.a.a.a.a.a.a.a.f.f.f.f.f.f.f.f.f.f.a.a.a.a.a.f.a.a.a.a.a.a.a.f.a.a.a.a.a.a.a.a.a.a.s.s.s.s.s.s.s.s.s.s.s.s.s.s.s.s.s.s.s.s.s.s.s.s.p.p.s.s.s.s.i.i.i.i.i.i.i.i.i.i.i.i.i.i.i.i.-.s.d.i ",
"i.i.@.@.@.i.i.i.i.i.i.i.i.i.i.i.i.i.i.i.i.i.i.i.i.i.i.i.i.i.i.i.i.i.i.i.i.i.i.i.p.p.p.s.s.s.s.s.p.p.a.a.a.a.a.a.a.a.s.a.a.a.a.a.a.a.a.a.a.a.a.a.a.a.a.a.a.a.f.f.a.a.a.a.f.f.f.f.f.f.f.f.f.f.f.f.f.f.h.h.f.f.f.f.f.f.f.f.f.h.f.f.h.f.h.h.h.h.f.f.h.h.h.h.h.h.h.h.f.f.f.f.h.f.f.f.a.a.a.a.f.f.f.f.a.a.g.l.f.i.G A V :.:.q.N V V :.V V B B Z H Z V :.Z V Z H V B V q.J J J q.J A J H H V N N N j j N j h p h h u q a p j A A B V Z V B B H J H H :.e.V V B V :.Z B Z V V Z J H V N V J Z :.V :.Z Z Z V H :.Z Z :.q.w.j :.:.C H q.G.r.t.w.q.q.t.t.J e.w.q.q.t.r.r.y.r.r.r.H G.e.G.>.N w.>.:.C Z Z J C C :.H w.e.J.w.Z :.w.e.V :.V C H :.:.B J :.:.:.e.e.w.J Z H H V J H H :.J H Z H H V B Z H Z V V V H H V C H J J C N j z H :.H H H J H V G :.H z J J H H H C C C :.C H N :.:.:.z C :.C z :.e.e.G.:.:.J w.q.H w.>.:.G :.t.w.w.r.w.>.C w.e.e.C x :.q.m ..-.#.#.@.g.h.h.h.h.l.j.l.k.k.k.k.k.k.k.k.k.k.k.k.k.k.k.k.k.j.j.j.j.j.j.j.j.l.l.l.l.l.l.j.j.l.l.h.h.h.l.l.h.h.h.h.h.j.h.h.h.h.h.h.h.h.h.h.h.h.h.h.h.h.h.h.h.h.h.h.h.h.h.h.h.h.h.h.h.h.h.h.h.h.h.f.f.f.f.h.h.h.h.f.f.h.h.h.h.a.a.a.a.a.a.a.a.f.f.f.f.f.f.f.f.f.f.a.a.a.a.f.f.f.a.a.a.a.a.a.a.a.a.a.a.a.a.a.a.s.s.s.s.s.s.s.s.s.s.s.s.s.s.s.s.s.s.s.s.s.s.s.s.s.s.s.s.s.s.s.s.i.i.i.i.i.i.i.i.i.i.i.i.i.i.i.i.-.s.s.i ",
"i.i.i.i.i.i.i.i.i.i.i.i.i.i.i.i.i.i.i.i.i.i.i.i.i.i.i.i.i.i.i.i.i.i.i.i.i.i.i.i.p.p.p.s.s.s.s.s.p.a.a.a.a.a.a.a.a.a.a.a.a.a.a.a.a.a.a.a.a.a.a.a.a.a.a.a.f.f.f.f.f.f.a.a.a.f.f.f.f.f.f.f.f.f.f.f.f.f.f.h.f.f.f.h.h.h.f.f.f.h.h.f.h.h.h.h.h.h.f.f.h.h.h.h.h.h.h.h.f.f.f.f.h.f.f.f.f.f.a.a.a.f.f.f.a.a.g.g.f.b.>.Y Z w.q.w.N V B :.:.Z N N V Z V A V J H A N J H j B Z q.t.r.J p Z N V J :.H V V N N j h h z C z i i a p p j B Z J q.Z V H J V Z q.w.Z Z B N H H J Z B N V J J V j V :.H q.Z w.Z Z H V H q.J Z :.q.w.N w.e.C B B w.q.q.q.J :.e.w.A w.:.Z J t.G.G.y.R.J.G.V J.e.e.z H J.w.:.C :.C :.H :.w.V H :.t.V B Z Z :.N H G H V :.e.V w.q.w.V J :.q.:.:.:.H V :.J H H H Z V V J V V Z Z V N N V V V N N V J H Z G z N q.q.H Z V H H V H >.G z :.H H :.:.C C C C C :.N :.:.w.C >.e.:.j Z H Z w.>.:.H w.H j H :.N N :.G.t.r.J.e.r.C e.:.:.h h w.:.n -.S.l.d.l.v.j.j.j.j.j.j.j.j.k.k.k.k.k.k.k.k.k.k.k.k.k.k.k.k.j.j.j.j.j.j.j.j.l.l.l.l.l.l.l.j.l.l.h.h.h.h.h.h.h.h.h.h.h.h.h.h.h.h.h.h.h.h.h.h.h.h.h.h.h.h.h.h.h.h.h.h.h.h.h.h.h.h.h.h.h.h.h.h.h.h.f.f.f.f.f.h.h.f.f.f.h.h.h.h.a.a.a.a.a.a.a.a.f.f.f.f.f.f.f.f.f.a.a.a.a.a.f.f.f.a.a.a.a.a.a.a.a.a.a.a.a.a.a.a.s.s.s.s.s.s.s.s.s.s.s.s.s.s.s.s.s.s.s.s.s.s.s.s.s.s.s.s.s.s.s.s.i.i.i.i.i.i.i.i.i.i.i.i.i.i.i.i.-.s.s.i ",
"@.@.*.*.i.*.*.*.i.i.i.*.*.*.i.i.i.i.i.*.i.i.i.i.i.i.i.i.i.i.i.i.i.i.i.i.i.i.i.i.p.p.p.p.p.p.p.p.p.p.s.s.s.s.s.a.a.a.a.s.a.a.a.a.a.a.a.a.a.a.a.a.f.f.f.f.a.a.a.f.f.f.f.f.a.a.a.a.f.f.f.f.f.f.f.f.f.f.f.f.f.f.f.f.f.f.f.f.f.f.f.f.f.f.f.f.f.f.f.f.h.h.h.h.h.h.f.h.f.f.f.f.f.f.f.f.f.f.f.a.a.a.a.a.f.a.a.f.l.b.>.t.V :.q.Z B V Z Z :.J J J q.:.V A Z J J Z B Z Z J p p j V q.q.Z j w j V Z H H H C G N V V p z G N i i h h p p A H q.q.B H B :.H :.q.:.J H H J Z A q.V V V J J V J V A Z J e.V :.N H V Z :.Z j j J N N h :.m z j w.:.q.q.q.q.w.w.q.N V Z j t.G.E.R.G.E.r.q.J.e.r.V w.q.G G m >.>.:.H >.w.:.C e.:.:.j B w.w.C V :.H q.:.e.:.H :.V :.j :.w.N N :.Z :.H :.Z C C C Z V C C C C x x m C x >.H N V G V :.J C n >.:.Z B G J q.Z Z :.:.:.C V :.Z C :.Z z C C >.C g j C N h x :.j z z J V H :.H q.J q.V C g j j J e.G.G.w.G.e.:.e.w.e.C >.m >.m O.b.v.k.h.j.l.l.j.j.j.j.j.j.j.j.k.k.j.j.j.j.j.j.j.j.j.j.j.j.l.l.l.l.j.j.j.j.l.l.l.l.j.j.j.l.h.h.j.j.j.j.j.j.h.h.h.h.h.h.h.h.h.h.h.h.h.h.h.h.h.h.h.h.h.h.h.h.h.h.h.h.h.h.h.h.f.f.f.f.h.h.h.h.f.f.f.h.h.h.h.h.h.h.h.f.f.f.f.f.a.a.a.a.a.a.a.f.f.f.a.a.a.a.a.a.f.a.a.a.a.a.f.f.f.a.a.a.a.a.a.f.a.a.a.a.a.a.a.a.s.s.s.s.s.s.s.s.s.s.s.s.s.s.s.s.s.s.s.s.p.p.p.p.p.s.s.s.s.s.i.i.i.i.i.i.i.i.i.i.*.i.i.i.i.*.*.*.-.s.s.y ",
"@.@.@.@.i.i.*.*.i.i.i.i.*.*.i.i.i.i.*.*.i.i.i.i.i.i.i.i.i.i.i.i.i.i.i.i.i.i.i.i.p.p.p.p.p.p.p.p.p.p.s.s.s.s.a.a.a.a.a.a.a.a.a.a.a.a.a.a.a.a.a.a.f.f.f.f.a.a.a.a.f.f.a.f.a.a.a.a.f.f.f.f.f.f.f.f.f.f.f.f.f.f.f.f.f.f.f.f.h.h.f.f.f.f.f.h.f.f.f.f.h.h.h.h.h.h.f.f.f.f.f.h.f.f.f.f.f.f.f.f.a.a.a.a.f.a.a.a.f.g.>.Y q.q.:.Z V Z J :.B B V Z H J J H B Z Z Z B B B B N j j B H J Z B p j A j j j h g 7 w z V N z z w y i u p p p j B Z H B B V :.:.J q.:.H V Z H H V H N Z H J J J q.q.J A A V N :.:.V V Z V N j B :.Z Z B :.C B N w.q.q.J q.t.t.q.B H :.q.Z e.w.r.r.q.r.w.:.r.J e.q.:.:.G >.G >.C :.C Z :.H Z q.V V C V w.r.w.H H J :.w.C J H N J V V w.r.H V H C :.Z :.Z C C C C C C C C C z z m C x :.H V H H C G C x g m J H N C J q.J H H Z :.C C Z C N Z C z C x m h g C :.H Z j C x z C :.w.e.V B w.J J N V z :.H q.q.w.e.:.:.:.C H V H C >.m V m O.d.k.k.h.j.l.l.j.j.j.j.j.k.j.j.k.k.k.j.j.j.j.j.j.j.j.j.j.j.j.l.l.l.j.j.j.j.l.l.l.l.j.j.j.j.h.h.j.j.j.j.j.j.h.h.h.h.h.h.h.h.h.h.h.h.h.h.h.h.h.h.h.h.h.h.h.h.h.h.h.h.h.h.h.h.f.f.f.f.h.h.h.h.f.f.f.f.h.h.h.h.h.h.h.f.f.f.f.f.a.a.a.a.a.a.a.a.f.f.a.a.a.a.f.f.f.f.a.a.a.a.f.f.f.a.a.a.a.a.a.a.a.a.a.a.a.a.a.a.s.s.s.s.s.s.s.s.s.s.s.s.s.s.s.s.s.s.s.s.p.p.p.p.s.s.s.s.s.s.i.i.i.i.i.i.i.i.i.i.*.i.i.i.i.*.*.*.-.s.s.y ",
"@.*.@.@.@.@.*.*.i.i.i.i.*.i.i.i.i.i.*.*.i.i.*.*.*.*.*.i.i.*.i.*.*.*.*.i.i.i.i.i.p.p.p.p.p.p.p.p.p.p.p.p.a.a.a.a.a.a.a.a.a.a.a.a.a.a.a.a.a.a.a.a.a.a.a.a.a.a.a.a.a.a.a.a.a.a.f.f.f.f.f.f.f.f.f.f.f.f.f.f.f.f.f.f.f.f.f.f.f.h.f.f.f.f.f.h.h.h.f.f.f.h.f.f.h.f.f.f.f.f.f.h.h.h.f.f.f.f.a.a.a.a.a.a.f.a.a.a.f.p.>.Y q.J Z Z V B Z J Z Z Z Z Z H J :.Z Z Z B A A B B N N A N V H Z Z V V N A j j h q u p N V N C C h u u g h h x j p N B V A Z :.w.J J J Z B B Z J J V A H J J q.J w.q.w.A A H Z Z :.N H H N h j V :.H J H C :.C V :.t.w.q.q.t.t.q.Z :.Z w.w.r.q.t.t.Z H Z Z w.J e.r.V C C >.G G C :.z j G C H H V V H Z H w.w.Z N H :.:.N :.:.V :.H V V w.J N V V H Z Z C B C C C C N N C C m m C C x G H V H H N z C m M z J q.H C Z q.:.:.Z N H Z C C z z C C z C C x q g V :.Z :.C m C z B H w.:.J H w.Y :.V H z :.J :.Z J q.B j C B :.:.:.:.:.m A N O.a.k.j.h.l.l.l.j.j.j.j.k.k.j.j.k.k.k.k.j.j.j.j.j.j.j.j.j.j.l.h.l.l.h.l.l.l.h.h.h.h.l.l.l.l.h.h.h.h.h.h.h.h.j.h.j.h.h.j.j.h.h.h.h.h.h.h.h.h.h.h.h.h.h.h.h.h.h.h.h.h.h.h.h.h.h.h.h.h.f.f.f.f.a.a.a.a.a.f.f.f.f.f.f.f.f.f.a.f.a.a.a.a.a.a.a.a.f.a.a.a.a.f.f.f.f.f.a.a.a.a.a.f.a.a.a.a.a.a.a.a.a.a.a.a.a.a.a.s.s.s.p.p.s.s.s.s.s.s.s.s.p.p.s.s.s.s.s.s.s.s.s.s.s.s.s.s.s.i.i.i.i.i.i.i.i.i.i.i.*.*.i.i.i.i.i.i.-.s.s.y ",
"@.*.@.@.@.@.@.*.i.i.i.i.i.i.i.i.i.i.i.i.i.i.*.*.*.*.i.i.i.*.*.*.*.*.*.i.i.i.i.i.p.p.p.p.p.p.p.p.p.p.p.p.a.a.a.a.a.a.a.a.a.a.a.a.a.a.a.a.a.a.a.a.a.a.a.a.a.a.a.a.a.a.a.a.a.f.f.f.f.f.f.f.f.f.f.f.f.f.f.f.f.f.f.f.f.f.f.f.f.f.f.f.f.f.f.h.h.f.f.f.f.f.f.f.h.f.f.f.f.f.f.f.h.f.f.f.f.f.a.a.a.a.a.a.f.a.a.a.f.p.>.Y Z V Z J Z A A Z J J H Z V Z H J q.q.J B A A B Z N N B B V Z Z Z H H Z Z H Z m g x j j p u h z h g h h h z N z p B B H j H J w.J H J H Z V Z J J N A H J J J Z q.J t.A Z :.J N V J J H V j j V :.H H H j :.B V V q.w.q.q.J q.w.w.:.j :.r.J.t.J.G.w.H j V e.w.:.:.V C N :.H z C :.G h C j H C Z :.e.w.Z H e.w.:.w.:.z :.:.w.e.N G C j H J N V G H :.V C N C C C C N N N z z m m m z C C V H G z g V G m m H q.H m B J Z H B j H :.C C N N C C C C G C h h C V C Z C z V j z A :.N w.H J J q.J :.h V :.r.w.w.G.:.N h j J :.Z Z C h A V ;.d.k.j.l.l.l.l.j.l.l.j.k.k.j.j.k.k.k.k.j.j.l.l.l.l.l.l.l.l.l.l.h.h.h.h.l.l.h.h.h.h.l.l.l.l.h.h.h.h.h.h.h.h.j.j.j.h.h.h.j.j.h.h.h.h.h.h.h.h.h.h.h.h.h.h.h.h.h.h.h.h.h.h.h.h.h.h.h.h.f.f.f.f.a.a.a.a.a.f.f.f.f.f.f.f.f.f.a.f.f.a.a.a.a.a.a.a.f.f.a.a.a.f.f.f.f.f.f.a.a.a.a.f.a.a.a.a.a.a.a.a.a.a.a.a.a.a.s.s.s.s.p.p.s.s.s.s.s.s.s.s.p.p.s.s.s.s.s.s.s.s.s.s.s.s.s.s.i.i.i.i.i.i.i.i.i.i.i.i.i.*.i.i.i.i.i.i.-.s.s.i ",
"@.@.@.@.@.@.@.@.i.*.*.i.*.*.*.*.i.i.*.i.i.i.i.*.i.i.i.i.i.i.i.i.i.i.i.i.i.i.i.i.p.p.p.p.p.p.p.p.s.s.s.s.a.p.p.p.a.a.a.a.a.a.a.a.a.a.a.a.a.a.a.a.a.a.a.a.a.a.a.a.a.a.a.a.a.a.f.f.f.f.f.f.f.f.f.f.f.f.f.f.f.f.f.f.h.h.f.f.f.f.f.f.f.f.f.f.h.f.f.f.h.h.h.f.f.f.f.f.f.f.f.f.h.f.f.f.f.f.a.a.a.a.a.a.f.a.s.f.h.g.>.Y Z V H :.Z A A H H Z V V Z H H J w.w.q.Z B B Z B z A B B B V Z H H H V V Z Z z u u j z j j p u u x j h x N V N z p z J N J J w.J Z J :.J H Z Z Z N p V H J J Z J J r.A A B V A H :.Z V H H N N H H H H j :.C H Z Z J J Z Z J q.q.:.j H e.J.t.G.G.J.:.N H r.e.C V J :.H q.:.z :.>.:.h C x :.C H :.:.q.B j :.e.q.:.:.z H G H H u h :.z H :.V H H H :.V z z C V H :.C N z z z x x m x x m C C C z g j C n h N Z N x B H N V N j Z H Z C C C C C Z C z V N h z C Z Z m g C z N A J N J N V V q.H :.j j J G.w.w.J.w.H x C H J A N C C Z >.s.j.k.j.h.l.l.l.j.j.j.j.j.k.j.j.j.j.j.j.j.j.l.l.l.l.j.j.j.j.h.h.h.h.l.l.l.l.h.h.l.l.l.l.h.l.h.h.h.h.h.h.h.h.h.h.h.h.h.h.h.h.h.h.h.h.h.h.h.h.h.h.h.h.h.h.h.h.h.h.h.h.h.h.h.h.h.h.f.f.h.h.h.f.f.f.f.f.a.f.f.f.f.f.f.f.f.f.f.f.f.f.a.a.a.a.f.f.a.a.a.a.a.a.a.a.a.a.a.a.f.a.a.a.a.f.a.a.a.a.f.f.a.a.a.a.a.s.s.s.s.s.p.p.s.s.p.p.s.s.s.s.s.s.s.s.s.s.s.s.s.s.s.s.i.i.i.i.i.i.i.i.i.i.i.i.i.i.i.i.i.i.i.i.i.i.i.i.-.s.s.i ",
"@.@.@.@.@.@.i.@.i.i.*.*.i.*.*.i.i.i.*.*.i.i.i.i.i.i.i.i.i.i.i.i.i.i.i.i.i.i.i.i.p.p.p.p.p.p.p.p.s.s.s.s.a.a.p.p.a.a.a.s.a.a.a.a.a.a.a.a.a.a.a.a.a.f.a.a.a.a.a.a.a.a.f.f.a.a.f.a.f.f.f.f.f.f.f.f.f.f.f.f.f.f.f.f.f.h.f.f.h.f.f.f.f.f.f.f.f.f.f.f.h.h.h.f.f.f.f.h.f.f.f.f.h.f.f.f.f.f.a.a.a.a.a.a.a.a.s.h.h.g.>.q.H Z H J V A N J H Z V V Z H H H J q.q.J J Z B A N A A j A B Z J J Z N j j j g 0 u C Z V V N h x z j j N N N B N 8 p V H q.q.J Z Z J :.:.H Z V B N p N V J J V J J t.B B V B V H :.N N J :.V N H J :.H C :.H J J Z Z Z J q.q.J B :.j V q.J.w.r.G.e.J V :.w.e.C J :.w.q.e.e.z :.m G x m m G G C :.N V N h V :.J V G :.x C G z G z N h C N z V C G :.C x z C C G G C N z z z z x x x h x C z m m g j C m x B Z N m Z H N C N h C C Z C C C N C C N j :.Z z z V C Z m x C C C B H B Z B J Z H N Z m p H e.J H w.:.G x V :.t.Z V >.>.>.s.b.l.j.j.h.l.l.l.j.j.j.j.j.k.j.j.j.j.j.j.j.j.l.l.l.l.l.l.h.h.h.h.h.h.h.h.h.h.h.h.h.h.h.h.h.h.h.h.h.h.h.h.h.h.h.h.h.h.h.h.h.h.h.h.h.h.h.h.h.h.h.h.h.h.h.h.h.h.h.h.h.h.h.h.h.h.h.h.f.f.h.h.h.h.f.f.f.a.a.a.a.a.a.a.a.a.a.a.a.a.f.f.a.a.a.a.f.f.a.a.a.f.a.a.a.a.a.a.a.a.f.a.a.a.f.f.a.a.a.a.f.f.a.a.a.a.s.s.p.p.s.s.s.s.p.p.s.s.p.p.s.s.s.s.s.s.s.s.s.s.s.s.s.s.i.i.i.i.i.i.i.i.i.i.i.i.i.i.i.i.i.i.i.i.i.i.i.i.-.s.s.i ",
"@.@.*.*.*.i.i.i.i.i.i.i.i.i.i.i.i.i.i.*.i.i.i.i.i.i.*.i.*.i.i.i.i.i.i.i.i.i.i.i.p.p.p.p.p.p.p.p.a.a.p.s.p.p.p.p.a.a.a.a.a.a.a.a.a.a.a.a.a.a.a.a.f.f.f.f.a.a.a.a.a.f.f.f.a.a.a.a.f.f.f.f.f.f.f.f.f.f.f.f.f.f.f.f.f.f.f.f.h.f.f.f.f.f.h.h.f.f.f.f.h.h.h.h.f.f.h.h.f.f.h.h.f.f.f.f.f.f.a.a.a.a.a.a.f.a.a.h.h.f.>.Y H Z V V V N N V J H Z V B V Z H Z J J J J J Z B N z j j j N B Z H Z B N N j h w w C V N N h p z j h j N N p p N p u p G :.w.Z Z H J J Z V V V B N j B V V Z B J Z q.Y J J V J V C N N J :.J H H J :.Z G C H V :.J J J J q.w.J B H N V J J.w.e.G.:.G V :.:.G.G w.:.e.w.r.r.C >.m >.m m m m C x m V H :.H B Z :.:.C >.N C N N :.G u h V h h z j :.:.C z C V C m z N z z z z x j g h g x C z m m h N C m m H J V C V H N Z C h C C :.N C Z N N C j C :.:.Z C N N Z C C m C C V N V J H w.J Z A C z N :.r.q.J e.q.:.h z Z r.Z G F ;.b.l.l.l.k.j.j.j.l.l.j.j.j.j.j.j.j.j.j.j.j.j.j.j.h.h.l.l.l.l.l.l.h.h.h.h.h.h.h.h.h.h.h.h.h.h.h.h.h.h.h.h.h.h.h.h.h.h.h.j.h.j.h.h.h.h.h.h.h.h.h.h.h.h.h.h.h.h.h.h.h.h.h.h.h.h.h.h.h.f.f.f.h.h.h.h.f.a.a.a.f.a.a.a.a.a.a.f.a.a.a.a.f.f.f.a.a.a.f.f.a.a.f.f.f.f.a.a.a.a.f.f.f.f.a.a.f.f.f.a.a.a.f.f.a.a.a.a.s.p.p.p.s.s.s.s.s.s.s.s.p.p.p.p.s.s.s.s.s.s.s.s.s.s.s.s.i.i.i.i.i.i.i.i.i.i.i.i.i.i.*.*.i.i.i.i.i.i.*.*.-.s.s.i ",
"@.@.*.*.*.i.i.i.i.i.i.i.i.i.i.i.i.i.i.*.i.i.i.i.i.i.*.*.*.i.i.i.i.i.i.i.i.i.i.i.p.p.p.p.p.p.p.p.a.a.p.p.p.p.p.p.a.a.a.a.a.a.a.a.a.a.a.a.a.a.a.a.f.f.f.f.f.a.a.a.a.f.f.f.a.a.a.a.f.f.f.f.f.f.f.f.f.f.f.f.f.f.f.f.f.f.f.f.h.h.f.f.f.f.h.f.f.f.f.f.h.h.h.h.h.f.h.h.f.f.f.f.f.f.f.f.f.f.a.a.a.a.a.a.f.a.s.a.h.a.;.J Z V V Z J H B j V V V N j A V J Z Z Z Z Z J J J j j j A B N A j N V Z Z Z V z g 7 V :.Z Z j u j h p j C z 8 w N H x 7 B H t.Z Z J H Z B B V V B V N Z V A A A J J J q.Z H A q.Z N V H J :.:.:.J H :.C :.m V A J Z J q.J J J J J H Z H J J.q.q.G.r.:.G :.:.J.V J :.G.e.r.J.:.J.>.>.>.m x g C h m :.J w.:.j j :.e.C V >.j u C h z x :.>.z h h h :.G C m C G C h g j j z C C m h u g y m G m m m h N x g h V V A m N V C H G z C G :.N C Z z N C h C C Z :.:.N N :.j C h N N V j H J B H B H V H z N H w.:.:.e.:.G >.Z Z r.V G ;.C.k.v.v.l.l.k.j.j.l.l.j.j.j.j.j.j.j.j.j.j.j.j.j.j.h.h.h.l.l.l.l.l.h.h.h.h.h.h.h.h.h.h.h.h.h.h.h.h.h.h.h.h.h.h.h.h.h.h.h.j.j.j.h.h.h.h.h.h.h.h.h.h.h.h.h.h.h.h.h.h.h.h.h.h.h.h.h.h.h.h.f.f.h.h.h.h.f.a.a.a.a.a.a.a.a.a.a.f.f.a.a.a.f.f.a.a.a.a.f.f.a.a.f.f.f.a.a.a.a.a.f.f.f.f.a.a.f.f.a.a.a.a.f.f.a.a.a.a.a.p.p.p.s.s.s.s.s.s.s.s.p.p.p.p.s.s.s.s.s.s.s.s.s.s.s.s.i.i.i.i.i.i.i.i.*.i.i.i.i.i.*.*.*.i.i.i.i.i.*.*.-.s.s.i ",
"@.@.@.@.@.@.@.@.i.i.i.i.i.i.i.i.i.i.i.i.*.*.i.i.i.i.i.i.i.i.i.i.i.i.i.i.i.i.i.i.i.i.p.p.i.p.p.p.a.a.a.a.p.p.p.p.p.s.s.s.a.a.a.p.a.a.a.a.a.a.a.a.a.a.a.a.a.a.a.a.a.a.a.a.a.a.a.a.f.f.f.f.f.f.f.f.f.f.f.f.f.f.f.f.f.f.f.f.f.f.f.f.f.f.h.h.f.f.f.h.h.h.h.h.h.h.h.h.f.f.h.h.f.f.f.h.h.f.f.f.f.f.f.a.a.s.a.a.f.g.9.;.Y J Z V Z V A j B V Z V B B Z :.Z B Z Y J V V J B Z B j j B B j B j j N j u g z h h N C N A A p w q x C z h u q A Z j q z q.r.A J Z Z V Z Z V B Z A V A N H p u j p j V H V V :.:.C C :.:.C C :.H :.C C x h :.J J B J J J q.J J q.Z Z J E.t.w.e.H H :.:.N e.w.:.e.:.:.e.J.:.e.w.q.w.:.m M g H J Z N j N C x h C :.:.z x m j h C J V V G z h N q.:.V x C G C G p j m m x x C x u y M q m C x m x z C x u V V A B N V H :.Z N V :.:.Z C C C C m x C C V C j C :.Z N h x q C V J A H N G H V G H N N w.r.w.w.w.J V Z G m >.J C C.b.l.h.h.h.h.h.l.l.l.l.l.l.l.l.l.l.j.j.j.j.j.j.j.j.h.h.l.l.l.l.l.h.h.h.h.h.h.h.h.h.h.h.h.h.h.h.h.h.h.h.h.h.h.h.h.h.h.h.h.h.h.h.h.h.h.h.h.h.h.h.h.h.h.h.h.h.h.h.h.f.f.f.f.f.f.f.f.f.f.h.f.f.f.a.a.a.a.a.f.f.f.f.f.f.a.a.a.a.a.a.f.a.a.a.a.a.a.a.a.a.a.a.f.f.a.a.a.a.a.a.a.a.a.a.a.a.a.a.a.a.a.a.a.a.a.a.p.p.p.p.p.p.s.s.s.s.s.s.i.s.s.i.i.i.s.s.s.s.p.s.s.s.i.i.i.i.i.i.i.i.i.i.i.i.*.*.i.i.i.i.i.i.*.*.*.*.i.i.i.i.-.i.s.i ",
"@.@.@.@.@.@.@.@.i.i.i.i.i.i.i.i.i.i.i.i.*.*.*.i.*.i.i.i.i.i.i.i.i.*.i.i.i.i.i.i.i.i.p.p.i.p.p.p.a.a.a.a.p.p.p.p.s.s.s.s.a.a.a.a.a.a.a.a.a.a.a.a.a.a.a.a.a.a.a.a.a.a.a.a.a.a.a.a.f.f.f.f.f.f.f.f.f.f.f.f.f.f.f.f.f.f.f.f.f.f.f.f.f.f.f.h.f.f.f.h.h.h.h.h.h.h.h.h.f.f.h.h.f.f.f.h.h.f.f.f.f.f.f.f.a.a.a.a.f.g.s.;.t.Y Z V V V j w N N B N B V Z H J Z V H Z B A A Z J H B A N N A B A B N z u u z h z B B N A A B x u q q 0 q j m A N w q h Z w.J H Z V B V Z Z V j N Z N j z j N N p p N N N V w.N C C Z C C C C H :.V >.z h :.J w.B J J Z Z Z w.q.Z J e.J.:.:.r.H J w.w.V e.w.:.:.:.:.e.J.:.:.z w.e.>.>.n g G q.e.:.j N :.C g g x C C m C C H >.V N C N h p N :.:.H h p h C :.H h j x j x m x h d h g m C m m m C G z h G G N V V H :.:.J V Z :.H Z C C C m x x B z N C j j C C Z N m g G H J B V B H V B J q.V V w.w.J :.q.H N J >.;.F.>.F b.l.l.l.h.h.h.h.l.l.l.l.l.l.l.l.l.l.j.j.j.j.j.j.j.j.h.h.l.l.l.l.h.h.h.h.h.h.h.h.h.h.h.h.h.h.h.h.h.h.h.h.h.h.h.h.h.h.h.h.h.h.h.h.h.h.h.h.h.h.h.h.h.h.h.h.h.h.h.h.f.f.f.f.f.f.f.f.f.f.f.h.f.f.f.a.f.a.a.a.f.a.f.f.a.a.a.a.a.a.a.a.f.f.a.a.a.a.f.a.a.a.a.a.f.f.f.f.a.a.a.a.a.a.a.a.a.a.a.a.a.a.a.a.a.a.a.a.p.p.p.p.p.p.i.s.s.s.s.s.i.i.s.i.i.i.s.s.s.s.s.s.s.s.i.i.i.i.i.i.i.i.i.i.i.i.i.i.i.i.i.i.*.i.i.i.*.*.i.i.i.i.-.i.s.i ",
"@.@.@.@.@.@.@.@.*.i.i.i.i.i.*.*.*.*.i.i.i.i.i.i.*.*.i.i.i.i.*.*.*.*.*.i.i.i.i.i.i.i.p.p.i.p.p.p.p.p.a.a.p.p.p.p.a.a.s.s.a.a.a.a.a.a.a.a.s.a.a.a.a.a.a.a.a.a.a.a.a.a.a.a.a.a.a.a.a.a.a.a.a.a.a.a.f.f.f.f.f.f.f.f.f.f.f.f.f.f.f.f.f.f.f.f.f.f.f.f.f.h.h.h.h.h.h.h.f.f.f.f.f.f.f.f.f.f.f.f.f.f.a.a.a.a.a.a.f.f.s.s.t.q.Z Z Z C j u j j j j N B N N Z V B B V V B A B J J V A A N N V B V V z u u z q z j h N j j H z u q q u h m z j u 7 y h h V Z Z V V B N B V Z N B A A z j N j N N B H V j N V h C Z V V H V C H H V >.m j :.:.q.A Z q.J Z :.J.e.Z H J.r.J H w.:.:.e.e.C :.V :.Z Z :.e.r.:.:.h t.e.>.>.m g N V e.:.j C >.G x z u x V G C H >.>.:.:.>.G N z B V H V u w 0 h :.:.x x j j x x x x d g g h C C x m m C x x G H H H V Z H J H V V H C C C C m x x x C z C C z z C C G B x g C G H j B Z J V V w.e.Z V w.w.H H :.H Z w.>.s.b.d.i.l.k.l.l.l.l.h.h.l.j.l.l.l.l.l.l.j.j.j.j.j.j.j.j.j.j.h.h.l.l.h.h.h.h.h.h.h.h.h.h.h.h.h.h.h.h.h.h.h.h.h.h.h.h.h.h.h.h.h.h.h.h.h.h.h.h.h.h.h.h.h.h.h.h.f.f.h.h.h.h.h.h.f.f.f.f.f.f.f.f.f.f.f.f.f.f.a.a.a.a.a.a.a.a.a.a.f.f.f.f.a.f.f.f.a.a.f.a.f.f.a.a.a.a.f.f.f.f.f.a.a.a.a.a.a.a.a.a.a.a.a.a.a.a.a.a.p.p.p.p.p.p.p.p.s.s.p.p.s.s.s.i.s.s.i.i.i.i.s.s.s.i.i.i.s.i.i.i.i.i.i.i.*.i.i.i.i.i.i.i.i.i.*.*.i.i.i.i.i.i.i.i.-.i.s.i ",
"@.@.@.@.@.@.@.@.*.i.i.i.i.*.*.*.*.*.i.i.i.i.i.i.*.*.i.i.i.*.*.*.*.*.*.i.i.i.i.i.i.i.p.i.i.p.p.p.p.p.p.p.p.p.p.a.a.a.a.a.a.a.a.s.a.a.a.a.a.a.a.a.a.a.a.a.a.a.a.a.a.a.a.a.a.a.a.a.a.a.a.a.a.a.a.a.f.f.f.f.f.f.f.f.f.f.f.f.f.f.f.f.f.f.f.f.f.f.f.f.f.f.f.f.f.f.f.f.f.f.f.f.f.f.f.f.f.f.f.f.f.a.a.a.a.a.a.a.f.f.a.a.J Z Z Z Z V z h B N N N N B N N V Z V B B Z Z B A Z Z B A N z j B V V V z u u x 0 x p q N N j :.m u u h x x x u u u 0 g x q j A N B V V N N B Z N H j N B j V p N C H :.H z h z z C Z Z H :.:.C H C C C m x H :.J j J w.q.w.w.J.r.V N G.:.w.H J q.:.r.e.:.G C :.C C Z e.w.Z :.:.t.w.G >.>.x h u m C C C C m C >.h h G :.C m :.:.V H G z h h j h z z h z h i V G m x h x x x h h y q h g z C g m m m x x m C C N V C C V C V V V z N C C x x x x C C Z C C V H C V z h g z V V p Z J J J q.e.w.Z j :.w.H V V H :.w.>.g.Z.j.a.j.v.l.l.l.l.h.h.l.l.l.l.l.l.l.j.j.j.l.l.l.j.l.l.l.l.h.h.l.l.h.h.h.h.h.h.h.h.h.h.h.h.h.h.h.h.h.h.h.h.h.h.h.h.h.h.h.h.h.h.h.h.h.h.h.h.h.h.h.h.h.h.h.h.f.f.h.h.h.h.h.h.f.f.f.f.f.f.f.h.f.f.f.f.f.f.a.a.a.a.a.a.a.a.a.a.f.f.f.f.a.a.f.f.a.a.f.f.f.f.a.a.a.a.f.f.f.f.f.a.a.a.a.a.a.a.a.a.a.a.a.a.a.a.s.s.p.p.p.p.p.p.p.p.p.p.p.s.s.s.s.i.s.s.i.i.i.i.s.s.s.s.i.i.i.i.i.i.i.i.i.i.*.*.i.i.*.*.i.i.i.i.*.*.i.i.i.i.i.i.i.i.-.i.s.i ",
"@.@.@.@.@.@.@.@.*.*.i.i.i.i.*.*.*.i.i.i.i.i.i.i.i.i.i.i.i.i.i.i.i.i.i.i.i.i.i.i.i.i.p.p.p.p.p.p.p.p.s.s.s.s.a.a.a.a.p.p.p.p.s.s.a.a.a.a.a.a.a.a.a.a.a.a.a.a.a.a.a.a.a.a.a.a.a.a.a.a.a.a.a.a.a.a.f.f.f.f.f.f.f.f.f.f.f.f.f.f.f.f.f.f.f.f.f.f.f.f.f.f.f.f.f.f.f.f.f.f.f.f.f.f.f.f.f.f.f.f.f.a.a.a.a.a.a.a.a.f.h.h.A B Z Z V N x h G V V N N N N V V H H V B B B B Z Z Z V V B N j A B B N j u u h u z u u Z V A H G h q q q u g q w h u x h i x h A N V Z V N N V p H V H N u V N N N C V N z N G C C C H :.G G :.H z N C x z V :.:.V J J J w.w.w.H N N :.B q.:.J :.:.r.e.>.:.C >.:.z C J.:.C >.e.q.w.:.e.>.m x i q m C C x g x >.C x C >.C h x m i h z h h z z u x h z >.G u x z x h g x m m x h y q g q j C g m C m m x h z h w Z V V C C V V C j N C C x x z C h C G C x H H h N z h g x G G B H Z Z :.e.w.V N p V H V V H H J t.0.l.Z.j.h.l.v.h.h.h.l.l.l.l.l.l.l.l.l.l.l.l.l.j.j.j.j.j.j.j.j.h.h.h.h.h.l.l.l.h.h.h.h.h.h.h.h.h.h.h.h.h.h.h.h.h.h.h.h.h.h.h.h.h.h.h.h.h.h.h.h.h.h.h.h.h.h.h.h.f.f.h.h.h.h.h.h.f.f.f.f.f.f.h.h.f.f.f.f.f.a.a.a.a.a.a.a.a.a.a.f.a.a.a.a.f.f.a.a.a.f.f.f.f.f.a.a.a.a.f.f.f.f.a.a.a.a.a.a.a.a.a.a.a.a.a.a.a.s.s.s.p.p.p.p.p.p.p.p.s.s.s.s.s.s.s.s.i.i.i.i.i.i.i.i.s.s.s.i.i.i.i.i.i.i.i.i.i.i.i.i.i.i.i.i.i.i.i.i.i.i.i.i.i.i.i.i.-.i.s.i ",
"@.@.@.@.@.@.@.@.*.*.i.i.i.i.*.*.i.i.i.i.i.i.i.i.i.i.i.i.i.i.i.i.i.i.i.i.i.i.i.i.i.i.p.p.p.p.p.p.p.p.s.s.a.s.a.a.a.a.p.p.p.p.s.s.a.a.a.a.a.a.a.a.a.a.a.a.a.a.a.a.a.a.a.a.a.a.a.a.a.a.a.a.a.a.a.a.f.f.f.f.f.f.f.f.f.f.f.f.f.f.f.f.f.f.f.f.f.f.h.h.f.f.f.f.f.f.f.f.f.f.f.f.f.f.h.h.f.f.f.f.f.a.a.a.a.a.a.a.a.a.h.h.z C Z Z Z B z z N z j p u u j A A B Z V N A N V H Z Z V V B N j j A B N j h g g h x g h C C j j G x g g q q u q p N j j h h V z j j N H V A A B p N C V N A V N z z C V C N z N G m x C C C C :.G h m m x x N :.:.V V N N :.:.H p V J H B H w.e.q.:.e.:.>.C x G :.C :.J.C x >.>.Z w.e.e.>.x m x q g x x m z x G >.C V >.G x x C h z N N C V N h h i h :.G w g x h g h x m C z x d g g q j m g x m x x x h x z u V V B N C Z G C z N C N z x z C g x C x x G C u j z g x x G G V N N A Z :.V p p C V N N :.e.:.H q.;.l.v.h.l.h.l.h.h.h.l.l.l.j.l.l.l.l.l.l.l.l.l.l.l.l.l.h.l.l.l.h.h.h.h.h.l.l.l.h.h.h.h.h.h.h.h.h.h.h.h.h.h.h.h.h.h.h.h.h.h.h.h.h.h.h.h.h.h.h.h.h.h.h.h.h.h.h.h.f.f.h.h.h.h.f.f.f.f.h.h.f.f.f.f.f.f.f.f.f.a.a.a.a.a.a.a.a.a.f.f.a.a.a.a.f.a.a.a.a.f.f.f.f.f.a.a.a.a.f.f.a.f.a.a.a.a.a.a.a.a.a.a.a.a.a.a.s.s.s.s.p.p.p.p.p.p.p.p.s.i.s.s.s.s.s.s.i.i.i.i.i.i.i.i.s.s.i.i.i.i.i.i.*.i.i.i.*.*.*.*.i.i.i.i.i.i.i.i.*.*.i.i.i.i.i.i.-.i.s.i ",
"@.@.@.@.@.@.@.@.*.*.*.*.i.*.*.*.i.i.i.i.*.i.*.i.i.i.i.i.*.*.i.i.i.i.i.i.i.i.i.i.i.i.p.p.p.p.p.p.p.p.p.s.a.a.a.a.a.a.p.p.p.p.s.s.a.a.a.a.a.a.a.a.a.a.a.a.a.a.a.a.a.a.a.a.a.a.a.a.a.a.a.a.a.a.a.a.f.f.f.f.f.f.f.f.f.f.f.f.f.f.f.f.f.h.h.f.f.f.f.h.f.f.f.f.f.f.f.f.f.f.h.f.f.f.f.h.f.f.f.f.f.a.a.a.a.a.f.f.a.a.h.l.G C V V Z Z V B N j p u u u p p p j N V B j j B B B B B B N N N j A N N z h u i h h g h z z p u x g x m h h h u j V j z j h N x j j N V V z j N N z N z V J B N z N V H H C j p m m x x m C C C V u m m x x z H H j B z j V C V h H w.H H N J e.w.w.e.G >.m i g G C G e.h m >.C J e.w.:.G m O.n g g i h C C z j :.:.C m G >.G C x z z C V N h t i u i z h w u t g x x h h x x x y x y y j j x g h q g M h C V j z z z j z C V C C C C z x x x m x h x m m C m h u z g x i C N N p z x h N h u z :.:.C z H w.:.:.w.;.l.k.h.k.h.l.h.h.h.h.l.l.h.h.l.l.l.l.j.j.l.l.l.l.h.h.h.h.l.l.l.l.h.h.l.l.l.l.h.h.h.h.h.h.h.h.h.h.h.h.h.h.h.h.h.h.h.h.h.h.h.h.h.h.h.h.h.h.h.h.h.h.h.h.h.f.h.h.f.h.h.h.h.f.f.f.f.f.f.h.f.f.f.f.f.f.f.f.f.a.f.f.f.f.a.a.a.a.f.f.a.a.a.a.f.f.a.a.a.a.f.f.f.f.a.a.a.a.a.f.a.a.a.a.a.a.a.a.a.a.a.a.a.a.a.s.s.s.p.p.p.p.p.p.p.p.s.s.i.i.s.s.s.s.s.s.i.i.i.i.i.i.i.i.i.i.i.i.i.i.i.i.*.i.*.i.*.*.*.*.i.i.i.i.*.*.i.i.*.*.i.i.i.i.i.i.-.i.s.i ",
"@.@.@.@.@.@.@.@.*.*.*.*.i.i.*.*.i.i.i.i.*.*.*.i.i.i.*.*.*.i.i.i.i.i.i.i.i.i.i.i.i.i.p.p.p.p.p.p.p.p.p.s.a.a.a.a.a.a.p.p.p.p.s.s.a.a.a.a.s.a.a.a.a.a.a.a.a.a.a.a.a.a.a.a.a.a.a.a.a.a.a.a.a.a.a.a.f.f.f.f.f.f.f.f.f.f.f.f.f.f.f.f.f.f.h.h.f.f.f.f.f.f.f.f.f.f.f.f.f.f.h.h.f.f.f.f.f.f.f.f.f.a.a.a.a.a.f.a.a.a.f.l.G z h j A Z V N :.H V N N N z j N j N V V h u h j A B B B B B G A A N N z x u w h g h x j z z p u q h x g u h x A N j V N p p t N j j V C j j N N N :.N N Z N H z j h z N N z z x C m g x C C x z 0 x m x x h C H h C V z h u h V H :.G :.j j H w.w.e.V e.>.h h C C C :.0 G G.C r.r.J V G >.>.f x x g x G C g q C >.C g V e.:.V x x z V H V x u i h u p w u h 7 h C C h w g h h y x 0 q h g x y x d g M g z C p j z z j z C G V C C N z h h x x x q g C m h h h u z g x u N N B u G N u u p x H :.:.V h x C H w.>.;.k.k.h.k.h.h.h.h.h.l.l.l.h.h.j.l.l.l.l.l.l.l.l.l.h.h.h.h.l.l.j.l.h.h.h.l.l.l.h.h.h.h.h.h.h.h.h.h.h.h.h.h.h.h.h.h.h.h.h.h.h.h.h.h.h.h.h.h.h.h.f.h.h.h.h.h.h.h.f.h.h.h.f.f.f.f.f.f.f.h.f.f.f.f.f.h.f.f.f.a.f.f.f.f.a.a.a.f.f.f.a.a.a.f.f.f.a.a.a.a.a.a.f.f.a.a.a.a.a.a.a.a.a.a.a.a.a.a.a.a.a.a.a.a.s.s.s.p.p.p.p.p.p.p.s.s.s.s.i.i.s.s.s.s.s.s.i.i.i.i.i.i.i.i.i.i.i.i.i.i.i.i.*.*.*.i.*.*.*.*.i.i.*.*.*.*.i.i.*.i.i.i.i.i.i.i.-.i.s.i ",
"@.@.@.@.@.@.@.@.@.@.@.@.@.*.*.*.*.*.*.*.*.*.*.*.i.i.i.i.i.i.i.i.i.i.i.*.*.*.i.i.i.i.i.i.i.i.i.p.p.p.p.p.p.p.p.p.a.s.s.s.s.p.p.p.p.p.p.a.a.a.a.a.a.a.a.a.a.a.a.a.a.a.a.a.a.a.a.a.a.a.a.a.a.a.a.a.f.f.f.f.f.f.f.f.a.f.f.f.a.a.a.a.f.f.f.f.f.f.f.f.f.f.f.f.f.f.f.f.f.f.f.f.f.f.f.f.f.f.a.a.a.a.a.a.a.a.a.a.a.f.h.h.X.V R A B :.Z p A V H Z Z H V N V Z N j p u u 0 y u z B B V B :.C z C C u h z h y x h p N z g x x 7 q x u q u w j N N j z N z u 0 u h N N N A j C B B H H V h u N N N j j V V C j u h m g m G N x x g C x C C :.V Z z V j G z N Z w.Z V e.j H j w.:.e.w.w.:.N >.C h q x >.C N :.:.:.V :.:.C G h >.h C x C :.u N Z G.:.x V G B J G i m m x :.m g y 0 g x q q h w u z z h p p j z g d q i x h u x u y d g d h C h h p N z j N z G N N z z z z h w h g g h m m x x u m x g C H B B u G V j A N N H >.C q.x n m H Z b.b.g.h.h.h.l.l.l.h.h.h.h.h.h.h.h.h.h.h.h.h.h.h.h.l.l.l.l.l.l.l.h.h.h.h.h.h.h.h.h.h.h.h.h.h.h.h.h.h.h.h.h.h.h.h.h.h.h.h.h.h.h.h.h.h.h.h.h.h.h.h.h.h.h.f.f.f.h.h.f.f.h.h.h.h.f.f.f.f.f.f.f.f.f.f.a.a.a.a.a.a.a.f.f.f.a.a.a.a.f.f.f.f.f.f.a.a.a.f.f.f.f.f.a.a.a.a.a.a.a.a.a.a.a.a.a.a.a.a.a.a.a.a.a.a.p.p.p.p.p.p.p.p.p.p.p.p.p.p.i.i.i.i.p.p.p.p.i.i.i.i.i.i.i.i.i.i.*.*.i.i.i.i.*.*.*.*.*.*.*.*.*.*.*.i.i.i.*.*.*.*.*.*.*.*.*.*.@.i.i.i ",
"@.@.@.@.@.@.@.@.@.@.@.@.@.*.*.*.*.*.*.*.*.*.*.*.i.i.i.i.i.i.i.i.i.i.i.*.i.*.i.i.i.i.i.i.i.i.p.p.p.p.p.p.p.p.p.p.s.s.s.s.s.p.p.p.p.p.p.a.a.a.a.a.a.a.a.a.a.a.a.a.a.a.a.a.a.a.a.a.a.a.a.a.a.a.a.a.f.f.f.f.f.f.f.f.a.a.a.f.a.a.a.a.f.f.f.f.f.f.f.f.f.f.f.f.f.f.f.f.f.f.f.f.f.f.f.f.f.f.a.a.a.a.a.a.a.a.a.a.a.f.f.h.X.V R Z G :.J z j N N N B B N j V V V N z z h q h i x h j N N :.z u h x u h z u q x h p z j g x x 0 0 h q q h h j z N j j z x u h p p p z N N N V V V H H N j h N V G C N N N z z g g M g x C h C m g x u x C :.N N j N B H V C V q.V :.e.C H h H H e.q.:.:.G e.:.x q M >.>.C :.:.:.C H :.>.>.C m g m y z :.u x V w.H h h p j q.>.z G V C m q y g q g x u u h q w u h h h z A j g y q y g u u z g y g f q g m j z h N z j N z G N N z h x z h u y y i g x x x x i z x g C V B B u z N B Z B V H >.H w.x O.-.;.G b.b.g.h.h.h.h.l.l.l.h.h.h.h.h.h.h.h.h.h.h.h.h.h.l.l.l.l.h.l.l.l.h.h.h.h.h.h.h.h.h.h.h.h.h.h.h.h.h.h.h.h.h.h.h.h.h.h.h.h.h.h.h.h.h.h.h.h.h.h.h.h.h.h.h.h.f.f.h.h.f.f.h.h.h.f.f.f.f.f.f.f.f.f.f.f.a.a.a.a.a.a.f.f.f.f.a.a.a.a.f.f.f.f.f.f.a.a.a.a.f.f.a.f.a.a.a.a.a.a.a.a.a.a.a.a.a.a.a.a.a.a.a.a.a.a.p.p.p.p.p.p.p.p.p.p.p.p.p.p.i.i.i.i.p.p.i.p.i.i.i.i.i.i.i.i.i.i.*.*.i.i.i.*.*.*.*.*.*.*.*.*.*.*.*.i.i.i.*.*.*.*.*.*.*.*.*.*.@.i.i.i ",
"@.@.@.@.@.@.@.@.@.@.@.@.@.*.*.*.*.*.*.*.*.*.i.i.i.i.i.i.*.*.*.*.i.i.i.i.i.i.i.i.i.i.i.i.i.i.i.i.p.p.p.p.p.p.p.p.p.p.p.p.p.p.p.p.p.p.p.p.a.a.a.a.a.a.a.a.a.a.a.a.a.a.a.a.a.a.s.a.a.a.a.a.a.a.a.a.a.a.a.a.a.a.a.a.a.a.a.a.f.a.f.f.f.f.f.f.f.f.f.f.f.f.f.f.f.f.f.f.f.f.f.f.f.f.f.f.f.f.a.a.a.a.a.a.a.a.a.a.a.f.f.f.+.C R Z G Z Z N N N A A A B N j V V N B V C z u g u z N A z h z C h h z N V V z y h h p j h u h h q q u 0 w h j h j j h h z h i x u u u x N N N N N V H Z N z z h x z h h x z z C h g g g x m h m z x C x x z C N j j j C V G C H H N e.>.C C h N Z w.:.J :.H :.>.m d g >.>.V J :.H z V :.>.>.>.C x x q x :.h h j H G x h w u J e.H V V C g 0 x j h x x g g g q 0 0 0 q j N N j y g q q q 8 w z g y g g q y x z N j z h h z z C z z z h h x z h 0 q g g x x x m h N x g x N A A h u z H Z B V J C :.w.l s.k.h.s.g.g.h.h.h.h.h.l.h.h.h.h.l.h.l.l.l.l.h.h.h.h.l.l.h.h.h.h.h.h.h.h.h.h.h.h.h.h.h.h.h.h.h.h.h.h.h.h.h.h.h.h.h.h.h.h.h.h.h.h.h.h.h.h.h.h.h.h.h.h.h.h.h.h.h.h.f.f.h.h.f.f.h.h.h.h.f.f.f.f.f.f.f.f.f.f.a.a.a.a.a.a.a.a.f.a.a.a.a.a.f.f.a.a.a.a.a.a.a.a.a.a.a.a.a.a.f.f.a.a.a.a.a.a.a.a.a.a.a.a.a.a.a.a.p.p.p.p.p.p.p.p.p.p.p.p.p.p.p.p.i.i.i.i.i.i.i.i.i.i.i.i.i.i.i.i.i.i.*.*.i.*.*.*.*.*.*.*.*.*.*.*.*.*.*.*.i.i.i.*.i.i.*.*.*.*.@.@.@.i.i.i ",
"@.@.@.@.@.@.@.@.@.@.@.@.@.*.*.*.i.*.*.*.*.*.i.i.i.i.i.i.i.*.*.*.i.i.i.i.i.i.i.i.i.i.i.i.i.i.i.i.p.p.p.p.p.p.p.p.p.p.p.p.p.p.p.p.p.p.p.p.p.a.a.a.a.a.s.a.a.a.a.a.a.a.a.a.a.a.a.a.a.a.a.a.a.a.a.a.a.a.a.a.a.a.a.a.a.a.a.a.f.f.f.f.f.f.f.f.f.f.f.f.f.f.f.f.f.f.f.f.f.f.f.f.f.f.f.f.f.f.a.a.a.a.a.a.a.a.a.a.a.a.f.f.p.m A Z G Z Z z N N j A B B N A N N N N C N z p y u N N N j q g V j p h j N N j g h h j j h u g u w q u w q h z h j j h h h h i i 0 8 i x N z p j z V H H N N C z x x h z N G G z j g g g x C C x x m G C x j C H z N h G C H V w.G h e.>.G C x N Z q.:.V :.:.H >.G g g C >.C G :.C z H >.>.C C G C m u z G z x u z N z N z p h e.:.V m N g y F C N z x h g y q q 0 0 q j N N z g g u q q 0 0 h g i g d y y h z N h j u u j h z x z z h h h h h y i g g x m m m j N m x x C B B x u N H V V J G g :.:.l i.Z.k.k.h.h.h.h.h.h.h.h.h.h.h.h.l.l.l.l.l.h.h.h.h.h.l.l.h.h.h.h.h.h.h.h.h.h.h.h.h.h.h.h.h.h.h.h.h.h.h.h.h.h.h.h.h.h.h.h.h.h.h.h.h.h.h.h.h.h.h.h.f.f.f.f.h.h.h.h.f.f.h.h.f.f.h.h.h.h.f.f.f.f.f.f.f.f.f.f.f.a.a.a.a.a.a.a.a.a.a.a.a.a.f.f.a.a.a.a.a.a.a.a.a.a.a.a.a.f.f.f.a.a.a.a.a.a.a.a.a.a.a.a.a.a.s.s.p.p.p.p.p.p.p.p.p.p.p.p.p.p.p.p.i.i.i.i.i.i.i.i.i.i.i.i.i.i.i.i.i.i.*.*.i.*.*.*.*.*.*.*.*.*.*.*.*.*.*.*.i.i.*.*.i.i.*.*.*.*.@.@.@.i.s.i ",
"@.@.@.@.@.@.@.@.@.@.*.*.*.*.*.*.i.i.*.*.*.*.i.i.i.i.i.i.i.i.i.i.*.*.*.i.i.i.*.*.p.p.i.i.i.i.i.i.i.i.i.i.p.p.p.p.p.p.p.p.p.p.p.p.p.p.p.p.p.p.a.a.a.a.a.a.a.a.a.a.a.a.a.a.a.s.a.a.a.a.a.a.a.a.a.a.a.a.a.a.a.a.a.a.a.a.f.f.a.a.a.f.f.f.f.f.f.f.f.f.f.f.f.f.f.f.f.f.f.f.f.f.f.f.f.f.f.f.a.a.a.a.a.a.a.a.a.a.a.a.a.f.h.m A B V Z Z N N j j N N V N j N N N N z j j j m g z j h h y h N N j p j j N N g g j N z j h q 0 u h h h j j A j h j h h h u i 8 7 7 u x z x p h N H J Z N j z N z h h z z x h h j h g g h C :.m z z m z x C :.:.V C j H C J H >.N h e.:.G C z B H :.:.Z :.e.H C C m g m C V H H N C :.>.:.m C G >.G g x m x x u z z x G >.z 0 :.>.C j m x g l z N j h h g y y g g u u h j j N x h u w g u 0 q g i y d g g i h N h h u u z h z h z z h h h h u g g y g x C m h j x z x z G :.H z x V G N H :.V y :.w.m -.v.l.l.h.h.h.h.h.h.l.l.l.l.h.h.h.h.l.l.l.l.h.h.h.h.l.l.h.h.h.h.h.h.h.h.h.h.h.h.h.h.h.h.h.h.h.h.h.h.h.h.h.h.h.h.h.h.h.h.h.h.h.h.h.h.h.h.h.h.h.h.f.h.h.h.f.f.f.f.h.h.f.f.f.h.h.h.h.h.h.f.f.f.f.f.f.f.f.f.f.f.a.a.a.a.a.a.a.a.a.a.a.a.a.a.a.a.a.a.a.a.a.a.a.a.a.a.a.a.f.f.a.a.a.a.a.a.a.a.a.a.a.a.a.s.s.s.p.p.p.p.p.p.p.p.p.p.p.p.p.p.p.p.i.i.i.i.i.i.i.i.i.i.i.i.i.i.i.i.*.*.*.*.*.*.@.*.*.*.*.*.@.@.@.@.i.i.i.i.*.*.i.i.i.i.*.*.*.*.@.@.@.i.s.i ",
"@.@.@.@.@.@.@.@.@.@.*.*.*.*.*.*.i.i.*.*.*.*.i.i.i.i.i.i.i.i.i.i.*.i.*.i.i.*.*.*.p.p.i.i.i.i.p.p.i.i.p.i.p.i.p.p.p.p.p.p.p.p.p.p.p.p.p.p.p.p.p.p.a.s.a.a.a.a.a.a.a.a.a.a.a.a.a.a.a.a.a.a.a.a.a.a.a.a.a.a.a.a.a.a.a.a.f.f.a.a.a.a.f.f.f.f.f.f.f.f.f.f.f.f.f.f.f.f.f.f.f.f.f.f.f.f.f.f.a.a.a.a.a.a.a.a.a.a.a.a.a.a.l.F A A N Z Z V z j z N V N N z B B N N j h z C x g z z j x y g z C N j z j z G x g h N z z x q w x z j N N A A h h h h h i i u 0 8 8 w i h z N z N V H V A j z z h h z z h u 0 h m x d d y x G x x m m C j C C H N j j C z C V H N V e.e.:.x z N G :.w.:.w.G.:.x C m g x C G J H j V :.>.:.x G G G C x x h g x h x h u N >.G 8 u C z z C m m y u x h u g g y g x h h h p p h N z h w w h g q 0 h g q y M g y u N h h p h C z z h h x h h h p u g g q q x C m g C N m m x G H A j z N x h V H N x w.t.G O.b.g.l.h.h.h.h.h.h.l.l.j.l.h.l.h.h.l.l.l.l.h.h.h.h.l.l.h.h.h.h.h.h.h.h.h.h.h.h.h.h.h.h.h.h.h.h.h.h.h.h.h.h.h.h.h.h.h.h.h.h.h.h.h.h.h.h.f.h.h.a.a.a.f.f.f.f.f.f.h.h.f.f.h.h.h.h.h.h.h.h.f.f.f.f.f.f.f.f.f.f.a.a.a.a.f.f.a.a.a.a.a.a.a.a.a.f.a.a.a.a.a.a.a.a.f.f.a.a.f.a.a.a.a.a.a.a.a.a.a.a.a.a.s.s.p.p.p.p.p.p.p.p.p.p.p.p.p.p.p.p.p.p.i.i.i.i.i.i.p.p.*.i.*.*.i.i.i.i.i.i.*.*.*.@.@.@.*.*.*.*.@.@.@.@.i.i.i.i.*.*.*.i.i.i.*.*.*.*.@.@.@.i.s.y ",
"@.@.@.@.@.@.@.@.@.@.*.*.*.*.*.*.i.i.i.*.*.*.*.i.i.i.*.i.i.i.i.i.i.i.i.i.i.i.i.*.p.i.i.i.i.p.p.p.i.i.i.i.i.i.i.i.p.p.p.p.p.p.p.p.p.p.p.p.p.p.p.p.a.a.a.a.a.a.a.a.a.a.a.a.a.a.a.a.a.a.a.a.a.a.a.a.a.a.a.a.a.a.a.a.a.f.f.f.a.a.a.a.f.f.f.f.f.f.f.f.f.f.f.f.f.f.f.f.f.f.f.f.f.f.f.f.f.f.a.a.a.a.a.a.a.a.a.a.a.a.a.a.l.O.A A z V Z B z z z N N z j z C N z z z j z C g q x z z x q y 8 h u u h u w h m u g j j z x 0 u N j p N B j j u p h h u u t t 8 t t 0 8 u x V z z N B B A N C N N N V V N N C h C h q d q u C g g C C G h z C j j p N j j p j H V :.w.J.:.z C h V :.G.:.J G.:.m >.m g g m V H :.j G :.>.C x >.G G z m m g g M h h x h h m x y q y u C :.G >.y y x h g h g q x h h h h h u u p j h w 7 g h q q h g q q M d 0 h z p j h N G N N h h h h h z h u g g q q g m x u H N C m x N N w p z x h x z B V >.w.t.:.O.b.f.j.h.h.h.h.h.h.l.j.l.l.l.l.h.h.h.l.l.l.l.h.h.l.l.l.h.h.h.h.h.h.h.h.h.h.h.h.h.h.h.h.h.h.h.h.h.h.h.h.h.h.h.h.h.h.h.h.f.f.f.f.f.f.f.f.f.f.f.a.f.f.f.f.h.f.h.h.h.h.f.f.h.h.h.h.h.h.h.h.f.f.f.f.f.f.f.f.f.a.a.a.a.f.f.f.a.a.f.a.f.f.a.a.f.f.f.f.a.a.a.a.a.f.f.f.a.a.a.a.a.a.a.a.a.a.a.a.a.a.a.s.s.p.p.p.p.p.p.p.s.p.s.s.i.i.i.i.p.p.i.i.i.p.i.i.i.p.p.p.i.i.i.i.i.i.i.i.i.*.*.*.@.@.@.@.@.@.@.@.@.@.@.@.i.i.*.*.*.*.i.i.i.*.*.*.*.*.@.@.@.i.i.y ",
"@.@.@.@.@.@.@.@.@.@.*.*.*.*.*.*.i.i.i.i.*.*.i.i.i.i.*.*.*.i.i.i.i.i.i.i.i.i.i.i.p.p.i.i.i.p.p.p.p.i.i.i.i.i.i.i.p.p.p.p.p.p.p.p.p.p.p.p.p.p.p.p.a.a.a.a.a.a.a.a.a.a.a.a.a.a.a.a.a.a.a.a.a.a.a.a.a.a.a.a.a.a.a.a.a.f.f.f.a.a.a.a.f.f.f.f.f.f.f.f.f.f.f.f.f.f.f.f.f.f.f.f.f.f.f.f.f.f.a.a.a.a.a.a.a.a.a.a.a.a.a.a.l.;.Z A p A A h j j j z j u u p N j h z N j N N j q h h h x d M 8 h p u z u 0 u m q q p p z x 0 u N p 8 p N j j u u h h u t 0 0 7 0 u t 7 8 p z h p p j A B Z :.N N j j p u j Z h m g q g g u N m h m h z q z V j j j H j j w p J H w.:.J.:.B Z u N w.J.J V e.H G >.>.d g m C C :.z G H C x h >.:.G z G >.x g x y g z z q 0 y d x i 0 G :.C >.g g m m h x g q z u u u h j u w p j p 7 5 u h g g h h q q g q 0 x j u h j C :.C C z h h p h z z h y g d q g m x g N p h x h N V w j N x z G z z :.:.q.t.q.X.v.j.j.f.f.f.h.h.h.h.j.l.l.l.l.h.h.h.l.l.l.l.h.h.h.l.j.h.h.h.h.h.h.h.h.h.h.h.h.h.h.h.h.h.h.h.h.h.h.h.h.h.h.h.h.h.h.h.h.f.f.f.f.f.f.f.f.f.f.f.f.f.f.f.f.h.h.h.h.h.h.f.f.h.h.h.h.h.h.h.h.f.f.f.f.f.f.f.f.f.f.a.a.a.f.f.f.a.a.f.f.f.f.f.a.f.f.f.f.f.a.a.a.a.f.f.f.a.a.a.a.a.a.a.a.a.a.a.a.a.a.s.s.s.p.p.p.p.p.p.p.s.p.s.s.i.i.i.i.i.i.i.i.p.p.i.i.i.p.p.p.i.i.i.i.i.i.i.i.*.*.*.*.@.@.@.@.@.@.@.@.@.@.@.@.i.*.*.*.*.*.i.i.i.i.*.*.*.*.@.@.@.i.i.y ",
"@.@.@.@.@.@.@.@.*.*.*.*.*.@.*.*.*.*.*.*.*.*.*.*.@.@.*.*.*.*.i.i.i.i.i.*.*.*.i.i.i.i.i.i.p.p.p.p.p.p.i.i.i.i.p.p.p.p.p.p.p.p.i.i.p.p.p.p.p.p.p.p.a.a.a.a.a.a.a.a.a.a.a.a.a.a.a.a.a.a.a.a.a.a.a.a.a.a.a.a.a.a.a.a.a.a.a.a.a.a.a.a.f.f.f.f.f.f.f.f.f.f.f.f.f.f.f.f.f.f.f.f.f.f.f.f.f.f.f.f.f.f.f.f.a.a.a.a.f.f.f.f.v.#.z A B h u p t u h z z h h z V j u u h z N N N g q x N j q y t t t q q q w 7 x h q q u j z j A V N p p u u j i q g x j w q x 7 8 0 0 7 7 w j i p p u u h z j G G N x x N x p z h g x x u q p z h g h h g x m N Z w V z z N j Z e.J J.:.C 8 m H w :.G :.h :.:.H >.>.m d g m H :.j C :.H C m m V Z :.:.G m x g g g g y q h C :.m G G x h :.>.g g >.>.h u h j j C g q u u g g q g g u 0 q g u 0 y g y q g g q y h u 7 z V j N N V N z z h u i h d l h i t i h p x g h x g z Z j z r #.f.b.Z.-.0.t.q.:.;.s.d.j.k.l.l.l.l.l.l.h.h.l.h.h.h.l.l.l.l.h.h.h.h.h.h.h.h.h.h.h.h.h.h.h.h.h.h.h.h.h.h.h.h.h.h.h.h.h.h.h.h.f.f.f.f.h.h.h.f.f.f.f.f.f.f.f.f.f.f.f.f.f.f.f.f.h.h.h.h.h.h.h.f.f.f.f.f.f.f.f.f.f.f.f.f.f.f.f.f.f.f.f.f.f.f.f.f.a.a.a.a.a.a.a.a.a.a.a.a.a.a.a.a.a.a.a.a.a.a.a.a.a.a.a.a.a.a.a.a.p.p.p.p.p.p.i.i.i.p.p.p.p.p.p.p.i.i.i.i.p.*.*.*.p.p.p.*.i.i.i.i.i.*.*.*.*.*.*.*.@.@.@.@.*.*.*.*.@.@.@.@.@.@.@.@.*.*.*.*.*.*.*.*.@.@.@.@.*.*.*.*.-.i.s.i ",
"@.@.@.@.@.@.@.@.*.*.*.*.*.@.@.@.*.*.*.*.*.*.*.*.@.@.*.*.*.*.*.i.i.i.i.i.i.*.i.i.i.i.i.i.p.p.p.p.p.p.i.i.i.i.p.p.p.i.p.p.p.p.i.i.p.p.p.p.p.p.p.p.a.a.a.a.a.a.a.a.a.a.a.a.a.a.a.a.a.a.a.a.a.a.a.a.a.a.a.a.a.a.a.a.a.a.a.a.a.a.a.a.f.f.f.f.f.f.f.f.f.f.f.f.f.f.f.f.f.f.f.f.f.f.f.f.f.f.f.f.f.f.f.f.a.a.a.a.f.f.f.a.h.D p A N x h j u u u h h h z C N j p h z N N j C g g z C z g d t i u g h h q 0 q x x 0 w z C h N V N p j j p p g q g j j q q g 8 8 0 0 7 7 0 p p h x x z N N z p z C V V N p w z x g g g u u h x h g g g g M M C V p N N j N j V :.V r.:.H q m V j :.V H j :.G H :.>.m d g z H :.j V :.V C m x C Z Z H G C x h i y y y g x C :.j C :.C h x V C G i 7 x C g q C m u u g u u u 0 g g u 0 0 y y 0 0 y 0 0 y y q g h h u z C j N N N N N N x p u h d g y q y i u p h q g h g z C N h A i.l.l.k.g.9.>.>.;.s.a.h.h.h.l.l.l.l.l.l.h.h.l.h.h.h.l.l.l.l.h.h.h.h.h.h.h.h.h.h.h.h.h.h.h.h.h.h.h.h.h.h.h.h.h.h.h.h.h.h.h.h.f.f.f.f.h.h.f.f.f.f.f.f.f.f.f.f.f.f.f.f.f.f.f.f.h.h.h.h.h.h.h.h.f.f.f.f.f.f.f.f.f.f.f.f.f.f.f.f.f.f.f.f.f.f.f.f.a.a.a.a.a.a.a.a.a.a.a.a.a.a.a.a.a.a.a.a.a.a.a.a.a.a.a.a.a.a.a.a.p.p.p.p.p.p.p.p.i.i.p.p.p.p.p.p.i.i.i.i.p.*.*.*.p.p.*.*.i.i.i.i.*.*.*.*.*.*.*.*.*.@.@.@.*.*.*.*.@.@.@.@.@.@.@.@.*.*.*.*.*.*.*.*.*.@.@.@.*.*.*.*.-.i.s.i ",
"@.@.@.@.@.@.@.@.*.*.*.*.@.@.@.@.*.*.*.*.*.*.*.*.@.@.*.*.*.*.*.*.i.i.i.i.i.i.i.i.i.i.*.*.i.i.i.i.p.i.i.i.i.i.p.p.i.i.i.p.p.p.i.i.p.p.p.p.p.p.p.p.s.s.s.s.a.p.p.p.p.p.s.s.a.a.s.s.a.a.a.a.a.a.a.a.a.a.a.a.a.a.a.a.a.a.a.a.a.a.a.a.a.a.a.a.a.a.a.a.f.f.f.f.f.f.f.f.f.f.f.f.f.f.f.f.f.f.f.f.f.f.f.f.a.f.a.a.f.f.a.a.f.X.j A B m z B N j j j j j j j h h h z m N z j z g g m V j q y h h h h h x g y 8 h x u u h j h N C N j N N p p g q u x j q q g 7 8 0 w 7 7 7 u j h x V G V N z j N V C N N z j x z h y t i h h h x x g g M h d C N j j C h N h B J A w.:.:.y x z Z H N H N G.C G H C M d q x V :.C :.G C >.m x :.:.:.:.C m x x h y q g m C V :.C x G :.C j C >.>.C g g m x g x x g h x g u u 8 y i i q 0 0 q q 0 y q 0 y y y g h z h z N j N j N N N N j p h z h g q y i g h x h q y M g h z N u A s.k.l.k.h.b.i.s.a.f.h.l.h.f.h.h.h.h.h.h.h.h.h.h.h.h.h.h.h.h.h.h.h.h.h.h.h.h.h.h.h.h.h.h.h.h.h.h.h.h.h.h.h.h.h.h.h.h.h.h.h.h.f.f.f.f.f.f.f.f.f.f.f.f.f.f.f.f.f.h.f.f.f.f.h.h.h.h.h.h.h.h.h.h.f.f.f.f.f.f.f.f.f.f.f.f.f.f.f.f.f.f.a.a.a.a.a.a.a.a.a.a.a.a.a.a.a.a.a.a.a.a.a.a.a.a.a.a.a.a.a.a.p.p.p.p.p.p.p.p.p.p.p.p.p.p.p.p.p.p.p.p.p.p.p.p.p.p.p.i.p.i.i.i.p.*.*.*.i.i.*.*.*.*.*.*.*.*.*.*.*.*.@.@.*.*.*.*.@.@.@.@.@.@.@.@.*.*.*.*.*.*.*.*.*.*.@.@.*.*.*.*.-.@.s.i ",
"@.@.@.@.@.@.@.@.@.@.@.@.@.@.@.@.*.*.*.*.*.*.*.*.@.@.*.*.*.*.i.i.i.i.i.i.i.i.i.i.i.i.*.*.*.i.i.i.i.i.i.i.i.i.p.p.i.i.i.p.p.p.i.i.p.p.p.p.p.p.p.p.s.s.s.s.a.a.p.p.p.p.a.a.a.a.s.s.a.a.a.a.a.a.a.a.a.a.a.a.a.a.a.a.a.a.a.a.a.a.a.a.a.a.a.a.a.a.a.a.f.f.f.f.f.f.f.f.f.f.f.f.f.f.f.f.f.f.f.f.f.f.f.f.f.f.a.a.a.a.a.a.l.O.z A V m z A B N N N N j p w u p h z z z j j z g g m N j q q V N j u y g g g y 8 q x h w q z h N z j N z p p g q u h h u q y 0 0 0 q 0 7 0 u h p h V G V N j N B B N A A N B z z h t 0 i g g g z x g g m x y C j z h V j N j C H N q.:.:.q g j H C C :.C G.V V C m g y 0 h N :.G :.N x C x x w.:.:.:.C C m x m g i x m C C :.:.x j :.:.C C C C e.>.h i x x y x g x z g y y q 0 y g i q 0 0 0 0 y q 0 y y q g u N x h h p N p V N A j j j j N x i q y i i g x x i g x M g h C h A s.k.f.k.h.l.h.h.j.h.h.h.a.a.h.h.h.h.h.h.h.h.h.h.h.h.h.h.h.h.h.h.h.h.h.h.h.h.h.h.h.h.h.h.h.h.h.h.h.h.h.h.h.h.h.h.h.f.f.h.h.h.f.f.f.f.f.f.f.f.f.f.f.f.f.f.f.f.f.h.h.f.f.h.h.f.f.h.h.h.h.h.h.h.f.f.f.f.f.f.f.f.f.f.f.f.f.f.f.f.a.f.a.a.a.a.a.a.a.a.a.a.a.a.a.a.a.a.a.a.a.a.a.a.a.a.a.a.a.a.a.a.p.p.p.p.p.p.p.p.p.p.p.p.p.p.i.i.p.p.p.p.p.p.p.i.p.p.p.i.p.i.i.i.*.*.*.*.i.*.*.*.*.*.*.*.*.*.@.@.@.@.@.@.@.@.@.@.@.@.@.@.@.@.@.@.*.*.*.*.*.*.*.*.@.@.@.@.@.@.@.@.-.@.s.i ",
"@.@.@.@.@.@.@.@.@.@.@.@.@.@.@.@.@.@.@.@.*.*.*.*.@.@.*.*.*.*.*.*.*.*.*.i.i.i.i.i.i.i.i.i.i.i.i.i.i.i.i.i.i.i.i.i.p.p.p.p.i.p.p.p.p.p.p.p.p.p.p.p.p.s.s.s.a.a.s.s.p.s.s.s.s.s.s.s.a.a.s.a.a.a.a.s.a.a.a.a.a.a.a.a.a.a.a.a.a.a.a.a.a.a.a.a.a.a.a.a.f.f.f.f.f.f.f.f.f.f.f.f.f.f.f.f.f.f.f.f.f.f.f.f.f.f.f.a.a.a.a.a.f.O.j A N x h p j j j j N N j p p h h h h h h h m g h m C j q y V N h q q y g y g 8 8 g h w w z u x h u p p u p g u u h h u q q 0 8 8 0 q 0 q i u u p z C N N j w p N B A j A N z N x u 0 y i q u x m g g m M q N h C h V h z z h G V :.:.H y y C :.z G w.N w.H H m x f d q g N V V G h g x g g >.:.:.:.H C N m C x h z m C C :.:.h h C :.H C x j V H C x u y m g i g x i q y q 8 q g g i q 0 0 0 y q 0 q q 0 y u z h h u u j u N A p p A N N j x i q u q 0 q g x h g M M g g C A A s.h.g.j.f.h.v.v.l.l.h.h.f.f.h.h.h.h.h.h.h.h.h.h.h.h.h.h.h.h.h.h.h.h.h.h.h.h.h.h.h.h.h.h.h.h.h.h.h.h.h.h.h.h.h.f.f.f.f.f.h.h.f.f.f.f.f.f.f.f.f.f.f.f.f.f.f.f.f.f.h.h.h.f.f.f.f.f.h.h.h.h.f.f.f.f.f.f.f.f.f.f.f.f.f.f.f.f.f.f.a.a.a.a.a.a.a.a.a.a.a.a.a.a.a.a.a.a.a.a.a.a.a.a.a.a.a.a.a.a.a.a.s.s.s.s.p.p.p.p.p.p.p.p.p.p.p.p.p.p.p.p.p.p.i.i.p.p.i.i.i.*.i.i.i.i.*.*.*.*.*.*.*.*.*.@.@.@.@.@.@.@.@.@.@.@.@.@.@.@.@.@.@.@.@.@.*.*.*.*.*.*.*.*.@.@.@.@.@.@.@.@.-.@.i.i ",
"@.@.@.@.@.@.@.@.@.@.@.@.@.@.@.@.@.@.@.@.*.*.*.*.@.@.*.*.*.*.i.i.*.*.*.*.i.i.i.i.*.*.*.*.*.*.*.*.i.i.i.i.i.i.i.i.p.p.p.p.i.p.p.p.p.p.p.p.p.p.p.p.p.p.p.p.p.p.p.p.p.p.p.p.p.p.p.p.a.a.a.a.a.a.a.a.a.a.a.a.a.a.a.a.a.a.a.a.a.a.a.a.a.a.a.a.a.a.a.a.f.f.f.f.f.f.f.f.f.f.f.f.f.f.f.f.f.f.f.f.f.f.f.f.f.f.a.a.a.a.a.a.f.O.j A N z x p N j p w p j z j x h j j h p u u x g g m N u q y j j j u g g y 0 y y q q q u u u u z x u p h h z i y u h g q 0 q q 0 0 q q q q y t u p h N C N j p p p j p j N V B B z p u y u q 0 h x g i g g y z x G z z h p z u C V G :.G g g H J z :.w.z V H :.C h M g y h V C G G h g x y h C C H :.:.G C C C C m m C G :.:.C x C H :.:.G m x x x C C g u z g q y g q 0 q q 0 0 u x x i 0 0 q g g d g y q g t x p p p p z h p p p h B V N j z h i u q 0 q g h h d g M g g m B A s.j.b.j.a.h.b.x.g.f.f.h.h.j.h.h.h.h.h.h.h.h.h.h.h.h.h.h.h.h.h.h.h.h.h.h.h.h.h.h.h.h.h.h.h.h.h.h.h.h.h.h.h.h.f.f.f.f.f.f.f.f.a.a.a.a.f.f.a.a.f.f.f.f.f.f.f.f.f.f.f.f.f.f.f.f.f.f.h.h.h.h.f.f.f.f.f.f.f.f.f.f.f.f.f.f.f.f.f.f.a.a.a.a.a.a.a.a.a.a.a.a.a.a.a.a.a.a.a.a.a.a.a.a.s.s.s.s.a.a.s.s.p.p.p.p.p.p.p.p.p.p.p.p.p.p.p.i.i.i.p.p.p.p.i.i.p.p.i.i.i.*.i.i.*.*.*.*.*.*.*.*.*.*.@.@.@.@.@.@.@.@.@.@.@.@.@.@.@.@.@.@.@.@.@.@.*.@.*.*.*.*.*.*.@.@.@.@.@.@.@.@.-.@.i.i ",
"@.@.@.@.@.@.@.@.@.@.@.@.@.@.@.@.@.@.@.@.@.@.@.@.@.@.*.*.*.*.i.i.i.i.i.i.i.i.i.i.*.*.*.*.*.*.*.*.i.i.i.i.p.p.i.i.p.p.i.i.i.i.p.p.p.p.p.p.p.p.p.p.p.p.p.p.p.p.p.p.s.s.p.p.p.p.p.p.a.a.a.a.a.a.a.a.a.a.a.a.a.a.a.a.a.a.a.a.a.a.a.a.a.a.a.a.a.a.a.a.f.f.f.f.f.f.f.f.f.f.f.f.f.f.f.f.f.f.f.f.f.f.f.f.a.a.a.a.a.a.a.a.f.#.z A N m z j z h u 8 0 p h h u h j N N N h i h y d x j w 0 y h h h h g g g q q g g q 0 i p u u x h u h x h x y i g h u 0 0 0 q 0 0 q y q 0 0 7 u h p z V V j N j p p u p z V B B B z u u u h 7 g x g i g g g h h C N u h u C i m N N :.H z x V G N H :.N j H w.C h m M y h V C H :.m m m y m x m C :.:.:.Z V Z C C m G >.H z C j C >.:.>.:.C x m g i x C x h y 0 q g q q q 0 y 0 q g x x y 0 q g h g h g q g u h u h j j C N u p p u p z B A N z h u u g g y u x d q g g i x B A d.k.b.l.f.j.h.h.h.f.f.h.l.l.h.h.h.h.h.h.h.h.h.h.h.h.h.h.h.h.h.h.h.h.h.h.h.h.h.h.h.h.h.h.h.h.h.h.h.h.h.h.h.h.f.f.f.f.f.f.f.f.a.a.a.a.f.a.a.a.f.f.f.f.f.f.f.f.f.f.f.f.f.f.f.f.f.f.h.h.h.f.f.f.f.f.f.f.f.f.f.f.f.f.f.f.f.f.f.f.a.a.a.a.a.a.a.a.a.a.a.a.a.a.a.a.a.a.a.a.a.a.a.a.p.s.s.s.a.s.s.s.p.p.p.p.p.p.p.p.p.p.p.i.i.i.i.i.i.i.i.p.p.p.p.i.p.p.p.i.i.*.i.i.i.i.*.*.*.*.*.*.*.@.@.@.@.@.@.@.@.@.@.@.@.@.@.@.@.@.@.@.@.@.@.@.@.@.@.@.@.@.@.@.@.@.@.@.@.@.@.@.-.@.i.i ",
"@.@.@.@.@.@.@.@.@.@.@.@.@.@.@.@.@.@.@.@.@.@.@.@.@.@.*.*.*.*.i.*.i.i.i.i.i.i.i.i.*.*.*.*.*.*.*.*.i.i.p.p.p.p.p.i.p.p.p.i.i.i.p.p.p.p.p.p.p.p.p.p.p.p.p.p.p.p.p.p.s.s.s.p.p.p.p.p.a.a.a.a.a.a.a.a.a.a.a.a.a.a.a.a.a.a.a.a.a.a.a.a.a.a.a.a.a.a.a.a.f.f.f.f.f.f.f.f.f.f.f.f.f.f.f.f.f.f.f.f.f.f.f.f.a.a.a.a.a.a.a.a.f.#.z A N m x p 0 t 0 8 t h z z 0 u j V H G z h h d g m j q q d h h h g g x x g q y g g u 8 0 h 8 u 0 8 u p u u y i h h q 0 0 q q 0 0 q y q 8 7 * u x p j V V h x h h h p t 8 t Z B B N h u g z 7 i x x g g g M 0 u z C t z i G h G m x :.>.C m N C C V H V j :.w.C g n M y u B C G >.C G m q m x m G >.>.:.H C V C N x m :.z 7 V q u G >.>.G C x h y q x m N C i 0 y g g y y 0 g q 8 g x x g q 7 y g g g q 8 q h h u z C N G Z z z h 0 8 u z N N z p w u x g 0 h m g q g h y u j j d.k.g.h.a.j.j.j.h.l.l.f.f.f.h.h.h.h.h.h.h.h.h.h.h.h.h.h.h.h.h.h.h.h.h.h.h.h.h.h.h.h.h.h.h.h.h.h.h.h.h.h.h.h.f.f.f.f.f.f.f.f.a.a.a.a.f.f.a.a.f.f.f.f.f.f.f.f.f.f.f.f.f.f.f.f.f.f.h.h.h.h.f.f.f.f.f.f.f.f.f.f.f.f.f.f.f.f.f.f.a.a.a.a.a.a.a.a.a.a.a.a.a.a.a.a.a.a.a.a.a.a.a.a.a.s.s.s.a.a.a.s.p.p.p.p.p.p.p.p.i.p.p.i.i.*.i.i.i.i.i.i.p.p.p.i.p.p.p.i.i.*.i.i.i.i.*.*.*.*.*.*.*.@.@.@.@.@.@.@.@.@.@.@.@.@.@.@.@.@.@.@.@.@.@.@.@.@.@.@.@.@.@.@.@.@.@.@.@.@.@.@.-.@.s.i ",
"+.+.+.+.+.+.+.+.@.@.@.@.@.@.@.@.@.@.@.@.*.*.@.@.*.*.*.*.*.*.*.*.i.i.i.i.i.i.i.i.*.*.*.*.*.*.*.*.*.*.*.*.*.i.*.*.p.p.p.p.p.p.p.p.p.p.p.p.p.p.p.p.p.p.p.p.p.p.p.p.p.p.s.s.s.s.a.a.a.a.a.a.a.a.a.a.a.a.a.a.a.a.a.a.a.a.a.a.a.a.a.a.a.a.a.a.a.a.a.a.f.a.a.a.a.a.a.a.f.f.f.f.f.f.f.f.f.f.f.f.f.f.f.f.f.f.f.a.a.a.a.a.f.-.z p A x p j z w 7 i g u u z h u u t u x x h y g g y y y g y j z h i u j g q q y g q 0 0 y g u i u i t w i u t i u i u y q 0 0 q 0 0 q g q 8 5 7 w q j C N j h g g g h h u h j j N B h 0 q x u q g z g q g m i h x x h z N V w.V g i z V G G g m V V :.j G G e.z m >.g q x G j :.G H V C h y m m C >.>.N x z C G x m :.V C g y g h h G >.x C m >.h y m C j Z z u y 0 g q g d i 0 7 7 y g g g y 0 q g h g q y u h w w N V C G z x g g g u p p N N p 0 u x x q d M g q g h d l r h @.v.v.f.h.j.h.h.h.h.h.h.h.h.h.h.h.h.h.h.h.h.h.h.h.h.h.h.h.h.h.h.h.h.h.h.h.h.h.h.h.h.h.h.h.h.f.h.f.f.f.f.f.f.f.f.f.f.f.f.f.f.f.f.f.f.f.f.f.f.f.f.f.f.f.f.f.f.f.f.f.f.f.f.f.f.f.f.f.f.f.f.f.f.f.f.f.f.f.f.f.f.f.f.f.f.f.f.f.f.a.a.a.a.a.a.a.a.a.a.a.a.a.a.a.a.a.a.a.a.a.a.a.a.a.a.p.p.p.p.p.p.p.p.p.p.p.p.p.p.p.p.p.p.i.i.i.p.i.i.i.i.p.p.p.p.p.p.p.p.i.i.i.i.*.*.*.*.*.*.*.*.*.*.*.@.@.@.@.@.@.@.@.@.@.@.@.@.+.+.+.+.@.@.@.@.@.@.@.@.@.@.@.@.@.@.@.@.@.@.@.@.-.@.i.i ",
"+.+.+.+.+.+.+.+.@.@.@.@.@.@.@.@.@.@.@.@.@.*.@.@.*.*.*.*.*.*.*.*.i.i.i.i.i.i.i.i.*.*.*.*.*.*.*.*.*.*.*.*.i.i.*.*.p.p.p.p.i.p.p.p.p.p.p.p.p.p.p.p.p.p.p.p.p.p.p.p.p.p.s.s.s.s.a.a.a.a.a.a.a.a.a.a.a.a.a.a.a.a.a.a.a.a.a.a.a.a.a.a.a.a.a.a.a.a.a.a.f.f.a.a.a.a.a.a.f.f.f.f.f.f.f.f.f.f.f.f.f.f.f.f.f.f.f.a.a.a.a.a.l.-.m p j j p j j u 0 t t t u j h h i w u u u u g g g g g g g g N z h i h j g y y y q 0 7 0 q q w u u u t w u u i g h i y y q q q q q q q y y 0 7 7 7 8 p N C N y y y i g g h j N j j N h 0 q h h u g x h g g M i h x x h z N H q.:.m h x V G x i m G :.w.B H >.e.:.m m m g g m H >.z :.H >.h g g >.>.C m :.G h x m g x >.:.G z x g g u m :.C H >.>.h q i g z :.C z x q g d h y u t 0 0 q i g h y 0 0 q u q y y u u u w j N N N N m x g g h j j A N h w u h x u d x x g g h g g A x @.l.h.a.h.j.h.h.h.h.h.h.h.h.h.h.h.h.h.h.h.h.h.h.h.h.h.h.h.h.h.h.h.h.h.h.h.h.h.h.h.h.h.h.h.h.f.f.f.f.f.f.f.f.f.f.f.f.f.f.f.f.f.f.f.f.f.f.f.f.f.f.f.f.f.f.f.f.f.f.f.f.f.f.f.f.f.f.f.f.f.f.f.f.f.f.f.f.f.f.f.f.f.f.f.f.f.f.f.f.a.a.a.a.a.a.a.a.a.a.a.a.a.a.a.a.a.a.a.a.a.a.a.a.a.a.p.p.p.p.p.p.p.p.p.p.p.p.p.p.p.p.i.p.i.i.i.i.i.i.i.i.p.p.p.i.p.p.p.p.i.i.i.i.*.*.*.*.*.*.*.*.*.*.@.@.@.@.@.@.@.@.@.@.@.@.@.@.+.+.+.+.@.@.@.@.@.@.@.@.@.@.@.@.@.@.@.@.@.@.@.@.-.@.i.i ",
"@.+.+.+.+.+.@.@.@.@.@.@.+.+.@.@.@.@.@.@.@.@.@.@.*.*.*.*.*.*.*.*.*.*.*.*.*.*.*.*.*.*.*.*.*.*.*.*.*.*.i.i.i.i.i.i.i.i.p.p.i.i.p.p.p.p.p.p.p.p.p.p.p.p.p.p.p.p.p.p.p.p.p.p.p.p.p.p.p.p.p.p.s.s.s.s.a.a.a.a.a.a.a.a.a.a.a.a.a.a.a.a.a.a.a.a.a.a.a.a.a.a.a.a.a.a.f.f.f.f.f.f.f.f.f.f.f.f.f.f.f.f.f.f.f.f.f.a.a.a.a.a.l.s.m h j j p j h u u 0 8 8 i x N z h u p h j h x g y g g y y g N z h i h z x y g y 0 7 w 0 q q 0 u u u u t u u u u g i y u y q q q u q y g g y 8 7 5 5 w x N V q 0 q q q q h z B j p j g 0 q g x u i x h g g g i g h h u p N H J >.G g u N N u 0 h h :.Z j z :.w.w.m x G x q x H >.p :.V G i h 8 g m C C z x h x C h m >.G G m m y g i x G G H G C z h i q h H h x m 8 y y g 0 q t u q 0 0 g x g y q 0 q q y d g u h j j N C z z z h i g x z p p j h q q g g y q x g d g g y g j g #.h.h.a.h.h.h.h.h.h.h.h.h.h.h.h.h.h.h.h.h.h.h.h.h.h.h.h.h.h.h.h.h.h.h.h.h.h.h.h.h.h.h.h.h.h.f.f.f.f.f.f.f.f.f.f.f.f.f.f.f.f.f.f.f.f.f.f.f.f.f.f.f.f.f.f.f.f.f.f.f.f.f.f.f.f.f.f.f.f.f.f.f.f.f.f.f.f.f.f.f.f.f.f.f.f.f.f.f.f.a.a.a.a.a.a.a.a.a.a.a.a.a.a.a.a.a.a.a.a.a.a.a.a.p.p.p.p.p.p.p.p.p.p.p.p.p.p.p.i.i.i.i.i.*.*.*.*.i.p.i.i.p.p.i.i.p.i.p.p.*.*.*.*.*.*.*.*.*.*.*.*.*.@.@.@.@.@.@.@.+.+.+.+.+.+.@.+.+.+.+.+.@.@.@.@.@.@.@.@.@.@.@.@.@.@.@.@.@.@.+.@.-.@.i.i ",
"@.+.+.+.@.@.@.@.@.@.@.@.+.+.@.@.@.@.@.@.@.@.@.@.*.*.*.*.*.*.*.*.*.*.*.*.*.*.*.*.*.*.*.*.*.*.*.*.*.*.*.i.i.i.i.i.*.i.i.p.i.p.p.p.p.p.p.p.p.p.p.p.p.p.p.p.p.p.p.p.p.p.p.p.p.p.p.p.p.p.p.p.s.s.s.s.a.a.a.a.a.a.a.a.a.a.a.a.a.a.a.a.a.a.a.a.a.a.a.a.a.a.a.a.a.a.a.f.f.f.f.f.f.f.f.f.f.f.f.f.f.f.f.f.f.f.f.a.a.a.a.a.l.s.O.h j j h x p u u h t 7 0 x N N x h z C G V G h q i i 0 0 g N z i i h z x y g y 0 0 q q g g 7 q u u i u u u 0 u i u u y y y q q q y g g g y u q 8 7 0 u x N u u q q 8 8 q h B p w p h q q i h q y g g g g d i g h h u p N J Z G m i u N z u z C h :.G N N :.w.:.C x G m y 0 m >.x e.G :.z G i y g m C C G >.x m g m :.C G C m 0 g h x :.:.C C x x m g y h C x z C g h g m g 0 0 w 0 7 7 0 u m x g y q q q y h h N V j N V z z z h 0 u z z p w p h q 0 y i q w g y q y g g j w d +.l.l.h.h.f.h.h.h.h.f.f.f.f.f.f.f.h.h.h.h.h.h.h.h.h.h.h.h.h.h.h.h.h.h.h.h.h.f.h.h.h.h.h.h.h.f.f.f.f.f.f.f.f.f.f.f.f.f.f.f.f.f.f.f.f.f.f.f.f.f.f.f.f.f.f.f.f.f.f.f.f.f.f.f.f.f.f.f.f.f.f.f.f.f.f.f.f.f.f.f.f.f.f.f.f.f.f.f.f.a.a.a.a.a.a.a.a.a.a.a.a.a.a.a.a.a.a.a.a.a.a.a.a.p.p.p.p.p.p.p.p.p.p.p.p.i.p.i.i.i.i.i.i.*.*.*.*.p.p.i.i.i.i.i.i.i.i.p.*.*.*.*.*.*.*.*.*.*.*.*.*.@.@.@.@.@.@.@.@.+.+.+.+.+.+.+.+.+.+.+.+.@.@.@.@.@.@.@.@.@.@.@.@.@.@.@.@.@.@.@.@.-.@.i.i ",
"@.@.+.+.+.+.@.@.@.@.@.@.+.@.@.@.@.@.@.*.@.@.@.@.@.@.*.*.*.*.@.@.*.*.*.*.*.*.*.*.*.*.*.*.*.*.*.*.i.i.i.i.*.i.i.i.*.*.i.p.i.i.p.p.i.i.p.p.p.p.p.p.p.p.p.p.i.i.i.i.p.p.p.p.p.p.p.p.p.p.s.s.s.s.a.a.a.a.a.a.a.a.a.a.a.a.a.a.a.a.a.a.a.a.a.a.a.a.a.a.a.a.a.a.a.a.f.f.f.f.f.f.f.f.f.f.f.f.f.f.f.f.f.f.f.f.f.a.a.a.a.a.g.g.O.l j j h x u t h C z 7 8 h j j h h j C G G C u u x h q 8 y N h i i h z g y d y q q q q h m 7 0 w u u u u u t i i u q y y q g q 0 q g g g q h g q w w u p j h g g q 8 7 0 i p w 8 u h y q y u 0 y i q q g g g h x z h j V :.:.V h i z C N x >.>.h G C N V w.:.V G G G >.C w q C u H V >.G m i g y 8 g :.>.V u g q x G C G G x 0 g g g C G C C x g h y y x C x x m x m d h M q q 0 0 7 7 8 8 m x h g g y y y u u z C h j N h z z h 0 q x h u 7 p h t 0 y i q p u q t d g g h f v @.l.h.h.h.a.h.h.h.h.h.h.h.h.f.h.h.h.h.h.h.h.h.h.h.h.h.h.h.h.h.h.h.h.h.h.h.h.f.f.h.h.h.h.h.h.f.f.f.f.f.f.a.a.f.f.f.f.f.f.f.f.f.f.f.f.f.f.f.f.f.f.f.f.f.f.f.f.f.f.f.f.f.f.f.f.f.f.f.f.f.f.f.f.f.f.f.f.f.f.f.f.f.f.a.a.a.a.a.a.a.a.a.a.a.a.a.a.a.a.a.a.a.a.a.a.a.a.a.a.a.a.a.a.p.p.p.p.p.p.s.s.p.p.p.p.i.i.i.i.i.i.i.i.i.i.i.i.p.p.i.i.i.i.i.i.*.*.*.*.*.*.*.*.*.*.*.*.*.*.*.*.@.@.@.@.@.@.+.+.+.+.+.+.+.+.+.+.+.+.+.+.+.+.@.@.@.@.@.@.@.@.@.@.@.@.@.@.@.@.@.@.-.@.i.i ",
"@.@.+.+.+.+.@.@.@.@.@.@.@.@.@.@.@.@.@.*.*.@.@.@.@.@.*.*.*.*.@.@.*.*.*.*.*.*.*.*.*.*.*.*.*.*.*.*.i.i.i.i.*.i.i.i.*.*.i.i.i.i.i.p.i.i.p.p.p.p.p.p.p.p.p.p.i.i.p.i.p.p.p.p.p.p.p.p.p.p.p.p.p.p.p.p.s.s.s.s.a.a.p.p.a.a.a.a.s.s.s.s.a.a.a.a.a.a.a.a.f.f.a.a.a.a.f.f.f.f.f.f.f.f.f.f.f.f.f.f.f.f.f.f.f.f.f.a.a.a.a.a.g.g.@.n h p h l i 0 p C N w 8 h p h h u h z N N p u u N C u 0 u j h y i h j g y y q 0 q q q g x 0 0 0 0 0 w t u u h h i u q q q q 0 8 q g g y q h g g g u w t p x h h g q 0 0 y w 7 7 u h i q y u q i g 0 q g g i i g x x j N H q.C g g z N z h C G i h x h N J :.z G >.G >.w.z 0 g 4 u C >.G p y 0 8 g m x g 0 q g q x C x x z h q y q 0 x x m z x h g h h g h x i x g h 8 0 q g y q q q w 7 7 g g g g d g g q t u x z j j z p p j u 0 q u u 0 7 p x u t i g y t u q y g d y d ;.-.a.h.a.a.h.a.f.f.h.f.f.f.f.f.f.f.f.f.f.f.f.f.h.h.h.h.h.h.h.h.h.h.h.h.h.h.h.h.f.f.f.f.f.f.f.f.f.f.f.f.f.a.a.a.f.f.f.f.f.f.f.f.f.f.f.f.f.f.f.f.f.f.f.f.f.f.f.f.f.f.f.f.f.f.f.f.f.f.f.f.f.f.f.f.f.f.f.f.f.f.f.f.f.f.a.a.a.a.a.a.a.a.a.a.a.a.a.a.a.a.a.a.a.a.a.a.p.p.p.p.s.s.s.s.p.p.p.p.p.p.p.p.p.p.p.p.i.i.i.*.*.*.i.i.i.i.i.i.p.p.i.i.i.i.i.i.*.*.*.*.*.*.*.*.*.*.*.*.*.*.*.*.@.@.@.@.@.@.+.+.+.+.+.+.+.+.+.+.+.+.+.+.+.+.@.@.@.@.@.@.@.@.@.@.@.@.@.@.+.+.+.+.;.@.i.i ",
"@.@.@.+.+.+.+.@.@.@.+.+.@.@.@.@.@.@.@.@.*.*.@.@.@.@.@.@.@.@.@.@.@.@.@.@.*.*.*.@.*.*.*.*.*.*.*.*.*.*.*.*.*.*.i.i.*.*.*.i.i.p.p.p.i.i.i.i.i.i.i.i.i.i.p.p.i.i.i.i.s.s.p.p.p.p.i.i.p.p.p.p.p.p.p.p.s.s.s.s.a.a.a.a.a.p.a.a.s.s.s.s.a.a.a.a.a.a.a.a.f.f.f.f.a.a.a.f.f.f.f.f.f.f.f.f.f.f.f.f.f.f.f.f.f.f.f.a.a.a.a.a.g.l.s.D h p u d t t u h h p u t u h h u u h h h u w u z z u u g j u i i h h g d d q 0 q q 0 q g u u 0 8 7 0 w w u h h u u y q q 0 0 q y y q q g y y g g i 0 0 i j h h h g q q q 8 7 7 u h i q y u u g g 0 y g g y y g z N z z V :.G x h z N z u z G m x N h V H G C N G G >.:.:.x x 0 w V V H G G q 0 G >.u 5 q y h y z C g g g g i g 0 q i y x j V m h x x q 0 x x m h m g h d d g g g i w 8 7 0 y g d d g y q t h h j N N j j p p u u q 0 8 7 7 p x u y i g y t t w w g y l S b.h.j.h.s.a.h.h.f.f.f.f.f.f.f.f.f.f.f.f.f.f.f.f.h.h.h.h.h.h.h.h.h.h.f.f.f.f.h.h.f.f.f.f.f.f.f.f.f.f.f.f.a.a.a.a.f.f.f.f.f.f.f.f.f.f.f.f.f.f.f.f.f.f.f.f.f.f.f.f.f.f.f.f.f.f.f.f.a.a.a.a.a.a.a.a.f.f.a.a.a.a.a.a.a.a.a.a.a.a.a.a.a.s.a.a.a.a.s.a.a.a.a.a.a.a.a.a.p.a.a.a.s.a.s.s.p.p.p.p.p.s.s.s.p.p.p.p.p.i.*.*.*.*.*.*.*.*.i.i.i.i.i.i.i.i.p.p.*.*.*.*.*.*.*.*.*.*.*.*.*.*.*.*.@.@.@.@.@.@.@.@.#.+.+.+.+.+.+.+.+.+.+.+.+.+.@.@.@.@.@.@.@.@.@.@.@.@.@.+.+.+.+.+.;.@.i.y ",
"@.@.@.@.+.+.@.@.@.@.+.@.@.@.@.@.@.@.@.@.@.@.@.@.@.@.@.@.@.@.@.@.@.@.@.@.*.*.*.@.*.*.*.*.*.*.*.*.*.*.*.*.*.*.i.i.*.*.*.i.i.i.p.p.i.i.i.i.i.i.i.i.i.i.p.p.p.i.i.i.s.s.p.p.p.p.i.i.p.p.p.p.p.p.p.p.s.s.p.p.a.a.a.a.p.p.a.a.a.s.s.s.a.a.a.a.a.a.a.a.f.f.f.f.a.a.a.a.f.f.f.f.f.f.f.f.f.f.f.f.f.f.f.f.f.f.f.a.a.a.a.a.g.l.d.D h e w y 0 i u 7 w h h 0 t i i t t u i t p u u u w 0 i x j u i u h h g d m y 0 q q 0 8 0 h u 0 7 7 7 8 0 q u i q q y g y 7 0 q g q 8 q g 0 q u g i 0 0 p j h h x g y 0 0 w 7 8 g h i y g i u i y 0 y g d g i h C G V C H Z :.>.m z G V u h C G x C u V B C :.z h G G V w.h g w 4 u * N J >.x 0 0 0 8 0 g u g i m G x x x y l x y g i 7 g C >.C 0 i g 0 y 0 i x y x m m g f d d g i q 8 7 0 g g d y g y q 0 x h p B N h x A j h g y 0 8 0 7 u h u y i g q i u e w q d X.b.f.a.j.j.a.h.l.h.f.f.f.f.f.f.f.f.f.f.f.f.f.f.f.f.h.h.h.h.h.h.h.h.h.h.f.f.f.f.h.h.f.f.f.f.f.f.f.f.f.f.f.f.a.a.a.a.f.f.f.f.f.f.f.f.f.f.f.f.f.f.f.f.f.f.f.f.f.f.f.f.f.f.f.f.f.f.f.f.a.a.a.a.a.a.a.a.a.a.a.a.a.a.a.a.a.a.a.a.a.a.a.a.a.a.a.a.a.a.a.a.a.a.a.a.a.a.a.a.p.s.a.a.a.a.s.s.p.p.p.p.p.p.s.s.=.=.p.=.=.*.*.*.*.*.*.*.*.*.i.i.i.i.i.i.p.p.p.p.i.*.*.*.*.*.*.*.*.*.*.*.*.*.*.*.@.@.@.@.@.@.@.+.+.+.+.+.+.+.+.+.+.+.+.+.+.+.@.@.@.@.@.@.@.@.@.@.+.@.@.+.+.+.+.+.;.@.i.i ",
"@.+.+.+.+.+.+.+.+.+.+.+.+.+.+.+.@.@.@.@.@.@.@.@.@.@.@.@.@.@.@.@.@.@.@.@.*.*.*.*.*.*.*.*.*.*.*.*.*.*.*.*.*.*.*.*.*.*.*.*.i.i.*.*.i.i.*.*.p.p.p.p.i.i.p.p.p.p.p.p.i.i.i.p.p.p.i.i.p.p.p.p.p.p.p.p.p.p.p.p.p.p.p.p.a.a.a.a.a.a.a.a.a.a.a.a.a.a.a.a.a.a.a.a.a.a.a.a.f.f.f.f.a.a.a.a.a.a.a.f.f.f.f.a.f.a.a.a.a.a.a.a.f.p.s.F t w j u 0 t 0 8 0 w u w y y q q y y 0 7 g i 0 8 y u y g z h q u x h u g g y q 0 q y q q i 8 q u q 0 w 8 7 0 t t 0 0 0 q 0 u y q q q q q u t 0 u u 0 0 t u x u z z 0 i 8 7 y g i q q y g y y g h u 0 y g d y i C G G N z :.G H H z z :.>.w u z u x m i N :.G z z u H C G m C h 8 7 0 q h >.y 7 g x 0 8 g N h g m m x j C m z z x y 0 y z u 0 0 q g g i y y q d x m G m u m y g g g h q q q u g g g y y q 0 i g h x C z q p h N w i 0 g q y 0 q y d y y d a h p 4 y -.l.a.h.h.h.h.f.f.f.f.f.f.f.f.f.f.f.f.f.f.f.f.f.f.f.f.f.f.f.f.f.f.f.f.f.f.f.f.f.f.f.f.f.f.f.f.f.f.f.f.a.a.a.a.a.a.a.f.f.f.f.f.f.f.f.f.f.f.f.f.f.f.f.f.f.f.f.f.f.f.f.f.f.a.a.a.a.f.f.f.f.f.f.f.f.f.f.f.f.f.f.a.a.a.a.a.a.a.a.a.a.a.a.a.a.a.a.a.a.a.a.a.a.a.a.a.a.a.a.a.p.p.p.p.p.p.s.s.p.p.p.p.p.p.p.p.*.*.*.*.i.i.i.i.*.*.*.*.*.*.*.*.p.p.p.*.*.*.*.i.*.*.*.*.*.*.*.*.*.*.*.@.@.@.@.@.+.+.+.+.+.+.@.+.+.+.+.+.+.+.+.+.+.+.+.+.+.+.+.+.+.+.+.+.+.+.+.+.+.+.+.+.+.+.+.+.%.@.i.i ",
"+.+.+.+.+.+.+.+.+.+.+.+.+.+.+.+.@.@.@.@.@.@.@.@.@.@.@.@.@.@.@.@.*.@.@.@.*.*.*.*.*.*.*.*.*.*.*.*.*.*.*.*.*.*.*.*.i.*.*.*.i.i.i.*.p.i.*.*.p.p.p.p.i.i.p.p.p.p.p.p.i.i.p.p.p.p.i.i.p.p.p.p.p.p.p.p.p.p.p.p.p.p.p.p.a.a.a.a.a.a.a.a.a.a.a.a.a.a.a.a.a.a.a.a.a.a.a.a.a.f.f.f.a.a.a.a.a.a.a.a.f.f.f.f.f.f.a.a.a.a.a.a.l.a.d.#.y w j h h h u u u h h p g i y i g g y y y y 8 8 u g g x h u 0 u x g q u g y q q q q q q i 0 q y 0 8 8 7 7 0 w w 0 8 0 t 0 q y q 0 q q q i t u u u t 0 t t h h z j w i u g y t y y y q 8 y y u u q 0 q g i y i z V G G C j N >.>.x p C G C 0 0 h G G u z G N z G z G z G C G x q 8 8 7 0 m g 0 0 y q q 0 h h g g h x C C h z z i 0 q g g y 0 0 y g g g i g y g m C >.G h y 0 g g x m q 0 q q y g g g y y q y g u h z j q u h z u u u i y u u u u w w w w a p e 5 d s.l.a.h.h.h.h.f.f.f.f.f.f.f.f.f.f.f.f.f.f.f.f.f.f.f.f.f.f.f.f.f.f.f.f.f.f.f.f.f.f.f.f.f.f.f.f.f.f.f.f.a.a.a.a.a.a.a.a.f.f.f.f.f.f.f.f.f.f.f.f.f.f.f.f.f.f.f.f.f.f.f.f.f.f.a.a.a.a.f.f.f.f.f.f.f.f.f.f.f.f.f.a.a.a.a.a.a.a.a.a.a.a.a.a.a.a.a.a.a.a.a.a.a.a.a.a.a.a.a.a.p.p.p.p.p.p.p.p.p.p.p.i.p.p.i.p.*.*.*.*.i.i.i.i.*.*.*.*.*.*.*.*.p.p.*.*.i.*.i.i.*.*.*.*.*.*.*.*.*.*.@.@.@.@.@.@.+.+.+.+.+.+.+.@.+.+.+.+.+.+.+.+.+.+.+.+.+.+.+.+.+.+.+.+.+.+.+.+.+.+.+.+.+.+.+.+.%.@.i.i ",
"+.@.+.+.+.+.+.+.+.+.+.+.+.+.+.+.@.@.@.@.@.@.@.@.@.@.@.@.@.@.@.@.*.*.@.@.*.*.*.*.*.*.*.*.*.*.*.*.*.*.*.*.*.*.*.*.*.*.*.*.*.*.*.*.i.i.*.*.*.*.i.i.p.p.p.p.i.i.p.p.i.i.p.p.p.p.p.p.p.p.p.p.p.p.p.p.p.p.p.p.p.p.p.p.a.a.a.a.a.a.a.a.a.a.a.a.a.a.a.a.a.a.a.a.a.a.a.a.a.a.f.f.a.a.a.a.a.a.a.a.a.a.a.a.f.f.f.a.a.a.a.a.f.a.s.#.d 0 p h h u u t u h h p g i g g g g g g u u 0 8 u g u g h u q h m g 8 u g g y q q 0 q q g q 0 q 0 8 8 7 7 7 w 0 0 8 0 q 8 q i u 0 0 q q t t u h u q 0 t 0 q j j h u 0 u g 0 7 q g i u u g q 0 0 0 0 q y i i i h N G G N p p N C x z z h :.i 8 u G G z G x h z >.G H C :.V :.m g g y q y g g y 8 8 u u 8 h C x q q x C h i x x q 8 y g q q 0 q i g h g h M g g x m m m y 0 q x h h m y 0 q q q g g g g y y y u 0 q h h q w h p u q i y q 4 8 w 8 8 w e e 5 5 7 q S f.l.f.f.f.f.f.f.f.f.f.f.f.f.f.f.f.f.f.f.f.f.f.f.f.f.f.f.f.f.f.f.f.f.f.f.f.f.f.f.f.f.f.f.f.f.f.f.f.f.f.a.a.a.a.a.a.a.a.f.f.f.f.f.f.f.f.f.f.f.f.f.f.f.f.f.f.f.f.f.f.f.f.a.a.a.a.a.a.f.f.f.f.f.f.f.f.f.f.f.f.a.a.a.a.a.a.a.a.a.a.a.a.a.a.a.a.a.a.a.a.a.a.a.a.a.a.a.a.a.a.p.p.p.p.p.p.p.p.p.p.p.p.p.i.i.*.*.*.*.*.*.*.*.*.*.*.*.*.*.*.*.*.p.=.=.*.*.*.*.*.*.*.*.*.*.*.*.*.*.@.@.@.@.@.@.@.+.+.+.+.+.+.+.+.#.#.+.+.+.+.+.+.+.+.+.+.+.+.+.+.+.+.+.+.+.+.+.+.+.+.+.+.+.+.+.+.%.@.i.y ",
"+.+.+.+.+.+.+.+.+.+.+.+.+.+.+.+.@.@.@.@.@.@.@.@.@.@.@.@.@.@.@.@.@.@.@.@.@.@.@.@.*.*.*.*.*.*.*.*.*.*.*.*.*.*.*.*.*.*.*.*.*.*.*.*.i.i.*.*.*.*.i.i.i.i.i.i.i.i.i.i.p.p.p.p.p.p.p.p.p.p.p.p.p.p.p.p.p.p.p.p.p.p.p.p.a.a.a.a.a.a.a.a.a.a.a.a.a.a.a.a.a.a.a.a.a.a.a.a.a.a.a.a.a.a.a.a.a.a.a.a.a.a.a.a.f.f.f.a.a.a.a.a.*.p.a.-.n t w u u t 8 8 t u h u i i i i i g g g g g q 0 u g q y x g u x m q 7 q y g g g q 0 0 q y y 0 8 0 8 7 8 7 7 7 w t w 0 8 8 q i q 0 0 q q 0 t i u t 0 0 q 0 7 h h p h 0 h q 0 q g g q u x g q 0 0 q 0 0 q g g i i h N C N N j p p h m z u C C h u z G G >.g i m G G :.H e.:.>.:.m m x g d q g i 0 0 i g 0 x C m q 0 h x q y h g q 0 y y 0 q 0 0 i g x x m m h g g g h g 5 g h m g g m g y y q q q g g g y y y q 0 q u u q t x g h 0 g 0 0 l F F d q q 0 7 8 0 d D s.j.h.a.f.f.f.f.f.f.f.f.f.f.f.f.f.f.f.f.f.f.f.f.f.f.f.f.f.f.f.f.f.f.f.f.f.f.f.f.f.f.f.f.f.f.f.f.f.f.f.f.f.a.a.a.a.a.a.a.f.f.f.f.f.f.f.f.f.f.f.f.f.f.f.f.f.f.f.f.f.f.f.f.a.a.a.a.a.f.f.f.f.f.f.f.f.f.f.f.a.a.a.a.a.a.a.a.a.a.a.a.a.a.a.a.a.a.a.a.a.a.a.a.a.a.a.a.a.a.a.a.p.p.p.p.p.p.i.i.p.p.p.i.i.i.*.*.*.*.*.*.*.*.*.*.*.*.*.*.*.*.*.*.=.=.*.*.i.*.*.*.*.*.*.*.*.*.*.*.@.@.@.@.@.@.@.@.+.+.+.+.+.+.+.+.#.#.#.#.+.+.+.+.+.+.+.+.+.+.+.+.+.+.+.+.+.+.+.+.+.+.+.+.+.+.+.+.%.@.i.y ",
"+.+.+.+.+.+.+.+.+.+.+.+.+.+.+.+.@.@.@.@.@.@.@.@.@.@.@.@.@.@.@.@.@.@.@.@.@.@.@.@.*.*.*.*.*.*.*.*.*.*.*.*.*.*.*.*.*.*.*.*.*.*.*.*.i.i.*.*.i.i.i.i.p.p.p.p.i.i.i.i.p.p.p.p.p.p.p.p.p.p.p.p.p.p.p.p.p.p.p.p.p.p.p.p.a.a.a.a.a.a.a.a.a.a.a.a.a.a.a.a.a.a.a.a.a.a.a.a.a.a.a.a.a.a.a.a.a.a.a.a.a.a.a.a.a.a.a.a.a.a.a.a.p.a.f.d.O.g 0 p u u t 0 u u u u i i i i y y y y h g q 0 g g q u h u q g h 0 5 q q y g h g 0 0 q q u 0 7 q q 8 q 7 7 7 w u g w 7 8 q y q 0 0 q q 0 u i u 0 8 0 t t 7 h u h z t h g y i x h q 0 i g q 0 q y q 0 0 i i y q i j z z N V V z p u h z x G z u h z C G l x m h h V G :.:.:.:.:.>.m y y q q q y y q q u h h h y q y u q g i y i y q q y q 0 q i g x m G C m x h g g y 7 g h m y y m g g d y q q q q q q y y y q q u q 0 u x g x w x u t a.b.b.*.X.o.o.b #.#.i.f.j.h.a.p.f.f.f.f.f.f.f.f.f.f.f.f.f.f.f.f.f.f.f.f.f.f.f.f.f.f.f.f.f.f.f.f.f.f.f.f.f.f.a.a.a.a.a.a.f.f.f.a.f.f.a.a.a.a.f.f.f.f.f.f.f.f.f.f.f.f.f.f.f.f.f.f.a.f.a.a.f.f.f.f.a.a.a.a.a.a.a.a.f.a.a.a.a.a.a.a.a.a.a.a.a.a.a.a.a.a.a.a.a.a.a.a.a.a.a.a.a.a.a.a.a.a.a.a.a.a.a.a.p.p.p.p.p.p.p.p.p.p.i.i.p.i.i.i.*.*.*.*.*.*.*.*.*.*.*.*.*.*.*.*.i.i.i.i.*.*.*.*.*.*.*.*.*.*.*.*.@.@.@.@.@.@.+.+.+.+.+.+.+.+.+.+.#.#.+.+.+.+.#.#.+.+.+.+.+.+.+.+.+.+.+.+.+.+.+.+.+.+.+.+.+.+.+.+.O.@.i.y ",
"+.+.+.+.+.+.+.+.+.+.+.+.+.+.+.+.+.+.+.+.+.+.+.+.@.@.@.@.+.+.@.@.@.@.@.@.@.@.@.@.*.*.*.*.*.*.*.*.*.*.*.*.*.*.*.*.*.*.*.*.*.*.*.*.*.*.*.*.*.*.*.*.*.*.i.i.*.*.*.*.p.p.p.p.p.p.p.p.p.p.p.p.p.p.p.p.p.p.p.p.p.p.p.p.a.a.a.a.a.a.a.a.a.a.a.a.a.a.a.a.a.a.a.a.a.a.a.a.a.a.a.a.a.a.a.a.a.a.a.a.a.a.a.a.a.a.a.a.a.a.a.a.s.a.p.p.O.d 8 p j h h u t i u q y i g g i y y y g g 0 0 g g y i q q q u g q 0 h y q g x g q 0 0 0 g 0 7 y y 8 q w 7 4 8 p h u 7 8 q q 0 0 q 0 0 t u u t 0 q t t t 7 0 w u h u i m u 0 g z x y 0 g y q y i y q q u q 8 0 u p j B V G N N N h u u z z i z C i t u y i x 7 q z V H j C C G >.x q q q 7 8 i g 0 8 u h h g g y 8 8 0 g y y i i q q g 0 q y g g h x m m x m x g g g q q y M g g m g g d d y q 0 0 q q y y y y y y q q 0 i u i t h p u g.l.l.g.g.v.v.v.j.h.h.h.f.a.a.b.f.f.f.f.f.f.f.f.f.f.f.f.f.f.f.f.f.f.f.f.f.f.f.f.f.f.f.f.f.f.f.f.f.f.f.f.f.a.a.a.a.a.a.a.f.f.f.a.f.f.a.a.a.a.f.f.f.f.f.f.f.f.f.f.f.f.f.f.f.f.f.f.a.a.a.a.a.f.f.f.a.a.a.a.a.a.a.a.f.f.a.a.a.a.a.a.a.a.a.a.a.a.a.a.a.a.a.a.a.a.a.a.a.a.a.a.a.a.a.a.a.a.a.a.a.a.a.a.p.p.p.p.p.p.p.i.i.i.i.i.i.i.*.*.*.*.*.*.*.*.*.*.*.*.*.*.*.*.*.*.i.i.i.*.*.*.*.*.*.*.*.*.*.*.*.*.@.@.@.@.@.+.+.+.+.+.+.+.+.+.+.+.#.#.#.#.#.#.#.#.+.+.+.+.+.+.+.+.+.+.+.+.+.+.+.+.+.+.+.+.+.+.+.+.%.@.i.y ",
"#.#.#.#.#.#.#.#.+.+.#.#.#.#.#.#.+.@.@.@.+.+.+.+.@.@.@.@.@.+.@.@.@.@.@.@.@.@.@.@.*.*.*.*.*.*.*.*.*.*.*.*.*.*.*.*.*.*.*.*.*.*.*.*.*.*.*.*.*.*.*.*.*.*.i.i.i.i.i.i.p.p.i.i.i.i.p.p.p.p.p.p.p.p.p.p.p.p.p.p.p.p.p.p.a.a.a.a.a.a.a.a.a.a.a.a.a.a.a.a.a.a.a.a.a.a.a.a.a.a.a.a.a.a.a.a.a.a.a.a.a.a.a.a.a.a.a.a.a.a.a.a.p.p.*.p.-.d 7 u h h h u 0 0 q 0 q i g g g i i i g i 0 0 g x u i 8 u u q g u u h g q q g g q 0 q 0 j q 7 g y 7 q w 7 4 7 w u u w 0 0 0 0 0 q q 8 t i i t t u t 0 0 q 7 w u w u i N g 0 q x m h q h u y y y q q q i 7 7 t u u p B G N h N G x 7 q m C u m V i u t 0 8 u 4 q h C G g h h x m g 8 0 q 8 8 i g q 0 q C m x g q 7 7 0 y i i y q y i g 0 y g x x g g x g x m x g g g g q 0 g g h m g g l d g q 0 0 q d i y y y y q q u 8 q y 0 u u h u l.l.l.f.f.f.f.f.h.f.g.a.a.a.f.l.f.f.f.f.f.f.f.f.f.f.f.f.f.f.f.f.f.f.f.f.f.f.f.f.f.f.f.f.f.f.f.f.f.f.f.f.a.f.a.a.a.a.a.a.a.a.a.a.f.f.f.a.a.a.f.f.f.f.f.f.f.f.f.f.f.f.a.a.a.a.a.a.a.a.a.a.a.a.a.a.a.a.f.f.f.f.a.a.a.a.a.a.a.a.a.a.a.a.a.a.a.p.p.a.a.a.a.a.a.a.a.a.a.a.a.a.a.a.a.a.a.a.a.a.a.a.a.a.p.p.p.i.i.i.i.i.i.i.i.*.i.i.i.i.*.*.*.*.*.*.*.*.*.*.*.*.*.*.*.*.i.i.*.*.*.*.*.*.*.*.*.*.*.*.*.*.@.@.@.@.+.+.+.+.#.#.+.+.+.+.#.#.#.#.#.#.#.#.#.#.+.+.+.+.+.+.+.+.+.+.+.+.#.#.#.#.#.#.+.+.+.+.+.+.O.#.i.y ",
"#.#.#.#.#.#.#.+.+.+.#.#.#.#.#.#.+.+.@.@.@.+.+.+.@.@.@.@.@.@.@.@.@.@.@.@.@.@.@.@.*.*.*.*.*.*.*.*.*.*.*.*.*.*.*.*.*.*.*.*.*.*.*.*.*.*.*.*.*.*.*.*.*.*.i.i.i.i.i.i.i.i.i.i.i.i.p.p.p.p.p.p.p.p.p.p.p.p.p.p.p.p.p.p.a.a.a.a.a.a.a.a.a.a.a.a.a.a.a.a.a.a.a.a.a.a.a.a.a.a.a.a.a.a.a.a.a.a.a.a.a.a.a.a.a.a.a.a.a.a.a.a.s.p.p.f.b.n 7 a u p p t 0 0 t u 0 y g h g g i i h g 0 0 g g y y 7 u u 0 q u q u h q 0 g g q q y w z q 7 g i 7 0 w 7 7 4 7 0 u u 0 0 8 8 q u q 7 0 t u t t u 0 7 u h 0 h p 0 x h N z h q q g i y h g y y q 0 q g h 0 7 y i 0 u B N N z N N 8 4 h z >.G x h u C z u 7 u 7 i u h m G m g u u 7 4 8 q 0 q u g g q 0 m C m g y y g g q g g q 0 y g y 0 i x m z g y y g x m m g g M l g q g g h x g h l d g q w 0 y g g y y y q q y i y y h 0 h p z p a.p.p.a.f.a.a.f.g.g.b.g.g.h.f.s.f.f.f.f.f.f.f.f.f.f.f.f.f.f.f.f.f.f.f.f.f.f.f.f.f.f.f.f.f.f.f.f.f.f.f.f.f.f.a.a.a.a.a.a.a.a.a.a.f.f.a.a.a.a.f.f.f.f.f.f.f.f.f.f.a.a.a.a.a.a.a.a.a.a.a.a.a.a.a.a.a.a.f.f.f.f.a.a.a.a.a.a.a.a.a.a.a.a.a.a.a.p.p.a.a.a.a.a.a.a.a.a.a.a.a.a.a.a.a.a.a.a.a.a.a.a.a.a.i.p.p.i.i.*.i.i.i.i.*.*.i.i.i.i.*.*.*.*.*.*.*.*.*.*.*.*.*.*.*.*.*.i.*.*.*.*.*.*.*.*.*.*.*.*.*.*.@.@.@.@.+.+.+.+.#.#.#.+.+.+.#.+.#.#.#.#.#.#.#.#.+.+.+.+.+.+.+.+.+.+.+.+.#.#.#.#.#.#.+.+.+.+.+.+.O.@.i.y ",
"#.#.#.#.#.#.#.#.+.+.+.+.+.+.#.#.+.+.+.+.+.+.+.+.@.@.@.@.@.@.@.@.@.@.@.@.@.@.@.@.*.*.*.*.*.*.*.*.*.*.*.*.*.*.*.*.*.*.*.*.*.*.*.*.*.*.*.*.*.*.*.*.i.i.i.i.i.i.*.*.p.p.i.i.*.i.p.p.p.p.p.i.i.p.p.p.p.p.p.p.p.p.p.p.p.p.p.p.p.p.p.p.p.p.p.p.p.p.p.p.a.a.a.a.a.a.p.a.p.p.a.a.a.a.a.a.a.a.a.a.a.a.a.a.a.a.f.a.a.a.a.a.g.g.g.a.p.-.b 0 = 6 t i w e t i t y i i u t t 0 t w 0 7 7 w w 0 8 y g q q y q 7 g y y g i 0 0 q y y g 7 7 g 0 7 0 7 8 q 8 7 7 4 w w u y t 8 7 w 8 q u u t 0 0 0 i t w u u u h z g x g 7 7 q q 7 y y g g w 0 0 q i t q t i u u u B A p p p u i t B H H Z Z N j z m x x u q w w 5 7 w w 8 7 8 0 y h h w 7 i z h 7 0 i x m x g y i y y u q q y i y y y y y y q q q i g g g g g x m h y x h y g g h y h g 0 q g y y u u q q q q q y u u i p p h p p ..h.h.f.g.s.d.s.a.f.f.f.f.f.f.f.f.f.f.f.f.f.f.f.f.f.f.f.a.a.a.a.f.f.f.f.f.f.f.f.a.a.a.a.a.a.a.a.a.a.a.a.a.a.a.a.f.a.a.a.a.a.a.a.f.f.f.f.f.f.f.f.f.f.f.f.f.f.f.f.a.a.a.a.a.a.a.f.f.f.a.a.a.a.a.a.a.a.a.a.a.a.a.a.a.a.a.a.a.a.a.a.p.p.p.p.p.p.p.p.a.a.p.p.a.a.a.a.p.p.p.p.p.p.p.p.p.p.p.p.i.p.p.p.p.p.p.*.*.*.i.i.*.*.*.*.*.*.*.*.*.*.*.*.*.*.*.*.*.*.*.*.*.*.*.*.*.*.*.*.*.*.*.*.*.*.*.&.&.&.&.&.@.@.@.@.+.+.+.+.#.#.#.#.#.#.#.#.o.X.X.+.#.+.+.+.+.+.#.#.+.+.+.+.#.#.#.#.#.#.#.#.+.+.+.+.#.+.+.+.O.@.i.t ",
"#.#.#.#.#.#.#.#.+.+.+.+.+.+.#.#.+.+.+.+.+.+.+.+.+.@.@.@.@.@.@.@.@.@.@.@.@.@.@.@.*.*.*.*.*.*.*.*.*.*.*.*.*.*.*.*.*.*.*.*.*.*.*.*.*.*.*.*.*.*.*.*.i.i.i.i.*.*.*.*.p.p.i.p.*.i.p.p.p.p.p.p.p.p.p.p.p.p.p.p.p.p.p.p.p.p.p.p.p.p.p.p.p.p.p.p.p.p.p.p.a.a.a.a.a.a.p.p.p.p.a.a.a.a.a.a.a.a.a.a.a.a.a.a.a.a.a.a.a.a.a.a.6.g.g.a.a.s.#.v y 7 7 j z t 7 w u u i u i u t t 0 0 7 7 7 8 0 8 0 y u q 0 q 0 7 q 8 0 y y 0 0 y q q g 7 8 g w 7 8 7 8 8 7 7 w 4 0 0 t u y 0 0 w 0 0 t t t q 0 0 u w w u i u u h u x h 0 8 q q 7 q q 0 8 7 8 q i t t 0 q u u h h V B A z N V C m z C N N G G m G x x h u q w 7 5 5 7 0 0 8 0 q g i u t 8 u m C h 0 y g x h i y i t y y q q u i i q i h x h g y y h g g i y y g h m y y q i x g q 0 g g 0 q y q q q 0 0 0 0 0 q q 0 0 0 0 t u u u n f.h.a.g.a.h.i.f.f.f.f.f.f.f.f.f.f.f.f.f.f.f.f.a.f.f.f.a.a.a.a.f.f.f.f.f.f.f.f.a.a.a.a.a.a.a.a.a.a.a.a.a.a.a.a.f.f.a.a.a.a.a.a.f.f.f.f.f.f.f.f.f.f.f.f.f.f.f.f.a.a.a.a.a.a.a.f.f.f.a.a.a.a.a.a.a.a.a.a.a.a.a.a.a.a.a.a.a.a.a.p.p.p.p.p.p.p.p.p.a.a.a.p.a.a.a.a.p.p.p.p.p.p.p.p.p.p.p.p.p.p.p.p.p.p.*.*.*.*.i.i.*.*.*.*.*.*.*.*.*.*.*.*.*.*.*.*.*.*.*.*.*.*.*.*.*.*.*.*.*.*.*.*.*.*.&.&.&.&.&.&.@.@.@.@.+.+.+.+.#.#.#.#.#.#.#.#.X.X.X.+.#.#.+.+.+.#.#.#.+.+.+.+.#.#.#.#.#.#.#.#.+.+.+.+.#.+.#.+.O.@.i.y ",
"#.#.#.#.#.#.#.#.#.#.#.#.#.#.#.#.+.+.+.+.+.+.+.+.+.+.+.@.@.@.@.@.@.@.@.@.@.@.@.@.*.*.*.*.*.*.*.*.*.*.*.*.*.*.*.*.*.*.*.*.*.*.*.*.*.*.*.*.*.*.*.*.*.*.*.*.*.*.*.*.i.i.*.*.*.*.*.*.p.p.p.p.p.i.i.p.p.p.p.p.p.p.p.p.p.p.p.p.p.p.p.p.p.p.p.p.p.p.p.p.p.p.p.p.p.p.p.p.p.p.p.p.p.p.p.p.a.a.a.a.a.a.a.a.a.a.a.a.a.a.a.a.=.g.a.i.p.f.s.@.#.k e A z i w e t t t u u t t t 0 0 7 7 7 8 0 7 q g g q q u y 0 8 7 8 y u 0 0 q 0 q h 8 7 u w 8 7 8 w 7 4 w u 7 0 7 0 t u t w w 0 0 0 t t t t 0 t t u u i t u h u x x u q u q 8 q 0 7 4 4 5 0 q 0 0 0 q t i g h N A j N V G H H i g t t i y t i x x g y y u q 7 7 7 0 0 0 0 q y u h i 8 0 x C N y y i g h g g g q y y u u y i g i h z z x h h h x h g y q q y g m g x g y g y y 8 g g 0 q y 0 q 0 0 0 0 0 q q y u t w t i i i u x b.h.s.f.h.h.=.f.f.f.f.f.f.f.f.f.f.f.f.f.f.f.f.a.a.f.f.a.a.a.a.a.a.a.a.a.a.a.a.a.a.a.a.a.a.a.a.a.a.a.a.a.a.a.a.a.a.a.a.a.a.f.f.f.f.f.f.f.f.f.f.f.f.f.f.f.f.f.f.f.f.a.a.a.a.a.a.f.f.a.a.f.f.f.f.a.a.a.a.a.a.a.a.a.a.a.a.a.p.p.p.p.p.p.p.p.p.p.p.a.p.p.p.p.p.p.p.p.p.p.p.p.p.p.p.p.p.p.p.i.i.p.p.p.=.p.p.*.*.*.*.*.*.*.*.*.*.*.*.*.*.*.*.*.*.*.*.*.*.*.*.*.*.*.*.*.*.*.*.*.*.*.*.*.*.*.&.&.&.&.&.@.@.@.+.+.+.#.#.#.#.#.#.#.#.#.#.X.X.#.#.#.#.#.+.+.+.#.#.+.+.+.+.#.#.#.#.#.#.#.#.+.+.+.+.#.#.+.+.O.@.i.t ",
"#.#.#.#.#.#.#.#.#.#.#.#.#.#.#.#.+.+.+.+.+.+.+.+.+.+.+.@.@.+.@.@.@.@.@.@.@.@.@.@.*.*.*.*.*.*.*.*.*.*.*.*.*.*.*.*.*.*.*.*.*.*.*.*.*.*.*.*.*.*.*.*.*.*.*.*.*.*.*.*.i.i.*.*.*.*.*.*.i.i.p.p.i.i.i.i.p.p.p.p.p.p.p.p.p.p.p.p.p.p.p.p.p.p.p.p.p.p.p.p.p.p.p.p.p.p.p.p.p.p.p.p.p.p.p.p.a.a.a.a.a.a.a.a.a.a.a.a.a.a.a.a.=.g.a.i.i.p.s.i.g.;.m w 8 x j w 0 0 0 0 0 0 0 0 0 0 7 7 7 w 0 8 q i u q u g g y q 0 q g g q 8 0 0 q h 0 7 u w w 7 0 q 7 4 w p 7 w 7 7 0 t t w t 0 0 8 0 t u t 0 t t u h u u i h u h x i q q q 0 g q 8 7 7 7 0 0 0 0 0 0 0 t u h p p p p A B B V m m h u h h u i h g g i g h g y w q q 0 8 8 0 q h x u 0 8 i h h g y q y g g g g y y g h g u g g h z z h h h x m x x g y q q g g g i m x y h g h 0 g q 0 y g q y 0 0 0 0 0 0 q q u u u p h h u i w s.j.a.f.h.l.-.f.f.f.f.f.f.f.f.f.f.f.f.f.f.f.f.a.a.a.a.a.a.a.a.a.a.a.a.a.a.a.a.a.a.a.a.a.a.a.a.a.a.a.a.a.a.a.a.a.a.a.a.a.a.a.f.f.f.f.f.f.f.f.f.f.f.f.f.f.f.f.f.a.a.a.a.a.a.a.a.a.a.a.a.a.a.a.a.a.a.a.a.a.a.a.a.a.a.a.a.a.p.p.p.p.p.p.p.p.p.p.p.p.p.p.p.p.p.p.p.p.p.p.p.p.p.p.p.i.i.i.i.i.i.i.i.p.p.p.i.*.*.*.*.*.*.*.*.*.*.*.*.*.*.*.*.*.*.*.*.*.*.*.*.*.*.*.*.*.*.*.*.*.*.*.*.*.*.*.&.&.&.&.&.@.@.+.+.+.#.#.#.#.#.#.#.#.#.#.X.X.X.X.#.#.#.#.#.#.#.#.#.#.#.#.#.#.#.#.#.#.#.#.#.#.#.#.#.#.#.#.#.O.@.i.t ",
"X.X.X.X.X.X.X.X.#.#.#.#.#.#.#.#.+.+.+.+.+.+.+.+.+.+.+.+.+.+.+.+.@.@.@.@.@.@.@.@.&.&.*.*.*.*.*.*.*.*.*.*.*.*.*.*.*.*.*.*.*.*.*.*.*.*.*.*.*.*.*.*.*.*.*.*.*.*.*.*.i.i.i.i.*.*.*.*.i.p.p.p.p.p.p.p.p.p.p.p.i.i.i.i.p.p.p.p.p.p.p.p.p.p.p.p.p.p.p.p.p.p.p.p.p.p.p.p.p.p.p.p.p.p.p.p.a.a.a.a.a.a.a.a.a.a.a.a.a.a.p.p.p.g.a.p.i.i.i.s.6.g.@.i 6 e h y 0 8 7 7 8 8 7 7 0 0 8 7 7 w 0 8 q u q 0 0 q q q g q u h h q 8 0 0 q j 0 7 g w 0 7 0 u 7 5 u h 8 w 7 4 7 8 w w u 0 0 8 0 t u t 0 0 w u u u u i h u h h u 0 q q 0 u u q u u q w w 0 0 w 0 8 0 u u p p p j B B V V z N h p h h u i h g g g g x h i q q 0 8 7 8 w q h h u 0 0 i i w i 0 7 0 q y y g y y g x h u i g z z z h p p j z C z h y y y g h g 8 u q i C m x h h q 0 g g y y q 0 0 8 8 8 8 8 w t i p h u u 8 7 ;.j.f.g.f.h.-.a.a.a.a.f.a.f.a.a.a.a.a.a.a.a.a.a.a.a.a.a.a.a.a.a.a.a.a.a.a.a.a.a.a.a.a.a.a.a.a.a.a.a.a.a.a.a.a.a.a.a.a.a.a.f.f.a.a.a.a.a.a.a.f.a.a.a.a.a.a.a.a.a.a.a.a.a.a.a.a.a.a.a.a.a.a.a.a.a.a.a.a.a.a.a.a.p.p.p.p.p.p.p.p.p.p.p.p.p.p.p.p.p.p.p.p.p.p.p.p.p.p.p.p.p.p.p.p.p.p.p.p.i.i.i.i.i.i.i.i.*.*.*.*.*.*.*.*.*.*.*.*.*.*.*.*.*.*.*.*.*.*.*.*.*.*.*.*.*.*.*.*.*.*.*.*.*.*.*.*.&.&.+.+.+.+.+.+.#.#.#.#.#.#.#.#.#.#.X.X.X.X.#.#.#.#.#.#.#.#.#.#.#.#.#.#.#.#.#.#.#.#.#.#.+.#.#.#.#.#.#.#.O.@.i.t ",
"X.X.X.X.X.X.X.X.#.#.#.#.#.#.#.X.+.+.+.+.+.+.+.+.+.+.+.+.+.+.+.+.@.@.@.@.+.+.+.+.&.&.*.*.*.*.*.*.*.*.*.*.*.*.*.*.*.*.*.*.*.*.*.*.*.*.*.*.*.*.*.*.*.*.*.*.*.*.*.*.*.*.*.*.*.*.*.*.i.i.i.i.i.i.i.i.p.p.p.p.i.i.p.i.p.p.p.p.p.p.p.p.p.p.p.p.p.p.p.p.p.p.p.p.p.p.p.p.p.p.p.p.p.p.p.p.a.a.a.a.a.a.a.a.a.a.a.a.a.p.p.p.p.a.a.a.p.p.p.a.-.p.s.#.n w u d t q 0 0 t t 0 7 8 0 7 7 7 w 0 8 i u u q 0 0 0 8 q 0 0 g u 0 8 0 q y j 0 8 g 0 7 7 8 w 8 7 p h w w 7 4 5 7 7 0 u 0 0 0 0 t t t t 0 8 8 w t w t i g g g q q q q 8 5 7 0 q q w w 7 w w w 0 0 0 w w B B B V G H J :.H :.Z C V z h j h h g y q u u 0 q 0 8 7 7 8 w q i u w w u x h u g q 8 0 q y i g y q u x x u q y h x x z x j h h Z C x i q q u u z h z u 8 h z m m m g q g g q q g y y q 0 0 0 0 7 8 w i p i w 7 d s.h.f.g.p.f.p.a.a.a.a.a.a.f.f.a.a.a.a.a.a.a.a.a.a.a.a.a.a.a.a.a.a.a.a.a.a.a.a.a.a.a.a.a.a.p.p.a.a.a.a.a.a.a.a.f.f.a.a.a.a.f.f.a.a.a.a.a.a.f.f.a.a.a.a.a.a.a.a.a.a.a.a.a.a.a.a.a.a.a.a.a.a.a.a.a.a.a.a.a.a.a.a.p.p.p.p.p.p.p.p.p.p.p.p.p.p.p.p.p.p.p.p.p.p.p.p.p.p.p.p.p.p.p.p.*.*.i.i.*.*.*.*.i.i.i.*.*.*.*.*.*.*.*.*.*.*.*.*.*.*.*.*.*.*.*.*.*.*.*.*.*.*.*.*.*.*.*.*.*.*.*.*.&.*.*.&.&.+.+.+.+.+.+.+.#.#.#.#.X.X.X.X.#.#.X.X.X.X.X.#.X.o.#.#.#.#.#.#.#.#.#.#.#.#.o.o.#.#.#.#.#.#.#.#.#.#.#.#.O.@.i.t ",
"X.X.X.X.X.X.X.X.X.X.X.#.X.X.X.X.#.#.+.+.+.+.+.+.+.+.+.+.+.+.+.+.@.@.@.+.+.+.+.+.&.&.&.&.*.*.*.*.*.*.*.*.*.*.*.*.*.*.*.*.*.*.*.*.*.*.*.*.*.*.*.*.*.*.*.*.*.*.*.*.*.*.*.*.*.*.*.*.i.i.*.*.i.i.i.i.i.i.p.p.i.i.i.i.=.=.=.p.=.=.=.=.p.p.p.p.p.p.p.p.p.p.p.p.p.p.p.p.p.p.p.p.p.p.p.p.a.a.a.a.a.a.a.a.a.a.a.a.p.p.p.p.s.p.p.a.p.p.p.a.s.i.a.g.p.D d u i u t u i u 0 7 0 0 0 7 8 w 0 8 g u y y u q q q 8 7 7 q q 7 7 0 q u h 0 0 g 8 7 7 5 7 0 w p p 8 0 7 7 7 5 5 7 0 0 q t q 0 0 q t w 8 7 8 w w 0 w u g u u u u 0 7 4 5 0 0 8 7 5 5 0 0 0 0 0 0 0 8 A N B N N V G G x z h i u t 8 0 g h i 0 7 7 7 7 0 0 0 8 8 0 w w 0 0 0 w u z z z g i y y i y g h y 0 q h z g q y u u p x x x x h C z h y 0 0 0 0 u z >.z 7 0 u h m m g d g q 0 y g g y q q q q q 8 8 w u u i u w #.h.a.g.b.p.a.p.a.a.a.a.a.a.a.a.a.a.a.a.a.a.a.a.a.a.a.a.a.a.a.a.a.a.a.a.p.p.p.a.p.p.p.p.p.p.p.p.a.a.a.a.a.a.a.a.f.f.f.f.a.a.a.f.a.a.a.a.a.a.a.a.a.a.a.a.a.a.a.a.a.a.a.a.a.a.a.a.a.a.a.a.a.a.a.a.p.p.p.p.p.p.p.p.p.p.p.p.p.p.=.=.p.p.p.p.p.p.p.p.p.p.p.p.p.p.p.p.p.p.p.p.p.p.p.p.*.*.i.i.i.i.i.i.*.i.*.*.*.*.*.*.*.*.*.*.*.*.*.*.*.*.*.*.*.*.*.*.*.*.*.*.*.*.*.*.*.*.*.*.*.*.*.*.&.&.&.&.+.+.+.+.+.+.+.#.#.#.#.#.X.X.X.X.#.#.#.X.X.X.X.X.X.X.#.#.#.#.#.#.#.#.#.#.#.#.o.o.#.#.#.#.#.#.#.#.#.#.#.#.O.@.i.y ",
"X.X.X.X.X.X.X.X.X.X.X.#.X.X.X.X.#.#.+.+.+.+.+.+.+.+.+.+.+.+.+.+.+.@.@.+.+.+.+.+.&.&.&.&.&.*.*.*.*.*.*.*.*.*.*.*.*.*.*.*.*.*.*.*.*.*.*.*.*.*.*.*.*.*.*.*.*.*.*.*.*.*.*.*.*.*.*.*.i.*.*.*.i.i.i.i.i.i.p.p.p.i.i.i.=.=.=.p.=.=.=.=.p.p.p.p.p.p.p.p.p.p.p.p.p.p.p.p.p.p.p.p.p.p.p.p.a.a.a.a.a.a.a.a.a.a.a.a.p.p.p.p.p.i.i.=.=.*.=.=.i.i.6.g.g.s.F e i u y u i u 0 7 q w w w w q t 0 0 0 0 q q q q q 0 7 7 0 0 7 5 8 u u h 0 0 h 8 5 7 4 4 0 w p p 8 7 7 7 7 5 4 4 7 0 t t t 0 0 0 t u 0 7 8 w w 0 q u u u g h g 0 5 7 w q q 8 7 7 w 0 7 7 0 w w 8 7 p p p p p i i u t i y t y t t i g g i 8 5 5 7 7 0 0 0 q 0 8 7 5 0 0 0 w i h z z g i y y y y i g y 0 w j C x y y p u t u p x x x z h u 0 8 8 8 8 4 0 C z u u 0 7 g x h g i 0 0 g q q 0 8 8 8 0 0 w 8 8 w u i u u l.k.i.=.b.p.a.s.a.a.a.a.a.a.a.a.a.a.a.a.a.a.a.a.a.a.a.a.a.a.a.a.a.a.a.a.p.p.p.p.p.p.p.p.p.p.p.p.a.a.a.a.a.a.a.a.f.f.f.f.a.a.a.a.a.a.a.a.a.a.a.a.a.a.a.a.a.a.a.a.a.a.a.a.a.a.a.a.a.a.a.a.a.a.a.a.p.p.p.p.p.p.p.p.p.p.p.p.p.p.=.=.p.p.p.p.p.p.p.p.p.p.p.p.p.p.p.p.p.p.p.p.p.p.p.p.*.*.i.i.i.i.i.i.*.*.*.*.*.*.*.*.*.*.*.*.*.*.*.*.*.*.*.*.*.*.*.*.*.*.*.*.*.*.*.*.*.*.*.*.*.*.*.*.&.&.&.&.+.+.+.+.+.+.+.#.#.o.#.#.X.X.X.X.#.#.#.X.X.X.X.X.X.X.#.#.#.#.#.#.#.#.#.#.#.#.o.o.#.#.#.#.#.#.#.#.#.#.#.#.O.#.i.t ",
"X.X.X.X.X.X.X.X.#.#.#.#.#.X.#.#.#.#.#.#.#.#.#.#.#.#.+.+.#.+.+.+.+.+.+.+.+.@.@.@.*.*.*.*.&.&.&.&.&.*.*.*.*.*.*.*.*.*.*.*.*.*.*.*.*.*.*.*.*.*.*.*.*.*.*.*.*.*.*.*.*.*.*.*.*.*.*.*.*.*.*.*.*.*.*.*.*.*.*.*.p.p.p.p.p.*.*.*.p.p.p.p.=.=.=.=.p.p.p.p.p.p.=.=.p.p.p.p.p.p.p.p.p.p.p.p.p.p.p.p.p.p.p.p.p.p.p.p.p.p.p.p.=.=.=.=.=.=.=.=.p.p.p.p.p.p.p.=.g e w c ;.0 0 t 8 w w w u u 0 8 7 w u u i t t t 0 8 7 7 7 7 7 7 y i q w 7 7 7 7 7 8 0 0 u u w 5 5 7 w w 0 8 7 5 0 q t u i u 0 8 0 t u t 7 4 7 7 w u u i q 8 8 0 8 w u w 7 4 4 7 w 0 7 0 w u t t j p u w u i u u g u y i y q q i t y y u 0 7 5 7 5 5 7 0 8 7 7 0 q i 7 u h u z p x g g g y 7 0 u y y y g g g g g z j x u i p h V h i u u i y 0 q 6 7 8 t x m g 5 u 7 7 g x u 0 q g g i 8 0 u w 7 8 6 t a 9 7 d O.a.a.a.a.a.a.a.a.a.a.a.a.a.a.a.a.a.a.a.a.a.a.a.a.p.p.p.p.p.p.p.p.p.p.=.p.p.p.p.p.p.p.p.p.p.p.a.a.a.a.a.a.a.a.a.a.a.a.a.a.a.a.a.a.a.a.a.a.a.a.a.a.a.a.a.a.a.a.a.a.a.a.p.p.a.a.a.a.a.a.a.a.a.a.a.p.p.p.p.p.p.p.p.p.=.=.=.=.=.=.=.=.p.p.p.p.p.p.p.p.p.p.p.p.p.p.p.p.p.p.i.*.i.i.p.p.*.*.i.i.i.i.i.i.=.*.*.=.*.*.*.*.*.*.*.*.*.*.*.*.*.*.*.*.*.*.*.*.*.*.*.*.*.*.*.*.*.*.&.&.&.&.&.&.+.+.+.+.+.+.+.+.#.#.#.#.X.X.#.#.X.X.X.X.X.X.X.X.X.X.X.X.#.#.#.#.#.#.#.#.X.X.#.#.X.X.X.X.X.X.X.X.X.X.X.X.X.X.X.X.#.X.;.y ",
"X.X.X.X.X.X.X.X.X.#.#.#.#.#.#.#.#.#.#.#.#.#.#.#.#.#.#.+.#.+.+.+.+.+.+.+.+.+.@.@.*.*.&.*.&.&.&.&.&.&.*.*.*.*.*.*.*.*.*.*.*.*.*.*.*.*.*.*.*.*.*.*.*.*.*.*.*.*.*.*.*.*.*.*.*.*.*.*.*.*.*.*.*.*.*.*.*.*.i.*.p.p.p.=.*.*.*.*.p.p.p.p.=.=.=.=.p.p.p.p.p.p.=.=.p.p.p.p.p.p.p.p.p.p.p.p.p.p.p.p.p.p.p.p.p.p.p.p.p.p.p.p.=.=.=.=.=.=.=.=.p.p.p.p.p.p.p.=.#.n n #.s.q w 0 7 8 w t i i t t 7 w w u t q 0 t u q 0 7 7 7 7 7 q u q w 5 7 7 7 7 7 7 0 w u w 5 7 7 7 7 7 7 7 5 0 q t t u t q 0 t u i u 0 7 7 7 w w u w 0 0 q u 8 w w 0 7 4 4 4 5 5 4 5 7 7 7 7 p p j j x x h p m x h h h g g h y i u u 0 7 5 7 7 5 7 7 7 7 7 0 u u 7 t u w z h m g g g u 8 0 u 0 0 q y y y y q z h h u p p h N h i u u h g y q 6 7 8 w i u u w h 8 7 u x h g h i q q q t 0 7 7 w t a a 9 8 k -.a.a.a.a.a.a.a.a.a.a.a.a.a.a.a.a.a.a.a.a.a.a.a.a.p.p.p.p.p.p.p.p.p.p.p.p.p.p.p.p.p.p.p.p.p.p.a.a.a.a.a.a.a.a.a.a.a.a.a.a.a.a.a.a.a.a.a.a.a.a.a.a.a.a.a.a.a.a.a.a.a.a.a.p.a.a.a.a.a.a.a.a.a.a.p.p.p.p.p.p.p.p.p.p.=.=.=.=.=.=.=.=.p.p.p.p.p.p.p.p.p.p.p.p.p.p.p.p.p.p.p.*.i.i.p.p.*.*.i.i.i.i.*.*.*.*.*.*.*.*.*.*.*.*.*.*.*.*.*.*.*.*.*.*.*.*.*.*.*.*.*.*.*.*.*.*.*.*.&.&.&.&.&.&.+.+.+.+.+.+.+.+.#.#.#.#.X.X.#.X.X.X.X.X.X.X.X.X.X.X.X.X.#.#.#.#.#.#.#.#.X.X.#.#.X.X.X.X.X.X.X.X.X.X.X.X.X.X.X.X.#.X.#.y ",
"X.X.X.X.X.X.X.X.X.X.X.#.#.#.#.#.#.#.#.#.#.#.#.#.#.#.#.#.+.+.+.+.+.+.+.+.+.+.+.+.+.+.&.&.&.&.&.&.&.&.&.&.&.&.&.&.*.*.*.*.*.*.*.*.&.&.*.*.*.*.*.*.*.*.*.*.*.*.*.*.*.*.*.*.*.*.*.*.*.*.*.*.*.*.*.*.i.*.*.*.i.i.i.i.*.*.*.*.i.i.i.i.=.=.=.=.=.=.=.=.=.=.=.=.=.=.=.=.p.p.p.p.p.p.p.p.p.p.p.p.p.p.p.p.p.p.p.p.p.p.p.p.p.p.=.=.=.=.p.p.*.=.p.p.p.p.p.=.h.=.&.s.i.q e w 7 7 8 t i u u t 0 0 w 0 0 0 0 t u q 0 0 0 7 7 7 0 q q w 5 5 7 7 5 7 7 7 0 w w 5 7 7 7 7 7 7 7 5 8 0 t w 0 0 w u q t u t t w 8 7 0 w w 0 0 0 t u 0 8 8 7 7 7 7 7 5 5 4 4 7 7 7 7 u p x z z z z z x h g g g y i g y i g i 0 7 7 7 w 7 7 7 7 7 7 0 u i 8 0 0 w z N C x g g u 0 0 w q q y y i i y y z p i u p h j N h u u h z x g q 7 7 7 8 8 8 w p C i 7 t h h g h x u 0 i i 8 6 8 7 t a a 7 y O.l.a.a.a.a.a.a.a.a.a.a.a.a.a.a.a.a.a.a.a.a.a.a.a.a.p.p.p.p.p.p.p.p.p.p.p.p.p.p.p.p.p.p.p.p.p.p.a.a.a.a.a.a.a.a.a.a.a.a.a.a.a.a.a.a.a.a.a.a.a.a.a.a.a.a.a.a.a.a.a.a.a.a.p.p.p.p.p.p.a.a.a.a.p.p.p.p.p.p.p.p.p.p.p.p.=.=.=.=.=.=.=.=.p.p.p.p.p.p.p.p.p.p.p.p.p.p.p.p.i.i.*.*.*.*.i.i.*.*.*.*.*.*.*.*.*.*.*.*.*.*.*.*.*.*.&.&.&.&.*.*.*.*.*.*.*.*.*.*.*.*.*.*.*.*.*.&.&.&.&.&.&.&.+.&.+.+.+.+.+.+.+.+.#.#.#.#.X.X.X.X.X.X.X.X.X.X.X.X.X.X.X.X.X.X.#.#.#.#.#.#.X.#.#.#.X.X.X.X.X.X.X.X.X.X.X.X.#.#.X.X.#.X.#.y ",
"X.X.X.X.X.X.X.X.X.X.X.#.#.#.#.#.#.#.#.#.#.#.#.#.#.#.#.#.#.+.+.+.+.+.+.+.+.+.+.+.+.+.+.&.&.&.&.&.&.&.&.&.&.&.&.&.*.*.*.*.*.*.*.*.&.&.*.*.*.*.*.*.*.*.*.*.*.*.*.*.*.*.*.*.*.*.*.*.*.*.*.*.*.*.*.*.i.*.*.*.i.i.i.*.*.*.*.*.i.i.i.i.=.=.=.=.=.=.=.=.=.=.=.=.=.=.=.=.=.=.=.=.p.p.p.p.=.=.=.=.p.p.p.p.p.p.p.p.p.p.p.p.p.=.=.=.=.=.=.p.*.=.=.p.p.p.p.=.l.g.=.a.#.w e w 7 7 8 w u i t t 0 0 0 0 0 0 t u 0 0 0 0 w w w 7 7 q w 7 4 4 5 7 5 7 5 7 7 8 7 7 7 7 7 7 7 7 5 5 7 0 w 0 7 7 w u 0 0 0 0 0 0 0 8 7 0 0 0 0 0 t i 0 8 7 7 w w w w 5 5 5 5 5 7 5 5 6 7 7 8 w w p N i g g i y q y y t u i t 0 8 w w w 7 7 7 8 0 0 w q 0 7 7 0 u z C C x g i u 0 7 w q i g i i g g i h h u h j p N N x g p z N m g q 7 4 4 7 7 7 0 h C g 0 0 u i h z C h t 0 8 7 7 8 6 8 8 7 0 v s.h.a.a.a.a.a.a.a.a.a.a.a.a.a.a.a.a.p.p.p.p.p.p.p.p.p.p.p.p.=.=.=.=.p.p.p.p.p.p.p.p.p.p.p.p.p.p.a.a.a.a.a.a.a.a.a.a.a.a.a.a.a.a.a.a.a.a.a.a.a.a.a.a.a.a.a.a.a.a.a.a.p.p.p.p.p.p.p.p.p.p.p.p.p.p.p.p.p.p.p.p.p.p.p.p.=.=.=.=.=.=.=.=.=.=.=.=.=.=.=.=.p.p.p.p.p.p.p.p.*.i.*.*.*.*.i.i.*.*.*.*.*.*.*.*.*.*.*.*.*.*.*.*.*.*.&.&.&.&.*.*.*.*.*.*.*.*.*.*.*.*.*.*.*.*.&.&.&.&.&.&.&.&.+.+.+.+.+.+.+.+.+.+.#.#.#.X.X.X.X.X.X.X.X.X.X.X.X.X.X.X.X.X.X.X.#.#.#.#.#.#.X.X.X.X.X.X.#.#.#.X.X.X.X.X.X.X.#.X.X.X.#.X.#.y ",
"X.X.X.X.X.X.X.X.X.X.X.X.X.#.#.#.#.o.#.#.#.#.#.#.#.#.#.#.#.#.+.+.+.+.+.+.+.+.+.+.+.+.&.&.&.&.+.+.&.&.&.&.&.&.&.&.&.&.*.*.*.*.&.&.&.&.*.*.*.*.*.*.*.*.*.*.*.*.*.*.*.*.*.*.*.*.*.*.*.*.*.*.*.*.*.*.i.i.*.*.i.i.i.i.i.i.i.i.i.i.*.*.=.=.=.=.p.p.=.=.=.=.=.=.=.p.=.=.=.=.p.p.p.p.=.=.=.=.p.p.p.p.=.=.p.p.p.p.p.p.p.p.p.p.=.=.=.=.p.p.=.=.p.p.p.p.=.=.g.6.=.a.b w e t 7 7 8 w t w 0 8 7 8 0 0 0 0 u i 0 0 0 0 w w w 7 7 0 w 7 4 4 7 7 7 5 7 7 7 7 7 7 5 7 7 8 8 7 5 5 7 7 8 7 7 7 0 w w 0 8 7 8 0 0 0 7 0 w w 0 0 0 0 q 0 7 7 7 w w w 5 5 5 5 4 4 5 5 8 7 7 w u p N G q g x x g y i g q i i w 7 7 w 7 7 7 4 7 8 7 w u t 8 7 8 u h z z C x g i u 7 7 7 8 q y q q u y q p x u z x p N B x h h N V z g q w 7 4 7 7 7 8 u x u 0 0 0 w h G x h w 7 6 7 8 6 t a 7 7 d ;.s.s.a.a.a.a.a.a.p.p.p.p.p.p.p.p.p.p.p.p.p.p.p.p.p.p.p.p.p.p.=.=.=.=.p.p.p.p.p.p.p.p.p.p.p.p.p.p.p.p.a.a.a.a.a.a.a.a.a.a.a.a.a.a.a.a.a.a.a.a.a.a.a.a.p.p.p.p.p.p.p.p.p.p.p.p.p.p.p.p.p.p.p.p.p.p.p.p.p.p.p.p.p.p.p.p.=.=.=.=.=.=.=.=.p.p.p.p.=.=.=.=.p.p.p.p.p.p.p.p.*.*.*.*.i.i.i.i.*.*.*.*.*.*.*.*.*.*.*.*.*.*.*.*.&.&.&.&.&.&.&.&.*.&.&.*.*.*.*.*.*.*.*.*.*.*.*.*.&.&.&.+.+.+.+.+.+.+.+.+.+.+.+.+.#.#.#.X.X.X.X.X.X.X.X.X.X.X.X.X.X.X.X.X.X.X.X.X.X.X.X.X.X.X.X.X.X.X.X.X.X.X.X.X.X.X.X.X.X.X.X.X.o.X.#.t ",
"X.X.X.X.X.X.X.X.X.X.X.X.X.#.#.#.o.o.o.o.o.#.o.o.#.#.#.#.#.#.+.+.+.+.+.+.+.+.#.#.+.+.&.&.&.&.+.+.&.&.&.&.&.&.&.&.+.+.&.&.&.&.&.&.+.+.&.&.&.&.+.&.&.&.&.&.*.*.&.&.*.*.*.*.*.*.*.*.*.*.*.*.*.*.*.*.*.*.*.*.*.*.*.*.*.*.*.*.*.*.*.*.*.*.*.*.=.=.*.*.*.*.*.*.=.=.*.*.=.=.=.=.=.=.=.=.=.=.=.=.=.=.=.=.p.p.p.p.p.p.p.p.p.p.=.=.=.=.p.p.=.=.p.p.p.p.=.=.6.9.=.s.d 5 e t 7 7 8 8 w 0 8 7 7 8 0 0 0 0 u i 0 0 0 0 0 0 7 5 7 7 7 4 4 7 7 7 7 5 7 7 7 7 5 7 5 7 7 0 0 7 5 4 7 7 7 7 7 7 7 w w w 0 0 8 0 q t 7 0 0 w q 0 0 8 y 0 7 5 5 7 7 7 7 8 8 7 5 7 7 5 8 7 w p x x z V 0 g x h i y i g u h h w 7 7 7 4 5 4 5 7 7 7 0 w i 0 t 0 u z p h m g g i u 7 5 7 7 q q 0 0 q u q w z u N z u V B h h j B V x g q u 0 7 7 7 7 7 7 x h p u 8 7 u x 8 u t 7 8 a t 6 7 7 7 y D d.g.p.a.a.a.a.a.p.p.p.p.p.p.p.p.p.p.p.p.p.p.=.=.=.=.=.=.=.=.=.=.=.=.=.p.p.=.p.p.p.p.p.p.p.p.p.p.p.a.p.a.a.a.a.a.a.a.a.a.a.a.a.a.a.a.a.a.a.a.a.a.a.p.p.p.p.p.p.p.p.p.p.p.p.p.p.p.p.p.p.p.p.p.p.=.=.=.=.=.=.=.=.=.=.=.=.=.=.=.=.=.=.=.=.=.=.=.=.=.=.=.=.=.=.=.=.=.p.p.p.*.*.*.*.*.*.*.*.*.*.*.*.*.*.*.*.*.*.*.*.*.*.*.*.&.&.+.+.&.&.&.&.&.&.&.&.*.*.*.*.*.*.*.*.*.*.&.&.&.&.&.+.+.+.+.+.+.+.+.+.+.+.+.#.#.#.#.X.X.X.X.X.X.X.X.X.X.X.X.X.X.X.X.X.X.X.X.X.X.X.X.X.X.X.X.X.X.X.X.X.X.X.X.X.X.X.X.X.X.X.X.X.o.X.#.t ",
"X.X.X.X.X.X.X.X.X.X.X.X.X.X.X.#.o.o.o.o.o.o.o.o.#.#.o.#.#.#.#.+.#.#.#.#.#.#.#.#.+.+.+.+.+.+.+.+.&.&.&.&.&.&.&.&.+.+.+.&.&.&.&.&.&.&.&.&.&.&.&.&.&.&.&.&.*.*.*.*.*.*.*.*.*.*.*.*.*.*.*.*.*.*.*.*.*.*.*.*.*.*.*.*.*.*.*.*.*.*.*.*.*.*.*.*.=.=.=.=.*.*.*.*.=.=.=.=.=.=.=.=.=.=.=.=.=.=.=.=.=.=.=.=.=.=.=.=.p.p.=.=.p.p.p.=.=.p.p.p.=.=.p.p.=.=.=.=.=.g.p.d.t 5 e t 7 7 7 8 w w 0 8 7 8 0 0 0 0 0 q 8 8 7 7 7 7 7 4 7 7 7 4 4 7 7 7 7 5 7 7 7 5 5 7 5 5 7 7 7 7 5 5 7 7 7 7 7 7 7 7 7 0 w w 0 8 0 0 7 8 8 0 0 0 0 0 y 0 5 4 4 4 7 0 w w w w 7 5 7 9 4 & * w u t 8 t 0 u i y q y y q u h h w 7 7 7 4 5 7 7 w 7 7 7 w u 0 u u u z u h h g g g u 7 5 7 7 q u 0 8 u g u w z u N N p V N g h N V V j g d i u 0 4 4 7 6 6 x h h i 8 7 7 0 7 7 8 t a a t 8 6 7 w v @.h.g.-.a.a.p.p.p.p.p.p.p.p.p.p.p.p.p.p.=.=.=.=.=.=.=.=.=.=.=.=.=.=.=.=.p.p.p.p.p.p.p.p.p.p.p.p.p.p.a.a.a.a.a.a.a.a.a.a.a.a.a.a.a.a.a.a.p.p.p.p.p.p.p.p.p.p.p.p.p.p.p.p.p.p.p.p.p.p.p.p.p.p.p.=.=.*.*.*.=.=.=.=.=.=.=.=.=.=.=.=.=.=.=.=.=.=.=.=.=.=.=.=.=.=.=.=.=.=.p.p.*.*.*.*.*.*.*.*.*.*.*.*.*.*.*.*.*.*.*.*.*.*.*.*.&.&.+.+.&.&.&.&.&.&.&.&.&.*.*.*.*.*.*.*.*.&.&.&.&.+.+.+.+.+.+.+.+.+.+.#.#.+.#.#.#.#.#.#.X.X.X.X.X.X.X.X.X.X.X.X.X.X.X.X.X.X.X.X.X.X.X.X.X.X.X.X.X.X.X.X.X.X.X.X.X.X.X.X.X.X.X.X.o.X.#.t ",
"X.X.X.X.X.X.X.X.X.X.X.X.X.X.X.X.o.o.o.o.o.o.o.o.#.#.o.#.#.#.#.+.#.#.#.#.#.#.#.#.+.+.+.+.+.+.+.+.&.&.&.&.&.&.&.&.+.+.+.+.&.&.&.&.&.&.&.&.&.&.&.&.&.&.&.&.*.*.*.*.*.*.*.*.*.*.*.*.*.*.*.*.*.*.*.*.*.*.*.*.*.*.*.*.*.*.*.*.*.*.*.*.*.*.*.*.=.=.=.=.*.*.*.*.=.=.=.=.=.=.=.=.=.=.=.=.=.=.=.=.=.=.=.=.=.=.=.=.p.p.=.=.p.p.=.=.=.=.p.p.=.=.p.p.=.=.=.=.i.p.s.d.0 5 r t 7 7 7 0 t t t 0 7 0 0 0 8 7 7 8 7 7 7 7 7 7 7 7 7 7 4 4 7 8 7 7 5 4 5 7 7 4 4 7 5 5 5 5 7 5 5 5 7 7 7 7 8 8 7 7 4 7 w t 0 7 7 7 0 7 7 7 8 0 q t q 8 5 4 4 7 w i 7 7 7 7 4 4 4 5 e 4 4 u p u t t g g y q y g g t u h h w 7 8 0 7 7 w u u 8 7 7 u u 0 h i i z u z h g g g i 7 5 7 5 q u 0 8 u g u w j 8 z V p Z A g h N V V j g M i g q 4 & 4 7 6 8 w t t 8 7 7 8 8 4 4 8 t 8 8 t p p C ;.a.a.p.-.a.a.p.p.p.p.p.p.p.p.p.p.p.p.p.p.=.=.=.=.=.=.=.=.=.=.=.=.=.=.=.=.p.p.p.p.p.p.p.p.p.p.p.p.p.a.a.a.a.a.a.a.a.a.a.a.a.a.a.a.a.a.a.a.p.p.p.p.p.p.p.p.p.p.p.p.p.p.p.p.p.p.p.p.p.p.p.p.=.=.p.=.=.*.*.*.=.=.=.=.=.=.=.=.=.=.=.=.=.=.=.=.=.=.=.=.=.=.=.=.=.=.=.=.=.=.=.=.*.*.*.*.*.*.*.*.*.*.*.*.*.*.*.*.*.*.*.*.*.&.*.*.&.&.&.+.&.&.&.&.&.&.&.&.&.&.*.*.*.*.*.*.*.&.&.&.+.+.+.+.+.+.+.+.+.+.+.#.#.#.#.#.#.#.#.#.X.X.X.X.X.X.X.X.X.X.X.X.X.X.X.X.X.X.X.X.X.X.X.X.X.X.X.X.X.X.X.X.X.X.X.X.X.X.X.X.X.X.X.X.o.S #.t ",
"X.X.X.X.X.X.X.X.X.X.X.X.X.X.X.X.X.X.X.X.X.#.X.X.X.X.X.X.#.#.X.X.#.#.#.#.#.#.#.#.#.#.+.+.#.#.#.#.+.+.+.+.+.+.+.+.&.&.+.+.&.&.&.&.&.&.&.&.&.&.&.&.&.&.&.&.&.&.&.&.*.*.*.*.*.*.*.*.*.*.*.*.*.*.*.*.*.*.*.*.*.*.*.*.*.*.*.*.*.*.*.*.*.*.*.*.*.*.*.*.=.=.=.=.*.*.=.=.p.=.=.=.p.p.p.p.=.=.=.=.=.=.=.=.p.=.=.=.p.p.p.p.=.=.=.=.=.=.=.=.p.=.=.=.p.p.p.p.=.f.h.&.f 5 4 a w 7 7 t 8 6 9 w t w 0 0 8 7 7 7 7 7 7 7 7 7 7 7 7 7 8 8 8 7 7 8 w 7 4 4 4 4 4 4 7 7 4 7 7 7 7 4 4 4 7 4 7 8 9 8 w 7 7 8 u u 8 4 7 7 7 7 7 8 w w 8 8 8 4 4 4 u u 4 7 7 4 & 4 7 4 w w w w w u h x u i h u t y g t t x u 7 w 9 4 5 5 7 0 0 7 5 5 e 4 w p h w 7 4 7 7 w u u u w q q 7 7 8 q u t t y w u p h j j j p h p z B z h x h g g t 8 8 4 & 4 u p u 8 7 8 8 7 8 7 7 8 8 7 7 a g h C 0.s.s.s.i.p.p.p.p.p.p.p.p.p.p.p.p.p.p.p.p.=.=.=.=.=.=.p.=.=.=.=.=.=.=.=.=.p.p.p.p.p.p.p.p.p.p.p.p.p.p.p.p.p.p.p.p.p.p.p.p.p.p.p.p.p.p.p.p.p.p.p.p.p.p.p.p.p.p.p.p.p.p.p.p.p.p.p.p.p.p.p.p.i.i.i.i.i.i.i.i.*.*.*.*.*.*.*.*.=.=.=.=.=.=.=.=.*.*.*.*.*.*.*.*.*.*.*.*.*.*.*.*.*.*.*.*.*.*.*.*.*.*.*.*.*.*.*.*.*.*.*.*.&.&.&.&.+.+.+.+.&.&.&.&.&.&.&.&.&.&.&.&.*.*.&.&.&.&.&.&.+.+.+.+.+.+.#.+.#.#.#.#.o.o.o.o.X.X.X.X.X.X.X.X.X.X.X.X.X.X.X.X.X.X.X.X.X.X.X.X.X.X.X.X.X.X.X.X.X.X.X.X.X.X.X.X.X.X.X.X.X.X.X.X.o...;.t ",
"X.X.X.X.X.X.X.X.X.X.X.X.X.X.X.X.X.X.X.X.X.#.#.X.#.X.X.#.#.#.#.X.#.#.#.#.#.#.#.#.#.#.+.+.#.#.#.#.+.+.+.+.+.+.+.+.&.+.+.+.+.&.&.&.&.&.&.&.&.&.&.&.&.&.&.&.&.&.&.&.*.*.*.*.*.*.*.*.*.*.*.*.*.*.*.*.*.*.*.*.*.*.*.*.*.*.*.*.*.*.*.*.*.*.*.*.*.*.*.*.=.=.=.*.*.*.=.=.p.=.=.=.p.p.p.p.=.=.=.=.=.=.=.=.p.=.=.=.=.p.p.p.=.=.=.=.=.=.=.=.p.=.=.=.p.p.p.p.=.p.a.-.n 8 4 9 8 7 8 8 8 8 0 t u w 0 8 7 7 8 0 7 7 7 7 7 7 7 7 7 7 8 8 8 7 7 8 u w 7 7 8 5 4 5 4 4 4 7 7 8 7 7 4 4 4 4 4 7 7 7 7 4 4 7 w u w 7 7 7 7 7 7 7 7 8 0 8 7 4 4 7 w u 4 9 9 4 4 8 8 4 4 8 p p p p u 8 h u u u t i g t 8 x p 7 8 7 4 7 4 4 7 0 7 5 7 w 7 w h z h w 7 7 7 8 w 0 8 8 0 0 7 7 7 q t t q q 8 u p h j z j j h p A V z h x g h h y q 0 7 4 4 7 8 w 8 7 8 w w 8 8 8 w 8 7 7 w u p m ;.s.s.s.p.p.p.p.p.p.p.p.p.p.p.p.p.p.p.p.p.=.=.=.=.=.=.=.=.=.=.=.=.=.=.=.=.p.p.p.p.p.p.p.p.p.p.p.p.p.p.p.p.p.p.p.p.p.p.p.p.p.p.p.p.a.p.p.p.p.p.p.p.p.p.p.p.p.p.p.p.p.p.p.p.p.p.p.p.p.p.p.p.*.*.*.*.*.i.*.*.*.*.*.*.*.*.*.*.=.=.=.=.=.=.=.=.*.*.*.*.*.*.*.*.*.*.*.*.*.*.*.*.*.*.*.*.*.*.*.*.*.*.*.*.*.*.*.*.*.*.*.*.&.&.&.+.+.+.&.&.&.&.&.&.&.&.&.&.&.&.&.&.*.*.&.&.&.&.&.+.+.+.+.+.+.#.#.#.#.#.#.#.o.o.o.o.X.X.X.X.X.X.X.X.X.X.X.X.X.X.X.X.X.X.X.X.X.X.X.X.X.X.X.X.X.X.X.X.X.X.X.X.X.X.X.X.X.X.X.X.X.X.X.X.o...;.t ",
"X.X.....X.X.X.X.X.X.X.X.X.X.X.X.X.X.X.X.X.X.X.X.X.X.o.o.X.o.X.X.o.o.o.o.o.o.#.#.#.#.#.#.#.#.#.#.+.+.+.+.+.+.+.+.&.&.+.+.+.+.&.&.&.&.&.&.&.&.&.&.&.&.&.&.&.&.&.&.*.*.&.&.&.&.*.*.*.*.*.*.*.*.*.*.*.*.*.*.*.*.*.*.*.*.*.*.*.*.*.*.*.*.*.*.*.*.*.*.=.=.*.*.*.*.=.=.=.=.=.=.=.=.=.=.=.=.*.*.=.=.=.=.=.=.=.=.=.=.p.p.=.=.=.=.=.=.=.=.=.=.=.=.=.=.=.=.p.*.=.s.@.l 7 = 8 w t 8 8 t t y u w 0 7 7 7 0 0 0 7 7 7 7 5 5 5 7 7 8 8 8 7 7 8 w 8 7 8 7 4 4 4 4 4 4 4 7 7 7 7 7 7 7 4 4 7 8 7 4 4 4 4 7 8 8 8 7 7 7 7 7 7 7 7 0 7 7 4 7 8 w 0 4 9 w 7 8 w w 7 7 w u u u p u u z h p h u h h 0 7 p p 7 4 4 4 7 4 4 5 8 7 7 7 w 0 w u h h t 0 8 w w 7 7 7 0 q q 7 7 7 0 w t 0 8 8 w u h z z z j h p N V z p g g g g g y t 7 4 4 * 7 w 8 7 7 7 7 7 7 7 8 8 8 p z e p m ;.p.a.p.-.p.p.p.p.=.=.=.=.=.=.=.=.=.=.=.=.*.*.*.*.*.*.=.*.=.=.=.=.=.=.=.=.p.p.p.p.p.p.p.p.p.p.p.p.p.p.p.p.p.p.p.p.p.p.p.p.p.p.p.p.p.p.p.p.p.p.p.p.p.p.p.p.p.p.p.p.p.p.p.p.p.p.p.=.=.=.=.=.*.*.*.*.*.*.*.*.*.*.*.*.*.*.*.*.*.*.*.*.=.=.=.=.*.*.*.*.*.*.*.*.*.*.*.*.*.*.*.*.*.*.*.*.*.*.*.*.*.*.*.*.*.*.*.*.&.&.&.&.&.+.+.+.+.+.+.&.+.&.&.&.&.&.&.&.&.&.&.&.&.&.&.&.&.+.+.+.+.+.+.+.#.#.#.#.#.#.#.o.o.o.X.X.X.X.X.X.X.X.X.X.X.X.X.X.X.X.X.X.X.X.X.X.X.X.X.X.X.X.X.X.X.X.X.X.X.X.X.X.X.X.X.X.X.X.X.X.X.X.X.X.o...#.t ",
"X.X.......X.X.X.X.X.X.X.X.X.X.X.X.X.X.X.X.X.X.X.X.X.o.o.o.o.X.X.o.o.o.o.o.o.#.#.#.#.#.#.#.#.#.#.+.+.+.+.+.+.+.+.&.&.+.+.+.+.&.&.&.&.&.&.&.&.&.&.&.&.&.&.&.&.&.&.*.*.&.&.&.&.*.*.*.*.*.*.*.*.*.*.*.*.*.*.*.*.*.*.*.*.*.*.*.*.*.*.*.*.*.*.*.*.*.*.=.=.*.*.*.*.=.=.=.=.=.=.=.=.=.=.=.=.*.*.*.*.=.=.=.=.=.=.=.=.p.p.=.=.=.=.=.=.=.=.=.=.=.=.=.=.=.=.=.*.-.p.s.#.y O 7 u p a 7 0 q q w 0 0 0 8 8 0 0 8 7 7 7 5 5 4 4 7 7 8 0 8 8 8 9 w 7 7 8 7 4 4 4 4 4 4 4 7 7 7 7 8 8 7 4 4 7 8 7 4 4 4 4 4 7 7 7 7 7 7 7 7 7 7 7 0 7 7 7 7 7 7 8 7 w w 7 8 u u 8 w u p u p x z N N j j z h h u 8 7 w w 7 4 4 4 4 4 4 5 7 7 7 8 q y 0 0 0 0 0 0 0 w 8 7 7 8 w q q 7 7 7 8 0 w 0 7 0 w u h z z j j g p N N p u g g u y g g t 0 7 4 4 8 u w 7 7 7 7 8 7 7 7 8 p N G p j F -.a.a.=.-.=.=.=.=.=.=.=.=.=.=.=.=.=.=.=.=.*.*.*.*.*.*.*.*.=.=.=.=.=.=.=.=.=.p.p.p.p.p.p.p.p.p.p.p.p.p.p.p.p.p.p.p.p.p.p.p.p.p.p.p.p.p.p.p.=.=.=.p.=.=.=.=.p.p.p.p.=.=.=.=.=.=.=.=.=.=.=.=.*.*.*.*.*.*.*.*.*.*.*.*.*.*.*.*.*.*.*.*.=.=.=.=.*.*.*.*.*.*.*.*.*.*.*.*.*.*.*.*.*.*.*.*.*.*.*.*.*.*.*.*.*.*.*.*.&.&.&.&.&.+.+.+.+.+.+.+.+.+.&.&.&.&.&.&.&.&.&.&.&.&.&.&.&.+.+.+.+.#.+.#.#.#.#.#.#.#.o.o.o.o.o.X.X.X.X.X.X.X.X.X.X.X.X.X.X.X.X.X.X.X.X.X.X.X.X.X.X.X.X.X.X.X.X.X.X.X.X.X.X.X.X.X.X.X.X.X.X.X.X.X.o...#.t ",
"D D D D D ......X.X.X.X.X.X.X.X.X.X.X.X.X.X.X.X.X.X.X.X.X.X.X.X.X.o.o.o.X.X.o.o.#.#.#.#.#.#.#.#.+.+.+.+.+.+.+.+.+.+.+.+.+.+.+.+.+.+.+.+.&.&.&.&.+.+.+.+.&.&.&.&.*.&.&.&.*.*.*.*.*.*.*.*.*.*.*.*.*.*.*.*.*.*.*.*.*.*.*.*.*.*.*.*.*.*.*.*.*.*.*.*.=.*.*.*.=.=.=.=.=.=.=.=.=.=.=.=.*.*.*.*.*.*.*.*.=.=.=.=.=.=.=.p.=.=.=.=.=.=.=.=.=.=.=.=.=.=.=.p.*.-.-.*.s.a.D 7 4 w p e 7 7 0 q 0 0 0 0 0 0 0 8 7 7 7 7 5 5 5 5 7 7 8 8 8 8 8 w w w 8 w 8 4 4 4 5 5 5 4 4 4 4 4 7 7 7 4 4 4 4 4 7 7 5 4 4 4 4 7 7 7 7 7 7 7 7 7 7 7 8 9 7 4 7 w 0 w 8 7 7 t u 8 7 u h x z N N N z j N C j u u 8 w w 8 7 4 4 5 4 4 4 4 7 7 7 0 t i t 8 8 0 8 0 w 8 7 4 7 0 w 0 8 7 7 7 7 0 t 0 7 0 w u j z h j j h p z j u u g g q q h h t u p 7 & 7 8 w 8 7 7 9 w 7 7 7 w j N B p m #.i.a.p.=.-.=.=.=.=.*.*.*.*.=.=.=.=.=.=.=.=.*.*.*.*.*.*.*.*.=.=.=.=.=.=.=.=.=.=.p.p.p.p.=.=.p.p.p.p.p.p.p.p.p.p.p.p.p.p.p.p.p.p.p.p.p.p.=.=.p.p.p.p.=.=.=.=.p.p.p.p.p.p.p.p.=.=.=.=.=.=.*.*.*.*.*.*.*.*.*.*.*.*.*.*.*.*.*.*.*.*.*.*.*.*.*.*.*.*.*.*.*.*.*.*.*.*.*.*.*.*.*.*.*.*.*.*.*.*.*.*.*.*.*.*.*.&.&.&.&.&.&.+.&.&.+.+.+.+.+.+.+.+.&.&.&.&.&.&.+.+.+.+.&.&.&.+.&.&.+.+.+.+.#.#.#.#.#.#.#.#.#.X.X.X.X.X.X.X.X.X.X.X.X.X.D D ........X.X.X.X.X.X.X.X.X.X.X.X.X.X.X.X.X.X.D D ............X.X.X.X.X.X.X.X.X.D #.t ",
"D D D D D D ....X.X.X.X.X.X.....X.X.X.X.X.X.X.X.X.X.X.X.X.X.X.X.X.o.o.o.o.o.o.o.o.o.#.#.#.#.#.#.+.+.+.+.+.+.+.+.+.+.+.+.+.+.+.+.+.+.+.+.&.&.&.&.+.+.+.+.&.&.&.&.&.+.+.+.&.&.&.&.&.&.&.&.*.*.&.&.*.*.*.*.*.*.*.*.*.*.*.*.*.*.*.*.*.*.*.*.*.*.*.*.=.=.*.*.*.*.=.=.*.*.*.*.*.*.*.*.*.*.*.*.*.*.*.*.*.*.*.*.*.*.=.=.=.=.=.=.=.=.=.=.*.*.*.*.*.*.*.*.@.p.6.&.p.f.@.c 7 7 7 e 9 7 7 q 8 0 0 w w 0 0 0 0 7 7 7 7 5 5 5 7 7 8 0 8 8 8 w w 8 8 8 7 4 4 4 5 7 5 4 4 4 4 4 4 7 7 4 4 7 7 4 4 4 4 4 4 4 7 7 8 7 7 7 7 7 7 7 7 7 8 w 7 4 4 w w w 8 7 7 u u 8 8 w u w u p j z j j N C x u t 8 p 8 8 8 7 w w 7 7 5 4 5 7 7 0 u y t t u u w 0 0 7 7 7 7 w u q 8 7 8 7 4 7 u t 7 8 w u x j p p z h h j p w u h g q q h x t p z w & & 4 7 7 4 4 4 4 4 7 w p N B j h D +.*.*.=.=.*.*.*.*.*.*.*.*.*.*.*.*.*.=.=.*.*.*.*.*.*.*.*.*.*.=.=.=.=.=.=.=.=.=.=.=.=.=.=.=.=.p.p.p.p.p.p.p.p.p.p.p.p.p.p.p.p.=.=.=.=.=.=.=.=.=.=.=.=.=.=.=.=.=.=.=.=.=.=.=.=.=.*.*.*.*.*.*.*.*.*.*.*.*.*.*.*.*.*.*.*.*.*.*.*.*.*.*.*.*.*.*.*.*.*.*.*.*.*.*.*.*.*.*.*.*.*.*.*.*.*.*.*.*.*.*.*.*.*.*.*.&.&.+.+.&.&.&.+.+.+.+.+.+.+.+.+.+.+.&.&.&.&.&.&.+.+.+.+.&.&.&.+.&.+.+.+.+.#.#.#.#.#.#.#.#.#.#.X.X.X.X.X.X.X.X.X.X.X.X.X.D D ........X.S X.X.S X.X.X.X.X.X.X.X.X.X.X.X.X.D D ..........D X.X.X.X.X.X.....X.D #.t ",
"..D D D D D D D X.X.X.X.X.X.X.X.X.X.X.X.X.X.X.X.X.X.X.X.X.X.X.X.X.X.X.X.X.X.X.X.#.#.#.#.#.#.#.#.+.+.+.+.+.+.+.+.+.+.+.+.+.+.+.+.+.+.+.+.+.+.+.+.+.+.+.+.+.+.+.+.&.&.+.+.&.&.&.&.&.&.&.&.*.*.*.*.*.*.*.*.*.*.*.*.*.*.*.*.*.*.*.*.*.*.*.*.*.*.*.*.*.*.*.*.*.*.*.*.*.*.*.*.=.=.=.=.*.*.*.*.*.*.*.*.*.*.*.*.*.*.*.*.=.=.=.=.=.=.=.=.*.*.*.*.*.*.=.=.*.p.p.=.-.-.p.i.k t 7 8 w 9 8 t 0 0 0 0 0 0 w t q 0 8 7 7 5 4 4 4 7 8 0 8 8 8 w 8 7 7 7 4 4 4 7 7 7 7 4 4 4 4 5 4 7 8 7 7 8 7 7 4 4 4 4 4 7 7 7 7 7 7 4 4 4 4 7 8 7 7 8 7 4 5 w 0 t w 7 w u p 8 0 0 8 7 7 u z N z h z N h i t 8 u 7 0 u 7 8 u w w 7 4 4 5 7 0 u i y y u t 8 7 w 7 7 7 0 w u q q w w 7 4 7 u u 8 7 8 p x h u p N h h j p p h x g u q x x 0 u C p 7 4 7 8 w 7 7 7 4 w p p j A N A n X.*.*.*.-.*.i.*.*.*.*.*.*.*.*.*.*.*.*.=.=.=.=.*.*.*.*.*.*.*.*.=.=.=.=.=.=.=.=.=.=.=.=.=.=.=.=.p.p.=.=.=.=.=.=.=.=.=.=.p.p.p.p.*.*.*.*.=.=.=.*.=.=.=.=.=.=.=.=.=.=.=.=.=.=.=.=.*.*.*.*.*.*.*.*.*.*.*.*.*.*.*.*.*.*.*.*.*.*.*.*.*.*.*.*.*.*.*.*.*.*.*.*.*.*.*.*.*.*.*.*.*.*.*.*.*.*.*.*.*.*.*.*.*.*.*.&.&.&.+.+.&.+.&.&.+.+.+.+.+.+.+.+.+.+.+.+.+.+.+.+.+.+.+.+.&.+.&.&.+.+.+.+.#.#.#.#.#.o.o.o.#.o.X.X.X.X.X.X.X.X...D X...X.X.D D D D ......D X.X.X.X.X.X.X.X.................D D D D ......D X.D X.X.X.......X.D #.t ",
"..D D D D D D D S X.X.X.X.X.X.X.X.X.X.X.X.X.X.X.X.X.X.X.X.X.X.X.X.X.X.X.X.X.X.X.#.o.o.o.#.#.#.#.+.+.+.+.+.+.+.+.+.+.+.+.+.+.+.+.+.+.+.+.+.+.+.+.+.+.+.+.+.+.+.+.&.&.+.+.&.&.&.&.&.&.&.&.*.*.*.*.*.*.*.*.*.*.*.*.*.*.*.*.*.*.*.*.*.*.*.*.*.*.*.*.*.*.*.*.*.*.*.*.*.*.*.*.=.=.=.=.*.*.*.*.*.*.*.*.*.*.*.*.*.*.*.*.=.=.=.=.=.=.=.=.=.*.*.*.*.*.=.=.-.*.p.g.6.%.*.j.s.l 7 t p t 8 t t 0 8 7 7 0 t i t q 0 7 7 4 4 4 4 7 8 8 8 8 8 w w w 8 8 7 4 7 w 7 7 7 4 4 & 5 5 & 4 7 7 7 7 7 4 4 4 4 4 4 4 4 4 4 4 4 4 4 4 4 7 w 4 4 7 8 7 7 w 0 u u w u p p 7 7 w i p j N V V C h h z h i t 8 u 7 w u 7 7 i t i 0 5 4 5 7 w u y t 0 7 7 4 7 w 7 4 7 7 8 0 0 0 w w 7 4 7 u u 0 4 7 u x p w p N h h j j p z x y u 0 x h 7 u C u w 7 8 p N N N B A V V j p p p j O.=.a.p.-.-.*.i.*.*.*.*.*.*.*.*.*.*.*.*.=.=.=.=.*.*.*.*.*.*.*.*.=.=.=.=.=.=.=.=.=.=.=.=.=.=.=.=.p.p.=.=.=.=.=.=.=.=.=.=.=.p.p.p.*.*.*.*.=.=.*.*.=.=.=.=.=.=.=.=.=.=.=.=.=.=.=.=.*.*.*.*.*.*.*.*.*.*.*.*.*.*.*.*.*.*.*.*.*.*.*.*.*.*.*.*.*.*.*.*.*.*.*.*.*.*.*.*.*.*.*.*.*.*.*.*.*.*.*.*.*.*.*.*.*.*.&.&.&.&.&.+.&.&.&.&.+.+.+.+.+.+.+.+.+.+.+.+.+.+.+.+.+.+.+.+.&.&.&.&.+.+.+.+.#.#.#.#.#.o.o.o.o.o.X.o.X.X.X.X.X.X...X.....X.D D D D D ....D D X.X.S S S X.X.X.................D D D D ....D D D D X.X.X.......X.D #.t ",
"S S S S S S S S D D ........D D X.X.X.X.X.X.X.X.X.X.X.X.X.X.X.X.X.X.X.X.X.X.X.X.o.o.X.X.X.X.o.o.#.#.#.#.#.#.#.#.#.#.#.#.#.#.#.#.+.+.+.+.+.+.+.+.+.+.+.+.+.+.+.+.&.&.&.&.&.&.&.&.&.&.&.&.&.&.&.&.*.*.*.*.*.*.*.*.*.*.*.*.*.*.*.*.*.*.*.*.*.*.*.*.*.*.*.*.*.*.*.*.*.*.*.*.*.*.*.*.*.*.*.*.*.*.*.*.*.*.*.*.*.*.*.*.*.*.*.*.*.*.*.*.*.*.*.*.*.*.*.*.*.*.*.*.*.*.*.*.+.i.#.y 5 e q 0 8 8 0 8 8 8 0 w 7 0 w 8 7 4 4 4 7 8 8 7 w p p w u w 8 4 4 4 4 7 4 4 4 4 4 & 4 9 5 4 4 7 8 w 8 7 4 4 4 4 & & 4 4 7 4 4 4 4 4 4 4 4 7 w 8 7 7 7 7 w w w t t 8 w w 7 w p p p j A V V N B V j w 8 u 0 0 8 7 7 6 8 t w 7 7 7 7 7 w j u u u q q y y y 4 4 4 4 w 8 4 8 8 7 4 4 7 7 w t 8 w p N 4 z w z h h z N j u 0 0 u u u h 8 p G u 7 7 w j B B B B z N N p N G x x *.*.*.*.*.*.*.*.*.*.*.*.*.*.*.*.*.*.*.*.*.*.*.*.*.*.*.*.*.*.*.*.=.=.=.=.=.=.=.=.=.=.=.=.=.=.=.=.p.=.p.p.p.p.p.p.*.*.*.*.*.*.*.*.*.*.*.*.*.*.*.*.*.*.*.*.*.*.*.*.*.*.*.*.*.*.*.*.*.*.*.*.*.*.*.*.*.*.*.*.*.*.*.*.*.*.*.*.*.*.*.*.*.*.*.*.*.*.*.*.*.*.*.*.*.*.*.*.*.*.*.*.*.*.*.*.*.*.*.*.*.*.*.*.&.&.&.&.+.+.+.+.#.#.#.#.#.#.+.+.+.+.+.+.+.+.+.+.+.+.+.+.+.+.+.+.+.+.+.#.#.#.#.#.#.#.#.#.X.X.X.X.X.X.X.X.X.X.X.X.S S S S S S S D D D D D D D D D D D D D ........D D D D D D D D S S S S S S S S S S D D S S S S X.S #.t ",
"S S S S S S S S D D D ..........X.X.X.X.X.X.X.X.X.X.X.X.X.X.X.X.X.X.X.X.X.X.X.X.o.o.X.X.X.X.o.o.#.#.#.#.#.#.#.#.#.#.#.#.#.#.#.#.+.+.+.+.+.+.+.+.+.+.+.+.+.+.+.+.+.&.&.&.&.&.&.&.&.&.&.&.&.&.&.&.*.*.*.*.*.*.*.*.*.*.*.*.*.*.*.*.*.*.*.*.*.*.*.*.*.*.*.*.*.*.*.*.*.*.*.*.*.*.*.*.*.*.*.*.*.*.*.*.*.*.*.*.*.*.*.*.*.*.*.*.*.*.*.*.*.*.*.*.*.*.*.*.*.*.*.*.*.*.*.*.*.i.@.b q 5 7 q 7 8 8 8 7 8 8 w 8 0 w 7 7 4 7 4 7 8 w 8 w p p w w w 7 4 4 4 4 7 7 4 7 7 4 & 4 9 5 4 4 4 7 8 8 7 4 4 4 & 4 4 4 4 4 4 & 4 4 * * 4 4 4 7 8 7 7 7 7 8 8 w 8 8 8 9 w u u p p p j z N H V B N p 8 7 t 0 8 7 7 7 7 8 t 8 7 7 7 7 7 w h 0 0 0 q y y y q 4 7 4 7 w 7 4 8 8 7 7 4 7 8 u i 7 7 u N 7 z w N i i p j j h h h 8 p x h w j G 7 7 7 8 p B B B V N p j A B x g ;.*.*.*.*.*.*.*.*.*.*.*.*.*.*.*.*.*.*.*.*.*.*.*.*.*.*.*.*.*.*.*.*.=.=.=.=.=.=.=.=.=.=.=.=.=.=.=.=.=.=.=.=.p.p.p.p.*.*.*.*.*.*.*.*.*.*.*.*.*.*.*.*.*.*.*.*.*.*.*.*.*.*.*.*.*.*.*.*.*.*.*.*.*.*.*.*.*.*.*.*.*.*.*.*.*.*.*.*.*.*.*.*.*.*.*.*.*.*.*.*.*.*.*.*.*.*.*.*.*.*.*.*.*.*.*.*.*.*.*.*.*.*.*.*.&.&.&.+.+.+.+.+.#.#.#.#.#.#.+.+.+.+.+.+.+.+.+.+.+.+.+.+.+.+.+.+.+.+.#.#.#.#.#.#.#.#.#.#.X.X.X.X.X.X.X.X.X.X.X.X.S S S S S D S S D D D D D D D D D D D D ........D D D D D D D D S S S S S S S S S S D D S S D S X.S #.t ",
"S S S S S S S S S D D D ........X.X.S S X.X.X.X.X.X.X.X.X.X.X.X.X.X.X.X.X.X.X.X.o.o.X.X.X.X.X.o.o.o.o.o.o.o.#.#.#.#.#.#.o.o.o.o.+.+.+.+.+.+.+.+.+.+.+.+.+.+.+.+.+.&.&.&.&.&.&.&.&.&.&.&.&.&.&.&.&.&.&.&.&.&.*.&.*.*.*.*.&.&.&.&.*.*.*.*.*.*.*.*.*.*.*.*.*.*.*.*.*.*.*.*.*.*.*.*.*.*.*.*.*.*.*.*.*.*.*.*.*.*.*.*.*.*.*.*.*.*.*.*.*.*.*.*.*.*.*.*.*.*.*.*.*.*.*.*.=.*.i.-.n 7 4 w 7 7 7 7 7 7 8 8 8 0 8 7 4 7 7 7 7 w w w u p u w w 8 7 4 4 4 4 7 4 7 9 9 4 & 4 9 4 4 & * 4 7 7 7 7 4 4 & 4 4 4 4 4 & & 4 4 4 4 4 4 4 4 7 7 7 7 5 5 8 t t t 8 w e 8 8 w u p z A A H N j j w 7 7 w 8 8 7 7 7 8 0 u 8 8 7 7 4 7 0 u 8 0 q u u q 0 7 4 8 8 8 8 4 4 8 0 7 7 4 7 8 u u 7 7 w z 7 h w z h u u h j j x x 7 h x p w z H 7 4 4 8 p B B B B N p A A j l v s.*.*.*.*.*.*.*.*.*.*.*.*.*.*.*.*.*.*.*.*.*.*.*.*.*.*.*.*.*.*.*.*.*.*.=.=.=.=.*.*.=.=.*.*.=.=.=.=.*.*.*.*.*.*.*.*.*.*.*.*.*.*.*.*.*.*.*.*.*.*.*.*.*.*.*.*.*.*.*.*.*.*.*.*.*.*.*.*.*.*.*.*.*.*.*.*.*.*.*.*.*.*.*.*.*.*.*.*.&.&.&.&.*.*.&.&.&.&.*.*.+.+.+.+.&.&.&.&.+.+.+.+.&.&.&.&.&.&.+.+.&.&.&.&.&.+.+.+.+.+.+.+.#.#.#.#.#.#.#.#.+.+.+.+.+.+.+.+.+.+.+.+.+.+.+.+.#.#.#.#.#.#.#.#.#.#.#.o.X.X.X.X.X.X.X.X.X.X.X.X.S S D D D S S S D D D D D D D D ..D D D D D D ..S S S S S S S S S S S S S S S S S S S S S S S S ..S F t ",
"S S S S S S S S S S D D D ....D X.X.S S X.X.X.X.X.X.X.X.X.X.X.X.X.X.X.X.X.X.X.X.o.X.X.X.X.X.X.X.o.o.o.o.#.o.#.#.#.#.#.#.o.o.o.o.+.+.+.+.+.+.+.+.+.+.+.+.+.+.+.+.&.&.+.&.&.&.&.&.&.&.&.&.&.&.&.&.&.&.&.&.&.&.&.&.*.*.*.*.&.&.&.&.*.*.*.*.*.*.*.*.*.*.*.*.*.*.*.*.*.*.*.*.*.*.*.*.*.*.*.*.*.*.*.*.*.*.*.*.*.*.*.*.*.*.*.*.*.*.*.*.*.*.*.*.*.*.*.*.*.*.*.*.*.*.*.*.-.&.=.s.#.d 7 9 7 7 7 7 7 7 8 8 8 0 8 4 4 7 7 7 8 8 w w u u u w 8 7 7 4 4 4 4 7 4 7 w 7 4 & & 5 7 4 & & 4 4 7 7 7 4 4 4 7 7 7 4 4 4 4 4 4 4 4 7 * * * 4 7 8 7 5 4 7 u u u u p p 7 7 8 w u p j j h u w w 7 7 7 w 7 7 7 7 7 8 0 u t 0 8 7 7 7 t i y i i u u w 7 5 7 w 8 7 w 7 4 8 w 8 7 4 7 7 w u u 7 7 h 7 u w p x u u p j z x x u x h u w j V 8 7 7 w j B B A A N p A e g ;.*.s.*.*.*.*.*.*.*.*.*.*.*.*.*.*.*.*.*.*.*.*.*.*.*.*.*.*.*.*.*.*.*.*.*.=.=.=.=.*.*.*.=.=.*.*.*.*.=.=.*.*.*.*.*.*.*.*.*.*.*.*.*.*.*.*.*.*.*.*.*.*.*.*.*.*.*.*.*.*.*.*.*.*.*.*.*.*.*.*.*.*.*.*.*.*.*.*.*.*.*.*.*.*.*.*.*.*.*.*.&.&.&.&.*.*.&.&.&.&.*.*.+.+.+.+.&.&.&.&.+.+.+.+.&.&.&.&.&.&.&.&.&.&.&.&.+.+.+.+.+.+.+.+.#.#.#.#.#.#.#.#.+.+.+.+.+.+.+.+.+.+.+.+.+.+.+.+.#.#.#.#.#.X.X.#.o.#.X.X.X.X.X.X.X.X.X.X.X.X.X.X.D D D S D D S S S S D D D D S S D D D D D D D D S S S S S S S S S S S S S S S S S S S S S S S S ..S F t ",
"S S S S S S S S S S S D D D D D ........D D D D X.X.X.X.X.X.X.X.X.X.X.X.X.X.X.X.X.X.X.X.X.X.X.X.X.X.X.X.o.o.o.o.#.#.#.#.#.#.#.#.+.+.+.+.+.+.+.+.+.+.+.+.+.+.+.+.+.+.&.+.+.&.&.&.&.&.&.&.&.&.&.&.*.*.*.*.&.&.&.*.&.*.*.*.*.*.&.&.*.*.*.*.*.*.*.*.*.*.*.*.*.*.*.*.*.*.*.*.*.*.*.*.*.*.*.*.*.*.*.*.*.*.*.*.*.*.*.*.*.*.*.*.*.*.*.*.*.*.*.*.*.*.*.*.*.*.*.*.*.*.*.*.=.-.=.p.=.D y & 7 8 8 8 7 7 8 w 8 8 7 4 4 7 7 7 7 7 8 w u w w 8 8 7 4 4 4 4 7 4 4 7 9 7 4 & & 5 7 7 4 * 4 4 5 5 7 4 4 4 7 8 4 * 4 4 4 4 4 4 4 7 * * & 4 4 7 7 4 4 7 w u u p p p 8 u p w w w u w 8 7 7 7 7 7 7 w 7 7 7 7 7 7 8 t t 0 8 7 7 8 0 t i i u u w w 7 5 8 8 4 7 w w 4 7 w 8 7 4 4 7 8 w h 8 * w 7 u u u u t w h N N z x x z p h p u p 8 7 7 w j A A p j B 9 w u n ;.p.*.*.*.*.*.*.*.*.*.*.*.*.*.*.*.*.*.*.*.*.*.*.*.*.*.*.*.*.*.*.*.*.*.*.*.=.=.=.=.*.*.*.*.*.*.*.*.*.*.*.*.*.*.*.*.*.*.*.*.*.*.*.*.*.*.*.*.*.*.*.*.*.*.*.*.*.*.*.*.*.*.*.*.*.*.*.*.*.*.&.&.&.&.*.*.*.*.*.*.*.*.*.*.*.*.*.*.*.*.*.*.*.*.&.&.&.&.&.&.&.&.+.+.&.&.&.&.+.+.+.+.&.&.&.&.+.+.+.+.+.+.&.&.&.&.+.+.+.+.+.+.+.o.#.#.#.#.#.#.#.#.+.+.+.+.+.+.+.+.+.+.+.+.+.+.+.+.o.o.o.X.X.X.X.X.o.o.o.X.X.X.X.X.X.X.X.X.X.X.S S D D S S S S S S S S S S S S S S ....D D D D S D S S S S S S S S S S S S S S S S S S S S S S S S ..S F 8 ",
"S S S S S S S S S S S S ..D D D ........D D D D X.X.X.X.X.X.X.X.X.X.X.X.X.X.X.X.X.X.X.X.X.X.X.X.X.X.o.X.o.o.X.o.o.o.#.#.o.o.#.o.+.+.+.+.+.+.+.+.+.+.+.+.+.+.+.+.+.+.+.+.+.&.&.&.&.&.&.&.&.&.&.&.&.&.&.&.+.&.&.&.+.+.+.&.&.&.&.+.*.*.*.*.&.&.&.&.*.*.*.*.*.*.*.*.*.*.*.*.*.*.*.*.*.*.*.*.*.*.*.*.*.*.*.&.*.*.*.*.*.*.*.*.*.*.*.*.*.*.*.*.*.*.*.*.*.*.*.*.*.*.*.*.p.=.-.-.=.*.k 4 8 8 8 8 8 7 8 w 8 8 7 4 4 7 8 7 7 7 7 w w w 8 8 8 7 4 4 7 7 7 7 7 8 8 4 4 & 4 & 7 4 4 4 4 4 4 4 4 4 4 4 7 7 4 * 4 4 & 4 4 4 4 4 * * * * 4 4 7 7 4 4 8 w a p p e u p p p u p p p 8 8 8 8 8 7 8 7 4 7 7 4 7 7 8 0 8 0 7 4 4 7 8 8 0 0 8 8 7 7 7 7 8 7 4 7 u w 4 7 7 8 7 4 4 4 7 8 j u * 7 7 u j u i t w h N z h i u u w x z u u 8 7 7 w p A A p p V & 7 n O.-.+.@.&.&.&.&.&.&.&.&.*.*.*.*.&.&.&.*.*.*.*.*.*.*.*.*.*.*.*.*.*.*.*.*.*.*.=.=.=.=.*.*.*.*.*.*.*.*.*.*.*.*.*.*.*.*.*.*.*.*.*.*.*.*.*.*.*.*.*.*.*.*.*.*.*.*.*.*.*.*.*.*.&.&.&.&.&.&.&.&.+.+.+.+.&.&.&.&.*.*.*.*.&.&.&.&.&.&.&.&.&.&.&.&.&.&.+.+.&.&.&.&.+.+.&.&.&.&.+.+.+.+.&.&.&.&.+.+.+.+.+.+.&.&.&.&.+.+.+.+.o.o.o.o.o.o.o.o.#.o.o.o.+.+.+.+.+.+.+.+.+.+.+.+.+.+.+.o.o.o.o.X.X.X.X.X.o.o.X.X.X.X.X.X.X.X.X.X.X.D D D D S S S S S S S S S S S S S S S S S S S S S S S S S S S b b S S S S S S S S S S S S S S S S S S ..S F 8 ",
"S S S S S S S S S S S S S ..D D D D ......D D D ................X.X.X.X.X.X.X.X.X.X.X.X.X.X.X.X.X.X.X.X.X.X.X.X.o.o.o.o.o.o.#.#.o.o.o.o.o.o.o.o.+.+.+.+.+.+.+.+.+.+.+.+.+.+.+.&.&.&.&.&.&.&.&.&.&.&.&.&.&.&.&.&.&.+.&.&.&.*.+.+.*.&.*.*.&.&.&.&.*.*.*.*.*.*.*.*.*.*.*.*.*.*.*.*.*.*.*.*.*.*.*.*.*.*.&.&.&.&.*.*.*.*.*.*.*.*.*.*.*.*.*.*.*.*.*.*.*.*.*.*.*.*.*.*.i.*.-.-.=.=.X.l 8 8 8 8 8 8 8 w 8 7 7 4 7 7 8 7 7 7 7 w u 8 7 7 8 7 4 4 7 9 7 7 8 8 7 4 & 4 & O & 4 4 4 4 4 4 4 4 4 4 4 4 4 4 4 4 4 4 4 4 4 4 4 * * * 4 4 4 4 7 4 4 7 8 u p p w p p p p j B N p t t 0 0 8 8 7 7 7 7 7 7 4 7 7 8 8 8 7 4 4 7 7 7 4 4 7 7 7 7 7 7 7 7 4 7 u w 4 4 4 7 7 7 4 4 7 w h p 7 7 7 w z w t w u h z h u t 7 u 7 u x u u 7 4 7 w p j p p p B & y O.+.+.+.+.&.&.&.&.&.*.&.&.*.*.&.&.&.&.*.*.*.*.*.*.*.*.*.*.*.*.*.*.*.*.*.*.*.*.*.=.=.=.*.*.*.*.*.*.*.*.*.*.*.*.*.*.*.*.*.*.*.*.*.*.*.*.*.*.*.*.*.*.*.*.*.*.*.*.*.*.*.*.*.*.&.&.&.&.&.&.&.&.&.&.+.+.&.&.+.+.*.&.*.*.&.&.&.&.&.&.&.&.&.&.&.&.&.&.+.+.&.&.&.&.+.+.+.+.+.+.+.+.+.+.+.+.+.+.+.+.+.+.+.+.+.+.+.+.o.o.o.o.o.o.o.o.#.#.#.#.#.#.o.o.+.+.+.+.+.+.+.+.o.o.o.o.o.o.o.o.o.X.X.X.X.X.X.X.X.X.X.X.X.X.X.X.X.X.X.X.....D D S S S S S S S S S S S S S S S S S S S S S S S S S S S S b S S S S S S S S S S S S S S S S S S S ..S F 8 ",
"S S S S S S S S S S S S S S D D D D ......D D D ................X.X.X.X.X.X.X.X.X.X.X.X.X.X.X.X.X.X.X.X.X.X.X.X.o.o.o.o.o.o.#.#.o.o.o.o.o.o.o.o.+.+.+.+.+.+.+.+.+.+.+.+.+.+.+.+.&.&.&.&.&.&.&.&.&.&.&.&.&.&.&.&.&.&.&.*.*.*.+.+.&.&.*.*.&.&.&.&.*.*.*.*.*.*.*.*.*.*.*.*.*.*.*.*.*.*.*.*.*.*.*.*.*.*.&.&.&.&.&.&.*.*.*.*.*.*.*.*.*.*.*.*.*.*.*.*.*.*.*.*.*.*.*.*.#.+.-.6.6.=.=.;.7 8 8 8 7 7 8 w 7 7 7 4 7 8 8 7 7 7 7 w u w 7 7 8 7 4 4 7 9 7 7 8 8 4 & & 4 & O O O 4 4 4 4 4 4 5 5 & & O & 4 5 7 4 4 7 7 4 4 7 * & 4 * * * 7 7 7 4 4 8 p p p e N z p p A H B w t t 0 8 8 8 7 7 7 8 7 7 7 7 7 7 w w 8 4 4 7 7 7 & 4 4 7 7 7 7 7 4 7 7 8 w 7 4 4 4 4 7 7 5 4 8 w p z u 7 7 7 z 7 7 7 0 p z z h h w j 8 7 u w 8 * 7 7 w p p p w w p 7 D @.#.i.-.X.+.+.&.&.&.&.&.&.*.&.&.&.&.&.*.*.*.*.*.*.*.*.*.*.*.*.*.*.*.*.*.*.*.*.*.=.=.=.*.*.*.*.*.*.*.*.*.*.*.*.*.*.*.*.*.*.*.*.*.*.*.*.*.*.*.*.*.*.*.*.*.*.*.*.*.*.*.*.*.*.&.&.&.&.&.&.&.&.&.&.+.+.+.+.+.+.&.&.*.*.&.&.&.&.&.&.&.&.&.&.&.&.&.&.&.+.&.&.&.&.+.+.+.+.+.+.+.+.+.+.+.+.+.+.+.+.+.+.+.+.+.+.+.+.o.o.o.o.o.o.o.o.#.#.#.#.#.#.o.o.+.+.+.+.+.+.+.+.o.o.o.o.o.o.o.o.X.X.X.X.X.X.X.X.X.X.X.X.X.X.X.X.X.X.X.X...D D D S S S S S S S S S S S S S S S S S S S S S S S S S S S S b b S S S S S S S S S S S S S S S S S S ..b F 8 ",
"S S S S S S S S S S S S S S S S D D D D D D S S D D D D D ....................X.X.X.X.X.X.X.X.X.X.X.X.X.X.X.X.X.X.X.X.X.X.X.X.o.o.o.o.o.o.o.o.o.o.o.o.+.+.o.o.o.+.+.+.+.+.+.+.+.+.+.+.+.+.+.+.+.+.+.+.+.+.+.+.+.&.&.+.+.+.+.+.+.*.*.*.*.*.*.*.&.*.*.*.*.*.*.*.*.&.&.&.&.&.&.&.&.&.&.&.&.&.&.&.&.&.&.&.&.&.&.&.&.&.&.&.&.&.&.&.&.*.*.*.*.*.*.*.*.*.*.*.*.*.*.*.*.*.*.*.*.*.*.=.=.d q 7 4 6 w 0 7 7 7 5 7 7 7 0 w 7 7 7 8 w 7 7 7 7 8 7 7 w 7 7 w 9 6 * & & & & O & & & * 4 4 4 4 4 4 4 & O O & 5 7 7 4 4 4 4 5 7 9 9 4 & & * 6 w 7 4 4 7 w w u u p A B p 9 p z w 8 7 7 8 7 7 7 w 4 7 7 7 7 t w 6 w w w 5 7 u u 0 5 4 4 4 7 4 4 7 7 7 4 4 4 & 4 4 5 5 4 4 4 7 7 7 7 z u 8 7 4 w * 0 w w p V N w 5 & & & 4 4 7 7 4 7 8 p p p p p j e S =.-.o.@.*.-.&.&.&.&.&.&.&.&.*.*.&.&.&.*.*.*.*.*.*.*.*.*.*.*.*.*.*.*.*.*.*.*.*.*.*.*.*.*.*.*.*.*.*.*.*.*.*.*.*.*.*.*.*.*.*.*.*.*.*.*.*.*.*.*.*.*.*.*.*.*.*.*.*.*.&.&.&.&.*.*.&.&.+.+.&.&.&.&.+.&.+.+.&.+.+.+.&.+.+.+.+.+.&.&.&.&.+.+.+.&.&.&.+.+.+.+.+.+.+.+.+.+.+.+.+.+.+.+.+.+.+.+.+.+.+.+.+.+.+.+.+.+.+.+.X.X.X.X.X.X.X.X.#.#.#.#.#.#.X.X.o.#.#.#.o.o.o.o.#.#.#.X.X.X.X.X.X.X.X.X.X.X.X.X.....S S S S S S ..........D D D S S S S S S S S S S S S S S S S S S S S S S S S b b S S b b b b b b b b b b b b b b S S S S S b ..v F 8 ",
"S S S S S S S S S S S S S S S S D D D D D D S S D D D D D ......................X.X.X.X.X.X.X.X.X.X.X.X.X.X.X.X.X.X.X.X.X.X.X.o.o.o.o.o.o.o.o.o.o.o.o.o.+.+.o.o.+.+.+.+.+.+.+.+.+.+.+.+.+.+.+.+.+.+.+.+.+.+.+.+.&.&.+.+.+.+.+.+.&.&.&.&.&.&.&.&.*.*.*.*.*.*.*.*.&.&.&.&.&.&.&.&.&.&.&.&.&.&.&.&.&.&.&.&.&.&.&.&.&.&.&.&.&.&.&.&.*.*.*.*.*.*.*.*.*.*.*.*.*.*.*.*.*.*.*.*.*.*.*.*.;.d 4 7 w 7 4 8 7 7 7 4 7 7 7 8 7 4 7 8 8 7 7 7 8 7 4 7 w 7 7 8 7 7 4 * * 4 4 & & & * * & & & & 4 4 4 & & & & 4 4 4 4 4 4 4 4 4 7 6 5 4 * * 4 7 8 7 4 4 7 w w w A B Z p 9 p x p 8 7 7 7 7 7 7 7 4 7 7 4 7 u u 8 7 w w 5 7 u i 0 7 4 4 7 8 7 8 w 7 7 4 4 4 4 4 4 5 5 4 4 4 7 7 7 u p u p w 4 7 4 8 w 8 w h u 7 * & & & 4 4 7 7 4 6 w w a p p p e e S =.-.o.@.*.&.&.&.&.&.&.&.&.&.*.*.*.*.&.*.*.*.*.*.*.*.*.*.*.*.*.*.*.*.*.*.*.*.*.*.*.*.*.*.*.*.*.*.*.*.*.*.*.*.*.*.*.*.*.*.*.*.*.*.*.*.*.*.*.*.*.*.*.*.*.*.*.*.*.*.&.&.&.*.*.*.&.+.+.+.+.&.&.&.+.+.+.+.+.&.+.+.&.&.+.+.+.+.&.&.&.&.+.+.+.+.&.&.+.+.+.+.+.+.+.+.+.+.+.+.+.+.+.+.+.+.+.+.+.+.+.+.+.+.+.+.+.+.+.#.X.X.X.X.X.X.X.X.#.#.#.#.o.#.X.X.o.#.#.#.o.o.o.o.#.#.#.X.X.X.X.X.X.X.X.X.X.X.X.X.....X.X.S S S S ..........D D D S S S S S S S S S S S S S S S S S S S S S S S S b S S S b b b b b b b b b b b b b b S S S S b b ..v D 8 ",
"b b S S S S S S S S S S S S S S S S S S S S S S S S S D D D D D D D ............X.X.X.X.X.X.X.X.X.X.X.X.X.X.X.X.X.X.X.X.X.X.X.X.o.o.o.o.o.o.o.o.o.o.o.o.o.o.o.o.+.+.+.+.+.+.+.+.+.+.+.+.+.+.+.+.+.+.+.+.+.+.+.+.&.&.&.+.&.&.&.&.&.&.&.&.&.&.&.&.+.+.&.&.&.&.&.&.&.&.&.&.&.&.&.&.&.&.&.&.&.&.&.&.&.&.&.&.&.&.&.&.&.&.&.&.&.&.&.&.&.&.&.&.*.*.*.*.*.*.*.*.*.*.*.*.*.*.*.*.*.*.*.*.b.D q 7 5 5 6 7 7 5 5 4 7 7 7 7 7 4 4 7 8 7 7 7 9 7 4 4 w 8 7 7 7 4 4 4 6 6 6 5 & & & & & & & & 4 4 & & 4 4 4 & & & 4 4 4 4 7 7 4 4 6 7 4 4 4 4 8 7 4 4 4 7 w w B V H B 9 8 p j w 7 4 7 8 8 7 7 7 7 7 4 7 u u u 7 w w 7 0 u h u 4 4 4 7 7 7 8 w 8 7 4 & 4 4 4 4 5 5 4 4 4 7 7 7 z w p j p 7 & w 8 w 7 8 p p t w 4 4 * 4 4 7 7 7 6 w w w w p p 9 r S *.%.o.+.*.&.&.&.&.&.&.&.&.&.&.&.&.&.&.&.&.&.*.*.*.*.&.&.&.&.*.*.&.&.&.&.*.*.*.*.*.*.*.*.*.*.*.*.*.*.*.*.*.*.&.&.&.&.&.&.*.*.*.*.*.*.&.&.&.&.&.&.*.*.*.*.*.*.&.&.&.&.&.&.&.&.&.&.+.+.+.+.&.&.+.&.&.+.&.&.+.&.&.&.&.&.+.+.+.&.&.+.+.+.&.&.&.&.+.+.+.+.+.+.+.+.+.+.+.+.+.+.+.+.+.+.+.+.+.+.+.+.+.+.+.+.+.#.o.#.X.X.X.X.X.X.X.X.X.o.X.X.o.X.X.X.o.#.#.#.o.o.o.o.X.X.X.X.X.X.X.X.X.X.X.X.X.X.X.X.........X.X.S X.D D D D D S S S S S S S S S b b S S S S b S S S b b S S S S S S b b S S b b b b b b b b b b b b b b b b b b b b S v D 8 ",
"b b b b b b b b S S S S S S S S S S S S S S S S S S S S S D D D S D D ..........X.X.X.X.X.X.X.X.X.X.X.X.X.X.X.X.X.X.X.X.X.X.X.X.o.o.o.o.o.o.o.o.o.o.o.o.o.o.o.o.+.+.+.+.+.+.+.+.+.+.+.+.+.+.+.+.+.+.+.+.+.+.+.+.&.&.&.+.&.&.&.&.+.+.+.+.+.+.+.+.+.+.+.&.&.&.&.&.&.&.&.&.&.&.&.&.&.&.&.&.&.&.&.&.&.&.&.&.&.&.&.&.&.&.&.&.&.&.&.&.&.&.&.&.*.*.*.*.*.*.*.*.*.*.*.*.*.*.*.*.*.*.*.*.p.=.n 7 & e e - 5 4 4 4 4 7 7 7 7 4 4 7 8 7 7 7 7 7 * 4 w w 7 7 6 4 4 7 7 7 7 7 & O O O & & & & 4 & & & 4 4 4 & O O & & 4 4 7 7 4 7 6 7 4 4 4 4 7 7 4 4 5 9 w u B A B A 9 7 u p 8 7 4 6 8 7 7 7 7 8 7 4 7 u u u 7 w u 8 w p h u 4 & 4 4 7 7 7 0 w 7 * & 4 7 7 7 5 4 4 4 4 4 7 7 z 7 j j p w & w 4 7 4 7 u i t t 5 4 4 4 4 7 7 7 7 8 w p p e w e e S *.&.O.+.@.&.&.&.&.&.&.&.&.&.&.&.&.&.&.&.&.&.*.*.*.*.&.&.&.&.*.*.&.&.&.&.*.*.*.*.*.*.*.*.*.*.*.*.*.*.*.*.*.&.&.&.&.&.&.&.&.*.*.*.*.*.&.&.&.&.+.+.+.+.&.&.&.&.&.&.&.&.&.&.&.&.&.&.+.+.+.+.&.&.&.&.&.+.&.&.&.&.&.&.&.+.+.+.&.&.+.+.+.+.+.&.&.&.+.+.+.+.+.+.+.+.+.+.+.+.+.+.+.+.+.+.+.+.+.+.+.+.+.+.+.o.o.o.o.o.X.X.X.X.X.X.X.X.X.X.X.X.X.X.X.X.o.o.o.o.o.o.o.o.X.X.X.X.X.X.X.X.X.X.X.X.X...............X.X.X.X.D D D S S S S S S S S S S S b b S S S S S S S S S S S b S S S S b b b b b b b b b b b b b b b b b b b b b b b b S v D 7 ",
"b b b b b b b b S S S S S S S S S S S S S S S S b S S S S S S S D D ........D D ................X.X.X.X.X.X.X.X.X.X.X.X.X.X.X.X.o.o.o.o.o.o.o.o.o.o.o.o.o.o.o.o.+.+.+.+.+.+.o.o.+.+.+.+.+.+.+.+.+.+.+.+.+.+.+.+.+.+.+.+.+.+.+.+.+.+.+.+.+.+.+.+.+.+.&.&.&.&.+.+.+.+.+.&.&.&.+.+.&.&.&.&.+.+.+.+.&.&.&.&.+.+.+.+.&.&.&.&.&.&.&.&.&.&.*.*.*.*.&.*.*.*.*.*.*.*.*.*.*.*.*.*.*.*.*.*.&.g.;.f 5 4 9 - 4 4 4 4 4 4 7 7 7 4 4 7 8 7 7 7 7 7 & & 9 w 7 7 4 4 4 7 7 7 7 6 & & & & & & & O 4 & O & 4 5 4 & & O O & & 4 7 7 4 7 7 4 * & 4 4 7 7 4 7 6 7 7 8 B p p p 9 7 w u 8 7 7 7 7 7 7 8 9 7 7 7 7 8 a a 4 w w 7 4 w w 7 4 4 4 7 7 7 7 8 8 7 * & 4 7 7 7 4 4 4 4 4 7 7 4 p w z j p u * 7 w w w 8 u a 8 8 7 4 4 4 4 7 7 7 6 7 e A p 6 9 p r S =.%.O.+.@.o.&.&.&.&.&.&.&.&.&.&.&.&.&.&.&.&.*.*.*.*.*.&.*.*.*.&.&.&.*.*.*.*.*.*.*.*.*.*.*.*.&.&.*.*.*.*.&.&.&.&.&.&.&.&.&.&.&.&.&.&.&.&.&.&.+.+.+.&.+.+.&.&.+.+.+.+.+.&.&.&.+.+.+.+.+.+.+.+.+.+.+.+.+.+.+.+.+.+.+.+.+.+.+.+.+.+.+.+.+.+.+.+.+.+.+.+.+.+.+.+.+.+.+.+.+.+.+.+.+.+.+.+.+.+.+.+.o.o.o.o.o.o.o.o.X.X.X.X.X.X.X.X.X.X.X.X.X.X.X.X.o.o.o.o.o.o.o.o.X.X.X.X.X.X.X.X.................D D ....D D D D S S S S S S S S b b b b b b b b b b b b b b b b b b b b b b b b b b b b b b b b b b b b b b b b b b b b b b b b S v D 7 ",
"b b b b b b b b b b b b b b b b b b b b b b b b b b b b S S S S D D ........D D ................X.X.X.X.X.X.X.X.X.X.X.X.X.X.X.X.o.o.o.o.o.o.o.o.o.o.o.o.o.o.o.o.o.o.o.o.o.o.o.o.+.+.+.+.+.+.+.o.+.+.+.+.+.+.+.+.+.+.+.+.+.+.+.+.+.+.+.+.+.+.+.+.+.+.&.&.&.&.+.+.+.+.+.+.&.&.+.+.&.&.&.&.+.+.+.+.&.&.&.&.+.+.+.+.&.&.&.&.&.&.&.&.&.&.&.&.&.&.&.&.*.*.*.*.&.&.&.&.*.*.*.*.*.*.*.&.&.*.*.O.f 4 & * 4 4 4 4 4 4 4 4 4 4 4 7 7 7 7 7 4 7 4 & 7 w 7 7 4 4 * * 4 7 4 4 7 5 4 & & o o o 5 & O & 4 5 4 & 5 & O O & 4 4 7 7 7 6 * & & 4 4 7 7 7 7 4 4 7 7 A p p p w 8 u w 7 7 7 7 7 4 4 9 9 7 7 7 7 8 8 8 7 w w 7 4 4 4 & 4 4 4 5 7 7 7 7 7 4 * & 4 7 7 7 4 4 4 4 4 4 4 4 p p j p u u 7 4 w a w w p w 7 8 4 4 4 4 4 7 7 7 4 6 e p p 4 9 A p D =.-.o.+.@.&.&.&.&.&.&.&.&.&.&.&.&.&.&.&.&.&.&.&.&.&.&.&.&.&.&.&.&.&.&.&.&.&.&.&.&.&.*.*.&.&.&.&.&.&.&.&.&.&.&.&.&.&.+.+.&.&.&.&.&.&.&.&.&.&.+.+.+.+.+.+.+.+.+.+.+.+.+.+.&.&.+.+.+.+.+.+.+.+.+.+.+.+.+.+.+.+.+.+.+.+.+.+.+.+.+.+.+.+.+.+.+.+.+.+.+.+.+.+.+.+.+.+.+.+.+.+.+.+.+.+.+.+.+.+.+.+.o.o.o.o.o.o.o.o.X.X.X.X.X.X.X.X.X.X.X.X.X.X.X.X.o.o.o.o.o.o.o.o.X.X.X.X.X.X.X.X.................D D D ..D D D D S S S S b b b b b b b b b b b b b b b b b b b b b b b b b b b b v v v v v v v v b b b b b b b b b b b b b b b b S v D 8 ",
"b b b b b b b b b b b b b b b b b b b b b b b b b b b b b b S S D S S ..S S S S ................X.X.X.X.X.X.X.X.X.X.X.X.X.X.X.X.o.o.o.o.o.o.o.o.o.o.o.o.o.o.o.o.o.o.o.o.o.o.o.o.o.o.o.o.o.o.o.o.+.+.+.+.o.o.o.o.+.+.+.+.+.+.+.+.+.+.+.+.o.o.+.+.+.+.+.+.+.+.+.+.+.+.+.+.+.+.+.+.+.+.+.+.+.+.+.+.+.+.+.+.+.+.+.+.&.&.&.&.&.&.&.&.&.&.&.&.&.&.&.&.*.&.*.*.&.&.&.&.*.*.*.&.*.&.*.&.-.+.&.s.o.y * & & & * * 4 4 4 4 4 & & 4 4 4 4 4 4 7 4 & 7 9 7 7 4 & & & 4 4 7 7 7 7 4 * & & & & & O O & 4 4 4 4 & & & & 4 4 4 4 7 7 4 4 * & & 4 7 8 7 6 4 4 4 7 A p p p w w u 8 7 4 4 4 4 4 4 4 4 4 4 7 7 7 7 7 8 p p 7 4 6 6 * 4 4 4 4 7 4 7 7 4 4 4 4 4 4 7 7 4 4 4 4 4 4 4 & 7 w w p p u a 7 * 6 * * * * & * 4 4 4 4 7 7 7 7 * 9 e w 9 9 e p p D p.-.%.@.*.&.&.&.&.&.&.&.&.&.&.&.&.&.&.&.&.&.&.&.&.&.&.&.&.&.&.&.&.&.&.&.&.&.&.&.&.&.*.*.*.*.&.&.&.&.&.&.&.&.&.&.&.&.&.&.&.&.&.&.&.&.&.&.&.&.+.+.+.+.+.+.+.+.+.+.+.+.+.+.+.+.+.+.+.+.+.+.+.+.+.+.+.+.+.+.+.+.+.+.+.+.+.+.+.+.+.+.+.+.+.+.+.+.+.+.+.+.+.+.+.+.+.+.+.+.+.+.+.+.o.o.o.o.o.o.+.+.o.o.o.o.o.o.X.X.X.X.X.X.X.X.X.X.X.X.X.X.X.X.X.X.o.o.o.o.o.o.o.o.X.X.X.X.X.X.X.X.............S S S S ..S S S S S S S b b b b b b b b b b b b b b b b b b b b b b b b b b b b b b v v v v v v v v b b b b b b b b b b b b b b b b S v F 7 ",
"b b b b b b b b b b b b b b b b b b b b b b b b b b b b b b b S D D S S S S S S ................X.X.X.X.X.X.X.X.X.X.X.X.X.X.X.X.o.o.o.o.o.o.o.o.o.o.o.o.o.o.o.o.o.o.o.o.o.o.o.o.o.o.o.o.o.o.o.o.+.+.+.+.o.o.o.o.+.+.+.+.+.+.+.+.+.+.+.o.o.o.+.+.+.+.+.+.+.+.+.+.+.+.+.+.+.+.+.+.+.+.+.+.+.+.+.+.+.+.+.+.+.+.+.+.&.&.&.&.&.&.&.&.&.&.&.&.&.&.&.&.&.&.*.*.&.&.&.&.*.*.*.*.&.&.&.&.O.o.*.p.=.F w O & & * * 4 4 4 4 4 & & 4 4 4 4 4 & 7 4 & 4 7 7 7 & & & & 4 5 7 7 7 4 4 * * 4 4 5 5 O O & & 4 4 4 & & 4 5 5 5 & & 6 7 7 4 * & & & 7 7 7 4 4 4 7 8 j j A p 8 w u 7 7 * & 4 4 4 4 4 & & 4 7 9 7 7 4 a j p w 4 7 9 4 5 4 4 7 8 7 8 w 4 4 4 4 4 4 4 7 7 7 4 4 4 4 & & * 8 4 p j w p t w p 9 6 6 * $ & & & 4 4 7 7 7 7 4 p p 4 * e A p p D p.-.%.@.*.&.&.&.&.&.&.&.&.&.&.&.&.&.&.&.&.&.&.&.&.&.&.&.&.&.&.&.&.&.&.&.&.&.&.&.&.&.*.*.*.*.&.&.&.&.&.&.&.&.&.&.&.&.&.&.&.&.&.&.&.&.&.&.&.&.+.+.+.+.+.+.+.+.+.+.+.+.+.+.+.+.+.+.+.+.+.+.+.+.+.+.+.+.+.+.+.+.+.+.+.+.+.+.+.+.+.+.+.+.+.+.+.+.+.+.+.+.+.+.+.+.+.+.+.+.+.+.+.+.o.o.o.o.o.o.+.+.o.o.o.o.o.X.X.X.X.X.X.X.X.X.X.X.X.X.X.X.X.X.X.X.o.o.o.o.o.o.o.o.X.X.X.X.X.X.X.X...........S S ..S S ....S S S S S b b b b b b b b b b b b b b b b b b b b b b b b b b b b b b b v v v v v v v v b b b b b b b b b b b b b b b b b v D 7 ",
"v n n n v v v v b b b b b b b b b b b b b b b b b b b b S S b b b S S S S S S S D D D D D D D D ................X.X.X.X.X.X.X.X.X.X.X.X.X.X.X.X.X.X.X.X.X.X.X.X.o.o.o.o.o.o.o.o.o.o.o.o.o.o.o.o.o.o.o.o.o.o.o.o.o.o.o.o.o.o.o.o.o.o.o.o.o.o.+.+.+.+.+.+.+.+.+.+.+.+.+.+.+.+.+.+.+.+.+.+.+.+.+.+.+.+.+.+.+.+.&.&.+.+.+.+.&.&.&.&.&.&.&.&.+.+.+.+.&.&.*.*.*.*.*.*.&.&.+.+.+.+.&.&.+.-.&.o.&.;.O.w ; @ o 4 7 5 5 e & & & 4 4 7 7 4 * 6 7 * * 7 9 7 4 * & * 7 7 7 4 7 4 & * 7 7 7 4 O O o o $ * 4 & & 4 4 7 7 4 & O 5 4 7 7 6 4 * 4 4 4 4 4 4 4 7 7 p B p w w 6 8 7 4 & & 4 & * 4 & & 5 w 4 u & * w V A B 4 7 7 7 7 & 4 4 & 4 7 w u & & & 4 4 4 4 & & & * * 6 4 $ . 4 9 w p p j h p N N B p 7 & & 4 4 * 4 4 7 7 7 4 4 w w 6 6 e p e p O.i.*.-.%.+.@.+.+.+.+.+.+.+.+.+.+.+.+.&.&.&.+.+.&.&.&.&.&.&.+.&.&.+.+.+.+.+.+.+.+.+.&.&.&.+.+.+.+.+.+.+.+.+.+.+.+.+.+.+.+.+.+.+.+.+.+.+.+.+.+.+.+.+.+.+.+.+.+.o.o.o.o.+.o.o.o.+.+.+.+.+.+.+.+.+.+.+.+.+.+.+.o.+.+.+.+.+.+.+.+.o.o.o.o.o.o.o.o.o.+.+.+.o.o.o.o.+.+.+.+.+.+.+.+.#.o.o.#.X.X.X.X.X.X.X.X.X.X.X.X.X.X.......X.X.X.X.X.X.X.X.X.X.X.X.X.X.X.X.X.X.X.X.X.X.X.X.X.X...D ....D D S D D D D S S S S S S S S S b b b b b b b b b b b b b v v v v v v v v v v v v v v v v v v v v n v v v v v v v v v v v b b v v v b b b v c D 7 ",
"v n n n v v v v b b b b b b b b b b b b b b b b b b b b b S b b b S S S S S S S D D D D D D D D ................X.X.X.X.X.X.X.X.X.X.X.X.X.X.X.X.X.X.X.X.X.X.X.X.o.o.o.o.o.o.o.o.o.o.o.o.o.o.o.o.o.o.o.o.o.o.o.o.o.o.o.o.o.o.o.o.o.o.o.o.o.o.+.+.+.+.+.+.+.+.+.+.+.+.+.+.+.+.+.+.+.+.+.+.+.+.+.+.+.&.+.+.+.+.&.&.+.+.+.+.&.&.&.&.&.&.&.&.+.+.+.+.&.&.&.&.&.&.&.&.&.&.+.+.+.+.&.&.o.&.&.o.+.-.O.k X 4 e 4 O 4 7 5 & & * 4 4 4 4 5 * 7 7 * * 7 7 7 4 * * * 7 6 7 4 7 4 * 4 6 7 7 4 O & & & $ & & & & & 4 4 4 4 & & & 4 7 6 6 6 4 4 4 7 7 4 4 4 7 4 e A p p u 7 8 7 4 & * 4 & * 4 & & * 7 7 p 7 7 w p p p * 7 7 7 7 4 7 9 7 7 w u u 7 4 4 4 4 4 4 4 & & * * * * $ . o & * * 7 9 6 6 * 4 6 4 * * 6 9 * * * 4 4 7 4 4 * w w 7 9 p A p p F @.+.&.%.+.@.+.+.+.+.+.+.+.+.+.+.+.+.&.+.+.+.+.+.+.&.&.+.&.+.&.&.+.+.+.+.&.&.+.+.+.&.&.&.+.+.+.+.+.+.+.+.+.+.+.+.+.+.+.+.+.+.+.+.+.+.+.+.+.+.+.+.+.+.+.+.+.+.o.o.o.o.+.+.o.o.+.+.+.+.+.+.o.o.+.+.+.+.+.+.+.o.+.+.+.+.+.+.+.+.o.o.o.o.o.o.o.o.+.+.+.+.o.o.o.o.+.+.+.+.+.+.+.#.o.o.o.X.X.X.X.X.X.X.X.X.X.X.X.X.X.X...X.X.X.X.X.X.X.X.X.X.X.X.X.X.X.X.X.X.X.X.X.X.X.X.X.X.X.....D D D D ..S D D D D S S S S S S S S S b b b b b b b b b b b b b v v v v v v v v v v v v v v v v v v v v n n v v v v v v v v v v b b v v b b b b v c D 7 ",
"v v v v v v v v v v v v v v v v b b b b b b b b b b b b S S b b b b b S S S S S S S S S S S S S D ..............X...X.X.X.X.X.X.X.X.X.X.X.X.X.X.X.X.X.X.X.X.X.X.o.o.o.o.o.o.o.o.o.o.o.o.o.o.o.o.o.o.o.o.o.o.o.o.o.o.o.o.o.o.o.o.o.o.o.o.o.o.o.+.+.+.+.+.+.+.+.+.+.+.+.+.+.+.+.+.+.+.+.+.+.+.+.+.&.&.&.&.+.&.&.&.+.+.+.+.&.&.+.+.+.+.+.+.+.+.+.+.&.&.&.&.&.&.&.&.&.&.&.+.+.+.+.&.o.+.&.+.#.+.-.O.w 4 $ $ = * 4 4 & 4 4 4 & * 4 6 * 4 4 * * 4 7 7 6 4 * 4 7 7 6 7 6 4 * 4 7 7 7 * O 4 9 4 & o o o O & & 4 4 4 4 * o & 4 7 6 7 4 4 4 7 7 4 4 4 4 4 9 A j p p 8 8 7 4 & * 4 & * 4 & 4 & * u u p p w p 9 p & 7 8 7 4 4 4 9 7 7 w u t w 9 7 4 4 4 7 7 & & * * * & $ $ $ * * * * 6 6 * o $ $ $ $ & * 6 & & & * 4 4 4 4 * 9 w 8 w p j p g F @.+.&.%.+.@.+.+.+.+.+.+.+.+.&.+.+.+.+.+.&.&.&.&.+.+.+.+.&.&.&.&.+.+.&.&.&.&.+.+.+.+.+.+.+.+.+.+.+.+.+.+.+.+.+.+.+.+.+.+.+.+.+.+.+.+.+.+.+.+.+.+.+.+.+.+.#.#.o.o.o.o.o.o.o.o.o.o.o.o.o.o.o.o.o.o.o.o.o.o.+.+.+.+.+.+.+.+.+.+.o.o.o.o.o.o.o.o.o.o.o.o.o.o.o.o.+.+.+.+.+.#.#.#.o.X.X.X.X.X.X.X.X.X.X.X.X.X.X.X.X.X.X.X.X.X.X.X.X.X.X.X.X.X.X.X.X.X.X.X.X.X.X.X.X.X.X.X.........D D D D S S S S S S S S S S S S b b b b b v v v v v v v v v v v v v v v v v v v v v v v v v v v v v v v v v v v v v v v v v v v v v v v v v v v v c D 7 ",
"v v v v v v v v v v v v v v v v b b b b b b b b b b b S S S b b b b b S S S S S S S S S S S S S S S ..................X.X.X.X.X.X...X...X.X.X.X.X.X.X.X.X.X.X.X.o.o.o.o.o.o.o.o.o.o.o.o.o.o.o.o.o.o.o.o.o.o.o.o.o.o.o.o.o.o.o.o.o.o.o.o.o.o.o.+.+.+.+.+.+.+.+.+.+.+.+.+.+.+.+.+.+.+.+.+.+.+.+.+.&.&.&.&.+.+.&.&.&.&.+.+.&.&.+.+.+.+.+.+.+.+.+.+.+.+.+.+.+.+.+.+.&.&.&.+.+.+.+.&.&.+.+.+.#.o.+.*.0.d . X $ = & 4 & 4 5 4 & & 4 6 4 4 7 4 4 4 7 6 9 5 4 4 7 7 6 7 4 4 4 4 9 9 4 * & 4 7 7 & & O O o O & * 4 4 4 4 o & 4 7 7 7 4 5 7 8 8 4 4 4 4 4 9 B A A p 7 7 7 & & 4 4 & * 7 4 4 & * j w A p w p w p & 4 7 4 & & 4 7 7 7 8 t t w 8 7 4 4 4 4 4 5 4 4 4 * & & = $ & = & $ & & $ = = & $ $ $ $ $ & & & & 4 4 4 * 4 9 w 9 w p p p n O.+.+.&.%.o.@.+.+.+.+.+.+.+.+.&.+.+.+.+.+.&.&.&.&.+.+.+.+.+.&.&.&.+.+.&.&.&.&.+.+.+.+.+.+.+.+.+.+.+.+.+.+.+.+.+.+.+.+.+.+.+.+.+.+.+.+.+.+.+.+.+.+.+.+.+.o.o.o.o.o.o.o.o.o.o.o.o.o.o.+.o.o.o.o.o.o.o.o.o.o.+.+.+.+.+.o.+.+.+.+.o.o.o.o.o.o.o.o.o.o.o.o.o.o.o.o.o.o.o.o.o.o.o.o.X.X.X.X.X.X.X.X.X.X.X.X.X.......................X.X.X.X.X.X.X.X.X...X...X.X.X.X.................D D D S S S S S S S S S S b b b b b b v v v v v v v v v v v v v v v v v v v v v v v v v v v v v v v v v v v v v v v v v v v v v v v v v v v v v v k D 7 ",
"v v v v v v v v v v v v v v v v b b b b b b b b b b b b b b b b b b b b b S S S S S S S S S S S S S S ..........................................X.X.X.X.X.X.X.X.o.o.o.o.o.o.o.o.o.o.o.o.o.o.o.o.o.o.o.o.o.o.o.o.o.o.o.o.o.o.o.o.o.o.o.o.o.o.o.o.+.+.+.+.+.+.+.+.+.+.+.+.+.+.+.+.+.+.+.+.+.+.+.+.+.+.+.+.+.+.+.+.+.+.+.+.+.+.+.+.+.+.+.+.+.+.+.+.+.+.+.+.+.+.+.+.+.+.+.+.+.+.+.+.&.+.#.+.+.#.#.+.-.-.n * X . = O & 4 4 4 & & 4 6 4 4 7 7 4 4 7 7 9 6 4 4 7 7 7 7 4 4 4 6 9 9 4 & & 4 7 7 4 5 & O O & & & & 4 4 4 & 4 4 4 4 4 4 7 7 9 9 4 4 4 4 4 6 j j A p 7 4 * & & * 4 & 4 7 6 4 4 7 j 9 j p p A p p & 4 4 4 4 4 4 7 4 7 w u p 8 8 7 7 7 7 7 4 7 4 4 7 * & & 4 & * * & $ $ & $ $ $ $ & & & o . & & & & * 4 4 4 7 w w 7 9 p p p ..-.&.+.&.+.o.+.+.+.+.+.+.+.+.+.+.+.+.+.+.+.+.+.+.+.+.+.+.+.+.+.+.+.+.+.+.+.+.+.+.+.+.+.+.+.+.+.+.+.+.+.+.+.+.+.+.+.+.+.+.+.+.+.+.+.+.+.+.+.+.+.o.+.o.o.o.o.o.o.o.o.o.o.o.o.o.o.+.+.o.+.o.o.o.o.o.o.o.o.o.o.+.+.o.o.o.o.o.o.+.+.o.o.o.o.o.o.o.o.o.o.o.o.o.o.o.o.o.o.o.o.o.o.o.o.X.X.X.X.X.X.X.X.................................................................................S S S S S S S S b S S b b b b b b b v v v v v c v v v v v v v v v v v v v v v v v v v v v v v v v v v v v v v v c c c c c c c c v v v v v v v v v k D 7 ",
"v v v v v v v v v v v v v v v v b b b b b b b b b b b b b b b b b b b b b S S S b b b S S S S S S S S S ........................................X.X.X.X.X.X.X.X.........o.o.o.X.X.X.X.X.X.X.X.X.o.o.o.o.o.o.o.o.o.o.o.o.o.o.o.o.o.o.o.o.o.o.o.o.o.o.o.o.+.#.+.o.+.+.+.+.+.+.+.+.+.+.+.+.+.+.+.+.+.+.+.+.+.+.+.+.+.+.+.+.+.+.+.+.+.+.+.+.+.+.+.+.+.+.+.+.+.+.+.+.+.+.+.+.+.+.+.+.#.o.o.+.&.+.+.+.#.*.s.F t & o O & & 4 4 * * 4 4 7 4 7 6 7 4 4 7 e 6 4 4 7 7 6 7 4 4 4 5 6 5 * & & * 4 6 7 7 4 & & & & & & & * 4 4 5 4 4 * * 4 7 4 7 9 4 4 4 4 4 6 j p j p w 9 6 & O & 4 & 4 w w * 5 9 w 7 p p p A p j * 4 4 7 5 & 4 4 & 4 7 w u w 8 8 7 7 7 7 7 7 4 4 7 4 & $ & * 6 9 * & & = & $ $ & & = & $ o & & & & * 4 4 4 7 7 9 7 8 p A A +.-.&.+.&.+.o.+.+.+.+.+.+.+.+.+.+.+.+.+.+.+.+.+.+.+.+.+.+.+.+.+.+.+.+.+.+.+.+.+.+.+.+.+.+.+.+.+.+.+.+.+.+.+.+.+.+.+.+.+.+.+.+.+.+.+.+.+.+.+.+.+.o.o.o.o.o.o.o.o.o.o.o.o.o.o.o.o.o.o.o.o.o.o.o.o.o.o.o.o.o.o.o.o.o.o.o.o.o.o.o.o.o.o.o.o.o.o.o.o.o.o.o.o.o.o.o.o.o.o.o.o.o.o.o.o.X.X.X.X.X.X.X...........................................................................S S S S S S S S S b b b S S S b b b b b v v v v v c c c v v v v v v v v c c c c c c c c c c c c c c c c v v v v v v v v c c c c c c c c v v v v v v v v v k D 7 ",
"c c c c c c c c v v v v v v v v b b b b b b b b b b b b b b b b b b b b b b b S b S S S S S S S S S S S S ..S ..S S ............................X.....................o.o.o.........X.X.....X...o.o.o.o.o.o.o.o.X.X.o.o.o.o.o.o.o.o.o.o.o.o.o.o.#.#.o.o.#.#.#.#.+.+.+.+.+.+.+.+.+.+.+.+.+.+.+.+.+.+.+.+.+.+.+.+.+.+.+.+.+.+.+.+.o.o.o.o.o.o.o.o.o.o.+.o.+.+.+.+.+.+.+.+.+.+.+.+.X.+.+.+.+.+.+.+.@.X.o.9.;.f 7 * & & & 4 4 4 4 4 6 4 7 7 7 4 4 6 e 6 4 4 6 7 7 7 4 4 4 4 4 4 & & & 4 7 6 6 6 7 4 * & & O O & & & 4 4 5 4 4 4 4 4 4 7 7 4 4 4 4 4 6 j p j A e e 4 & O & 4 & 7 p p & 5 7 * 7 w p p p e j 4 7 4 7 7 O & & & & 4 7 7 p u 8 7 7 7 7 4 5 4 4 8 7 * $ & $ * 4 & o o o o 4 4 4 * & & & & 5 & & & & 4 4 4 4 7 7 7 8 e p p &.-.&.o.&.#.o.%.+.+.+.+.+.+.+.+.+.+.+.+.+.+.+.+.+.+.+.+.+.+.+.+.+.+.+.+.+.+.+.+.o.o.o.o.o.o.o.o.o.o.o.o.o.o.o.o.o.o.o.o.o.o.o.o.o.o.o.o.+.o.o.o.o.o.o.o.o.o.o.o.o.o.o.o.o.o.o.o.o.o.o.o.o.o.o.o.o.o.o.o.o.o.o.o.o.o.o.o.o.o.o.o.o.o.o.o.o.o.o.o.o.o.o.o.o.o.o.o.o.o.o.o.o.o.o.o.X.X.X.......................S S ........S S S S ......................................S S S S S S S S S b b b b b b b b b b b b v v v v c c c c c c c c c c c c c c c c c c c c c c c c c c c c c c c c c c c c c c c c c c c c c c c c c c c c v k D 6 ",
"c c c c c c c c v v v v v v v v b b b b b b b b b b b b b b b b b b b b b b b b S S b S S S S S S S S S S S S S S S ..................................................o.o.o.....................o.o.o.o.o.o.o.o.X.X.o.o.o.o.o.o.o.o.o.o.o.o.o.o.#.o.o.o.#.#.#.#.+.+.+.+.+.+.+.+.+.+.+.+.+.+.+.+.+.+.+.+.+.+.+.+.+.+.+.+.+.+.+.+.o.o.o.o.o.o.o.o.+.o.o.+.+.+.+.+.+.+.+.+.+.+.+.+.o.&.*.+.o.o.+.+.O.+.%.%.-.;.n t & & & 4 5 4 4 * 4 * 4 6 7 * * 7 e 5 4 * 4 7 7 7 * * * 4 * * & & & 5 7 6 * 6 6 7 4 * & O O O & & & 4 5 9 5 4 4 4 4 4 7 4 4 4 4 4 * p p p A 9 4 o & O & 4 & 7 p j & 5 6 . 8 7 w p e e A 4 7 4 5 5 & 5 5 4 4 5 7 4 p u 8 7 4 4 4 4 7 4 4 w w 4 & & 4 8 w 9 5 5 5 5 4 4 & & O & & 5 4 & & & 4 4 4 4 * 7 7 7 7 9 w e &.&.o.o.+.#.o.%.+.+.+.+.+.+.+.+.+.+.+.+.+.+.+.+.+.+.+.+.+.+.+.+.+.+.+.+.+.+.+.+.o.o.o.o.o.o.o.o.o.o.o.o.o.o.o.o.o.o.o.o.o.o.o.o.o.o.o.o.o.o.o.o.o.o.o.o.o.o.o.o.o.o.o.o.o.o.o.o.o.o.o.o.o.o.o.o.o.o.o.o.o.o.o.o.o.o.o.o.o.o.o.o.o.o.o.o.o.o.o.o.o.o.o.o.o.o.o.o.o.o.o.o.o.X.X.X.X.X.......................S S S ....S S S S S S ......................................S S S S S S S S S b b b b b b b b b b b b v v v v c c c c c c c c c c c c c c c c c c c c c c c c c c c c c c c c c c v v c c c c c c c c c c c c c c c c v k n 6 ",
"c c c c c c c c v v v v v v v v v v v v v v v v b b b b b b b b b b b b b b b b b b b b b b b b S S S S S S S S S S S S S S S S ..D ............................................X.X.X.o.o.o.o.o.o.o.o.o.o.o.o.o.o.o.o.o.o.o.o.o.o.o.o.o.o.o.o.o.o.o.o.o.o.o.o.o.+.+.+.+.+.+.+.+.+.+.+.+.+.+.+.+.+.+.+.+.+.+.+.+.o.o.o.o.o.o.o.o.o.o.o.o.o.o.o.o.o.o.o.o.o.o.o.o.o.+.o.o.o.o.+.+.+.+.o.o.o.o.+.+.+.+.+.+.+.+.+.&.d 7 & = = * 4 4 4 4 4 7 7 5 4 & 9 7 7 4 4 4 4 4 * 4 4 4 & & * 4 7 7 4 4 4 7 7 7 7 4 * & & & & & O = 4 6 * * * 6 * 6 7 7 7 w 7 & * * 6 a p 9 * & $ $ & & * 6 e p * p 9 o & 9 9 p w 8 7 7 7 7 7 7 * 4 4 4 4 4 4 6 w w p w 4 & 8 w 7 4 4 7 7 4 4 4 & 6 w a 7 * & & 4 * & & & & * 4 4 4 & & & & 4 4 5 8 t 7 9 e g l +.+.+.+.+.+.+.+.o.+.+.+.o.o.o.o.+.+.+.+.+.+.+.+.+.+.+.+.+.+.+.+.+.+.+.+.+.+.+.+.o.o.o.o.o.o.o.o.o.o.o.o.o.o.o.o.o.o.o.o.o.o.o.o.o.o.o.o.o.o.o.o.o.o.o.o.o.o.o.o.o.o.o.o.o.o.o.o.o.o.o.o.o.o.o.o.o.o.o.o.o.o.o.o.o.o.o.o.o.o.o.o.o.o.o.o.o.o.o.o.o.o.o.o.o.o.o.o.X.X.X.X.X.X.X.X...........D ....S S S S S S S S ..............................................S S S S S S S S S b b b b b b S S b b b b b b b b v v v c c c c c c c c c c c c c c c c c c c c c c c c c c c c c c c c c c c c c c c c c k k c c c c c c c c c c v l m 7 ",
"c c c c c c c c v v v v v v v v v v v v v v v v b b b b b b b b b b b b b b b b b b b b b b b b b b b b b S b b D D S S S S S S D ..............................................X.X.X.X.o.o.o.o.o.o.o.o.o.o.o.o.o.o.o.o.o.o.o.o.o.o.o.o.o.o.o.o.o.o.o.o.o.o.o.o.+.+.+.+.+.+.+.+.+.+.+.+.+.+.+.+.+.+.+.+.+.+.+.+.o.o.o.o.o.o.o.o.o.o.o.o.o.o.o.o.o.o.o.o.o.o.o.o.+.+.o.o.o.o.+.+.+.+.o.o.o.o.+.+.+.+.+.+.+.+.+.&.#.y o & 5 4 & 4 & * 4 4 7 4 & & 6 4 4 4 4 7 4 4 4 4 4 4 * & & 4 4 4 4 4 4 7 7 8 4 4 4 * & & & & O & & * * * * 6 6 9 9 7 7 8 4 o & * 6 p p e 6 * & & & & * 6 e p 7 p e o & 5 w p p p w w 7 7 7 7 & & & & & 4 4 4 p p p e & 7 w 7 7 4 4 4 4 4 * 4 & 6 e p 7 * & * & & & * * & & & 4 4 & & & & 4 4 4 7 7 w e e l D +.+.+.+.+.+.+.+.o.+.+.+.o.o.o.o.+.+.+.+.+.+.+.+.+.+.+.+.+.+.+.+.+.+.+.+.+.+.+.#.o.o.o.o.o.o.o.o.o.o.o.o.o.o.o.o.o.o.o.o.o.o.o.o.o.o.o.o.o.o.o.o.o.o.o.o.o.o.o.o.o.o.o.o.o.o.o.o.o.o.o.o.o.o.o.o.o.o.o.o.o.o.o.o.o.o.o.o.o.o.o.o.o.o.o.o.o.o.o.o.o.o.o.o.o.o.o.o.X.X.X.X.X.X.X.X...........D ....S S S S S S S S ..........................S ..S ............S S S S S S S S S S b b b b b b b b b b b b b b b b v v c c c c c n c c c c c c c c c c c c c c c c c c c c c c c c c c c c c c c c c c c c c k c c c c c c c c c c v l n 7 ",
"c c v c v v c v v v v v v c c c v v v v v v v v v v v v v v v v v v v v v v v v b b b b b b b b b b S b b b b b S S S S S S S S S S S S S S S S ................................................X.X.o.o.X.X.X.X.o.o.o.o.o.o.o.o.o.o.o.o.o.o.o.o.o.o.o.o.o.o.o.o.o.o.o.o.o.o.#.#.#.#.#.#.+.o.o.o.o.o.o.o.o.o.o.o.o.o.o.o.o.o.o.o.o.o.o.o.o.o.o.o.o.o.o.o.o.o.o.o.o.o.o.o.o.o.o.o.+.+.o.o.o.o.o.o.+.+.#.#.+.+.+.+.s.b 0 4 * * = = & & & * 4 4 & & 4 4 * 4 4 7 6 7 4 4 4 4 * & & & & 4 4 4 4 7 7 8 * * 4 4 4 & & $ O $ & & * * * * 6 w w 7 7 7 4 o & * 6 p p e 9 4 & & & * % 6 p j 4 p e * 4 6 9 p p p 9 9 7 6 * * & & o & & 4 4 4 u p p 4 o 7 w * 7 4 4 7 4 4 4 4 & 9 p p 7 & & & & & & 4 4 4 * & 4 & & & & 4 4 4 7 7 7 e e p n @.+.+.o.o.#.#.#.#.o.o.o.o.o.o.o.o.+.+.o.o.#.#.#.#.+.+.o.o.#.#.#.#.+.+.+.+.+.#.#.#.o.o.o.o.o.o.o.o.o.o.o.o.o.o.o.o.o.o.o.o.o.o.o.o.o.o.o.o.o.o.o.o.o.o.o.o.o.o.o.o.o.o.o.o.o.o.o.o.o.o.o.o.o.o.o.o.o.o.o.o.o.o.o.o.o.o.o.o.o.o.o.o.o.o.o.o.o.o.o.o.o.X.X.X.X.X.o.o.X.X.X.X.X.X.X...........S S S S S S S S S S S S S S S S S S S S S ....S S S S S ..S ........S S S S S S S b b b b b b b b b b b b b b b b b v v v v c c c c c c k k c c c c c c k k c c c c c c c c c c c c c c c c c c c c k k c c c c k k k k c c c c c c c c v f n 7 ",
"c c c c c c c c v v v v c c v c v v v v v v v v v v v v v v v v v v v v v v v v b b b b b b b b b b S S b b b b S S S S S S S S S S S S S S S S ........S S S S ................................X.o.o.o.X.X.X.X.o.o.o.o.o.o.o.o.o.o.o.o.o.o.o.o.o.o.o.o.o.o.o.o.o.o.o.o.o.o.o.o.o.o.o.o.o.o.o.o.o.o.o.o.o.o.o.o.o.o.o.o.o.o.o.o.o.o.o.o.o.o.o.o.o.o.o.o.o.o.o.o.o.o.o.o.o.o.o.o.+.o.o.o.o.o.o.o.+.+.#.#.o.+.+.+.+.-.;.q & % = O & & & * 4 4 & & 4 * * * 4 4 4 4 4 4 4 4 * & & & O O & & & 4 4 4 * * 4 4 4 * & & $ o o $ & * * * * 6 7 5 5 7 5 $ $ & 6 e p 9 4 & & * = & % 6 p A & p p 9 e e 9 w 9 9 * % & $ $ & 4 & $ & & 4 4 4 7 8 w * o * 9 & 5 4 4 7 4 & & 4 & 9 p p 7 & & & & & * 4 4 4 * & * & & & & & * 4 7 w e e 9 g D +.o.o.o.o.o.o.o.o.o.o.o.o.o.o.o.o.o.o.o.o.o.o.o.o.o.o.o.o.o.o.o.o.+.o.o.o.o.o.o.o.o.o.o.o.o.o.o.o.o.o.o.o.o.o.o.o.o.o.o.o.o.o.o.o.o.o.o.o.o.o.o.o.o.o.o.o.o.o.o.o.o.o.o.o.o.o.o.o.o.o.o.o.o.o.o.o.X.X.o.o.o.o.o.o.o.X.o.o.o.o.o.X.o.X.o.o.o.o.o.X.X.X.X.X.X.X.o.o.X.X.....................S S S S S S S S S S S S S S S S S S S S ....S S S S S S S S ..S ..S S S b S b b b b b b b b b b b b b b b b b v v v v v c c c k k k c c k k k c c c c c k k c c c c c c c c c c c c c c c c c c c c c c c c c c k k k k c c c c c c c c v f n 7 ",
"c c c c c c c c c c c c c c c c v v v v v v v v v v v v v v v v v v v v v v v v b b b b b b b b b b b b b b b b b b b b b b b b ........S S S S ................................................o.o.o.o.X.X.X.X.o.o.o.o.o.o.o.o.o.o.o.o.o.o.o.o.o.o.o.o.o.o.o.o.o.o.o.o.o.o.o.o.o.o.o.o.o.o.o.o.o.o.o.o.o.o.o.o.o.o.o.o.o.o.o.o.o.o.o.o.o.o.o.o.o.o.o.o.o.o.o.o.o.o.o.o.o.o.o.o.o.o.o.o.o.o.o.o.+.+.#.#.o.#.+.+.+.=.;.n 0 * $ O & & & * 4 4 * & 4 4 * 4 4 4 4 * 4 4 4 4 4 & & & $ & $ $ & & & & * * * * * & & & & o o o $ & & & $ 5 7 4 4 7 5 & $ $ * 9 9 * & & & * * & * 6 p A & e w 7 p p w e 9 - * $ . . . $ 7 4 & & & * 4 4 0 7 w e & $ * * & * * 4 * $ o & & w p w 4 & O O o & * 4 7 4 * & * & & O O & & * 8 p e 4 5 k X.X.o.o.o.o.o.o.o.o.o.o.o.o.o.o.o.o.o.o.o.o.o.o.o.o.o.o.o.o.o.o.o.o.o.o.o.o.o.o.o.o.o.o.o.o.o.o.o.o.o.o.o.o.o.o.o.o.o.o.o.o.o.o.o.o.o.o.o.o.o.o.o.o.o.o.o.o.o.o.o.o.o.o.o.o.o.o.o.o.o.o.o.o.o.o.o.o.o.o.o.o.o.o.o.o.o.o.o.o.o.o.o.o.o.o.o.o.o.o.o.o.X.X.X.X.X.X.X.o...........S S D ........S S S S b b b b b b S S S S S S S S S S S S S S S S S S S S S ..S S S S b b b b b b b b b b b b b b b b b b v v v v v v c c c k k k k c k k k k c c c c c c c c c c c c c c c c c c c c c c c c c c c c k k k k k k k k c c c c c c c c v d m 7 ",
"c c c c c c c c c c c c c c c c c c c c c c c c v v v v v v v v v v v v v v v v b b v v v v v v b b b b b b b b b b b b b b b b S S S S S S S S S S ....S S S S ................................X.X.X.X.X.X.X.X.X.X.X.X.o.o.X.X.o.o.o.o.o.o.o.o.o.o.o.o.o.o.o.o.o.o.o.o.o.o.o.o.o.o.o.o.o.o.o.o.o.o.o.o.o.o.o.o.o.o.o.o.o.o.o.o.o.o.o.o.o.o.o.o.o.o.o.o.o.o.o.o.o.o.o.o.o.o.o.o.o.o.o.o.+.o.o.o.+.+.#.o.o.o.+.#.=.o.o.;.D t $ = & & & * 4 4 4 & 6 4 4 4 4 4 * * 4 4 4 4 4 4 & & = & & $ $ $ & & * * & $ $ $ & * * $ o o o $ & & $ 5 7 4 4 4 4 $ $ $ * 6 * & $ $ & & & & * 9 p j & e 7 * p j p e p 9 9 * $ @ $ o 7 4 & & o & & 4 i w p p = X . = & & 6 7 6 & O O 4 w p 7 & & O O & & 4 4 4 4 * & * & & O o & & * 8 a e 4 0 S +.X.o.o.o.o.o.o.o.o.o.o.o.o.o.o.o.o.o.o.o.o.o.o.o.o.o.o.o.o.o.o.o.o.o.o.o.o.o.o.o.o.o.o.o.o.o.o.o.o.X.X.o.o.o.o.o.o.o.o.o.o.o.o.o.o.X.X.X.X.o.o.X.X.o.o.o.X.X.X.X.X.X.X.o.o.o.o.o.o.X.X.X.X.o.o.X.X...X.....o.o.o...........o.o.....X.X.X.X.o.o.X.X.........................S S S S ..S S S b b b b b b b b b b S S S S S S S S S S S S S S S S S S S S S S S b b b b b b b b b b b v v v v v v v v v v v v v v v v c c k k f f k k k k k k k c c c k k k k k k c c k k k k c c k k c c c k k k k k k k k k k k k k k k k k c c k k c d m 7 ",
"c c c c c k c k c c c c c c c c c c c c c c c c c c c c c c c c v v v v v v v v v v v v v v v v v v v v v v b b b b b b b b b b S S S S S S S S S S S S S S S S ......S S ........................X.....X.X.X.X.X.X.X.X.o.X.X.X.X.X.o.o.o.o.o.o.o.o.o.o.o.o.o.o.o.o.o.o.o.o.o.o.o.o.o.o.o.o.o.o.o.o.o.o.o.o.o.o.X.X.o.o.o.o.o.o.o.o.o.o.X.X.o.o.o.o.o.o.o.o.o.o.o.o.o.o.o.o.o.o.o.o.+.+.+.+.o.o.+.+.+.o.o.o.o.o.&.o.o.*.@.D 8 & & & & * 4 4 4 & 6 7 4 4 4 4 * * 4 4 4 4 4 4 & & & & $ $ $ $ & & = = $ o o $ $ & * & o o o o $ $ & 5 9 4 4 4 * $ & & * * * $ $ & & $ $ & 4 9 p p & e 6 * a p p e p p e 9 4 & $ o 4 4 * & o o * 6 u u p e = . @ . & & 6 9 6 $ o O 7 w w 4 & & = O & * 4 4 4 4 * & & & & O & & 4 4 6 4 5 0 l D #.%.o.o.o.o.o.o.o.o.o.o.o.o.o.o.o.o.o.o.o.o.o.o.o.o.o.o.o.o.o.o.o.o.o.o.o.o.o.o.X.X.X.X.o.o.o.o.o.o.X.X.X.X.X.X.X.o.o.o.o.o.X.o.o.o.X.X.X.X.o.X.X.X.o.o.X.X.X.X.X.X.X.X.X.X.X.X.X.o.X.X.X.X.o.o.o.X.o.......O.O.o.o.........o.o.o.o.X.X.X.X.o.o.o.o.........................S S S S S S b b b b b b b b b b b b b b S S S S S S S S S S S S S S S S S S S S b b b b b b b b b b v v v v v v v v v v v v v v v v v v c k k k f f f f k k k k c c c c k k k k k k k k k k k k c k k k c c k k k k k k f f f f f f f f k k k k c k k k c d m 6 ",
"k k c c c k c c c c c c c c c c c c c c c c c c c c c c c c c c v v v v v v v v v v v v v v v v v v v v v v v b b b b b b b b b b b b b b b b b b b b b b S S S ....S S S ......................X.........X.X.X.X.X.X.X.o.X.X.X.X.X.o.o.o.o.o.o.o.o.o.o.o.o.o.o.o.o.o.o.o.o.o.o.o.o.o.o.o.o.o.o.o.o.o.o.o.o.o.o.X.X.o.o.o.o.o.o.o.o.o.o.o.o.o.o.o.o.o.o.o.o.o.o.o.o.o.o.o.o.o.o.o.+.+.+.o.o.o.o.+.+.#.o.o.o.o.o.S -.-.o.#.;.x & & & & * * 4 4 & 6 7 4 4 4 4 4 * 4 * * 4 5 4 4 & o o o o o $ $ $ $ $ o . . o $ $ * * $ o . o $ & $ 4 7 4 4 4 4 & = = * * * & & = & $ o & 6 e p p o e w 6 p p e e a a w e 9 & & o 4 7 4 & o & 5 w u u p e $ = = X . $ * 6 * . X X w p w 4 & 5 5 O & 4 4 4 4 4 * & & & & & & 4 4 7 7 $ * u D D X.%.o.o.o.o.o.o.o.o.o.o.o.o.o.o.o.o.o.o.o.o.o.o.o.o.o.o.o.o.o.o.o.o.o.o.o.o.o.X.X.X.X.X.o.o.o.o.o.o.............X.X.o.o.o.o.X.o.o.o.X.X.X...o.o.....X.o.X.X.X.X.X.X.X.X.X.X.X.X.X.X.X.X.....o.o.X...........o.o...o.........o.o.o.o.X.X.X.X.o.o.o.o.......................S S S S S b b b b b b b b b b b b b b b b S S S S S S S S S S S S S S S S S S b b b b b b b b b b b v v v v v v v v v v v v v v v v v v c c k k f f f f f f k k k k k c c k c k k k k k k k k k k c k k k k c k k k k k k f f f f f f f f k k k k c k k k c d m 6 ",
"l l l l l l l l c c c c c c c c c c c c c c c c v v v v v v v v c c c c c c c c v v c c v v v v n n n v v v v v v v v v v b b b b b b b b S S S S S S S S S S S ........................................X.X.....X.X.X.X.o.o.o.o.o.o.o.o.o.o.o.o.o.o.o.o.o.o.o.o.o.o.o.o.o.o.o.o.o.o.....o.o.o.o.X.X.X.X.o.o.o.o.....o.o.o.o.o.o.o.o.o.o.o.o.o.o.o.o.o.o.o.o.o.o.o.o.o.o.o.o.o.o.o.o.+.+.+.o.o.+.o.o.o.o.o.o.o.o.o.o.o.o.+.-.X.v X = & & & 4 7 6 * 6 7 * $ $ & * * * * * * * * & & $ o o o o o $ & & $ o o o $ $ 4 7 7 & . X O = o & * * & $ & = & & & & & & * * 6 * & 4 w p p w & 6 9 9 9 e p e 7 9 9 e e 9 7 6 @ $ $ = = $ = 9 & e p * & & o o X X X . $ & 4 & 4 = 4 $ X . & o * 4 4 4 4 & & $ & . O & $ & - 6 9 7 f %.-...b O.o.o.o.o.o.o.o.o.o.o.o.o.o.o.o.o.o.o.o.o.o.o.o.o.o.o.o.X.X.X.o.o.X.X.X.X.o.o.o.o.....o.o.o.o.o.o.o.o.o.o.o.o.X.X.X.X.X.X.X.X.X.X.....................o.o.o.o.o.o.o.o.o.o.o.o.X.X.................X.o.o.o.o.o.o.o.o.o.o.o.o.o.o.............................D ....D D S S S S S S b b b b b b b b b b b b b b b b b b b b b b b b b b b b b b S S b b b b b b b b v v v v v v v v v v v v v v v v v v v c c k k c f f f f f f f f l l l l l l l l l l l l l l l l f f f f f f f f l l l l l l l l f f f d d f f f l l l l l l l l c d x 4 ",
"l l l l l l l l c c c c c c c c c c c c c c c c v v v v v v v v c c c c c c c c v v v c v v v v n n v v v v v v v v v v v v b b b b b b b b S S S S S S S S S S ......S ..................................X.....o.X.X.X.o.o.o.X.o.o.o.o.o.o.o.o.o.o.o.o.o.o.o.o.o.o.o.o.o.o.o.o...o.....o.o.o.o.o.X.X.X.o.o.o.o.....o.o.o.o.o.o.o.o.o.o.o.o.o.o.o.o.o.o.o.o.o.o.o.o.o.o.o.o.o.o.o.o.o.o.o.o.o.o.o.o.o.o.o.o.o.o.o.o.o.o.o.+.o.S . $ & & & 4 6 7 * 6 6 * & & * * * * * * * * * & & & $ $ $ $ $ $ & & $ $ o . . . * 4 6 4 $ o o O o $ & * * & & = $ $ & & & & * & 7 4 * 4 w e w 7 & - 9 9 9 e e e 9 9 e e e 9 9 7 = $ . @ @ . . @ * p e * & = o o @ . . = 9 9 7 5 $ $ & $ . o = o 6 7 7 5 4 & & $ $ o & = & * 6 6 7 g n O.o.X...O.o.o.o.o.o.o.o.o.o.o.o.o.o.o.o.o.o.o.o.o.o.o.o.o.o.o.o.o.o.o.o.o.o.X.X.X.o.o.o.o.....o.o.o.o.o.o.o.o.o.o.o.o.X.X.X.....X.X.X.X.......................o...o.o.o.o.o.o.o.o.o.o.X.X...........................................................................D ....D S S S S S S S b b b b b b b b b b b b b b b b b b b b b b b b b b b b b b b b b b b b b b b b v v v v v v v v v v v v v v v v v v c c c k c c f f f f f f f f l l l l l l l l l l l l l l l l f f f f f f f f l l l l l l l l f f f f f f f f l l l l l l l l c d x 4 ",
"l l l l l l l l k k k k c c c c k k c c c c c c c c c c c c c c c c c c c c c c v v c c v v v v v v v v v v v v v v v v v v v b S b b b b b b b b b b S S S S S S S S S S S S S ........................X.X.X...X.X.....X.X.X.X.X.X.X.X.X.o.X.o.X.X.X.X.X.o.X.o.X.X.X.X.X.o.X.o.................X.X.....X.X.X.X.................X.X.o.o.X.X.X.X.X.X.X.X.X.X.o.o.o.o.o.o.o.o.o.o.o.o.o.o.o.o.o.o.o.o.o.o.o.o.o.o.o.+.+.o.o.o.o.X.& o & & & * 4 7 * * * * * & & & * & * * * * & & & * * * * & & & & & & & $ o X X & * 4 6 * & $ o o o $ & * * * & o o $ & & & & & 8 6 * * 6 9 4 & & 6 9 9 9 9 e 9 e e e e e 9 9 9 e = @ . o . . . 9 p e * & & o $ $ X X 4 e 9 7 7 . . & * o o & o - 6 7 7 4 & $ o o o = 5 & = 9 4 0 n ;.....o.O...X.X.X.X.X.X.X.X.o.o.o.o.o.o.o.o.X.X.X.X.X.X.X.X.o.o.o.o.X.X.X.X.X.X.....X.X.X.X.................X.X.X.X.........X.X.X.X.X.X.....................................X.X.X.X.................................................................................S S S S S S S S S S S b b b b b b b b b b b b b b b b b b b b b b b b b b b b b b b b b b b b b b b b b v v v v v v v v v v v v v v v v v c c c c c k k f f l f f f f f l l l l f f f f l l l l f f f f f f f f f f f f f f f f f f l f d d f f d d d d l l f f l l l l k d x 4 ",
"l l l l l l l l k k k k c c c c c k c c c c c c c c c c c c c c c c c c c c c c v v c c v v v v v v v v v v v v v v v v v v v v S b b b b b b b b b b S S S S S S S S S S S S S ........S S S S ................................................................................................................................o.o.o.o.X.X.X.X.X.X.X.X.X.X.o.o.o.o.o.o.o.o.o.o.o.o.o.o.o.o.o.o.o.o.o.o.o.o.o.o.o.o.+.o.o.o.o.+.w 4 O & = * * 7 * * * * * 4 & $ & & * * * * & $ & * * * * * & & & & & = $ o . X . $ * 6 6 4 * & o o o $ * * * & o o $ & & & * * 8 6 * * * & & o $ - 9 9 9 9 9 9 p p 9 9 9 9 9 9 e 6 & $ o o $ = 7 p p 9 * $ o * & X X 9 e 7 * 4 o o & 4 $ o o X * * 4 4 & $ $ $ o $ = = o 4 e 7 d D -.....o.O.S X.X.X.X.X.X.X.X.o.o.o.o.o.o.o.o.X.X.X.X.X.X.X.X.o.o.o.o.X.X.X.X.........................................................................................................................................................................................S S S S S b b b b b b b b b b b b b b b b b b b b b b b b b b b b b b b b b b b b b b b v v v v v v v v v v v v v v v v v v v v v v v v c c c c c k k k f f f f f f f f f f f f f f f f f f f f f f f f d d f f f f f f f f f f f f f f f f f f d d d d f f f f f f f f c d x 4 ",
"l l l l f l f l f f k k k k k k c c c c c c c c c c c c c c c c c c c c c c c c c c c c v v v c v v v v v v v v v v v v v v v v b b b b b b b b b b b b b S S S S S S S S S S S ........S S ....................................................................................................................................o.o.o.o.o.o.o.o.X.X.X.X.o.o.o.o.o.o.o.o.o.o.o.o.o.o.o.o.o.o.o.o.o.o.o.o.o.o.o.o.o.o.o.o.X.X.o.&.m 0 O o = = * * * * * & * 4 & $ & & & * * * & $ $ & * * * * & & o $ & = & $ . . . . @ * - 6 6 * o o . o $ & & $ $ $ $ $ $ & * 4 6 - * & & & $ o $ 6 9 9 7 9 9 9 p e 9 7 7 9 9 9 9 6 * $ . X $ = * p p p 9 $ o 4 = . o e e 6 * 4 & & 6 9 * $ o . . $ & & $ . $ & & o $ o . & w w D X.X.X.X...O...o.o.o.o.X.X.X.X.o.o.o.o.o.o.o.o.o.o.o.o.X.X.X.X.o.o.o.o.X.X.X.X...........................................................................................................................................................................D D S ........S S S S b b b b b b b b b b b b b b b b b b b b b b b b b b b b b b b b b b b b b b b b v v v v v v v v v v v v v v v v c c c c c c c c c c c c k k k k f f f f f f f f f f f f f f f f f f f f f f f f d f f f f f f f f f f f f f f f f f f f f f f f f f f f f f f f k d x 4 ",
"f f f f f f f f f f k k k k k k k k k k k k k k k k k c k k c k c c c c c c c c c c c c v v c c v v v v v v v v v v v v v v v v b b b b b b b b b b b b b S S S S S S S S S S S ......S S S S S ................................................................................................................................X.X.X.X.X.X.X.X.........X.X.X...X.X.X.X.o.o.X.X.o.o.o.o.o.o.o.o.X.X.X.X.o.o.X.X.o.o.o.o.o.X.o.+.O.f 4 o o $ * * * * * * * * & $ = & & * * * & $ $ $ & & & & $ $ o $ $ & = $ o . X X . @ * * 6 7 $ o o o o $ $ $ = & $ o $ & * 4 * * & & & $ $ $ & 6 9 9 6 7 9 9 e 9 9 6 6 7 9 9 9 7 * * o X o = & 9 p p e * $ 9 5 $ $ 5 9 * & * $ $ 7 9 6 * = O . . @ . X . $ 5 4 o $ $ . & q M +...S O.O.....o.X.X.X.X.............o.o.o.o.o.o.................................................................................S S ............................................................................................................S S S ..S S S S ..S S S b b b b b b b b b b b b v v v v v v v v b b b b b b b b b b b b b b b b v v v v v v v v v v v v v v v v v v v v v v v v c c c c c c c c c c c c k k k k d d d d d d d d f f f f d d d d d d f d d d d d d d d d d d d f f f f f d d d d d d d d d d d d d d d d d d d f k d x 4 ",
"f f f f f f f f f f f f f f f f k k k k k k k k k k c c c c c c c c c c c c c c c c c c c c c c c c c c c c c c v v v v v v v v b b b b b b b b b b b b b b b S S S S S S S S S ..S S S S S S S S S ..............................................................................................................................X.........X.X.X.X.....X.X.X.X.X.X.X.X.o.X.X.X.X.X.X.X.o.X.X.X.X.X.X.X.o.o.o.X.o.X.X.o.o...X.o.&.S y & X o * * * 6 * * & & & $ = & & & * * & $ o $ $ & & & $ $ o $ $ $ $ $ o . X . . . $ & * 4 * * $ o o o O & & $ $ $ $ & * * & & & $ $ $ $ & & 6 e 9 6 6 9 9 9 9 7 6 7 9 9 9 w 7 6 4 & $ o & $ * 9 p p 6 & 9 & o o $ $ o o $ o $ 9 p 9 * & O o $ @ X X . = e 5 o o = & * d n o.....O.O.....o.....X.X.X.X.............O.O.o.o.................................................................................S S S S ..S ....................................................................................................S S S S S S S S S S b b b b b b b b b v v v v v v v v v v v v v b b b b b b b b b b b b b b b b v v v v v v v v v v v v v v v v c c c c c c c c c c c c c c c c c c c c k k k f d d d f d d d d f f d d d d d d d f f f d d d d f f d d d d d d f f d d d d d d d d d d d d d d d d d d d d d d k d x * ",
"f f f f f f f f f f f f f f f f k k k k k k k k c c c c c c c c c c c c c c c c c c c c c c c c c c c c c c c c c v v v v v v v b b b b b b b b b b b b b b b S S S S S S S S S S S S S S S S S ......S ....................................................................................................................................X.X.X.......X.X.X.X.X.X.X.X.o.X.X.X.X.X.X.X.o.o.....X.X.....o.o.o...o...X.o.o.....X.&.o.k 4 X . * 4 * 6 6 * & & & $ = & & & * & & $ o o $ $ & & & & & & $ $ $ o . . X X . . . o & & 6 4 & o . . O = $ $ $ $ $ $ & & $ $ $ $ $ $ & & & 9 p 9 7 6 9 9 9 9 7 7 7 9 9 e 9 6 * * 4 & o o & % * p p 9 * 9 o O O o . o o & o $ 9 p a 4 = o & $ @ X X . ; p 9 o $ 9 - 7 d O...o.O...b ....o.....X.X.X...................o.o.................................................................................S S S S ........................................................................................................S S S S S S S S b b b b b b b b b b b v v v v v v v v v v v v v b b b b b b b b b b b b b b b b v v v v v v v v v v v v v v v v c c c c c c c c c c c c c c c c c c c c k k f f d d d f f f d d d f f d d d d d d d d f d d d d f d d d d d d d d f f d d d d d d d d d d d d d d d d d d d d d k d x * ",
"d d d d d d d d f f f f f f f f f f f f f f f f f f k k c c c c k c c c c c c c c c c c c c c c c c c c c c c c c v c v v v v v v v v v v v b b b b b b b b b b S S S S S S S S S S S S S S S S S S S S S S S S S S ............S S S S ........S S S S ........S S S S ..............D ........................................................................o.o.o.o.o.o.....X.X.X.X.X.X.X.X.X.X.X.X.X.X.X.X.X.X.X.X.X.X.X.X.X.X.+.O.y . X : 9 4 & 4 5 & $ = & * * * & & * * & & & & o o & 5 & 4 4 4 & $ . . O o o . . . . o o & & & $ o o o & & $ o o o $ & $ = * * & $ $ $ 7 7 w w 9 5 5 e e 7 e 7 9 e 9 e 6 9 w 9 & o o o X $ e p e & & 4 . o O o o o o $ $ & e p e * & 4 * 9 9 $ . . . 9 * 9 e e i c %...................................................................D D ..........S ........S S S ..S ....S S S ........S S S S S S ........S S S S ....S S S ..............................................S S S S S S S S ............S S S ......S S S S S S b b b b b b b b b b v v v v v v v v v v v v v v v v v v v v v v v v v v v v v v v v v v v v v v v v v v v v c c v v c c c c c c c c c c c c c c c c l l l l f f d f d d d d d d d d d d d d d d d d d d d d d d d d d d d d d d d d d d d d d d d d d d d d d d d d d d d d d d d d d y x * ",
"d d d d d d d d f f f f f f f f f f f f f f f f f f k k c c c c k k c c c c c c c c c c c c c c c c c c c c c c c c v v v v v v v v v v v v b b b b b b b b b b b b b b b b b b b b b b b S b S S S S S S S S S S S S ..........S S S S ........S S S S ........S S S S ..............D ........................................................................................X.X.X...X...X.X.X.X.....X.X.X.X.X.......X.X.X.X.X.X.X.O.k 7 o X 4 4 5 4 & & $ $ & * * * * 6 6 * & & 4 & & & & & & 4 4 4 & $ $ @ o o o . X . . @ & & * & $ o o o = & $ o o $ $ & o $ * * & $ $ O 4 7 7 w w 9 9 w e 9 e 6 6 e 6 e 7 9 9 4 & o o o . $ 9 e w & & 4 X . o o o o $ = & & 9 e 9 & $ * * 9 e * 9 = & 6 p s e e x n O.o.....................................................................D D ................S S ............S S ....S S S S S ..S S ........S S S S ....S S S S ........................D D ................S S S S S S S S ..S S S S S S b S S S S S S S b b b b b b b b b b b b b v v v v v v v v v v v v v v v v v v v v v v v v v v v v v v v v v v v v v v v v v v v v c c v v c c c c c c c c c c c c c c c k l l l l f d d d d d d d d d d d d d d d d d d d d d d d d d d d d d d d d d d d d d d d d d d d d d d d d d d d d d d d d d d d d y x * ",
"d d d d d d d d f f d d d d f f f f f f f f f f f f f k f k c k k k k k k c c k c c c c c c v v c c c c c c c c v v c v v v v v v v v v v v v v b b b b b b b b b b b b b b b b b b b b b b b b S S S S S S S S S S S S ........S S S S S S S S S S S S S S S S S S S S S S S S S S S S S S ....................................................................................X.X.....X.X.X.X.X.X.....X...X.X.X.X.....X.X.X.X.O.....X.O.l 7 X $ 9 9 * $ & & o * & & * 4 6 6 * & 4 5 5 4 & & & * 4 4 4 * $ $ $ . . . X . . # @ & & * * & $ o . & $ $ $ $ $ $ $ o $ & * & & $ O * 4 7 e a w 9 w 9 6 9 6 6 9 9 e 7 6 6 4 & $ $ o $ $ = 9 6 & & & X . o o o o $ = * * * * & o & 9 6 9 e * p 9 e e p A e w n D ....................................................................S S S S ..............S S S S S S S ....S S S S S S S S S S S S S S S S S S S S S S S S S S S S ........S ....S S S S S S S S S S S S S S S S S S S S S S S S S S b b b S b S S S b b b b b b b b b b b b b b b v v v v v v v v v v v v v v v v v v v v v v v v v v v v v v v v v v v c v v v v c c c c c c c c k k c c c c c c c c c k c k k k l l l f f d d d d d d d d d d d d d d d d d d d d d d d d d d d d d d d d d d d d d d d d d d d d d d d d d d d d d d d d d d d d y h * ",
"d d d d d d d d d f d d d d f f f f f f f f f f f f f f f f k k k k k k k k c c c c c c c c c c c c c c c c c c v v v v v v v v v v v v v v v v b b b b b b b b b b b b b b b b b b b b b b b b b b b b b b b b S S S S S S S S S S b b S S S S S S b b S S S S S S b b S S S S S S S S S S ............................................................................................................................................O.O.d 4 & * ; = = & * & * * & & & * * * & & * * & & & & & & * & $ $ $ $ X X X X X X @ # $ & * * * & $ o $ $ $ $ $ $ $ $ . o & & * & $ o * 6 9 e e 7 6 9 9 * 9 6 6 e 9 e 7 7 * * & & $ . $ o $ * 4 & & & X . o O o o $ & & & & & o . * e 9 e e * p 6 p p e s 4 7 n S b ..........................................................S ......S S S S ............S S S S S S ........S S S S S S S S S S S S S S S S b b b b b b b b S S S S ........S S S S S S S S S S S S S S S S b b b b b b b b b b b b b b b b b b b b b b b b b b b b v v v v v v v v v v v v v v v v v v v v v v v v v v v v v v v v v v v v v v v v c c c c c c c c c c c c c c c c k k c c c c c c c c k k k k k k l f f f d d d d d d d d d d d d d d d d d d d d d d d d d d d d d d d d d d d d d d d d d d d d d d d d d d d d d d d d d d d d d y h * ",
"d d d d d d d d d d d d d d d f f f f f f f d f f f f f f f f f k k k k k k k k c c c c c c c c c c c c c c c c c c c c c c c c v v v v v v v v b b b b b b b b b b b b b b b b b b b b b b b b b b b b b b b b b b b b b b b b b b b b b b b b b b b b b b b b b b b b b b b b S S S S S S S S ..................................................................................................................................O.o.....O.D k 6 % $ = = & & 4 * * * & o $ & 9 5 4 & & & & & & $ $ $ $ . . . @ X X X X X X X X . @ $ * * * & & $ $ $ $ & & $ $ . o & * * & $ o & * 9 e 7 * 6 9 9 * e 9 9 e 9 e 7 4 * & & & $ . $ o o & 4 * & & . o $ $ o o o o $ & = = . . * 9 * e 9 * e & e e e s 4 0 O.....O...........................................S S S ..................S ....S ..S S ........S S S S ................b b b b b b b b b b b b b b b b b b b b b b b b S S S S S S S S ........S S S S b b b b b b b b b b b b b b b b b b b b b b b b b b b b v v v v v v v v v v v v c c c c c c c c c c c c c c c c c c c c c c c c c c c c c c c c c c c c c c c c c c c c c c c c c c c c c c c c k k k k k k k f l f f d d d d d d d d d d d d d d d d d d d d d d d d d d d d d d d d d d d d d d d d d d d d d d d d d d d d d d d d d d d d d d y h * ",
"d d d d d d d d d d d d d d d d d d d d f f d d f f f f f f f f k k k k k k k k c c c c k k c c c c c c c c c c c c c c c c c c v v v v v v v v b b b b b b b b v v v v v v v v b b b b b b b b b b b b b b b b b b b b b b b b b b b b b b b b b b b b b b b b b b b b b b b b S S S S S S S S S S S S S S S S ....................................................................S S ............S S ........................b O.o...S ..O.O.d 4 $ & = & & 4 & & & & $ & 9 e e e 5 4 4 4 * * & $ $ . X X . $ X X X X X X X X X X . $ * * & & $ $ $ $ $ $ $ $ . $ & * & $ $ o . $ & 6 4 * 6 9 e 6 e 9 e e 4 9 7 4 & & $ $ $ . $ o $ & 4 4 & o . o $ $ o . . o & & 5 = o . & 9 $ p = e e & 6 = ; p 7 g O...............................................S S S S S S ....S S S S S S S S S S b b S S S S S S S S S S S S S S S S b b b b b b b b b b b b b b b b b b b b b b b b b b b b b b b b S S S S S S S S b b b b b b b b b b b b b b b b b b b b v v b b b b v v v v v v v v v v v v v v c c c c c c c c c c c c c c c c c c c c c c c c c c c c c c c c c c c c c c c c c c c c c c c c k k k k k k k k k k k k k f k f f f f d d d d d d d d d d d d d d d d d d d d d d d d d d d d d d d d d d d d d d d d d d d d d y d d d y y y y d d d d d d d d d y h * ",
"d d d d d d d d d d d d d d d g d d d d f f f d f f f f f f f f k k k k k k k k c c c c k c c c c c c c c c c c c c c c c c c c c c v v v v v v b b b b b b b b v v v v v v v v v v v v v v b b b b b b b b b b b b b b b b b b b b b b b b b b b b b b b b b b b b b b b b b b S S S S S S S S S S S S S S S S ................................................................S S S S S S S S S S S S S S S S S S S S S S S S D ....D S ....O.b d 7 * & & & & $ & & = & & 9 e e 9 5 5 5 5 4 4 4 & $ X X X @ & o o o o . . X X X X X . $ & & & $ $ $ $ $ $ & & o $ & & & $ $ o . . . $ & & * 6 6 * 6 * * 9 & 9 7 4 * & $ $ o . . o & * 6 6 & o X o $ $ $ o o o & & & O o & 4 9 $ p $ p e 9 6 = $ e w n ..v ....................................S S S S S S S S S S S S S S S S S S S S S S S b S S S S S S S S b b b S S S S S b b b b b b b b b b b b b b b b b b b b b b b b b b b b b b b b S S S S S S S S b b b b b b b b v v v v b b b v b b v v v v v v v v v v v v v v v v v v v v v v c c c c c c c c c c c c c c c c c c c c c c c c c c c c c c c c c c c n c c c c c c c c c c c c k k k k c c c c k f k k f f f f d d d d d d d d d d d d d d d d d d d d d d d d d d d d d d d d d d d d d d d d d d d d d d d d y y d d d d y y d d d d d d d d d y h * ",
"d d d d d d d d d d d d d d d g d d d d f f f d f f f f f f f f k k k k k k k k c c c c k k c c c c c c c c c c c c c c c c c c c c v v v v v v b b b b b b b b v v v v v v v v v v v v v v v b b b b b b b b b b b b b b b b b b b b b b b b b b b b b b b b b b b b b b b b b b b b b b b b S S S S S S S S S ................................................................S S S S S S S S S S S S S S S S S S S S S S S S S S S S D D ....%.O.g 6 $ = & & $ & = = = & & & $ o $ & * 4 & & 7 & $ . X . $ & & & & $ o o . X X X X X . $ $ O $ $ $ $ $ $ & & o $ & & $ o o o = X X . = = & & $ . $ X . & & 9 6 6 * & o o o o X o = 4 9 9 * o X o $ $ $ o o $ & o . + O 5 e 9 $ p X p 9 e e e @ = w F ..b o...................................b b b b b b b b b b b b b b b b b b b b b b b b b b b b b b b b b b b b b b b b b b b b b b b b b b b b b b b b b b b b b b b b b b b b b b b b b b b b b b b b b b b b b b b b v v v v b b v v b b b v v v v v v v v v v v v c c c c c c c c c c c c c c c c c c c c c c c c c c c c c c c c c c c c c c c c c c c c n c c c c c c c c c c c c k c k k k k c c k f k k f k f f d d d d d d d d d d d d d d d d d d d d d d d d d d d d d d d d d d d d d d d d d d d d d d d d y y d d d d y y d d d d d d d d d y h * ",
"d d d d g d d d d d d d d d g g d d d d d d d d f f f f f f d f f f f f f l l l c c c c c c c c c c c c c c c c c c c c c c c c c c c c c c c c v v v v v v v v v v v v v v v v v v v v v v v v v v v v v v v v v v v v v v v v b b b b b b b b b b b b b b b b v v v v v v v v b b b b b b S S S S S S S S S S S S D D D D S S S S S S S S S S S S S S S S S S S S S S S S S S S S S S S S S S b b b b b b b b S S S S S S S S ........b b b b b O.n g 4 O o = O O = 4 4 7 7 5 O O X X # % % $ 7 & . X X . = = & = & o . X X X @ . X X X X . $ & o . . O O o o o = = o . o $ . o . . X X . o = o . . X X . o o o o o . X X . o $ . * * e * * o . . o & $ . . o $ $ X $ = = e * = e $ e p * p 9   7 m n b ....b S S S S S S S S ..S S S ........b b b b b b b b b b b b b b b b b b b b b b b b b b b b b b b b b b b b b b b b b b b b b b b b b b b b b b b b b b b b b b b b b b b b b b b b b b b b b b b b b b b b b b b b v v v v v v v v b b v v v v v v c c c c c c c c v v v c c c c c c c c c c c c c c c c c k k c c c c c c c c c c c c c c c c c c c c c c k k k k k k k k k k k k l l l l l l l l l l l d d d d d d d d d d d d d y y y y d d d d d d d d d d d d y y d d d d y y y y y y d d d d d y y y y y y y y y y y y y y y y y y y y y y y y i w * ",
"d d d d d d d d d d d d d d d d d d d d d d d d f f f f f f f f f f d f f l l l c c c c c c c c c c c c c c c c c c c c c c c c c c c c c c c c v v v v v v v v v v v v v v v v v v v v v v v v v v v v v v v v v v v v v v v v b b b b b b b b b b b b b b b b v v v v v v v v b b b b b b b b S S S S S S S S S S D D D D S S D S S S S S S S S S S S S S S S S S S S S S S S S S S S S S S S b b b b b b b b b b b b b b b b ........b b b b b ..O.n y 7 0 u . o O & 6 7 4 5 . $ = @ . . $ $ * & . X X X o & o o $ o . X X . X X X X X X . @ & $ o . . . o o o = = o . o $ . $ o . . . . o o o o . . . X X X o o o . . . . $ $ . * * e * 4 & . . o & $ . . o $ o . $ $ & e & $ e * 9 e e A 9 & t n ..b b b v b b b b b b b b S b b b S S S ..b b b b b b b b b b b b b b b b b b b b b b b b b b b b b b b b b b b b b b b b b b b b b b b b b b b b b b b b b b b b b b b b b b b b b b b b b b b b b b b b b b b b b b b b v v v v v v v v b v v v v v v v c c c c c c c c v v v c c c c c c c c c c c c c c c c c c c c c c c c c c c c c c c c c c c c c c c c c k k k k k k k k k k k k l l l l l l l l l l d d d d d d d d d d d d d d y y y y d d d d d d d d d d y y d y y d d y y y y y y y d d d d y y y y y y y y y y y y y y y y y y y y y y y y y i w * ",
"y y y y y y y y d d d d d d d d d d d d d d d d f f f d d d d d d f f f f f l l c k k k k k c c k k k k k k k k c c c c c c c c c c c c c c c c c c c c c c c c c c c c c c c c v v v v v v v v v v v v v v v v v v v v v v v v v v v v v v v v b b b b b b b b v v v v v v v v b b b b b b b b S S S S S S S S S S S S S S S S S S S S S S S S S S S S S S S S b b b b S S S S S S S S S S S S b b b b b b b b b b b b b b b b b b b b b b b b b S D b c k v n $ . o = 9 9 - * @ $ $ . X X + + . . . . . . o o . o $ $ . X X X X X X X X X X . & = O o + X . . . & = o o o o . $ $ o o . . . . X . . . o . X X . o o o . . o $ $ X * * 9 * 6 * . . o $ & . . o o $ . & $ & e $ & 9 4 = e A s = q l n ....b b v b b b b b b b b S S b b S S ....b b b b b b b b b b b b b b b b b b b b b b b b b b b b b b b b b b b b b b b b v v v v v v v v b b b b b b b b b b b b b b b b v v v v v v v v b b v v b b b b b b b b b b b b v v v v v v v v v v v v v v v c c c c c c c c c c c c c c c c c k k k k k k k k c c c c k k k k k k c c c c c c c c c c c c c c c c c c k k k k k l k k l l l l f f f f f f f f d d d d d d d d d d d i d y d d y y y y y y y y y y d y y y y y y y y y y y y y y y y y y y y y y y y y y y y y y y y y y y y y y y y y y y y y y i w * ",
"y y y y y y y y d d d d d d d d d d d d d d d d f f f d d d d d f f f f f f f f k k k k k k c c k k k k k k k k c c c c c c c c k k c c c c c c c c c c c c c c c c c c c c c c v v v v v v v v v v v v v v v v v v v v v v v v v v v v v v v v v v v v v v v v v v v v v v v v b b b b b b b b b b b b b b b b S S S S S b b b S S S S S S S S b b b b b b b b b b b b b b b b b b b b b b b b b b b b b b b b b b b b b b b b b b b b b b b b v b b b b S ..O.6 $ X = e * $ % @ X X X & 7 5 4 X X X . = = $ o . $ $ $ o X X X . X X X X X X X o $ & o . X X . . $ = $ o o o . o $ o o o . . . X X X . o o . . . . $ $ $ o o $ . X = * 9 & 4 & . . . $ $ . . o o $ o = & & 9 o 5 4 e 5 e e 9 & c b ....b b v c b b b b b b b b b b b b b b b b b b b b b b b b v v v v b b b b b b b b b b b b v v v v v v v v v v v v v v v v v v v v v v v v v v v v v v v v v v v v v v v v v v v v v v v v v v v v v v v v v v v v v v v v v v v v v v v v v v c c c c c c c c c c c c c c c c c c c c c c k k k k k k k k c c c c k k k k k k c c c c c c k k k k k k k k c c k k f k k k f f f f f f f f d f f d d d d d d d d d d d d d d d i y y y y y y y y y y y y y y y y y y y y y y y y y y y y y y y y y y y y y y y y y y y y y y y y y y y y y y y y y y y y y y i w * ",
"d d d d y y y y d d d d d d d d d d d d d d d d f f f f d d d d d d f f f f f f f f f f k k k k k k k k k k k k c c c c c c c c c c c c k k k k c c c c c c c c c c c c c c c c c c c c c c c c c c c c c c c c v v v v v v v v v v v v v v v v v v v v v v v v v v v v v v v v b b b b b b b b b b b b b b b b b b b b b b b b b b b b b b b b b b b b b b b b b b b b b b b b b b b b b b b b b b b b b b b b b b b b b b b b v v v v b b b b n n v v b ......a * . O = . X X X . $ 6 i D D v 4 & . X . $ $ o . $ $ $ o . . . = . X X X X X . X o = = o . . . . $ = $ $ o o o . . o $ $ o . . X X X . . . o o . . o $ o o . . X X 9 6 e & & $ . X . $ $ o . o o $ o * * & 5 . 7 & 9 e e * & w ......b b b b v b b b b b b b b b b b b b b b b b b b b b b b b v v v v v v v v v v v v v v v v v v v v v v v v v v v v v v v v v v v v v v v v v v v v v v v v v v v v v v v v v v v v v v v v v v v v v v v v v v v v v v v v v v v v v v v v c c c c c c c c c c c c c c c c c c c k c c k k k k k k k k k k k k k k k k k k c c c c c c c c k k k k k k k k k k f f f f f f f f f f f f f f d d d d d d d d d d d d d d d d i i y y y y y y y y y y y y y y y y y y y y y y y y y y y y y y y y y y y y y y y y y t t t y y y y y y y y y y y y y y y y y y y u w * ",
"y y y y y y y y y y d d d d d d d d d d d d d d d d d d d d d d d d f f f f f f f f f f k k k k k k k k k k k k k k k c c k k k k k k k k k k k c c c c c c c c c c c c c c c c c c c c c c c c c c c c c c c c c c c c c c c c v v v v v v v v v v v v v v v v v v v v v v v v v v v v v v v v b b b b b b b b b b b b b b b b b S b b b b b b b b b b b b b b b b b b b b b b b b b b b b b b v v v v b b v v v v v v v v v v v v v v v v v v n n b b b b b b n q 4 5 4 & . . X 7 g n S S X.X.m i 4 . X . $ $ X . o $ $ o $ $ $ . X X . . o $ X . $ & & o . . o o $ $ o o o o . o o $ $ o o o o o . . . . . . . . o o o . . . . . e 9 e $ & $ o . . $ $ o . o o $ o * * * 9 X 5 $ = s e * 7 x ..b b v v v v v b v b b b b b v b b b b b b b b v v v v v b v v b b n b b b b b v v v v v v v v v v v v v v v v v v v v v v v v c c c c c c c c v v v v v v v v v v v v v v v v c c c c c c c c v v v v v v v v c c c c c c c c c c c c c c c c c c c c c c c c k k c c c k c k c k k k k k k k k k k k k k k k k k k k k k k k k k k k c k k k k k k k k k k k f f f f f f f f d d d d d d d d d d d d d d d d d d d d d d d d y y y y y y y y y y y y y y y y y y y y y y y y y y y y y y y y y y y y y y y y t t t t t t t t y y y y y y q q y y y y q q q q y u w * ",
"y y y y y y y y y y y y y d d d d d d d d d d d d d d d d d d d d d d d f f f f f f f f f f f f k k k k k k k k k k k k c c k k k k k k k k k k c c c c k k c c c c c c c c c c c c c c c c c c c c c c c c c c c c c c c c c c c c c c c c c c v v v v v v v v v v v v v v v v v v v v v v v v b v v v v v v v b b b b b b b b b b b b b b b b b v v v v v v v b b b b b b b b v v v v v v v v v v v v v v v v v v v v v v v v v v v v v v v v b b b v b n v n ..n f d i t 7 & 7 d D O...v v v ..b f 8 & . X . X X . . o o $ & & o . o o o $ & o o $ & & & o o o o $ $ o o o $ $ $ $ $ o o . . o o o o o . . X . o o o . X X X . . 9 * 9 o & & o . X $ & o o o O o . * 7 6 e X & = @ p p 7 g n v c c v c v v b v v v v v v v v v v v v v v v v v v v v v v v v b b b b b b b b v v v v v v v v v v v v v v v v v v v v v v v v c c c c c c c c v v v v v v v v v v v v v v v v c c c c c c c c v v v v v v v v c c c c c c c c c c c c c c c c c c c c c c c c f f f k c c k k k k k k f f f f f f f f f f k k f f f f f f f f k k k k k k c c f f f f f f f f f f f f f f f f d d d d d d d d d d d d d d d d d d d d d d d d y y y y y y y q y y y y y y y y y y y y y y y y y y y y y y y y y y y y y y y y q q q q 0 0 0 q q q q q q q q q y q q q q q q q y y w * ",
"y y y y y y y y y y y y y y d d d d d d d d d d d d d d d d d d d d d d d d f f f f f f f f f f k k k k k k k k k k k k k c k c f f f f f f f f c c c c c c c c c c c c c c c c c c c c c c c c c c c c c c c c c c c c c c c c c c c c c c c c v v v v v v v v v v v v v v v v v v v v v v v v v v v v v v v v b b b b b b b b b b b b b b b b v v v v v v v v b b b b b b b b v v v v v v v v v v v v v v v v v v v v v v v v v v v v v v v v b b S b v v v v ......S D c t 4 l v v ...... .n ..o.O.m e $ X X X . . . . o o $ & $ $ $ $ o o $ & $ $ $ & & o o o o o $ o o o $ $ $ $ o o . . . X . o $ $ o . X O O O . X X X X . X = $ & X & & o . X $ & $ o o O O . - 9 9 e X $ ; X e p 7 n b c c v n c c v b v v v v v v v v v v v v v v v v v v v v v v v v b b b b b b b b b v v v v v v v c c c c c c c c c c c c c c c c c c c c c c c c c c c c c c c c c c c c c c c c c c c c c c c c v v v v v v v v c c c c c c c c c c c c c c c c c c c c c c c c f f f f f f f f k k k k f f f f f f f f f f f f f f f f f f f f k c k k c k c c f f f f f f f f f f f f f f f f d d d d d d d d d d d d d d d d d d d d d d d d y y y y y y q q y y y y y y y y q q q q q q q q y y y y y y y y y y y y y y y y q q q q 0 0 0 0 q q q q q q q q y q q q q q q q y y w * ",
"y y y y y y y y y y y y d y d d d d d d d d d d d d d d d d d d f f f f f f f f l l l l l l f f f l l l l l l l f f f f f f f f f f f d d d l l l l l l l l l l k k k k k k k k k k k c c c c c c c c c c c c c c c c c c c c c c c c c c c c c v v v v v v v v v v v v v v v v v v v v v v b b b b b b b b b b b b b b b b b b b b b b b b b b b b b b b b b b v v v v v v v v c c c c v v v v v c c c c c v v c c c c c c c c v v v v v v v c v v v v n v v v v v n n v v v v b b v v v v v v O.v c b D n 0 O     X X O & & $ $ $ $ o o . . X = o X . $ $ $ . o $ = $ o . $ * & $ o . . . o o o o o o o o . X $ o . . . . X X . . . . $ = & o O X X o = $ $ . X $ & 4 7 w e & $ $ & 5 w g c v c c c c c c c c c c v v v v v v v v v v v v v v v v v v v v v v v v v v v v v v v v v v v v v v c c c c c c c c c c c c c c c c c c c c c c c c c c c c c c c c c c c c c c c c c c c c c c c c c c c c c c c c c c c c c c c c c c c c c c c c k k k k k k k k k k k k k k k k f f f f f f f f d d l l l f f f f f f f f f f f f f f f f f f f f f f f f f f f f f f f d d d d d d d d d d d d d d d d d d d d d d d d d d d d q y y y y y y y y y y y y y y y y y y y y y q q y y y y y y y y t t t t t t t t 0 0 0 0 0 0 0 0 0 0 0 0 0 0 0 0 t t t t t t t t q w 9 * ",
"y y y y y y y y y y y y y y d d d d d d d d d d d d d d d d d d f f f f f f f f l l l l k l f f l l l l l l l l f f f f f f f f f f f f f d l l l l l l l l l l k k k k k k k k k k k k c c c c c c c c c c c c c c c c c c c c c c c c c c v v v v v v v v v v v v v v v v v v v v v v v v v b b b b b b b b b b b b b b b b b b b b b b b b b b b b b b b b b v v v v v v v v c c c c v v c c v v c c c c v v c c c c c c c c v v v v c c v v v v v v n n v v v v n n v v v v b b v v v v v v b c v S D n f q X . @ . X X . $ o o $ $ o $ $ $ O o . . o $ o o o O & $ $ o $ & & $ o o o o o o $ & $ $ o o . X . . . o o . . X . . X . o $ $ . o X X o = & $ $ . $ & 5 e e 9 = . $ & w g k v v c c c c c c c c c c c c v v c c v v v v v v v v v v v v v v v v v v v v v v v v v v v v v v v v c c c c c c c c c c c c c c c c c c c c c c c c c c c c c c c c c c c c c c c c c c c c c c c c c c c c c c c c c c c c c c c c c c c c c c c k k k k k k k k k k k k k k k k k f f f f f f f f d d l l l l f f f f f f f f f f f f f f f f f f f f f f f f f f f d f d d d d d d d d d d d d d d d d d d d d d d d d d d d d y q q y y y y y y y y y y y y y y y y y y q y q q y y y y y y y y t t t t t t t t 0 0 0 0 0 0 0 0 0 0 0 0 0 0 0 0 t t t t t t t t q w 9 * ",
"y y y y y y y y y y y y y y d d d d y d d d d d d d d d d d d d d d d d d d d d d f f f f f f f f f f f f f f f f f f f f f f f f d f f d d d d f f f f f f f f l f f f k k l l l k k k k k k k c c c c c c c c c c c c c c c c c c c c c c c c c c c c c c c c c c c c c c c c v v v v v v v v v v v v v v v v b b b b b b b b b b b b b b b b v v v v v v v v v v v v v v v v c c c c c c c c v v v c c c c v c c c c c c c c v v v v v v v v v v v v v v v v v v v v v v v v v v v v v v v v c c v b b b n n u 7 . X X X X   . . . . . . o $ . . . . . o o o . o $ $ = $ $ $ & & $ O O O o $ o $ o o o o . . . . o o o o o o = o . . . o . . o . X $ = * % * . . $ 9 e = $ $ . & 7 i l n n c c c c c c c c c c c c c c c c c v v v v v v v v v v v v v v v v v v v v v v v v v v c c c c c c c c c c c c c c c c k k k k k k c c c c k k c c k k c c c c c c c c c c k k c c k k c c c c c c c c c c k k c c c c c c c c c c c c c c c c c c f l l l k k k l f f f f f f f f d d d d f f f f d d d d d d f f f f f f f f f f f f f f f f f f d d d d d d f d d d d d d d d d d d d d d d d d d d d d d d d d d d d d d y y y q q q q y y y y q q q q q q t q q q q q q q q q q t t t t t t t t t t t t t t t 0 0 0 0 0 0 0 0 0 0 0 0 0 0 0 0 0 0 0 0 0 0 0 0 q w 9 * ",
"q q q q y y y y y y y y y y y d y y y y y y y y d d d d d d d d d d d d d d d d d d d d d d d d d d d d d d d d f f f f f f f f f f f f d d d d d d d f d f f f f f f f f f f f l l l l k k k k k k k k k k k k c c c c c c c c c c c c c c c c c c c c c c c c c c c c c c c c v v c c v v v v v v v v v v v v v v v v v v v v v v v v v v v v v v v v v v v v v v v v v v v v c c c c c c c c v c v c c c c c c c c c c c c c v v v v v v v v v v v v v v v v v v v v v v v v v v v v v v v v c v v v v v v n F g 4 . X X X   . . . . X X X X X . . . . . . o o o o $ $ = $ $ & & $ O o O O & o o o o . . X X . . . . . o $ & = $ . . . . . . $ . . $ & * * * $ X . = = . X @ & 7 y l c v c n c c c c c c c c c c c c c c c c c c c c c c c c v v v v v v v v c c c c c c c c c c c c c c c c c c c c c c c c k k k k k k k k k k c c c c c c k k c c c c c c k k c c c c c c k k c c c c c c k k c c c c c c k k k k k k c c c c c c c k k k f f f f f f f f f f f f f f f f d d d d f f f f d d d d d d d d f f f f f f f f f f f f f f f f d d d d d d d d d d d d d d d d y y y y y d d d y y y y y y y y y y y y y y y y q q q q q q q q q q q q q q q q q q q q q q q q q q q q q q q q t t t t t t t t 0 0 0 0 0 0 0 0 0 0 0 0 0 0 0 0 0 0 0 0 0 0 0 0 q 0 9 * ",
"q q y y y y q q y y y y y y y y y y y y y y y y d d d d d d d d d d d d d d d d d d d d d d d d d d d d d d d d d d d d d d d d f f f f d d d d d d d d d d d d f f f f f f f f l l l l l l l l k k k k k k k k c c c c c c k k c c c c c c c c c c c c c c c c c c c c c c c c c c c c c c v v v v v v v v v v v v v v v v v v v v v v v v v v v v v v v v v v v v v v v v v v c c c c c c c c c c c c c c c c c c c c c c c c c c c c c c c c v v v v v v c c v v v v v v v v v v v v v v c c n v v v v v v v b n x t & X   X . . o o $ o . . X . o . . X . o $ $ o o o $ $ & * & $ o . o $ = o o o . . X X X o o . X X . & * = o X . o . . . $ . . $ & % * * = X X = = X X = q g l c c v c n c c c c c c c c c c c c c c c c c c c c c c c c c c c c c c c c c c c c c c c c c c c c c c c c c c c c c c c c k k k k k k k k k c c c c c c c c c c c c c c c k c c c c c c c c c c c c c c c k c c c c c c c k k k k k k k k k k c k k f f f f f f f f f f f d d d d d d d d d d f f f f d d f f f f d d d d d d d d d d d d d d d d d d d d d d d d d d d d d d d d d d y y y y y y y y y y y y y y y y y y y y y y y y y y q q q q q q q q q q q q q q q q q q q q q q q q q q q q q q q q q q q q q q q q 0 0 0 0 0 0 0 0 0 0 0 0 0 0 0 0 8 8 8 8 0 0 0 0 q w 9 * ",
"q q q q q q q q y y y y y y y y y y y y y y y y d d d d d d d d d d d d d d d d d d d d d d d d d d d d d d d d d d d d d d d d d d d d d d d d d d d d d d d d d d d d d d d d d d d l d l l l f f f f f f f f k c c c k k k k k k c k k k k k k k c c c c c c c c c c k k c c c c c c c c c c c c c c c c c c v v v v v v v v v v v v v v v v c c c c c c c c c c c c c c c c c c c c c c v v c c c c c c c c c c c c c c c c c c c c c c c c v v v v v v c c v v v v v v v v v v v c c c c c n c c v v v v v c v n n u 6 . X X X . . o o o o X . o o . . . . = $ o o . o $ = * & $ o . o $ & $ $ o . . . X X $ o . X X X $ = $ X X . o . . o $ o o $ & $ & & = . . = = @ & e k n v v c k k k c c c c c c c c c c c c c c c c c c c c c c c c c c c c c c c c c c c c c c c c c c c c c c c k k k k k k k c c k k k k k k k k k k k k c c c c k k k k k k k c k k k k c c c c k k k k k k c k k k k k c c c c k k k k k k k k k k k f f f f f d d d d d d d d d d d d d d d d d d d d d d d d d d d d d d d d d d d d d d d d d d d d d d d d d d d d d d d d d d y y y y y y y y y y y y y y y y y y y y y y y y y y y y y q 0 0 0 0 0 0 0 0 q q q q q q q q 0 0 0 q q q q q q q q q q q q q 0 0 0 0 0 0 0 0 0 0 0 0 0 0 0 0 0 0 0 0 0 0 0 0 8 8 8 8 0 0 0 0 q q 7 * ",
"q q q q q q q q y y y y y y y y y y y y y y y y d d d d y y y y y y y y y y y y d d d d d d d d d d d d d d d d d d d d d d d d d d d d d d d d d d d d d d d d d d d d d d d d d d d d d l d d f f f f d f f f k k c k k k k k k k k k k k k k k c c c c k k c c c c c k c c c c c c c c c c c c c c c c c c c v v v v v v v v v v v v v v v v c c c c c c c c c c c c c c c c v v c c c c v v c c c v c c c c c c c c c c c c c c c c c c c c c c c c c c c c c c c c c c c c v c c c c c c c k c n n n n v v c k f k n n q 4 . . X X X . . o . o o o . . . X & & & $ . . o = & & $ $ o o $ $ $ o . . X X X X $ o . + X X o = = . X $ $ . X . $ o $ $ $ . . o $ @ @ = * 4 0 h v v c c c k k k c c c c c c c c c c c c c c c c c c c c c c c c c c c c c c c c c c c c c c c c c c c c c k k k f f k k k k k k k k k k k k k k c k k k c c k k k k k k k k k k c k k k c c k k k k k k k k c c c k k k c c k k f f f f f f f f k f f f f f f f d d d d d d d d d d d d d d d d d d d d g d d d g g d d d d d d d d d d d d d d d d d d d d d d i i i i i i i i y y y y y y y y y y y y y y y y y y y y y y y y u t t t t q q q 0 0 0 0 0 0 0 0 q q q q q q q q 0 0 0 0 q q q q q q q q q q q q 0 0 0 0 0 0 0 0 0 0 0 0 0 0 0 0 0 0 0 0 0 0 0 0 8 8 8 8 8 8 8 8 q 0 6 * ",
"q q q q q q q q q q y y y y y y y y y y y y y y d d d d y y y y y y y y y y y y i i i i i i i i d i i i i i i i d d d d d d d d d d d d d d d d d d d d d d d d d d d d d d d d d d d d d d d d f f f f d d f f k k c k k k k k k k k c c k k k k k c c c c k c c c c c k k c c c c c c c c c c c c c c c c c c v v v v v v v v v v v v v v v v c c c c c c c c c c c c c c c c v v c c c c v v c v c v c c c c c c c c c c c c c c c c c c c c c c c c c c c c c c c c c c c c n n c c c c c c l k n c k k M b c c k c c v n n = = . X X . o $ o o o o o . X X $ & = = o . o O & & & = = $ o . . X X X X X X X . $ o . + X . o e = & = = . X X $ o $ = $ . X X . . @ = * 7 g n v c f f M n v c c c c c c c c c c c c c c c c c c c c c c c c c c c c c c c c c c c c c c c c c c c c c k k k k f f f f f f f f k k k k k k k k k k k k c k k k k c k k k k k k k k k k c k k k k c k k k k k c k k k k c k k k f f f f f f f f f f f f f f f f d d d d d d d d d d d d d d d d d d d d g g d d g g d d d d d d d d d d d d d d d d d d y y y d i i y y i i i i y y y y y y y y y y y y y y y y t t y y y y y y t t t t t q q q 0 0 0 0 0 0 0 0 q q q q q q q q q 0 0 0 q q q q q q q q q q q q 0 0 0 0 0 0 0 0 8 0 0 0 0 0 0 0 8 0 0 0 0 0 0 0 0 8 8 8 8 8 8 8 q 0 6 * ",
"0 0 0 0 0 0 0 0 t t t t t t t t y y y y y y y y y y y y y y y y y y y y y y i i y y y y y y y y d d d d y d d d d d i d d d d d d d d d d d d d d d d d d d d d d d d d d d d d d d d d d d d d d d d d d d d d l l l l l l l l l l l l l l l l l l l l l l l l k k k k k k k k c c c c c c c c k k k k k k k k c c c c c c c c c c c c c c c v c c c c c c c c k c c c k k k k k k k k k k k k k k k k k k l l f f f f l l l f k k k k k k k k c c c c c c c c c c c c c c c c c c c c c c c c l l l l l l l l c c c c c c c c S c y & X     # . X X X . o . + . & = $ . . . . O o $ & & $ $ = . X X X X     + X X X X X X = e & $ & = e = X &   X X o 5 y d d a $ X & w h k c k k k k k k k k c c c c c c c c k k k k k k k k c c c c c k c c c c c c c c c c f k k k k k k k f f f f f f f f f f f f f f f f l l l l l l l l k k k k k k k k k k k k k k k k f f f f f f f f f f f f f f f f f f f f f f f f f f f f f f f f f f f f f f f f d d d d d d d d d d d d d d d d d d d d d d d d d d d d d d d d d d d y d d d d y y y y d d y y d d y y y y y y y y y y y y y y y y y y y y y y y y y y y y y y y y q q q q q q 0 0 0 0 0 0 0 0 8 8 0 8 0 8 8 8 8 8 8 8 8 0 8 8 8 8 8 8 8 8 8 8 8 8 8 8 8 8 8 8 8 8 8 8 8 8 8 8 7 7 8 8 8 8 8 8 8 8 8 8 8 8 8 8 0 8 6 % ",
"0 0 0 0 0 0 0 0 t t t t t t t t y y y y y y y y y y y y y y y y y y y y y y i i y y i i y y y y d d d d y d d d d d d d d d d d d d d d d d d d d d d d d d d d d d d d d d d d d d d d d d d d d d d d d d d d l l l l l l l l l l l l l l l l l l l l l l l l k k k k k k k k k k k k k k k k k k k k k k k k c c c c c c c c c c c c c c c v c c c c c c c c k k k k k k k k k k k k k k k k k k k k l l l l f f f f l l l f l l l l l l l l c c c c c c c c c c c c c c c c c c c c c c c c l l l l l l l l c c c c c c c c c c f u 7 $ X   . . X X . . . + . $ $ $ . . . . X X . $ $ . . $ & o o . X X X + X X X . . . = e $ & & = 9 & $ 9 # X $ 8 g k n n x t 8 y h n c b k k k k k k k k c c c c c c c c k k k k k k k k c c c c k c c c c c c c c c c c f f k k k k k k f f f f f f f f f f f f f f f f l l l l l l l l k k k k k k k k k k k k k k c c k k k k k k k k f f f f f f f f f f f f f f f f f f f f f f f f f f f f d f f f d d d d d d d d d d d d d d d d d d d d d d d d d d d d d d d d d d y y d d d d d y y y d d d y d y y y y y y y y y y y y y y y y y y y y y y y y y y y y y y y y q q q q q q q 0 0 0 0 0 0 0 0 8 8 0 8 0 8 8 8 8 8 8 8 0 0 8 0 8 8 8 8 8 8 8 8 8 8 8 8 8 8 8 8 8 8 8 8 8 8 8 8 7 7 8 7 8 8 8 8 8 8 8 8 8 8 8 8 0 8 7 % ",
"0 0 0 0 0 0 0 0 q q q q t t t t y y y y y y y y y y y y y y y y y y y y y y y y y y y y y y y y d y y y y y d d i y i y i y i i d d d d d d d d d d d d d d d d d d d d d d d d d d d d d d d d d d d d d d d d d d d l d d l l l l l l l f f f f l f f l l l l k k k k k k k k k k k k k k k k k k k k k k k k k k k k k k k k k k k k k k k k k k k k k k k k l l k l l l l l l l l l l l k l k k l l l l l l f f l f l l f f l l l l l f l f k k k k c c c c k k c c c c c c k k k k k k k k l l l l l l l l c k k k k k c k f k k c x u & X X X X . o o . . . $ $ o . o $ . X . $ = = $ $ $ = $ o . X X X X X X X . . . = 9 $ e & 9 ; X = e O . * l D v c n D c k n v l l c k k k c k k k k c c c c c c c c k k k k k k k k c c c c k k k k c k k k k k c c k k k k k k k k f f f f f f f f f f f f f f f f l l l l l f f f l k k k k k l l k k k k k k k k k k k k k k k k f f f f f f f f d f f d d d d d d d d f d d d d d d d d d d d d d d d d d d d d d d d d d d d d d d d d d d d d d d d d d d d d y y y y d y y y y y y y y y y y y y y y y y y y y y y y y y y y q q q q y y y y t t t t t t t t q q q q q 0 q 0 8 8 8 8 8 8 0 0 8 8 8 8 8 8 8 8 8 8 8 8 8 8 8 8 8 8 8 8 8 8 8 8 8 8 8 8 8 8 8 8 7 7 7 7 7 7 7 7 7 7 7 7 7 7 7 7 8 8 8 8 8 8 8 8 0 8 7 % ",
"0 0 0 0 0 0 0 0 q q q q q q q 0 q y y y q q q q y y y y y y y y y y y y y y y y y y y y y y y y y y y y y y d d y y y y y y y y d d d d y y y y y y y d d d y y d d d d d d d d d d d d d d d d d d d d d d d d d d d d d d d d f f f f f f f f f f f f f f l l k k k k k k k k k k k k k k k k k k k k k k k k k k k k k k k k k k k k k k k k k k k k k k k k l l l l l l l l l l l l l l l l l l l l l l l l f f l l l l f f l l l l l l l f k k k k c c c c c k c c c c k k k k k k k k k k l l l l l l l l k k k k k k c c M f l v v l y 7     X . $ $ . X . $ $ o o $ $ $ o o = = = $ $ $ $ = 5 $ X X X X X X X . . . $ 9 = p $ 9 = X 9 e O & t c S v f k v c c c c l l l k k k k k k k k k k k k k k c c k k k k k k k k c c c c k k k k k k k k k k c c k k k k k k k k f f f f f f f f f f f f f f f f f f f f f f f f f f f f f f f f l l k l k k k k f f f f f f f f f f f f f f f f d d d d d d d d d d d d d d d d d d d d d d d d d d d d d d d d d d d d y y y y d d d y d d d d y d d d y y y y y y y y y y y y y y y y y y y y y y y y y y y y q y y y q q q q q q q q q q q q q q q q q q q q q q 0 0 0 0 0 0 8 8 8 8 8 8 8 8 8 8 8 8 8 8 8 8 8 8 8 8 8 8 8 8 8 8 8 8 8 8 8 8 8 8 8 8 8 8 8 8 7 7 7 7 7 7 7 7 7 7 7 7 7 7 7 7 8 8 8 8 8 8 8 8 8 8 7 % ",
"0 0 0 0 0 0 0 0 q q q q q q q q y y y y y y y y y y y y y y y y y y y y y y y y y y y y y y y y y y y y d d d d d d d d y y y y d d d d d d d d y y y y d d d y d d d d d d d d d d d d d d d d d d d d d d d d l l l l d d d d f f f f f f f f f f f f f f f f f f f f f l l l l l l l l l l l l l l l l l l l l l l l l l l l l l l l l l k l l l l l l l l l l l l l l l l l l l l l l l l l l l l l l l l l l l l l f l l f l l l l l l l l k k k k k k k k c c c c c c c c k k k k k k k k l l l l l l l l k k k k k k k k g l l l c c n x & . X X o $ o X o $ $ o $ & & $ . . . o o . . & $ e p 9 . . . . X X X . . o = 9 = p . = 9 @ p e & w x v v v v c v c k k c k l l k k l l l l f f k k k k k k k k f f f f f f f f k k k k k k k k f f f f k k k k l l l l l l f l f f f f f f f f f f f f f f f f f f f f f f f f f f f f f f f f f f f f f f f f d d d d d d d d d d d d d d d d d d d d d d d d d d d d d d d d d d d d d d d d d d d d d d d d d d d d d d d d y y y y i i i i y y y y y y y y y y y y y y y y y y y y y y y y y y y y y y y t y y y y y y y y q q q q q q q q 0 0 0 0 0 0 0 0 0 0 0 0 0 0 0 0 8 8 8 8 8 8 8 8 8 8 8 8 8 8 7 7 8 8 8 8 8 8 8 8 8 8 8 8 8 8 8 8 8 8 8 8 8 8 8 8 7 7 7 7 7 7 7 7 7 7 7 7 7 7 7 7 8 8 8 8 7 7 7 7 0 8 6 % ",
"0 0 0 0 0 0 0 0 w 0 0 0 0 0 0 0 q q q q q q q q y y y y y y y y y y y y y y y y y y y y y y y y y y y y y y y y y y y y y y y y y y d d y y y d y y y y d d y y d d d d d d d d d d d d d d d d d d d d d d d d d d d d d d d d d d f f f f f f d d d d d d d f d d d d d d l l l l l d d d d d l l l l l l l l l l l l l l l l l l l l l l l l l l l l l l l l l l l l l l l l l l l l l l l l l l l l l l l l l l l l f f l f l l l l l l l l k k k k k k k k k k k k c c k k k k k k k k k k l f l l l l l l k k k k k k k k f l k k l k c n h w & o . o $ @ o o o . $ & * & . X X X X X . & o e p 9 . . @ . X X X X . . & 4 e p & = 9 = e e 4 g n k f c n n n c f f M k M g f f f f f f f f f f f f f f f f f f f f f f f f k k k k k k k k f f f f k k k k d l l l l l d d d d d d f f d d f f f d d d d d d d d d d d d d d d d d d d d d d d d d d d d d d d d d d d d d d d d d d d d d d d d d d d d d d d d d d d d d d d d d y y d d g g g g g g g g y y y y y y y y y y y y y y y y y y y y y y y y y y y y y y y y y y y y y y y y t t t t t t q t q q q q q q q q q q q q q q q q 0 0 0 0 0 0 0 0 8 8 8 8 8 8 8 8 8 8 8 8 8 8 8 8 8 7 7 7 7 7 7 7 7 7 7 7 7 7 7 7 7 7 7 7 8 8 8 8 7 7 7 7 7 7 7 7 7 7 7 7 7 7 7 7 7 7 7 7 7 7 7 7 7 7 7 7 7 7 7 7 7 8 6 & ",
"0 0 0 0 8 0 0 0 0 0 0 0 0 0 0 0 q q q q q q q q q q q q q q q q y y y y u u u y y y y y y y y y y y y y y y y y y y y y y y y y y d y y y y d d d d y y d d d d i i i d d d d i d d d d d d d d d d d d d d d d d d d d d d d d d d d d f d f d d d d d d d d d d d d d d d d d d d d d d d d d d d d d l l d d d d d d l l l l l l l l l l l l l l l l d d d l l l l l l l l l l l f f f f l l k k k k k k l l f l l l l l l l l f f f l l l f f f f f f f f f k k k k c c c c f f f f f f f f f f f f f f f f f f f f k k f f l l k k f f l l b k y 5 $ . . @ . . . . o & & $ o . X X X X . & o e e & . $ = . X X X X X X . & e e = & = = = = 0 d c l d l l l f f f f f f f d f f f f f f f f f f f f f f f f f f f f f f f f f f f f f f f f f f f f f f f f d d d d d d d d d d d d f f f d f f d d d d d d d d f f d d d d d d d d d d d d d d d d d d d d d d d d d d d d d d d d d d d d i i i i i i i i i i i i i i i i y y y y y y y y g d d d d d d d y y d d y y y y y y y y y y y y y y y y y y y y y y y y y y y y y y y y y y y y t t t q q 0 0 0 q q q q q q q q 0 0 0 0 0 0 0 0 0 0 0 0 0 0 0 0 8 8 8 8 8 8 8 8 7 7 7 7 7 7 7 7 7 7 7 7 7 7 7 7 7 7 7 7 7 7 7 7 7 7 7 7 7 7 7 7 7 7 7 7 7 7 7 7 7 7 7 7 7 7 7 7 7 7 7 7 7 7 7 7 7 7 7 7 7 7 7 7 7 8 6 & ",
"8 0 0 0 8 8 8 0 0 0 0 0 0 0 0 0 q q q q q q q q q q q q q q q q y y y y u u u u y y y y y y y y y y y y y y y y y y y y y y y y y y y y y y d d d y y y d d y d i i i i d d d i d d d d d d d d d d d d d d d d d d d d d d d d d d d d d d f d d d d d d d d d d d d d d d d d d d d d d d d d d d d d d l d d d d d d l l l l l l l l l l l l l l l l l l l l l k l l k k k l l l f f f l l l k k k k k k l l f l l l l l l l d f d d d d f f f f f f f f f f k k k k c c c c f f f f f f f f f f f f f f f f f f f f k k k f l l f g g g l l c c n g 5 o X X . . X X . & & $ . X X + X X . & $ e e @ . ; 9 $ X X X X . X X . . @ $ X & 9 = e l l k n k d d d d d k l l l l f f f f f f f f f f f f f f f f f f f f f f f f f f f f f f f f f f f f f f f f f l l l l d l d d d d d d f f d d f f d d d d d d d d d f f f d d d d d d d d d d d d i d d d i i d d d d d d d d d d d d d d d d i i i i i i i i i i i i i i i i y y y y y y y y d d d d d d d d y y y d d y y y y y y y y y y y y y y y y y y y y y y y q q q q y y y y y y y y t t t q q 0 0 0 q q q q q q q q 8 8 8 0 0 0 0 0 8 8 8 8 8 8 8 8 8 8 8 7 8 7 7 7 7 7 7 7 7 7 7 7 7 7 7 7 7 7 7 7 7 7 7 7 7 7 7 7 7 7 7 7 7 7 7 7 7 7 7 7 7 7 7 7 7 7 7 7 7 7 7 7 7 7 7 7 7 7 7 7 7 7 7 7 7 7 7 7 7 8 6 & ",
"8 8 8 8 8 8 8 8 0 0 0 0 0 0 8 8 0 0 0 0 8 8 8 8 t t t t t t t t t t t t t t t t t t t t t t t t t t t t t t t t t t t t t t t t t t t t t t t t y y y i y i i i y y y y y y y y d d i i i d d d d d d d d d d d d d d d d d d d d d d d d d d d d d d d d d d d d d d d d d d d d d d d d d d d d d d d d d d d d d d d d d d d l l l l d d d d d d d d l l d d l l l l l l l l l l l l l l l l k k k k k k k k f f f f l l f f l l l f f f l l l l l l f f f f k k k k k k k k l l l l l l f f l l l l l l l l l l d l l l d d l l l l l l l l M k c k l q * . + + + O O . . o O . X X X . O + $ & & & & = 9 e X X   X $ $ X + X O = = : = = 9 l l l l d d d d d d d d d l l d d d d d d d d d d d d d d d d d d d l l l d d d f f f f f f f f f f k k f f f f f f f f f f f f d d d d d d d d d d d d d d d d d d d d d d d d i d d i i d d d d d d d d d d d d d d d d d d d y y d d d d d d d d d d d d y i y y d d y y y y y y y y y y y y y y y y y y y y t t t t t t t t t t t t t t y y y y y y y y y y y y y y y y y y y y q q y y y q q q q q q q q q 0 0 0 0 8 8 8 0 8 8 8 8 8 8 8 8 8 8 8 8 8 8 8 8 8 7 7 7 7 7 7 7 7 7 7 7 7 7 7 7 7 7 7 7 7 7 7 7 7 7 7 7 7 7 7 7 6 6 6 6 6 6 7 7 7 7 7 7 7 7 7 7 7 7 6 6 6 7 7 7 7 7 7 7 7 7 6 6 7 7 7 7 7 7 7 7 6 6 - @ ",
"8 8 8 8 8 8 8 8 0 8 8 0 8 8 8 8 0 0 0 0 8 8 0 0 t t t t t t t t t t t t t t t t t t t t t t t t t t t t t t t t t t t t t t t t t t t t t t t t y y i y y y i i y y y y y y y y d i i i i d d d d d d d d d d d d d d d d d d d d d d d d d d d d d d d d d d d d d d d d d d d d d d d d d d d d d d d d d d d d d d d d d d d l l l l d d d d d d d d l d d d l l l l l l l l l l l l l l l l k k k k k k k k d d d d l l d l l l l d d d d l l l l d d d d l k k k k k k k k l l l l k l f f l l l l l l l l d d d l l l d d l l l d l l l l f f f l l g w 7 o X X X X X O 5 . . X X X X X X o $ & & & & * 9 = .     X X X X = = = $ = = 6 a d d d d d d d d d d d d d d l d d d d d d d d d d d d d d d d d d d d d d d d d f f f f f f f f f f f f f f f f d d d d d d d d d d d d d d d d d d d d d d d d d d d d d d d d d d d d d d d d d d d d d d d d d d d d d d d d y y d d d d d d d d d d d d y y y y y y y y y y y y y y y y y y y y y y y y y y t t t t t t t t t t t t t t y y y y y y y y y y y y y y y y y y y y q q y y q q q q q q q q q q 0 0 0 0 8 8 8 8 8 8 8 8 8 8 8 8 8 8 8 8 8 8 8 8 7 7 7 7 7 7 7 7 7 7 7 7 7 7 7 7 7 7 7 7 7 7 7 7 7 7 7 7 7 7 7 7 6 6 6 6 6 6 7 7 7 7 7 7 6 6 7 7 7 7 6 6 6 7 7 7 7 7 7 7 7 7 6 6 7 7 7 7 7 7 7 7 6 6 - @ ",
"7 7 7 8 8 8 8 8 8 8 8 8 8 8 8 8 0 0 0 0 0 0 0 0 0 0 0 0 0 0 0 0 0 0 0 0 0 0 0 0 t t t t t t t t t t t t t t t t t t t t t t t t t t t t t t t t y y y y y y y y y y y y y y y y d d i i i i d d d d d d d d d d d d d d d d d d d d d d d d d d d d d d d d d d d d d d d d d d d d d d d d d d d d d d d d d d d d d d d d d d d d d d d d d d d d l l l l d d d d d d d l d d d d d d d d d d f f f f f f f f d d d d d d d d d d d d d d d d d d d d d d d d f l f f f f f f d f f f f f f f d d d d d d d d d d d d d d d d d d d d d d d d d d d l l l h g t 8 7 & . X . = $ . . . . X X X . o = & & & * 6 . .       X X = . 9 9 & & 4 8 i d d d d d d d d d d d d d d d d d d d d d d d d d d d d d d d d d d d d d d d d d d d f d d d d f f f f f f f f d d d d d d d d d d d d d d d d d d d d d d d d d d d d d d d d y y d d i i y y d d d d d d d d d d d d d d d d y y y y y y y y y y y y y y y y y y y y y y y y y y y y y y y y y y y y y y y y t t t t t t t t t t t t t t t t y y t y y y y y y y t y y y y y y y y y y y y y 0 0 0 0 0 0 0 0 0 0 0 0 8 8 8 8 8 8 8 8 8 8 8 8 8 8 8 8 8 8 7 7 7 7 7 7 7 7 7 7 7 7 7 7 7 7 7 7 7 7 7 7 7 7 7 7 7 7 7 7 7 7 7 7 6 6 6 6 6 7 7 7 7 7 7 7 6 6 6 6 7 6 6 6 7 7 7 7 7 7 7 7 6 6 6 6 6 6 7 7 7 7 7 7 7 6 - @ ",
"7 7 7 8 8 8 8 8 8 8 8 8 8 8 8 8 0 0 0 0 0 0 0 0 0 0 0 0 0 0 0 0 0 0 0 0 0 0 0 0 t t t t t t t t t t t t t t t t t t t t t t t t t t t t t t t t y y y y y y y y y y y y y y y y i i i i i i i i d d d d d d d d d d d d d d d d d d d d d d d d d d d d d d d d d d d d d d d d d d d d d d d d d d d d d d d d d d d d d d d d d d d d d d d d d d l l l l d d d d d d d d d d d d d d d d d d d d d d d d d d d d d d d d d d d d d d d d d d d d d d d d d d d d d d d d d d d d d d d d d d d d d d d d d d d d d d d d d d d d d d d d d d l d i d d l k f c k h u 5 . X   . X X . . . X X + O O $ = * 9 9 X . X   X X . =   ; a 6 7 w y d d d d d d d d d d d d d d d d d d d d d d d d d d d d d d d d d d d d d d d d d d d d d d d d d d d d d d d d d d d d d d d d d d d d y d d d d i i i i d d d d y i i i i i i d y y d d y y y y i y i d d d d d d y y y d d d d y y y y y y y y y y y y y y y y y y y y y y y y y y y y y y y y y y y y y y y y t t t t t t t t t t t t t t t t t t t t t t t t t t t t t t t t y y y y y y y y 0 0 8 8 8 8 8 8 0 0 0 0 8 8 8 8 8 8 8 8 8 8 8 8 7 7 7 7 7 7 7 7 7 7 7 7 7 7 7 7 7 7 7 7 7 7 7 7 7 7 7 7 7 7 7 7 7 7 7 7 7 7 7 7 7 7 7 7 6 6 6 6 7 7 7 7 6 6 6 7 6 6 6 6 6 6 6 6 7 7 7 7 7 7 7 7 7 7 7 7 7 7 7 7 7 6 - @ ",
"8 8 8 8 8 8 8 8 8 8 8 8 8 8 8 8 8 8 8 0 8 8 8 8 0 0 0 0 0 0 0 0 8 8 8 8 0 0 0 0 q q q q t t t q t t t t t t t t t t t t t t t t t t t t t t t t y y y y y y y y y y y y y y y y i i i i i i i i i i i i y y y y d d d d d d d d d d d d d d d d d d d d d d d d d d d d d d d d d d d d d d d d d d d d l l l l d d d d d d d d d d d d d d d d d d d d d d d d d d d d d d d d d d d d d d d d d d d d d d d d d d d d d d i d d d d d d d d d d d d d d d d d d d d d d d d d d d d d d d d d d d d d d d d d d d d d d d d d d d d d d d d d l i d d d f f f l l l g u 9 o X . X X X X X X X + + X . $ = 9 a . = .     X X $ X 9 a t t g d d d d d d d d d d d d d d d d d d d d d d d d d d d d d d d d d d d d d d d d d d d d d d d d d d d d d d d d d d i i i i i i i i y y y y i i i i y y d d d d y y d d d d y d d d d d d d d d d d y y d d d d y y y y i i i i i i y y y y y y y y y y y y y y y y y y y t t t y y y y y y y y y y y y y y y y y y t t t t t t t t t t t t t t t t t q t t t t t t t q t t t t t t q q t t t t t t 0 0 8 8 8 8 8 8 0 0 8 8 8 8 8 8 8 8 8 8 8 8 8 8 7 7 7 7 7 7 7 7 7 7 7 7 7 7 7 7 7 7 7 7 7 7 7 7 7 7 7 7 7 7 7 7 7 7 7 7 7 7 7 7 7 7 7 7 7 7 7 7 6 6 6 6 6 6 6 6 7 7 7 7 7 7 7 7 7 7 7 7 7 7 7 7 7 7 7 7 7 7 7 7 7 6 - @ ",
"7 7 7 7 7 7 7 7 8 8 8 8 8 8 8 8 0 8 8 0 8 8 8 8 0 0 0 0 0 0 0 0 8 8 8 8 0 0 0 0 0 0 0 0 0 0 0 0 q q q q 0 0 q 0 t t t t t t t t t t t t t t t t y y y y y y y y y y y y y y y y y y y y i i i i y y y y y y y y d d d d d d i d d d d d d d d d d d d d d d d d d d d d d d d d d d d d d d d d d d d d d d d d d d d d d d d d d d d d d d d d d d d d d d d d d d d d d d d d d d d d d d d d d d d d d d d d i i i i i i i i i i y y i i i i i i y y i y i i d d d d d d d d d d d d d d d d d d d d d d d d d d d d d d d d d d d d d d d d d d d l l f f f d d d d g u w 4 O o . . X X X X X X X X X $ = 9 . = X     @ * 7 7 u i t y g d d d d d d d d d d d d d d d d d d d d d d d d d d d d d d d d d d d d d d d d d d d d d d d d d d d d d d d d d y y y y y y y i i y y y y y y y y y y y y d d y y d d d y y y y y y y y y y y y y y y y d d d y y y y y y y y y y t t t t t t y y t t t t t t t t t t t t t t t t y y y y y y y y y y y y y y y y t t t t t t t t q q q q q t t q t t 0 t t t t t t t 0 t t t t t 0 0 0 0 0 0 w w 8 8 8 8 8 7 8 7 8 8 8 8 8 8 8 7 7 7 7 7 7 7 7 7 7 7 7 7 7 7 7 7 7 7 7 7 7 7 7 7 7 7 7 7 7 7 7 7 7 7 7 7 7 7 7 7 6 7 7 7 6 6 6 6 7 7 7 7 7 7 7 7 6 6 7 7 7 7 7 7 7 7 6 6 7 7 7 7 7 7 7 7 7 7 7 7 7 7 7 7 6 6 7 7 6 6 - @ ",
"7 7 7 7 7 7 7 7 8 8 8 8 8 8 8 8 8 8 8 8 8 8 8 8 8 8 8 8 8 8 8 8 8 8 8 8 8 8 8 8 0 0 0 0 0 0 0 q q q q q 0 0 0 0 t t t t t t t t t t t t t t t t q q y y y y y u y y y y y y y y i y y y y i y y y y y y y y y y y y y y y y y y d d i d i i i i d d d d d d d d d d d d d d d d d d d d d d d d d d d d d d d d d d d d d d d d d d i i d d d d d d d d d d d d d d d d d g g d d d d d d d d d i i i d i i i i y y y y y y y y y y y y y y y y y y y y y y y y d d i i i i i i d d d i d d d d d d d d d d d d d d d d d d d d d d d d d d d d d d d d d d d d g f d d d f g y 0 7 4 & o . X X X X X X X X @ @ . = . X $ 7 t g g l d i d y y d d d d d d d d d d d d d d d d d d d d d d d d d d d d d d d d d d d d d d d d d i i i i i i y y y y y y i y y y y y y y y y y y y y y y y y y y y y y d d y y y y y y y y y y y y y y y y y y y y y y d d y y y y y y y y y y y t t y t y y y y t t t t t t t t q q q q 0 0 0 q q q q q q q q q y y y y y y y y 0 0 q q q q q q 0 0 0 0 0 0 0 0 0 0 0 0 0 0 0 0 0 0 0 0 0 0 0 0 8 8 8 8 8 8 8 8 7 7 7 7 7 7 7 7 7 7 7 7 7 7 7 7 7 7 7 7 7 7 7 7 7 7 7 7 7 7 7 7 7 7 7 7 7 7 7 7 7 7 7 7 7 7 7 7 6 6 6 6 7 7 7 7 6 6 7 7 7 7 6 6 6 6 6 6 7 7 7 7 7 7 7 7 7 7 7 7 7 7 6 6 7 7 7 7 6 6 6 6 7 7 7 7 7 7 7 7 6 6 6 6 6 6 - @ ",
"7 7 7 7 7 7 7 7 8 8 8 8 8 8 8 8 8 8 8 8 8 8 8 8 8 8 8 8 8 8 8 8 0 8 8 8 8 8 8 8 0 0 0 0 0 0 0 q q q q q 0 0 0 0 t t t t t t t t t t t t t t t t q q q y y y y y y y y y y y y y i y y y y y y y y y y y y y y y y y y y y y y y d d i i i i i i d d d d d d d d d d d d d d d d d d d d d d d d i i d d d d d d d d d i d d d d y i y y y y y d d d d d d d d d d d d d d d d d d d d d d d d d i i i i i i i i y i y y y y y y y y y y y y y y y y y y y y y y i i i i i i i i i i i i i i d d d d d d d d d d d d d d d d d d d d d d d d d d d d d d d d d d q g d y y d f d l g t 7 * $ . X X X X X X X X X @ ; = $ 9 u d f g d i i d y q i d d d d d d d d d d d d d d d d d d d d d d d d d d d d d d d d d d d d d d d d y y y y y y y y y y y y i y y y y y y y y y y y y y y y y y y y y y y d d y y y y y y y y y y y y y y y y y y y y y y y d y y y y y y y y y y y t t y y y y y y t t t t t t t t q q q q 0 0 0 q q q q q q q q q y y y y y y y y 0 0 q q q q q q 0 0 0 0 0 0 q 0 0 0 0 0 0 0 8 8 0 0 0 0 0 0 0 0 8 8 8 8 8 8 8 8 7 7 7 7 7 7 7 7 7 7 7 7 7 7 7 7 7 7 7 7 7 7 7 7 7 7 7 7 7 7 7 7 7 7 7 7 7 7 7 7 7 7 7 7 7 7 7 7 6 6 6 6 6 7 7 7 6 6 7 7 7 7 6 6 6 6 6 6 6 7 7 7 7 7 7 7 7 7 7 7 6 4 4 4 4 7 7 7 7 6 6 6 6 7 7 7 7 7 7 7 6 6 6 6 6 6 - @ ",
"7 7 7 7 7 7 7 7 8 8 8 8 8 8 8 8 7 7 7 7 7 7 7 7 7 7 7 7 8 8 8 8 8 8 8 8 8 8 8 8 8 8 8 8 8 8 8 8 0 0 0 0 8 0 0 0 0 0 0 0 t 0 0 0 0 0 0 0 0 0 0 0 t t t 0 0 0 t t t t t t t t t t t t t t t t t t t t t t t t t t y y y y y y y y y y y i i i d d i i i i y y y y y y y y y y y y y y y y y y y y y y y y y y y y i i i i i i i i y y y y y y y y y y y y d d y y y y i i y y y y u u u y y i u u y y y y y y y y t t t t t t t t y y y y y y y y y y y y y y y y y y y y y y y y y y y y y y y y i i i i d d i i d d d i d d d i d d d d i i i i d g d d d d i i y y y y y y y y y y g g g y q 0 o o . X X X +   X & w g f d y u y y y y y y y y y y y y y y y y d d d d d d d d i i i i i i y y y y y y y y y y i i i i i i i i y y y y y y y y t t t t t t t t y y t t t y y y y y t t t t y y y u y y y y y y t t y y y t t t t t t t t t t t t t y y t t t t t t t t t t t t t t y y y t t t y y y y y t t t y y t t t y y y t q q q t t t t t t t t t t t t 0 0 0 0 0 t t 0 8 8 8 8 8 8 8 8 8 8 8 8 8 8 8 8 8 8 8 8 8 8 8 8 8 8 8 8 8 8 8 8 8 8 8 8 8 8 8 8 6 7 7 7 7 7 6 6 7 7 7 7 6 6 6 6 7 7 7 7 7 6 6 6 6 6 6 6 6 6 6 6 6 6 6 6 6 6 6 6 6 6 6 6 6 6 6 6 - - 6 6 6 6 6 6 6 6 6 6 6 6 6 6 6 6 - - 6 6 6 6 * * * * - - - - 6 6 6 6 6 6 6 6 6 6 6 6 6 6 6 6 4 * = @ ",
"7 7 7 7 7 6 7 7 8 8 7 7 7 7 7 7 7 7 7 7 7 7 7 7 7 7 7 7 8 8 8 8 8 8 8 8 8 8 8 8 8 8 8 8 8 8 8 8 0 0 0 0 8 0 0 0 0 0 0 0 0 0 0 0 0 0 0 0 0 0 0 0 t t t 0 0 0 0 t t t t t t t t t t t t t t t t t t t t t t t t t y y y y y y y y y y y y y y y i y y y y t t y t t t t t t t t t t t t t t t t t y y y y y y y y i i i i i i i i y y y y y y y y y y y d d d y y y i i i y y y y y y y y y y y y y y y y y y y y t t t t t t t t y y y y y y y y y y y y y y y y y y y y y y y y y y y y y y y y i i i i d d i i d d i i d d d d d d d d i i i i d d d d i i i i y y y y y y y y y y y g g y y y w w w 6 $ X X X & 7 u g d y y i y y i i y y y y y y y y y y y y d d d d d d d d i i i i i i y y y y y y y y y y y y y y y y y y y y y y y y y y t t t t t t t t y y t t t t y y y y t t t t y y y y y y y y y y t t y y y y t t t t t t t t t t t y y y t t t t t t t t t t t t t t y y y t t t y y y t t t t t y y y t t y y y q q q q t t q q q q q q t t q q 8 8 0 0 0 0 0 0 8 8 8 8 8 8 8 8 8 8 8 8 8 8 8 8 8 8 8 8 8 8 8 8 8 8 8 8 8 8 8 8 8 8 8 8 8 8 8 8 6 6 7 7 7 7 6 6 7 7 7 7 6 6 6 6 7 7 7 7 7 6 6 6 6 6 6 6 6 6 6 6 6 6 6 6 6 6 6 6 6 6 6 6 6 6 6 6 - - 6 6 6 6 6 6 6 6 6 6 6 6 6 6 6 6 - - 6 6 6 6 * * * * - - - - 4 4 4 4 4 4 4 4 6 6 6 6 6 6 6 6 4 * = @ ",
"7 7 7 7 6 6 6 6 7 7 7 7 7 7 7 7 7 7 7 7 7 7 7 7 7 7 7 7 7 8 8 8 8 8 8 8 8 8 8 8 8 8 8 8 8 8 8 8 0 0 0 0 8 8 0 0 0 0 0 0 0 0 0 0 0 0 0 0 0 0 0 0 t 0 0 0 0 0 t t t t t t t t t t t t t t t t t t t t t t t t t t t t t t y y y y y y y y y y t t t t t t t t t t t t t t t t t t t t t t t t t t y y y y y y y y y i i i i i y y y y y y y y y y y y y y y y y y y y y y y y y y y y y y t t t t y y y y y y y y t t t t t t t t y y y y y y y y y y y y y y y y y y y y y y y y y y y y y y y y i i i i d d d d d d i d d d d d d d d d i i i i i i y y y y y y y y y y y y y y y y y y y i g g i g h i 7 6 6 8 w t y y y y y i y y y y y y y y y y y y y y y y d d d d y y y y y y y y y y y y y y y y y y y y y y y y y y y y y y y y y y y y t t t t t t t t y y t t y y y y y y t t t t t y y y t t y t y y t t t y t t t t t t t t t t t t t t t t t t t t t t t t t t t t t t t t t t t t t t t t t t t t t t t t t t t t 0 0 0 0 0 0 0 0 0 0 0 0 0 0 0 0 8 8 8 8 8 8 8 8 8 8 8 8 8 8 8 8 8 8 8 8 8 8 8 8 8 8 8 8 8 8 8 8 8 8 8 8 8 8 8 8 7 7 7 7 7 7 7 7 6 6 6 6 7 7 6 6 6 7 7 7 7 7 6 6 7 7 7 7 7 7 4 4 6 6 6 6 * * * 6 * * * * 6 6 6 6 * * 4 4 6 6 6 6 6 6 * * 6 6 6 6 * * 6 4 6 6 6 6 - - - - - - - - * * * * * * - - * * * * * * * * - 6 6 6 6 6 6 6 * * % @ ",
"7 7 7 7 6 6 6 7 7 7 7 7 7 7 7 7 7 7 7 7 6 6 6 7 7 7 7 7 7 7 8 8 8 8 8 8 8 8 8 8 8 8 8 8 8 8 8 8 0 0 0 8 8 8 0 0 0 0 0 0 0 0 0 0 0 0 0 0 0 0 0 0 0 0 0 0 0 0 t t t t t t t t t t t t t t t t t t t t t t t t t t t t t t t t t t y y t t t t t t t t t t t t t t t t t t t t t t t t t t t t t t y y y y y y y y y i i i i i y y y y y y y y y y y y y y y y y y y y y y y y y y t t t t t t t t y y y y y y y y t t t t t t t t y y y y y y y y y y y y y y y y y y y y y y y y y y y y y y y y i i i i i i i i d d d d d d d d d i i i i i i i y y y y y y y y y y y y y y y y y y y y y i g g y i d i y y i h u i y y y y y u y y y y y y y y y y y y y y y y y y y y y y y y y y y y y y y y y y y y y y y y y y y y y y y y y y y y y y y y t t t t t t t t y y t t y y y y t t t t t t t t y y t t t t y y t t t t t t t t t t t t t t t t t t t t t t t t t t t t t t t t t t t t t t t t t t t t t t 0 0 0 0 0 0 0 0 t t 8 8 8 8 0 0 0 0 8 8 8 8 8 8 8 8 8 8 8 8 8 8 8 8 8 8 8 8 8 8 8 8 8 8 8 8 8 8 8 8 8 8 8 8 8 8 8 8 8 8 8 8 8 8 8 8 7 7 7 7 7 7 7 7 6 6 6 6 7 7 6 6 7 7 7 7 7 7 6 6 7 7 7 7 7 4 4 4 6 6 6 6 * * * 4 4 * * * 6 6 6 6 - * * 4 6 6 6 6 6 6 6 4 6 6 6 6 * * * * 6 6 6 6 - - - - - - - - * * * * * * * * * * * * * * * * - - - - - - - - * * = @ ",
"6 6 6 6 6 6 6 6 6 6 6 6 6 6 6 6 6 6 6 6 6 6 7 6 7 7 7 7 7 7 7 7 8 8 8 8 8 8 8 8 8 8 8 8 8 8 8 8 8 8 8 8 8 0 0 0 0 0 0 0 0 0 0 0 0 0 0 0 0 0 0 0 0 0 0 0 0 0 0 0 t t t t t t t t t t t t t t t t t t t t t t t t t t t t t t t t t t t t t t t t t t y t t t t t t t t t t t t t y y y y t t y y y y y y y y y y y y i i i i y y y y y y y y y y y y y y y y y y y y y y y y y y t t t t t t t t y y y y y y y y t t t t t t t t y y y y y y y y y y y y y y y y y y y y y y y y y y y y y y y y i i i i i i i i i i i i d d i i i i i i i i i y y y y y y y y y y y y y y y y y y y y y y y y y d y y y y i y y d i y y y y y y y y y y y y y y y y y y y y y y y y y y y y y y y y y y y y y y y y y y y y y y y y y y y y y y y y y y y y y y t t t t t t t t y y y y y t t t t t t t t t t t t t t t t t t y t t t t t t t t t t t t t t t t t t t t t t t t t t t t t t t t t t t t t t t t t t t t t t 0 0 0 0 0 0 0 0 0 0 8 8 8 8 8 8 8 8 8 8 8 8 8 8 8 7 7 7 7 7 7 7 7 7 8 8 8 8 8 8 8 8 8 8 8 8 8 8 8 8 8 8 8 8 8 8 8 8 8 8 8 8 8 8 8 8 7 7 7 7 7 7 7 7 7 7 7 6 6 6 6 6 6 6 6 6 7 7 7 7 7 7 7 7 4 7 4 4 * 4 6 4 6 6 6 6 * * 6 6 6 6 * * * * 6 4 6 6 * * * * * 4 6 6 * * * * 6 6 6 6 * * - - - - - - - - * * * * * * * * * * * * * * * * * * * * - * - - * * = @ ",
"6 6 6 6 7 7 7 7 6 6 6 6 6 6 6 6 6 6 6 6 6 6 6 6 7 7 7 7 7 7 7 7 8 8 8 8 8 8 8 8 8 8 8 8 8 8 8 8 8 8 8 8 8 8 0 0 0 0 0 0 0 0 8 0 0 0 0 0 0 0 0 0 0 0 0 0 0 0 0 0 t 0 0 0 t t t t t t t t t t t t t t t t t t t t t t t t t t t t t t t t t t t t t t y y y y y u y y y y y u y y y y y y y y y y y y y y y y y y y y i i i i y y y y y y y y y y t t y t t t t t y y y y y y y y t t t t t t t t y y y y y y y y t t t t t t t t y y y y y y y y y y y y y y y y y y y y y y y y y y y y y y y y y y i i i i y y i i i i g g i i y y y y y y y y y y y y y y y y y y y y y y y y y y i i y y y y g y y y i i y q y y y t t y t y y y y y y y y y y y y y y y y y y t t t t t t t y y y y y y y y y y y y y y y y y y y y y y y y y y y y y y y y t t t t t t t t y y y y y t t t t t t t t t t t t t t t y y t y t t t t t t t t q 0 t t q q q q t t t t t t t t q q q q q 0 q 0 q q q q t t q q t 0 0 0 8 8 8 8 8 8 8 8 8 8 8 8 8 7 8 8 8 8 8 8 7 7 7 7 7 7 7 7 7 7 7 7 7 7 7 7 8 8 8 8 8 8 8 8 8 8 8 8 8 8 8 8 8 8 8 8 8 8 8 8 7 7 7 7 7 7 7 7 7 7 7 7 7 7 7 7 7 7 6 6 6 6 6 6 6 6 6 6 7 7 7 7 7 7 7 7 4 4 4 4 * * 6 6 6 6 6 6 * * 6 6 4 6 * * * * 6 6 6 6 * * * * * * 6 6 * 4 * * 6 6 4 6 * * - - - - - - - - * * * * * * * * * * * * * * * * * * * * * * * * * * % @ ",
"7 7 7 7 7 7 7 7 6 6 6 6 6 6 6 6 7 7 7 7 7 7 7 7 7 7 7 7 7 7 7 7 8 8 8 8 8 8 8 8 8 8 8 8 8 8 8 8 8 8 8 8 8 8 8 8 8 8 8 8 8 8 8 8 0 0 0 0 0 0 0 0 t t 0 0 0 0 0 0 t t 0 t t t t t t t t t t t t t t t t t t t t t t t t t q 0 0 0 t t t t t t t t t t t u u u u u y y y y y y y y y y y y y t y t y y y y y y y y y y y i i i y y y y y y y y y y t t t t t t t t y y y y y y y y t t t t t t y y y y y y y y y y t t t t t t t t y y y y y y y y y y y y y y y y y y y y y y y y y y y y y y y y y y y y i i i y y y y y i i i y y y y y y y y y y y y y y y y y y y y y y y y y y y y y y y y y y y y y y y y y y y y t t t y y y y y y y y y y y y y y y y y y y y t t t t y y y y y y y y y y y y y y y y y y y y y y y y y y y y y y y y y y t t t t t t t t t t y y y y t t t t t t t t t t t t t t t t t t t t t t t t t t 0 0 0 0 q 0 q q 0 0 0 q 0 0 0 0 q q q q 0 0 q q 0 0 0 0 0 0 0 0 8 8 8 8 8 8 8 8 7 7 7 7 7 7 7 7 7 7 7 7 7 7 7 7 7 7 7 7 8 8 7 7 7 7 7 7 7 7 7 7 8 7 7 7 8 7 7 7 8 8 7 7 7 7 7 7 7 7 7 7 8 8 7 7 7 7 7 7 7 7 7 7 7 7 7 7 7 7 7 7 7 7 7 7 6 6 7 6 7 7 7 7 7 7 7 7 7 7 7 6 4 4 4 4 * * * * * * * * * * * * * * * * * * * * * * * * * * * * * * * * * * * * * * * * * * * * - - - - * * * * * * * * % % % % % % % % % % % % % % % % * * % . ",
"7 7 7 7 7 7 7 7 6 6 6 6 6 6 6 6 7 7 7 7 7 7 7 7 7 7 7 7 7 7 7 7 8 8 8 8 8 8 8 8 8 8 8 8 8 8 8 8 8 8 8 8 8 8 8 8 8 8 8 8 8 8 8 8 0 0 0 0 0 0 0 0 t t 0 0 0 0 0 0 t t 0 0 t t t t t t t t t t t t t t t t t t t t t t t t 0 0 0 0 0 t t t t t t t t t t t t t u u y y y y y y y y t t t t t t t t y y y y y y y y y y y i i i y y y y y y y y y y t t t t t t t t y y y y y y y y y y y y y y y y y y y y y y y y t t t t t t t t y y y y y y y y y y y y y y y y y y y y y y y y y y y y y y y y y y y y i i i i i y y y i i i y y y y y y y y y y y y y y i i i y y y y y y y y i y y y y y y i t t y y y t y y y g i u t t t y y y y y y y y y y y y y y y y y t t t t t t t t y y y y y y y y y y y y y y y y y y y y y y y y y y y y y y y y t t t t t t t t t t y y y t t t t t t t t t t t t t t t t t t t t t t t t t t t 0 0 0 0 0 0 q q 0 0 0 0 0 0 0 0 0 q q q q 0 0 q 0 0 0 0 0 0 0 0 8 8 8 8 8 8 7 7 7 7 7 7 7 7 7 7 7 7 7 7 7 7 7 7 7 7 7 7 7 7 7 7 7 7 7 7 8 8 8 8 8 7 7 7 8 7 7 7 7 8 7 7 7 7 7 7 7 7 7 7 7 7 8 7 7 7 7 7 7 7 7 7 7 7 7 7 7 7 7 7 7 7 7 7 6 6 7 7 7 7 7 7 7 7 7 7 6 7 7 7 4 4 4 4 * * * * * * * * * * * * * * * * * * * * * * * * * * * * * * * * * * * * * * * * * * * * - - - - * * * * * * * * % % % % % % % % % % % % % % % % * * % . ",
"6 6 6 6 * * * * * * * * * * * * * - - - 6 6 6 6 6 6 6 6 6 6 6 6 7 7 7 7 7 6 6 6 7 7 7 7 7 7 8 8 8 8 8 8 8 8 8 8 8 8 8 8 0 8 8 8 8 8 8 8 8 8 8 8 0 8 8 8 8 0 0 8 8 0 8 8 8 8 8 8 t t t t t t t t t t t t t t t t 0 0 0 t t t t 0 t t t t t t t t t t t t t t t t y y y y y y y y y y y y t t t t t t t t t t t t t t t t t t t t t t t t t t t t t t t t t t t t y y y y y y y y y y y y y y y y y y y y y y y y y y y y y y y y t t y y y y y y t t t t y y y t y y y y y y y y y y y y y y y y t t y y y y y y y y y y y y y y t t t t t t t t t t t t t t t t y y y y y y u y y y y y y y y t t t t t t t t t t t t t t t t t t t t t t t t t t t t t t t t t t t t t t t t t t t y y y y t t t t t t t t t t t t t t t t t t t t t t t t t t t t t t t t t t t t t t t t t t t t t t t t t t t t t t t t t t t t t t t t t t 0 0 0 0 t t t 0 8 8 0 0 0 8 8 8 8 8 8 8 8 8 8 8 8 8 8 8 0 0 0 8 8 8 8 8 8 8 8 8 8 8 8 8 8 7 7 7 8 8 8 8 7 7 7 7 8 8 8 8 7 7 7 7 7 7 7 7 7 7 7 7 8 8 7 8 7 7 7 7 7 7 7 7 7 7 7 7 6 6 7 7 7 7 7 7 7 8 8 8 7 7 7 7 7 7 6 6 6 7 7 7 6 6 6 6 6 6 6 6 7 7 7 6 6 6 6 6 * * * * * * * * * * * * * * * * * * * * - - - * * * * * * * * * - - - - - - - - - - - - - - - - * * 6 * * * * * * * * * % % * * * % % % % % % % * * * * * * * * * * $ # ",
"* 6 6 6 4 * * * * * * * * * * * - - - - 6 6 6 6 6 6 6 6 6 6 6 6 7 7 7 7 7 6 6 6 7 7 7 7 7 7 8 8 8 8 8 8 8 8 8 8 8 8 8 8 8 8 8 8 8 8 8 8 8 8 8 8 0 0 8 8 8 8 8 8 0 0 8 8 8 8 0 0 t t t t t t t t t t t t t t t t 0 t 0 t t 0 t 0 t t t t t t t t t t t t t t t t y y y y y y y y t t t t t t t t t t t t t t t t t t t t t t t t t t t t t t t t t t t t t t t t y y y y y y y y y y y y y y y y y y y y y y y y y y y y y y y y t t y y y y y y t t t t y y y y y y y y y y y y y y y y y y y y y y y t y y y y y y t t y y y y t t t t t t t t t t t t t t t t y y y y y y u u y y y y y y y y t t t t t t t t t t t t t t t t t t t t t t t t t t t t t t t t t t t t t t t t t t y y y y t t t y t t t t t t t t t t t t t t t t t t t t t t t t t t t t t t t t t t t t t t t t t t t t t t t t t t t t t t t t t t t t t t 0 0 t 0 t t t t 0 0 0 0 0 0 0 0 0 0 0 0 0 0 0 0 8 8 8 8 0 8 0 8 8 8 8 8 8 8 8 8 8 8 8 8 8 7 7 7 7 7 7 7 7 7 7 7 7 7 7 7 7 7 7 7 7 7 7 7 7 7 7 7 8 7 7 8 7 7 7 7 7 7 7 7 7 7 7 7 6 6 7 7 7 7 7 8 7 7 8 8 6 6 7 7 7 7 6 6 6 7 7 7 6 6 6 6 6 6 6 6 6 6 6 6 6 6 - 6 * * * * * * * * * * * * * * * * * * * * - - - * * * * * * * * * - - - - - - - - - - - - - - - * * * - * * * * * * * * * % % * % * % % % % % % % * * * * * * * * * * $ # ",
"* * 6 6 6 6 - - - - 4 4 * * * * - - - - 6 6 6 6 6 6 6 6 6 6 6 6 7 7 7 7 6 7 6 6 7 7 7 7 7 7 7 7 7 7 7 7 7 7 7 8 8 8 8 8 8 8 8 8 8 8 8 8 8 8 8 8 8 8 8 8 8 8 8 0 0 8 8 8 0 0 0 0 t t t t t t t t t 0 0 0 0 0 0 0 0 0 t t t t t 0 0 0 t t t t t t t t t t t t t t t t t t t t t t t t t t t t t t t t t t t t t t t t t t t t t t t t t t t t t t t t t t t t t t y y y y y y t t y y y y y y y y y y y y y y y y y y y y y y y y t t t y y y y y t t y y y y y y y y t t t t y y y y t t y y y y y y y y t t t t t t t t t t t t t t t t t t t t t t t t t t t t y t y y t t t t t t y y y y y y t t t t t t t t t t t t t t t t t t t t t t t t t t t t t t t t t t t t t t t t t t t y t t t t y y y t t t t t t t t t t t t t t t t t t t t t t t t t t t t t t t t t t t t t t t t t t t t t t t t t t t t t t t t t t t t t t t t t t t t t 0 t t t t t t t 0 0 0 0 0 0 0 0 0 8 8 8 8 8 8 8 8 8 8 8 8 8 8 8 8 8 8 8 7 7 7 7 7 7 7 7 7 7 7 7 7 7 7 7 7 7 7 7 7 7 7 7 7 7 7 7 8 6 7 8 7 7 6 7 7 7 7 7 7 7 7 7 6 6 6 6 7 7 7 7 6 8 8 8 6 6 6 6 7 6 6 6 7 7 7 7 6 6 6 6 6 6 6 6 6 6 6 6 6 - - - * * * * * * * * * * * * * * * * * * * * - - * * * * * * * * * * * * * * * - * * * * * * * * * * * * * * * * * * * * * * % % % % % % % % % % % % * * * * * * * * * * $ X ",
"* * 6 6 6 6 - 6 * * 6 6 4 * * * - - - 6 6 6 6 6 6 6 6 6 6 6 6 6 7 7 7 7 6 6 6 6 7 7 7 7 7 7 7 7 7 7 7 7 7 7 7 7 8 8 8 8 8 8 8 8 8 8 8 8 8 8 8 8 8 8 8 8 8 8 8 0 0 0 8 8 8 0 0 0 0 0 0 0 0 0 0 0 0 0 0 0 0 0 0 0 t t t t t t t t 0 0 t t t t t t t t t t t t t t t t t t t t t t t t t t t t t t t t t t t t t t 0 t t t t t t t t t t t t t t t t t t t t t t t t y y y y y t t y y y y y y y y y y y y y y y y y y y y y y y y t t t y y y y y t y y y y y y y y y t t t t y y y y t t t y y y y y y t t t t t t t t t t t t t t t t t t t t t t t t t t t t t y y y y t t t t t t t y y y y y t t t t t t t t t t t t t t t t t t t t t t t t t t t t t t t t t t t t t t t t t t t t t t t t y y y t t t t t t t t t t t t t t t t t t t t t t t t t t t t t t t t t t t t t t t t t t t t t t t t t t t t t t t t t t t t t t t t t t t t t 0 0 t t t t t t 0 0 0 0 0 0 0 0 0 8 8 8 8 8 8 0 8 8 8 8 8 8 8 8 8 8 8 8 8 8 7 7 7 7 7 7 7 7 7 7 7 7 7 7 7 7 6 6 6 7 7 7 7 6 6 6 6 6 7 7 7 7 6 6 7 7 7 7 7 7 7 7 6 6 6 6 7 7 7 7 6 6 6 6 6 6 6 6 6 6 6 6 7 7 7 7 6 6 6 6 6 6 6 6 6 6 6 6 6 6 - - * * * * * * * * * * * * * * * * * * - - - - * * * * * * * * * * * * * * * * * * * * * * * * * * * * * * * * * * * * * % % % % % % % % % % % % % * * * * * * * * * * $ X ",
"4 6 6 6 6 6 6 6 6 6 6 6 6 6 6 6 6 6 6 6 6 6 6 6 6 6 6 6 6 6 6 6 7 7 6 6 6 7 7 7 6 6 7 7 7 7 7 7 7 7 7 7 7 7 7 7 8 8 8 8 8 8 8 8 8 8 8 8 8 8 8 8 8 8 8 8 8 8 8 8 8 8 8 8 8 8 8 8 0 0 0 0 0 0 0 0 0 0 0 0 0 0 0 0 t t t t t t t t 0 0 0 0 t 0 0 0 t t t t t t t t t t t t t t t t t t t t t 0 0 0 0 t t t 0 0 0 0 0 t t t t t t t t t t t t t t t t t t t t t t t t t y y y y t t y y y y y y y y y y y y y y y y y y y y y y y y t t t y y y i i y y y y y y y y t t t t t y y y t t t t t t t t t t t t t t t t t t t t t t t t t t t t t t t t t t t t t t t t y y t t t t t t t t y y y y t t t t t t t t t t t t t t t t t t t t t t t t t t t t t t t t t t t t t t t t t t t t t t t t t t t t t t t t t t t t t t t t t t t t t t t t t t t t t t t t t t t t t t t t t t t t t t t t t t 0 0 0 0 0 0 0 0 0 0 0 0 t t t t 0 0 0 0 0 0 0 0 0 0 0 0 t t 0 0 0 0 0 0 0 0 0 0 8 8 8 8 8 8 8 8 8 8 8 8 8 0 8 8 8 8 8 8 8 8 8 7 7 7 7 7 7 7 7 7 6 6 6 6 7 7 7 6 6 6 6 6 7 7 7 7 6 6 6 6 6 6 6 6 7 7 8 8 7 7 7 7 7 7 7 7 6 6 6 6 6 6 6 6 6 7 6 7 7 7 7 7 7 7 7 7 6 6 6 6 6 6 6 6 6 6 6 6 6 6 6 6 * * * * * * * * * * * * * * * * * * * * * * * * * * * * * * * * * * * * * * * * * * * * * * * * % % % % % % % % % % % % % % & & % % % % % % % % * * * * * * * * * * $ X ",
"4 6 6 6 6 6 6 6 6 6 6 6 6 6 6 6 6 6 6 6 6 6 6 6 6 6 6 6 6 6 6 6 7 7 6 6 7 7 7 7 6 6 6 7 7 7 7 7 7 7 7 7 7 7 7 7 8 8 8 8 8 8 8 8 8 8 8 8 8 8 8 8 8 8 8 8 8 8 8 8 8 8 8 8 8 8 8 8 8 8 0 0 8 8 8 8 0 0 0 0 0 0 0 0 t t t t t t t t 0 0 0 0 0 0 0 0 t t t t t t t t t t t t t t t t t t t t t t 0 0 t t t t 0 0 t t 0 0 0 t t t t t t t t t t t t t t t t t t t t t t t y y y y t t y y y y y y y y y y y y y y y y y y y y y y y y t t t y y y y y y y y y t y y y t t t t t t y y t t t t t t t t t t t t t t t t t t t t t t t t t t t t t t t t t t t t t t t t y y y t t t t t t t y y y y t t t t t t t t t t t t t t t t t t t t t t t t t t t t t t q q t t t t t t t t t t t t t t t t t t t t y t t t t t t t t t 0 0 t t t t t t t t t t t 0 0 0 t t t t t t t t t t t t 0 0 0 0 0 0 0 0 0 w w 0 0 0 0 0 w w 0 0 0 0 0 0 8 8 0 8 0 0 0 0 0 0 0 0 0 0 8 8 8 8 8 8 8 8 8 8 8 8 8 8 8 8 8 8 8 8 8 8 8 8 8 8 8 8 8 8 8 8 7 7 7 7 7 7 6 6 6 6 6 6 6 6 6 6 6 6 7 7 7 7 7 7 7 7 7 7 7 7 6 6 6 6 7 7 7 8 7 7 7 7 7 7 7 7 7 7 7 7 7 7 7 7 7 7 7 7 7 6 6 6 7 7 7 7 6 6 6 6 6 6 6 6 6 6 6 6 6 6 6 6 * * * * * * * * * * * * * * * * * * * * * * * * * * * * * * * * % % % % % % % % * * * * * * * * % % % % % % % % % % % & & & & & % % % % % % % % * * * * * * * * * * $ X ",
"6 6 6 6 6 6 4 * 6 6 6 6 6 6 6 6 6 6 6 6 6 6 6 6 6 6 6 6 6 6 6 6 7 7 6 6 7 7 7 7 6 6 6 6 7 7 7 7 7 7 7 7 7 7 7 7 7 7 7 7 7 7 7 7 8 8 8 8 8 8 8 8 8 8 8 8 8 8 8 8 8 8 8 8 8 8 8 8 8 8 8 8 8 8 8 8 0 0 0 0 0 0 0 0 0 t t t t t t t 0 0 0 0 0 0 0 0 0 0 0 0 t t t t 8 8 8 8 8 8 8 8 0 0 0 0 0 0 0 0 t t t t t t t t t t t t t t t t t t t t t t t t t t t t t t t t t t t y y y y t y y y y y y y y y y y y y y y y y y y y y y y y t t t y y y y y y y t t t t y y t t t t t t t t t t t t t t t t 0 t t t q t t t t t t t t t t t t t t t t t t t t t t t t t t t t t t t t t t t t y y y y t t t t t t t t t t t t t t t t t t t t t t t t t t t t t t t q q q t t t t t t t t t t t t t t t t t t t t t t t t t t t t t 0 0 0 t t t t t t t t t t t 0 t t t t t 0 0 0 0 t 0 t t 0 0 0 0 0 0 0 0 0 0 0 0 0 0 0 0 w w 0 0 0 0 0 0 8 8 8 8 8 8 8 8 8 8 8 8 8 8 8 8 8 8 8 8 8 8 8 8 8 8 8 8 8 8 8 8 8 8 8 8 8 8 8 8 8 7 7 7 7 7 7 7 6 6 6 6 7 7 7 7 6 6 6 6 6 6 6 6 7 7 7 7 6 6 7 7 7 7 7 7 7 7 7 7 7 7 6 6 6 6 8 8 7 7 7 7 7 7 7 7 7 7 7 7 7 7 7 7 7 7 6 6 6 7 7 7 6 6 6 6 6 6 6 6 6 6 6 - 6 - - - * * * * * * * * * * * * * * * * * * * * * * * * * * * * * * * * % % % % % % % % * * * * * * * * % % $ $ $ $ $ $ % & % & & & & & % % % % % % % % * * * * * * * * * * $ # ",
"- 6 6 6 6 4 4 * 6 6 6 6 6 6 6 6 6 6 6 6 6 6 6 6 6 6 6 6 6 6 6 6 7 7 6 6 6 7 7 7 6 6 6 6 7 7 7 7 7 7 7 7 7 7 7 7 7 7 7 7 7 7 7 7 8 8 8 8 8 8 8 8 8 8 8 8 8 8 8 8 8 8 8 8 8 8 8 8 8 8 8 8 8 8 8 8 0 0 0 0 0 0 0 0 0 t t t t t t t 0 0 0 0 0 0 0 0 0 0 0 0 t t t t 8 8 8 8 8 8 8 8 0 0 0 0 t t t t t t t t t t 0 t t t t t t t t t t t t t t t t t t t t t t t t t t t t y y y t t y y y y y y y y y y y y y y y y y y y y y y y y y y t y y y y y t t t t t t y y t t t t t t t t t t t t t t t t 0 0 0 0 q t t t t t t t t t t t t t t t t t t t t t t t t t t t t t t t t t t t t y y y t t t t t t t t t t t t t t t t t t t t t t t t t t t t t t t t q q t t t t t t t t t t t t t t t t t t t t t t t t t t t t t t 0 0 t t t t t t t t t t t t 0 0 t t t t 0 0 0 0 0 0 t t 0 0 0 0 0 0 0 0 0 0 0 0 0 0 0 0 0 0 0 0 0 0 0 0 8 8 8 8 8 8 8 8 8 8 8 8 8 8 8 8 8 8 8 8 8 8 8 8 8 8 8 8 8 8 8 8 7 7 7 7 7 7 7 7 7 7 7 7 7 7 7 7 7 6 6 6 7 7 7 7 6 6 6 6 6 6 6 6 7 7 7 7 7 7 7 7 7 7 7 7 7 7 7 7 6 7 6 6 6 6 6 8 7 7 7 7 7 7 7 7 7 7 7 7 7 7 7 7 7 7 6 6 6 7 7 7 6 6 6 6 6 6 6 6 6 - - - * * * * * * * * * * * * * * * * * * * * * * * * * * * * * * * * * * * * % % % % % % % % * * * * * * * * % $ $ $ $ $ $ $ % % % & & & & & % % % % % % % % * * * * * * * * * * $ # ",
"* * * - - - - - 4 * 4 4 4 4 * * - - - 6 6 6 6 6 6 6 6 6 6 6 6 6 6 6 6 6 6 6 6 6 6 6 6 6 6 6 6 6 6 6 6 6 8 9 9 9 7 7 7 7 7 7 7 7 6 6 6 7 7 7 7 7 7 7 7 7 7 7 7 7 7 7 7 7 7 7 7 7 8 8 8 7 7 7 7 8 8 8 8 8 8 8 8 8 0 8 8 8 8 8 7 7 8 8 8 8 0 0 0 0 8 t t t 8 0 8 8 8 8 0 0 0 8 8 8 0 0 0 8 8 8 0 0 8 0 0 0 t t t t t t t t t t t t t t t t t t t t t t t t t t t t t t t t t t t t t t t t t t t t t t t t t t t t t t t y t y y t y y y y y y y y t t t t t t t t t t t t t t t t t t t t t t t t 0 0 0 8 8 8 8 8 t t t t t t t t t t t t t t t t t t 0 0 0 0 t t t t t t t t t t t t t t t t t t t t t t t t t t t t t t t t t t 0 0 0 0 0 0 0 0 t t t t t t t t t t t t t t t t t t t t t t t t t t t t t t t t 0 0 0 0 t t t t t t t t t t t t t t t t t t t t t t t t 0 0 8 8 t q 0 0 0 0 0 0 8 8 8 8 8 8 8 8 7 7 7 7 7 7 7 7 7 7 7 7 7 7 7 7 7 7 7 7 8 8 8 8 7 7 7 7 7 7 7 7 9 9 7 7 7 7 7 7 7 7 7 6 6 6 6 6 6 6 6 6 6 6 6 6 6 6 6 6 6 6 6 6 6 6 6 6 6 6 6 6 6 6 6 6 6 6 6 6 6 6 6 6 6 6 6 6 6 6 6 6 6 6 6 6 6 6 6 6 6 6 6 6 6 6 6 6 6 6 6 6 6 6 - - 6 6 6 6 - - - - - - - - - - - - - - - * * * * * * * * * * * * * * * * * = = % % % = = = % % % % % % % % % % % % % % % % % % % % % % % % % % % % $ $ $ $ $ $ $ $ $ $ $ $ $ & $ $ $ % % % % % % % % % % % % % $ . ",
"* * * * - - - - 6 6 6 6 6 6 6 6 - - 6 6 6 6 6 6 6 6 6 6 6 6 6 6 6 6 6 6 6 6 6 6 6 6 6 6 6 6 6 6 6 6 6 6 6 8 8 8 7 7 7 7 7 7 7 7 6 6 7 7 7 7 7 7 7 7 7 7 7 7 7 7 7 7 7 7 7 7 7 7 8 8 8 7 7 7 7 8 8 8 8 8 8 8 8 8 8 8 8 8 8 8 8 8 8 8 8 8 0 0 0 0 8 8 t t 0 0 8 8 8 8 0 0 0 0 8 8 0 0 8 8 0 8 0 0 8 0 0 0 t t t t t t t t t t t t t t t t t t t t t t t t t t t t t t t t t t t t t t t t t t t t t t t t t t t t t t t t t t t t y y y y y y y y t t t t t t t t t t t t t t t t t t t t t t t t 0 0 0 0 0 0 0 0 t t t t t t t t t t t t t t t t t t 0 0 0 0 t t t t t t t t t t t t t t t t t t t t t t t t t t t t t t t t t t 0 0 0 0 0 0 t t t t t t t t t t t t t t t t t t t t t t t t t t t t t t t t t t t 0 0 0 t t t t t t t t t t t t t t t t t t t t t t t t 0 0 8 8 0 0 0 8 8 8 8 0 7 7 7 7 8 8 8 8 7 7 7 7 7 7 7 7 7 7 7 7 7 7 7 7 7 7 7 8 8 8 7 7 7 7 7 7 7 7 7 7 9 9 7 7 7 7 7 7 7 7 7 6 6 6 6 6 6 6 6 6 6 6 6 6 6 6 6 6 6 6 6 6 6 6 6 6 6 6 6 6 6 6 6 6 6 6 6 6 6 6 6 6 6 6 6 6 6 6 6 6 6 6 6 6 6 6 6 6 6 6 6 6 6 6 6 6 6 6 6 6 - - - - 6 6 6 6 - - - - - - - - - - - - - - - * * * * * * * * * * * * * * * * * % % % % % % % % % % % % % % % % % % % % % % % % % % % % % % % % % % % % $ $ $ $ $ $ $ $ $ $ $ $ $ $ $ $ $ $ % % % % % % % % % % % % $ . ",
"* * * * * * - - 6 6 6 6 6 6 6 6 - 6 6 6 6 6 6 6 6 6 6 6 6 6 6 6 6 6 6 6 6 6 6 6 6 6 6 6 6 6 6 6 8 8 6 6 6 6 6 6 7 7 7 7 7 7 7 7 6 6 6 6 7 7 7 7 7 7 7 7 7 7 7 7 7 7 7 7 7 7 8 8 8 7 8 7 7 7 7 8 8 8 8 8 8 8 8 8 8 8 8 8 8 8 8 8 8 8 8 8 8 8 8 8 8 8 w w w w w 8 0 0 t 0 0 0 8 8 0 0 0 0 0 0 0 0 8 0 0 0 t t t t t t t t 0 t t t t t t t t t t t t t t t t t t t t t t t t t t t t t t t t t t t t t t t t t t t t t t t t t t t y y y y t t t t t t t t t t t t t t t t 0 0 0 0 0 0 0 0 0 0 0 0 t t t t t t t t t t t t t t t t t t 0 0 0 0 t t 0 0 0 0 0 0 0 0 0 0 0 t 0 0 0 0 t t t t t t t t t t t t t t t t t t t t t t t t t 0 t t 0 t t t t 0 0 0 0 0 0 0 0 0 t t t t t t t t t t t t t t t t t t t t t t 0 0 8 8 0 0 0 0 t t t t t t t t 8 8 8 8 8 8 0 0 0 0 0 0 8 8 8 8 w 0 0 8 8 8 8 8 7 7 7 7 7 7 7 7 7 7 7 7 7 7 7 7 7 7 7 7 7 7 7 7 7 7 7 7 7 7 7 7 7 7 7 7 7 7 7 7 7 7 7 7 7 7 7 7 6 6 6 6 6 6 6 6 6 6 6 6 6 6 6 6 6 6 6 6 6 6 6 6 6 6 6 6 6 6 6 6 6 - - 6 6 6 6 6 6 6 6 6 6 6 6 6 6 6 6 6 6 6 6 6 6 6 6 6 6 6 6 6 6 6 6 6 - - 6 6 - - - - - - - - - - - - - - - - * * * * * * * * * * * * * * * * % % % % % % % % % % % & & & & & % % % % % % % % % % % % % % % % % % % % % % % % % % % % & & $ $ $ $ $ $ $ $ $ $ $ $ $ $ $ $ % % % % % % % % % % % % $ X ",
"* * * * * * * * 6 6 6 6 6 6 6 6 - - - 6 - - 6 6 6 6 6 6 6 6 6 6 6 6 6 6 6 6 6 6 6 6 6 6 6 6 6 6 8 8 8 6 6 6 6 6 7 7 7 7 7 7 7 7 6 6 6 8 7 7 7 7 7 7 7 7 7 7 7 7 7 7 7 7 7 7 7 8 8 8 8 7 7 7 7 8 8 8 8 8 8 8 8 8 8 8 8 8 8 8 8 8 8 8 8 8 8 8 8 8 8 0 w w w w 8 8 0 0 0 0 0 0 0 0 0 0 0 0 0 0 0 0 8 0 0 0 0 t t t t t t t t t t t t t t t t t t t 0 t t t t t t t t t t t t t t t t t t t t t t t t t t t t t t t t t t t t t t t t t t t t t t t t t t t t t t t 0 0 0 0 0 0 8 8 0 0 0 0 0 0 0 0 t t t t t t t t t t t t t t t t t 0 0 8 0 0 0 t 0 0 0 0 0 0 0 0 0 t t 0 0 0 0 0 t t t t t t t t t t t t t t t t t t t t t t t t t t t 0 0 t t t 0 0 0 0 0 0 0 0 0 0 t t t t t t t t t t t t t t t t t t t t t t 0 0 8 8 0 0 0 0 8 t 8 8 8 8 t t 8 8 8 8 8 8 8 8 0 0 8 8 8 8 8 8 w 8 8 8 8 8 8 8 7 7 7 7 7 7 7 7 7 7 7 7 7 7 7 8 7 7 7 7 7 7 7 7 7 7 7 7 7 7 7 7 7 7 7 7 7 7 7 7 9 9 7 7 7 7 7 7 6 6 6 6 6 6 6 6 6 6 6 6 6 6 6 6 6 6 6 6 6 6 6 6 6 6 6 6 6 6 6 6 6 - - 6 6 6 6 6 6 6 6 6 6 6 6 6 6 6 6 6 6 6 6 6 6 6 6 6 6 6 6 6 6 6 6 - - - 6 6 - - - - - - - - - - - - - - - - * * * * * * * * * * * * * * * * % % % % % % % % & & $ $ $ $ $ $ % % % % % % % % % % % % % % % % % % % % % % % % % % % % & % $ $ $ $ $ $ $ $ $ $ $ $ $ $ $ & % % % % % % % % % % % % $ X ",
"* * * * * * * * - - - - * * * * * * - * - - - - 6 6 - - - - 6 6 6 6 6 6 6 6 - - 6 6 6 6 6 6 6 6 8 8 6 6 6 6 6 6 7 7 8 8 7 7 7 7 6 6 8 8 7 7 7 7 7 7 7 7 7 7 7 7 7 7 7 7 7 7 8 8 8 7 7 7 7 8 7 8 8 8 8 8 8 8 8 8 8 8 8 8 8 8 8 8 8 8 8 8 8 8 8 8 t 0 w w w w 0 0 0 0 0 0 0 0 0 0 8 8 8 0 0 0 0 8 0 0 0 0 0 0 0 0 t t t t t t t t t t t t t t t t 0 0 t t t t t t t t t t t t t t t t t t t t t t t t t t t t t t i y y t t t t t u u t t t t t t 0 0 0 0 0 0 0 0 8 8 0 0 8 8 8 8 0 0 0 0 0 0 0 0 0 0 0 0 t t 0 0 0 0 0 0 0 0 0 0 0 8 8 8 8 0 0 0 0 0 0 0 0 8 8 8 0 0 0 t 0 0 0 0 t t t t t t t t t t t t t t t t t t t t t 0 0 0 0 0 0 0 t t 0 0 0 0 0 0 0 0 0 0 0 0 0 0 0 0 0 0 0 0 0 0 0 0 0 0 t t t t t t t t 8 8 8 8 8 8 8 8 8 8 8 8 8 0 0 8 0 0 0 0 8 8 8 8 8 8 8 8 8 8 8 8 8 8 7 7 7 7 7 7 7 7 7 7 7 7 7 7 7 7 8 8 8 8 8 8 7 7 7 7 7 7 7 7 7 7 7 7 7 7 7 7 7 7 7 7 7 7 7 7 7 7 7 7 7 7 6 6 6 6 6 6 6 6 6 6 6 6 6 6 6 6 6 6 6 6 6 6 6 6 6 6 6 6 6 6 6 6 6 6 6 6 6 6 6 6 6 6 6 6 6 6 6 6 6 6 6 6 6 6 6 6 6 6 6 6 6 6 6 6 6 6 6 6 6 6 6 6 6 6 - - - - - - - - - - - - * * * * * * * * * * * * * * * * * * * * & & & & % % & & $ $ $ $ $ $ $ $ % % % % % % % % % % % % % % % % % % % % % % % % % % % & & & $ $ $ $ $ $ $ $ $ $ $ $ $ $ $ $ & % % % % % % % % % $ % $ X ",
"* * * * * * * * * * * * * * * * * * * * * * * * 6 * * * * * * 6 6 6 6 6 6 6 6 6 6 6 6 6 6 6 6 6 6 6 6 6 6 6 6 6 7 7 7 8 7 7 7 7 8 8 8 8 7 7 7 7 7 7 7 7 7 7 7 7 7 7 7 7 7 7 8 8 8 7 7 7 7 8 8 8 8 8 8 8 8 8 8 8 8 8 8 8 8 8 8 8 8 8 8 8 8 8 8 8 t t w w w w 0 0 0 0 0 0 0 0 0 0 8 8 0 0 0 0 0 8 0 0 0 0 0 0 0 0 0 0 t t 0 t t t t t t t t t t t t t t t t t t t t t t t t t t t t t t t t t t t t t t t t t t t u u u t t t t t t t t t t 8 8 8 8 8 8 8 8 8 8 8 8 0 0 0 8 8 8 8 0 0 0 0 0 0 0 0 0 0 0 0 0 0 8 8 0 0 0 0 0 0 0 0 8 8 8 8 8 8 0 0 0 0 0 0 8 8 0 8 0 0 0 0 0 0 0 0 t t t t t t t t t t t t t t t t 0 0 0 t 0 0 0 0 0 0 0 0 t t 0 0 0 0 0 0 0 0 0 0 0 0 0 0 0 0 0 0 0 0 0 0 0 0 8 8 8 8 w w 0 0 0 0 8 8 8 8 8 8 8 8 8 8 8 8 8 8 8 8 8 w w w 8 8 8 8 8 8 8 8 8 8 8 8 8 7 7 7 7 7 7 7 7 7 7 7 7 7 7 7 7 7 7 7 7 7 7 7 7 7 7 7 7 7 7 7 7 7 7 7 7 7 7 7 7 7 7 7 7 7 7 7 7 7 7 7 7 6 6 6 6 6 6 6 6 6 6 6 6 6 - - 6 * 6 6 6 6 6 6 6 6 6 6 6 6 6 6 6 6 6 6 6 6 6 6 6 6 6 6 6 6 6 6 6 6 6 6 6 6 6 6 6 6 6 6 6 6 6 6 6 6 6 6 6 6 6 6 6 6 6 6 - - - - - - - - - - - - * * * * * * * * * * * * * * % % * * % % & & & & & & & & $ $ $ $ $ $ $ $ & $ & & $ & & & % % % % % % % % % % % % % % % % % % % & $ $ $ $ $ $ $ $ $ $ $ $ $ $ $ $ $ $ & % % % % % % % % % $ % $ X ",
"* * * * * * * * % % % % % % % % * * * * * * * * 6 6 * * * * 6 6 6 6 6 6 6 6 6 6 6 6 6 6 6 6 6 6 6 6 6 6 6 6 6 6 7 7 6 6 6 6 8 8 8 8 7 7 7 7 7 7 7 7 7 7 7 7 7 7 7 7 7 7 7 7 8 8 8 7 7 7 7 8 8 8 8 8 7 7 7 7 7 7 7 7 7 7 7 7 8 8 8 8 8 8 8 8 8 8 8 t 8 8 0 8 0 0 0 0 0 0 8 8 0 8 8 8 0 0 0 0 8 8 0 0 0 0 0 0 0 0 0 0 0 0 0 0 t t t t t t t t t t t t t t t 0 0 0 0 0 0 0 0 0 0 0 t t t t t t t t t t t t t t t t u u t t t 0 0 0 t 8 8 8 8 8 8 8 8 8 8 8 8 8 8 8 8 8 0 0 8 8 8 8 8 8 8 8 0 8 8 8 8 8 8 8 8 8 8 8 0 0 8 0 0 0 0 0 8 8 8 8 8 8 8 8 8 8 0 0 8 8 8 8 0 0 0 0 0 0 0 0 t t t t t t t t t t t t t t t t 0 0 t t 0 0 0 0 0 0 0 0 t t 0 0 0 0 0 0 0 0 0 0 0 0 0 0 0 0 0 0 0 0 0 0 0 8 8 8 8 8 8 8 0 0 0 0 8 8 8 8 8 8 8 8 8 8 8 8 8 8 8 8 8 8 8 8 8 8 8 8 8 8 8 8 8 7 7 7 9 7 8 6 6 6 6 8 7 7 7 7 7 7 7 7 7 7 7 7 7 7 7 7 7 7 7 7 7 7 7 7 7 7 7 7 7 7 7 7 6 6 6 6 6 6 6 6 7 7 7 7 6 6 7 7 6 6 6 6 6 6 6 6 6 - - - 6 6 6 6 6 6 6 6 6 6 6 6 6 6 6 6 6 6 6 6 6 6 6 6 6 6 6 6 6 6 6 6 6 6 6 6 6 6 6 6 6 6 6 6 6 6 6 6 6 6 6 6 * * 4 4 4 4 4 4 - - * * * * * * * * * * * * * * * * * * * * * * * % % % * * * * & & & & & % & & & & % % $ $ $ $ $ $ $ $ $ $ $ $ % % % % % % % % % % % % % % % % % % % & $ $ $ $ $ $ $ $ $ $ $ $ $ $ $ $ $ $ $ & % % % % % % % % $ % $ . ",
"* * * * * * * * % % % % % % % % * * * * * * * * 6 6 6 6 6 6 6 6 6 6 6 6 6 6 6 6 6 6 6 6 6 6 6 6 - - 6 6 6 6 6 6 6 7 6 6 6 6 6 8 8 8 7 7 7 7 7 7 7 7 7 7 7 7 7 7 7 7 7 7 7 7 8 8 8 7 7 7 7 8 8 8 7 8 7 7 7 7 7 7 7 7 7 7 7 7 8 8 8 8 8 8 8 8 8 8 8 8 8 8 8 8 0 w 8 0 0 0 8 8 8 8 8 0 0 0 0 0 8 8 0 0 0 0 0 0 0 0 0 0 0 0 0 0 t t t t t t t t t t t t t t 0 0 8 8 0 0 0 0 0 0 0 0 t t t t t t t t t t t t t t t t t t t t 0 8 8 8 8 8 8 8 8 8 8 7 8 8 8 8 8 8 8 8 8 8 0 0 8 8 8 8 8 8 8 8 8 8 8 8 8 8 8 8 8 8 8 8 8 8 8 8 8 8 8 8 8 8 8 8 8 8 8 8 8 8 0 0 8 8 8 8 0 0 0 0 0 0 0 0 0 t t t t t t t 0 t t t t t t t 0 0 t 0 0 0 0 0 0 0 0 t t t 0 0 0 0 0 0 0 0 0 0 0 0 0 0 0 0 0 0 8 8 8 8 8 8 8 8 8 8 8 8 0 0 0 0 8 8 8 8 8 8 8 8 8 8 8 8 8 8 8 8 8 8 8 8 8 8 8 8 8 8 8 8 8 7 7 7 9 7 8 6 6 6 6 6 7 7 7 7 7 7 7 7 8 8 7 7 7 7 7 7 7 7 7 7 7 7 7 7 7 7 7 7 7 7 7 7 6 6 6 7 6 6 6 6 7 7 7 7 6 6 7 7 6 6 6 6 6 6 6 6 6 6 - - 6 6 6 6 6 6 6 6 6 6 6 6 6 6 6 6 6 6 6 6 6 6 6 6 6 6 6 6 6 6 6 6 6 6 6 6 6 6 6 6 6 6 6 6 6 6 6 6 6 6 6 6 * * * * * * * * - - * * * * * * * * * * * * * * * * * * * * * * * % % % * * * * = = = = % % % = $ & % % % $ $ $ $ $ $ $ $ $ $ $ % % % % % % % % % % % % % % % % % % % & $ $ $ $ $ $ $ $ $ $ $ $ $ $ $ $ $ $ $ & % % % % % % % % $ % $ . ",
"* * * * * * * * * * * * * * * * - - - * * * - - - - - - - - - - 6 6 - - 6 6 6 6 - - 6 6 6 6 - - - - 6 6 - - - - 6 6 6 6 6 6 6 6 6 6 6 6 6 6 6 6 7 7 7 7 7 7 7 7 6 6 7 7 7 7 7 7 7 7 7 7 7 7 7 7 7 7 7 7 7 7 7 7 7 7 7 7 7 7 7 7 8 8 8 7 7 7 7 7 8 8 7 8 8 8 8 8 8 8 8 8 8 8 8 8 8 8 8 8 8 8 8 8 8 8 8 0 0 0 t w 8 8 8 8 8 8 0 0 t t t t t t t t t t t t t t t t w w w w w w w w t t t t t t t t t t t t t 8 8 8 8 8 8 8 8 8 8 8 8 8 8 8 8 8 8 8 8 8 8 8 8 8 8 8 8 8 8 8 0 0 0 0 8 8 8 8 8 8 8 8 8 8 8 8 8 8 8 8 8 8 8 8 8 8 8 8 8 8 8 8 8 8 8 8 8 8 8 8 8 8 8 8 0 0 8 8 8 8 8 8 8 8 8 8 8 8 8 8 0 0 t t 0 0 8 8 t 0 0 8 8 8 8 8 8 8 8 8 8 8 8 8 8 8 8 8 8 8 8 8 8 8 8 8 8 8 8 8 8 8 8 8 8 8 8 8 8 8 8 8 8 8 8 8 8 8 8 8 8 8 8 8 8 8 8 8 8 8 8 8 8 8 8 8 8 8 8 8 6 8 6 7 7 7 7 7 8 8 6 6 6 6 6 6 6 6 6 6 6 6 6 6 7 7 7 6 6 7 7 7 6 6 6 6 6 6 6 6 8 8 8 8 8 8 8 8 6 6 6 6 6 6 6 6 6 6 6 6 6 6 6 6 * * * * * * * * - - - - 6 6 - 6 - - - - - - - - - - - - - - - - 6 6 6 6 6 6 - - - - - - - - - - 6 6 - - 6 6 6 6 6 - - - - - - - - - - - - - * * * * * * * * * * * * * * * * * * % % % % % % $ $ $ $ & & % % $ $ % % $ $ % % % % & & $ $ & & & $ $ $ $ $ $ $ $ $ $ $ % % % % % % % % % = % % % % $ $ $ $ $ $ @ @ @ @ @ @ @ @ @ @ @ @ @ @ @ @ @ @ $ $ @ @ @ @ @ @ $ % $ X ",
"* * * * * * * * * * * * * * * * - - * * * * - - - - - - - - - - 6 6 - - 6 6 6 6 - - - 6 6 6 - - 6 6 6 6 - - - - 6 6 6 6 6 6 6 6 6 6 6 6 6 6 6 6 7 7 7 7 7 7 7 7 6 6 6 7 7 7 7 7 7 7 7 7 7 7 7 6 7 7 7 7 7 7 7 7 8 8 8 8 7 7 7 7 8 8 8 7 7 7 7 7 7 7 8 7 7 8 8 8 8 8 8 8 8 8 8 8 8 8 8 8 8 8 8 8 8 8 8 8 0 0 t t 8 8 8 8 8 8 0 0 t t t t t t t t t t t t t t t t 0 0 t 0 0 0 0 0 t t t t t t t t t t t t 0 8 8 8 8 8 8 8 8 8 8 8 8 8 8 8 8 8 8 8 8 8 8 8 8 8 8 8 8 8 8 8 0 0 0 0 8 8 8 8 8 8 8 8 8 8 8 8 8 8 8 8 8 8 8 8 8 8 8 8 8 8 8 8 8 8 8 8 8 8 8 8 8 8 8 8 0 0 8 8 8 8 0 8 t t 0 t t 8 t t t 0 0 8 0 8 8 8 0 0 8 8 8 8 8 8 8 8 8 8 8 8 8 8 8 8 8 8 8 8 8 8 8 8 8 8 8 8 8 8 8 8 8 8 8 8 8 8 8 8 8 8 8 8 8 8 8 8 7 7 7 7 8 7 7 7 7 7 7 8 7 7 7 7 7 7 7 7 7 7 8 7 7 7 7 7 7 7 8 8 8 8 8 8 8 8 6 8 8 8 8 6 6 6 7 7 7 7 7 7 7 7 8 8 8 8 6 6 6 8 6 6 6 6 6 6 6 6 6 6 6 6 6 6 6 6 6 6 6 6 6 6 6 6 * * * * * * * * - - - 6 6 6 - - - - - - - - - - - - - - - - - - 6 6 6 6 6 6 - - - - - - - - - - 6 6 - - 6 6 6 6 - - - - - - - - - - - * * * * * * * * * * * * * * * * * * * * * % % % % % % $ $ $ $ $ & % $ % $ % % $ $ % % % % $ & $ $ % % & & $ $ $ $ $ $ $ $ $ $ % % % % % % % % % % % % % % $ $ $ $ $ @ @ @ @ @ @ @ @ @ @ @ @ @ @ @ @ @ @ @ $ $ $ $ @ @ @ @ $ % $ X ",
"* * * * * * * * * * * * * * * * - - * * * * * - - - - - - - - - - - - - - - - - - - 6 6 6 6 - - 6 - - - 6 6 6 6 6 6 6 6 6 6 6 6 6 6 6 6 6 6 6 6 7 7 7 7 7 7 7 7 7 6 6 7 6 6 6 6 7 7 7 7 7 7 6 6 7 7 7 7 7 7 7 7 8 8 8 8 8 8 8 8 8 8 7 7 7 7 7 7 7 7 7 7 8 8 8 8 8 8 8 8 8 8 8 8 0 0 0 0 0 0 w w 8 8 8 8 0 0 t t 0 0 8 8 8 8 0 0 0 0 0 0 0 0 t t t t t t t t t t 0 0 0 0 8 8 8 8 t t t t t t t t 8 8 8 8 8 8 7 7 8 8 8 8 8 8 8 8 8 8 8 8 8 8 0 8 8 8 8 8 8 8 8 8 0 0 0 0 8 8 8 8 8 8 8 8 8 8 8 8 8 8 8 8 8 8 8 8 8 8 8 8 8 8 8 8 8 8 8 8 8 8 8 8 8 8 8 8 8 8 8 8 0 0 8 8 0 0 0 0 0 0 0 0 8 0 0 0 8 8 8 8 8 8 8 8 8 8 8 8 8 8 8 8 8 8 8 8 8 8 8 8 8 8 8 7 7 8 8 8 7 7 7 7 7 7 7 7 7 7 7 7 7 7 7 7 8 8 8 7 7 7 7 7 7 7 7 7 7 7 7 7 7 7 7 7 7 7 7 7 7 7 7 7 7 7 7 7 7 7 7 7 7 7 7 7 8 8 8 8 8 6 6 6 7 8 8 8 8 8 6 6 8 8 8 8 8 8 8 7 9 9 9 9 9 9 8 8 6 6 6 6 - 6 6 6 6 6 6 6 6 6 6 6 6 6 6 6 6 6 6 6 4 * 6 6 * * * * - - 6 6 6 6 - - - - - - - - - - - - - - - - - - - - - - - - - - - - - - - - - - - - - - - - - - - - - - - * * * - - * * * * * * * * * * * * * * * * * * * * * % % % % % % % $ $ $ $ & & % % $ $ % % $ $ % % % % $ $ $ $ % % % % $ $ $ $ $ $ $ $ % $ % % % % % % % % % % % % % % $ $ $ $ @ @ @ @ @ @ @ @ @ @ @ @ @ @ @ @ @ @ $ $ $ $ $ $ $ $ @ $ $ $ $ X ",
"* * * * * * * * * * * * * * * * - - - * * * * * - - - - - - - - - - - - - - - - - - 6 6 6 6 - - 6 6 - - 6 6 6 6 6 6 6 6 6 6 6 6 6 6 6 6 6 6 6 6 8 8 6 6 8 8 8 8 6 6 6 7 7 7 6 6 7 7 7 7 7 7 6 6 7 7 7 7 7 7 7 7 8 8 8 8 8 8 8 8 8 8 8 8 8 8 8 8 7 8 8 8 8 8 8 8 8 8 8 8 8 8 8 8 t t t t t t t t 8 8 8 8 0 0 t t 0 0 8 8 8 8 0 0 0 0 0 0 0 0 t t 8 8 8 8 8 8 8 8 t t t t t t t t t t t 0 0 8 8 8 8 8 8 8 8 8 7 7 8 8 8 8 8 8 8 8 8 8 8 8 8 8 0 0 0 0 0 0 0 0 0 0 8 0 0 0 8 8 8 8 8 8 8 8 8 8 8 8 8 8 8 8 8 8 8 8 8 8 8 8 8 8 8 8 8 8 8 8 8 8 8 8 8 8 8 8 8 8 8 8 0 0 8 8 8 0 0 0 0 0 0 0 0 0 0 0 8 8 8 8 8 8 8 8 8 8 8 7 7 7 8 8 8 8 8 8 8 8 8 8 8 8 8 7 7 8 8 8 7 7 7 7 7 7 7 7 7 7 7 7 7 7 7 7 7 7 7 7 7 7 7 7 7 7 7 7 7 7 7 7 7 7 7 7 7 7 7 7 6 6 6 6 6 6 6 6 7 7 7 7 7 7 7 7 6 6 6 6 6 6 6 6 6 6 6 6 6 6 6 6 8 6 6 6 6 6 6 6 9 9 9 8 6 6 6 6 6 6 6 6 6 6 6 6 6 6 6 6 6 6 6 6 6 6 6 6 6 6 6 6 * * 6 6 4 * * * - - 6 6 6 6 - - - - - - - - - - - - - - - - - - - - - - - - - - - - - - - - - - - - - - - - 6 6 - - - - * * * * * * * * * * * * * * * * * * * * * * * * * % % % % % % % % % $ $ $ $ % % % % $ $ % % $ $ % % % % $ $ $ $ % % % $ $ $ $ $ $ $ $ $ % % % % % % % % % % % % % % % % @ @ $ $ $ @ @ @ @ @ @ @ @ @ @ @ @ @ @ @ @ @ $ $ $ $ $ $ $ $ $ $ $ $ @ X ",
"* * * * * * * * * * * * * * * * * * * * * * * * * * * - - - * * - - - - - - - - - 6 6 6 6 6 - - 6 - - - 6 6 6 6 6 6 6 6 6 6 6 6 6 6 6 6 6 6 6 6 8 8 6 6 6 6 6 8 6 6 6 7 7 7 7 7 6 6 6 6 6 7 7 7 7 7 7 7 7 7 7 7 8 8 8 8 8 8 8 8 8 8 8 8 8 8 8 8 8 8 8 8 8 8 8 8 8 8 8 8 8 8 0 8 t t t t t t t t 8 8 8 0 0 0 t t 0 0 8 8 8 8 0 0 0 0 0 0 t t t t 8 8 8 8 0 0 0 0 t t 8 8 8 8 t t 8 8 8 7 7 7 7 7 7 8 8 8 8 7 7 7 8 8 8 8 8 8 8 8 8 8 8 8 8 8 8 0 0 0 0 0 0 0 0 0 8 8 8 8 8 8 8 8 8 8 8 8 8 8 8 8 8 8 8 8 8 8 8 8 8 8 8 8 8 8 8 8 8 8 8 8 8 8 8 8 8 8 8 8 8 8 8 8 8 8 8 8 8 8 8 8 8 8 8 8 8 8 8 8 8 8 8 8 8 8 8 8 8 8 7 7 8 8 8 8 8 8 8 8 8 8 8 8 8 8 7 7 7 7 8 8 7 7 7 7 7 7 7 7 7 7 7 7 7 7 7 7 7 7 7 7 7 7 7 7 6 6 6 6 7 7 7 7 6 7 7 7 6 6 6 6 6 6 6 6 7 7 7 7 6 6 6 6 7 7 7 7 6 6 6 6 6 6 6 6 6 6 6 6 6 6 6 6 6 6 6 6 6 6 6 6 6 6 6 6 6 6 6 6 6 6 6 6 6 6 6 6 6 6 6 6 6 6 6 6 6 6 6 6 6 6 6 6 6 6 6 6 * - 6 6 6 6 6 6 6 6 6 - - - - - - - - - - - - - - - - - - - - - - - - - * * * - - - * * - - - - - - - - - - - - * * * * * * * * * * * * * * * * * * * * * * * * * * % % % % % % % % $ $ $ $ $ $ $ $ $ $ % % % % % % % $ $ $ & & & & $ $ $ $ $ $ $ $ $ $ & & & $ % % % % % % % % % % % % @ @ @ @ @ @ @ @ @ @ @ @ @ @ @ @ @ @ @ @ @ @ $ $ $ $ $ $ $ $ $ $ $ $ @ X ",
"* * * * * * * * * * * * * * * * * * * * * * * * * * * * - - * * - - - - - - - - - 6 6 6 6 6 - - 6 - 6 - - 6 6 6 6 6 6 6 6 6 6 6 6 6 6 6 6 6 6 6 7 7 8 6 7 7 7 7 7 6 7 7 7 7 7 7 7 6 7 7 7 7 7 7 7 7 7 7 7 7 6 6 7 7 7 7 7 7 7 7 7 7 7 7 7 8 7 7 7 7 8 8 8 8 8 8 0 0 0 0 0 0 0 0 0 0 w w 0 0 8 0 8 8 0 0 8 0 t t 0 0 8 8 8 8 0 0 8 8 8 8 0 0 0 0 w 8 w w t t t t 8 8 8 8 8 8 8 8 7 7 7 7 7 7 7 6 7 7 7 7 7 7 7 7 8 8 8 8 8 8 8 8 8 8 8 8 8 8 0 0 8 0 8 8 0 0 0 0 8 8 8 8 8 8 8 8 8 8 8 8 8 8 8 8 8 8 8 8 8 8 8 8 8 8 8 8 8 8 8 8 8 8 8 8 8 8 8 8 8 8 8 8 8 8 8 8 8 8 8 8 8 8 8 8 8 8 8 8 8 8 8 8 7 7 7 7 7 8 8 8 8 7 7 7 7 8 8 8 8 8 8 8 8 8 8 8 8 7 7 7 7 7 7 8 7 7 7 7 7 7 7 7 7 7 7 7 7 7 7 7 7 7 7 7 7 7 7 7 6 6 6 6 6 6 6 6 6 7 7 7 6 6 6 6 6 6 6 6 6 7 7 7 7 7 7 7 6 6 7 7 6 6 6 6 6 6 6 6 - - - - 6 6 6 6 - - - - - - 6 6 - - 6 - * * * * 6 6 6 6 - - 6 6 6 6 6 6 6 6 6 6 6 6 - - - - 6 6 6 6 6 6 * * 6 6 6 6 6 6 - 6 6 - - - - - - - - - - - - - - - - - - - - - - - - - * * * * - - * * - - - - - - - - * * * * * * * * * * * * * * % % * * * * * * * * * * * % * % % % % % % % % % $ $ $ $ % % $ & $ $ % % % % % % % $ % $ % % $ $ $ $ $ $ $ $ $ $ $ $ & & & & % % % % % % % % % % % % @ @ @ @ @ @ @ @ @ @ @ @ @ @ @ @ @ @ @ @ @ @ @ @ $ $ $ $ $ $ $ $ $ $ @ X ",
"* * * * * * * * * * * * * * * * * * * * * * * * * * * * * * * * * * * * * * * * 6 6 6 6 6 6 6 6 - 6 6 6 - - - 6 6 6 6 6 6 6 6 6 6 6 6 6 6 6 6 6 7 7 7 7 7 7 7 7 7 7 7 7 7 6 7 7 7 7 7 7 7 7 7 7 6 6 6 6 7 7 7 6 7 7 6 6 6 6 6 6 6 6 7 7 7 7 9 9 7 7 7 7 7 7 7 7 8 8 8 8 8 8 8 8 8 8 8 8 8 8 8 8 8 8 8 8 w 8 t t 0 0 8 8 8 8 0 0 0 0 8 8 0 0 0 0 8 8 8 8 8 8 8 8 8 8 8 8 8 8 8 8 6 6 6 6 6 6 6 6 7 7 8 8 8 8 8 8 8 8 8 8 8 8 8 8 8 8 8 8 8 0 8 8 8 8 8 8 8 8 8 8 8 8 8 8 8 8 8 8 8 8 8 8 8 8 8 8 8 8 8 8 8 8 8 8 8 8 8 8 8 8 8 8 8 8 8 8 8 8 8 8 8 8 8 8 8 8 8 8 8 8 8 8 8 8 8 8 8 8 8 8 8 8 7 7 7 7 7 7 7 7 7 7 7 7 7 7 7 8 8 8 8 8 8 8 8 8 8 8 8 7 7 7 7 7 7 8 7 7 7 7 7 7 7 7 7 7 7 7 7 7 7 7 7 7 7 7 7 7 7 7 7 7 7 7 7 7 7 6 6 6 7 7 7 7 6 6 7 7 6 6 7 7 7 7 7 7 7 7 7 7 6 6 - * * * * * - - * * * * * * * * - - - * * * - - * * * * * * * * * * * * * * * * 6 6 6 6 6 6 6 6 6 6 - - 6 6 6 6 6 6 6 6 6 6 6 6 - 6 6 6 6 6 6 6 - - - - - - - - - - - - - - - - * * * * * * * * * * * * * * * * * * * * * * * * * * * * * * * * * * * * * % % % * * = * * * * * * * * * % % % % % % % % % % $ $ % % % % & $ & & % % $ $ % % % % % % % % $ $ $ $ $ $ $ $ $ $ $ $ $ $ $ $ $ $ $ $ % % % % % % % % $ @ @ @ @ @ @ @ @ @ @ @ @ @ @ @ @ @ @ @ @ @ @ @ $ $ @ $ @ @ @ @ $ $ @ X ",
"* * * * * * * * * * * * * * * * * * * * * * * * * * * * * * * * * * * * * * * * 6 6 6 6 6 6 6 6 6 6 6 6 - - - 6 6 6 6 6 6 6 6 6 6 6 6 6 6 6 6 6 7 7 7 7 7 7 7 7 7 7 7 7 7 7 7 7 7 7 7 7 7 7 7 7 6 7 7 7 7 7 7 7 7 7 7 7 7 7 7 7 7 7 7 7 7 6 6 7 6 6 6 6 7 7 7 7 8 8 8 8 8 8 8 8 8 8 8 8 8 8 8 8 8 8 8 8 8 8 t t 0 0 8 8 8 8 0 0 0 0 8 8 0 0 0 0 7 7 7 7 7 7 7 7 6 6 6 6 6 6 6 6 6 6 6 6 6 9 9 9 7 7 8 8 8 8 8 7 8 8 8 8 8 8 8 8 8 8 8 8 8 8 8 8 8 8 8 8 8 8 8 8 8 8 8 8 8 8 8 8 8 8 8 8 8 8 8 8 8 8 8 8 8 8 8 8 8 8 8 8 8 8 8 8 8 8 8 8 8 8 8 8 8 8 8 8 8 8 8 8 8 8 8 8 8 8 8 8 7 7 7 7 7 7 7 7 7 7 7 7 7 7 7 7 7 7 8 8 8 8 8 w 8 8 8 8 8 8 8 8 8 7 7 7 7 7 7 8 7 7 7 7 7 7 7 7 6 6 6 6 6 6 6 6 6 6 6 6 6 6 6 6 7 7 7 7 7 7 7 7 6 6 7 7 7 6 6 6 7 7 7 7 7 7 7 7 7 7 7 7 4 6 4 4 * * * * * * * * * * * * * * * * - * - * * * * - * * * * * * 6 6 * * * * * * * * 6 6 6 6 6 6 6 6 6 6 - - 6 6 6 6 6 6 6 6 6 6 6 6 - 6 6 6 - 6 6 6 - - - - - - - - - - - - - - - - * * * - - * * * * * * * * * * * * * * * * * * * * * * * * * * * * * * * * % % % * * = = = * * * * * * * * % % % % % % % % % $ $ % % % % $ $ & & % % $ $ % % % $ % % % % $ $ $ $ $ $ $ $ $ $ $ $ $ $ $ $ $ $ $ $ % % % % % % % % $ @ @ @ @ @ @ @ @ @ @ @ @ @ @ @ @ @ @ @ @ @ @ @ $ $ @ @ @ @ @ @ @ $ @ X ",
"= % % % % % % % % % % % % % * * * * * * * * * * * * * * * * * * * * * * - - - - - - - - - - - - 6 6 6 6 6 6 6 6 7 7 6 6 6 7 7 7 6 6 6 6 6 6 6 6 6 6 6 6 6 6 6 6 6 6 6 6 6 6 6 6 - 6 6 6 6 - 6 6 - - - 6 6 6 6 6 6 6 6 6 6 6 6 7 6 6 6 6 6 6 6 6 8 8 8 8 9 9 9 9 8 8 8 8 8 8 8 8 9 9 8 6 6 6 8 6 7 7 7 7 7 8 8 8 8 8 8 8 8 8 8 8 7 7 7 7 7 7 7 7 6 6 6 6 6 6 6 6 6 6 6 6 6 6 6 6 6 6 6 6 6 6 6 6 7 6 6 7 7 7 7 7 8 8 8 8 8 8 8 8 8 8 8 8 8 8 8 8 7 7 7 7 7 7 6 6 7 7 7 7 7 7 7 7 6 6 6 6 7 7 7 7 7 7 7 7 7 7 7 7 7 7 7 8 8 8 8 8 8 8 8 8 8 8 8 8 8 8 8 8 8 8 8 8 8 8 8 8 6 6 6 6 6 6 6 6 6 6 6 6 7 6 6 6 6 6 6 7 6 6 6 6 * * * 6 6 6 6 6 6 6 6 6 6 6 6 6 6 6 6 8 7 7 7 7 7 7 7 7 7 6 7 7 7 7 6 7 6 6 6 6 7 7 7 7 7 7 7 7 7 7 7 7 9 6 6 6 6 6 6 9 6 - - - * * * * * * * * * * * * * * * * * * * * * * * * * * * * * * * * * * * * * * * * * * * * - - - - 6 6 6 6 6 - - - - - - - 6 6 6 6 6 - 6 - 6 6 6 6 6 6 6 6 6 6 6 6 6 6 6 6 6 6 6 6 * * * * * * * * * * - - * % % % % * * * * * * * * * * * * * * * * * * * % % % % % % % % % % % % % % % % % % % % % % % % % % % % % % = % % % % % % $ $ $ $ $ $ $ $ % % % @ @ $ @ $ $ $ $ % % % % $ $ $ $ $ $ $ $ $ $ $ $ @ @ $ @ $ $ $ $ @ @ @ @ @ @ @ @ $ $ @ @ @ $ $ $ @ @ @ @ @ @ @ @ @ @ @ @ @ @ @ @ $ $ $ $ $ $ $ $ @ @ # X ",
"= % % % % % % % % % % % % % * * * * * * * * * * * * * * * * * * % * * * * - - - - - - - - - - - 6 6 6 6 6 6 6 6 6 6 6 6 6 6 6 6 6 6 6 6 6 6 6 6 6 6 6 6 6 6 6 6 6 6 6 - 6 6 6 6 - 6 6 6 6 - 6 6 - - - 6 6 6 6 6 6 6 6 6 6 6 7 7 6 6 6 6 6 6 6 6 6 6 6 6 6 6 6 6 6 6 6 6 6 6 6 6 8 8 6 6 6 6 6 6 7 7 7 7 7 7 7 7 7 7 7 7 7 7 7 7 7 7 7 7 7 7 7 7 6 6 6 6 6 6 6 6 6 6 6 6 6 6 6 6 6 6 6 6 6 6 6 6 6 6 6 6 6 7 7 7 8 8 8 8 8 8 8 8 7 7 7 7 7 7 7 7 7 7 7 7 7 7 6 6 7 7 7 7 7 7 7 7 6 6 6 7 7 7 7 7 7 7 7 7 7 7 8 8 7 7 7 7 7 8 8 8 8 8 8 8 8 7 8 8 8 8 8 8 6 6 6 6 6 6 6 6 6 6 6 6 6 6 6 6 6 6 6 6 6 6 6 6 6 6 6 6 6 6 * 6 * - * 4 6 6 6 6 6 6 6 6 6 6 6 6 6 6 6 6 7 7 6 7 7 7 7 7 6 6 7 7 7 7 6 6 6 6 6 6 6 6 7 7 6 6 6 6 6 6 6 6 6 6 6 6 6 6 6 6 - - - - * * * * * * * * * * * * * * * * * * * * * * * * * * * * * * * * * * * * * * * * * * * * - - - 6 6 6 6 6 6 6 - - - - - - 6 - - - * - * * * * - - - - - * * * - - * * * * - * * * * * * * * * * * * * * * % % % % % % % % % % % % % % % % % % % % % % % % % % % % % % % % % % % % % % % % % % % % % % % % % % % % % % % % % % % % % % % $ $ & $ $ % % % % $ $ $ $ $ $ @ @ $ % % % $ $ $ $ @ @ @ @ @ @ @ @ $ $ $ $ $ $ @ @ @ $ @ $ $ $ $ $ @ $ @ @ @ @ @ $ @ @ @ @ @ @ @ @ @ @ @ @ @ @ @ @ @ @ $ @ $ $ $ $ @ @ # X ",
"% % % % % % % % % % % % % % % % * * * * * * * * * * * * * * * * % % * * * * * - * * * * * * * * 6 6 6 6 6 6 6 6 6 6 6 6 6 6 6 6 6 6 6 6 6 6 6 6 - - - - - - 6 6 - - - - - - - - - 6 6 6 6 - 6 6 - - 6 6 6 6 6 6 6 6 6 6 6 6 6 6 6 6 6 6 8 8 8 8 6 6 6 6 6 6 6 6 6 6 6 6 6 6 6 6 6 6 6 6 - 6 6 6 6 6 6 6 6 6 6 8 6 6 6 6 6 6 7 7 6 6 6 6 6 6 6 6 6 6 6 6 6 6 6 6 6 6 6 6 6 6 6 6 6 6 6 6 6 6 6 6 6 6 6 6 6 6 6 6 8 7 7 7 7 7 7 8 7 7 6 6 6 6 7 7 6 6 6 6 7 6 6 6 7 7 7 7 7 7 7 7 7 7 7 7 7 7 7 7 8 8 7 8 8 8 8 8 7 7 7 7 7 8 7 8 7 7 8 8 7 7 7 7 6 6 6 6 6 6 6 6 6 6 6 6 6 6 6 6 6 6 6 6 6 6 6 6 6 6 6 6 6 6 6 6 - - * * 6 - 6 6 6 6 6 6 6 6 6 6 6 6 6 6 6 6 6 6 6 6 6 6 6 6 6 6 6 6 6 6 6 6 6 6 6 6 6 6 6 6 6 6 6 6 6 6 6 6 6 6 * - 6 6 6 6 - * - - - - * * * * * * * * * * * * * * * * * * * * * * * * * * * * * * * * * * * * * * * * * * - - 6 6 6 6 6 6 6 6 6 6 6 - - - - - * * * * * * * * * * * * * * * * * * * * * * * * = = & * * * * * * * * * * * * * % $ $ $ $ $ $ % % % % % $ $ $ $ % % % % % % % % % % % % % % % % $ $ % % % % % % % % % % % % % % % % % % % % % % % % % % % % $ $ % % % % % % % % $ $ $ $ $ @ @ $ $ $ @ @ $ $ $ $ @ @ @ @ @ @ @ @ $ $ $ $ $ @ @ $ @ @ @ @ $ $ $ $ @ @ @ @ @ @ @ @ @ @ @ @ @ @ @ @ @ @ @ @ @ @ @ @ @ @ @ @ @ @ $ $ @ @ # X ",
"% % % % % % % % % % % % % % % % * * * * * * * * * * * * * * * * & % * * * * * * - - - - - - - - - - - - - - - - 6 6 6 6 6 6 6 6 - - - - - - - - - - - - - - - - - - - - - - - - - 6 6 6 6 - 6 6 6 - 6 6 6 6 6 6 6 6 6 6 6 6 6 6 6 6 6 6 6 6 6 6 6 6 6 - - - 6 6 - - - 6 6 6 - - 6 6 6 - - 6 6 6 7 7 7 7 6 6 6 6 7 7 6 6 7 6 4 4 6 6 6 6 6 6 6 6 6 6 6 6 6 6 6 6 6 6 6 6 6 6 6 6 6 6 6 6 6 6 6 6 7 7 7 7 6 6 6 6 7 7 6 6 6 6 6 7 6 6 6 6 6 6 6 6 6 6 6 6 6 6 6 6 7 7 7 7 7 7 7 7 7 7 7 7 7 7 7 7 8 8 8 8 8 8 8 8 7 7 7 7 7 7 7 7 7 7 7 7 7 7 7 7 6 6 6 6 6 6 6 6 6 6 6 6 6 6 6 6 6 6 6 6 6 6 6 6 * - 6 6 6 6 6 * * 6 6 * 6 6 6 6 6 6 6 6 - - - 6 6 6 6 6 6 6 6 6 6 6 6 6 6 6 6 6 6 6 6 6 6 7 7 7 7 7 6 6 6 6 6 6 4 4 4 4 4 4 4 4 * * 6 6 6 * * * - - * * * * * * * * * * * * * * * * * * * * * * * * * * * * * * * * * * * * * * - - - - 6 6 6 6 6 6 6 6 6 6 6 6 6 6 6 - - - - - * * * * * * * * * * * * * * * * * * * % * * * * % = & & & & % % & & & & & & & & $ $ $ $ $ $ $ $ $ $ $ $ $ $ $ $ $ $ $ $ $ $ $ $ $ $ $ $ $ $ $ $ $ $ $ $ $ $ % % % % % % % % % % % % % % % % % % % % % % % % % % % % % % % % % % @ @ @ $ @ @ @ @ @ @ @ @ @ @ @ @ @ @ @ @ @ @ @ @ @ @ @ $ @ @ @ @ $ $ $ $ $ $ $ $ @ @ @ @ @ @ @ @ @ @ @ @ @ @ @ @ @ @ @ @ @ @ @ @ @ @ @ @ @ @ @ @ @ @ # X ",
"% % % % % % % % % % % % % % % % * * * * * * * * * * * * * * * * & % % * * * * * - - - - - - - - - - - - - - - - - - * - * * * * * * * * * * * * * - - - * * * * - - - - - - - - - 6 6 6 6 - - 6 6 6 6 6 6 6 6 6 6 6 6 6 6 6 6 6 6 6 6 6 6 6 6 6 6 6 6 6 6 6 6 6 6 6 6 6 6 6 6 6 6 6 6 6 6 6 6 6 7 7 7 7 7 7 7 7 7 7 7 7 7 7 6 6 6 6 6 6 7 7 7 7 6 6 6 6 6 6 6 6 6 6 6 6 6 6 6 6 6 6 6 6 6 6 6 6 6 6 6 6 6 6 6 6 7 7 6 6 6 6 6 7 7 7 7 7 6 6 6 6 6 6 6 6 6 6 6 6 7 7 7 7 7 7 7 7 7 7 7 7 7 7 8 8 7 7 7 7 7 7 7 7 7 7 7 7 7 7 7 7 6 6 6 6 6 6 6 6 - - 6 6 6 6 - - 6 6 6 6 6 6 6 6 6 6 6 6 6 6 6 6 * 6 6 6 6 6 6 * * 4 6 6 6 * 6 6 * * * * * * * * 6 6 - - 6 6 6 6 - 6 6 6 6 6 - - 6 6 - - - - - 6 * * * * * * * * * * * * * * * * - * * * * * * * * * * * * * * * * * * * * * * * * * * * * * * * * * * * * * * * * * * * * * * * - - 6 6 6 6 6 6 6 6 6 6 6 6 6 6 - - - * * * * * * * * * * * * * % % % % % % % % % % % % % % % % $ $ $ $ & & & $ & & $ $ $ $ $ @ & & $ $ $ $ $ $ $ $ $ $ $ $ $ $ $ $ $ $ $ $ $ $ $ $ $ $ $ $ $ $ $ $ $ $ $ % % % % % % % % % % % % % % % % % % % % % % % % % % $ % % % % % % % % $ $ $ $ @ @ @ @ @ @ @ @ @ @ @ @ @ @ @ @ @ @ @ @ $ $ $ $ @ @ @ @ $ $ $ $ $ $ $ $ @ @ @ @ @ @ @ @ @ @ @ @ @ @ @ @ @ @ @ @ @ @ @ @ $ $ $ $ @ @ @ @ @ @ # X ",
"% % % % % % % % % % % % % % % % % % % % % % % % * * * * * * * * % % % * * * - - - - * * - - - - * * * * * * * * * * * * * * * * * * * * * * * * * * * * * * * * * * * * * * * * - 6 6 6 6 - - 6 6 6 6 6 6 6 6 6 6 6 6 6 6 6 6 6 * * * * * * * * 6 6 6 6 6 6 6 6 6 6 6 6 6 6 6 6 6 6 6 6 6 6 6 6 7 7 7 7 7 7 7 7 7 7 7 7 7 7 7 7 6 7 7 6 7 7 7 7 6 6 6 6 6 6 6 6 - 6 6 6 6 6 6 6 6 6 6 6 6 6 6 6 6 6 6 6 - - - 6 6 6 6 6 - - 6 6 7 7 7 7 6 6 7 7 7 7 6 6 6 6 6 6 7 7 7 7 7 7 7 7 8 8 7 7 7 7 7 7 7 7 7 7 7 7 7 7 7 7 7 6 6 6 6 6 6 6 6 6 6 6 6 6 - - 6 6 6 - - - - - 6 6 6 6 6 6 6 6 6 6 6 6 6 6 * 6 6 6 6 6 6 * 6 6 6 6 * * 6 6 6 6 6 6 - - 6 6 6 6 - - * * * * - - - - - - - - - - * * * * * * * * * * * * * * * * * * * * * * 6 - * * * * * 6 * * * * * * * * * * * * * * * * * * * * * * * * * * * * * * * * - - - - - - - - - - 6 6 6 6 6 6 6 6 6 6 - - - - * * * * * * * * * * * * * * * * $ $ $ $ & & $ & % % $ $ $ $ $ $ $ $ $ $ $ $ & & $ $ $ $ $ $ $ $ $ $ & $ $ & $ & & & & & & & & & $ $ $ $ $ $ $ $ $ $ $ $ $ $ $ $ $ $ $ $ % % % % % % % % % % % % % % % % % % % % % % % % % $ $ $ % % % & & & $ $ @ @ @ @ @ @ @ @ @ @ @ @ @ @ @ @ @ @ @ @ @ @ @ @ @ @ @ @ @ @ @ @ @ @ @ @ @ @ @ @ @ @ @ @ @ @ @ @ @ @ @ @ @ @ @ @ @ @ @ @ @ @ @ @ @ @ @ @ @ @ @ @ @ @ # X ",
"% % % % % % % % $ $ % % % % % % * * * * * * % % * * * * * * * * % % * * - - - - * * * * * * * * % % % % % % % % % % % % % % % % * * * % * * * * * * * * * * * * * * * * * * * * - 6 6 6 6 - - 6 - 6 6 6 6 6 6 6 6 6 6 6 6 6 - - 6 6 6 6 6 6 - - 6 6 6 6 6 6 6 6 6 6 6 6 6 6 6 6 6 6 6 6 6 6 6 6 7 7 7 7 7 7 7 7 7 7 6 6 7 7 7 7 7 7 7 7 7 7 7 7 6 6 6 6 6 6 6 6 - - 6 - 6 - - - 6 6 6 6 6 6 6 6 - - - - - - - - 6 6 6 6 - - 6 6 7 7 7 7 7 7 7 7 7 7 7 7 6 7 6 6 7 7 7 7 7 7 7 7 6 6 6 7 7 7 7 7 7 7 7 6 7 7 7 7 6 6 6 6 7 6 7 6 6 6 6 6 - - 6 6 6 6 6 6 - - - - * * * * * 6 6 6 6 6 6 6 6 6 6 6 6 6 * * * * 6 6 6 6 6 6 * * 4 6 4 4 * 4 4 4 4 4 6 6 * * * * * * - - - * * * * * - - * * * * * - * * * * * * * * * * * * * * * * * * * * * * * * * * * * * * * * * * * * * * * * * * * * * * * * - - - - - - 6 6 - - - - - - - - - - - 6 - 6 6 6 6 - - - - * * * * * * * * * * * * * * * * * * * $ $ $ $ $ $ $ $ $ $ $ $ $ $ $ $ $ $ $ $ $ $ $ $ @ @ @ $ @ @ @ @ $ $ $ $ $ $ $ $ $ $ $ $ $ $ $ $ $ $ $ $ $ $ $ $ $ $ $ $ $ $ $ $ $ $ $ % % % % = % % % % % % % % % % % % % % % % % % $ $ $ $ $ $ $ $ $ $ $ $ $ $ @ @ @ @ @ @ @ @ @ @ @ @ @ @ @ @ @ @ @ @ @ @ @ @ @ @ @ @ @ @ @ @ @ @ @ @ @ @ @ @ @ @ @ @ @ @ @ @ @ @ @ @ @ @ @ @ . . . @ @ @ @ @ @ @ @ @ @ @ @ @ @ @ # X ",
"% % % % % % % % $ $ % % % % % % % * * * * * % % * * * * * * * * % * * - - - - - * * * * * * * * % % % % % $ % $ % * * * * * * * * * * % * * * * * * * * * * * * * * * * * * * * - 6 6 6 6 - - 6 - 6 6 6 6 6 6 6 6 6 6 6 - - * * 6 6 6 6 6 6 6 6 - - - - - - - - - - 6 - 6 6 6 - * * 6 6 6 6 6 6 7 7 7 6 6 6 7 7 7 7 6 6 7 7 7 7 7 7 7 7 7 7 7 7 6 6 6 6 6 6 6 6 - - - - 6 6 6 - 6 6 6 6 6 6 6 6 - - - - - - - - 6 6 6 6 - - - 6 6 7 7 7 7 7 7 7 7 7 7 7 7 7 6 6 7 7 7 7 7 7 7 7 6 6 6 8 8 7 7 7 7 7 7 6 6 7 7 7 7 6 6 7 6 6 4 4 6 6 6 6 - - 6 6 6 6 6 6 6 - - - * * * * * * * * 6 6 6 6 6 6 6 6 6 6 * * * * 6 6 6 6 6 6 * * 4 6 6 6 6 6 6 6 6 6 6 6 * * * * * * * * * * * * * * - - * * * * * - * * * * * * * * * * * * * * * * * * * 6 6 4 * * * * * * * * * * * * * * * * * * * * * * * * * * 6 6 6 6 6 6 6 6 - - - - - - - - - - - - - - 6 6 - - - - * * * * * * * * * * * * * * * * * * * * $ $ $ $ $ $ $ $ $ $ $ $ $ $ $ $ @ $ $ $ $ $ $ $ @ @ @ $ @ $ $ $ $ $ $ $ $ $ $ $ $ $ $ $ $ $ $ $ $ $ $ $ $ $ $ $ $ $ $ $ $ $ $ $ $ $ % % % = * * % % % % % % % % $ $ $ $ $ $ $ $ $ $ $ $ $ $ $ $ $ $ $ $ $ $ $ $ @ @ @ @ @ @ @ @ @ @ @ @ @ @ @ @ @ @ @ @ @ @ @ @ @ @ @ @ @ @ @ @ @ @ @ @ @ @ @ @ @ @ @ @ @ @ @ @ @ @ @ @ @ @ @ @ X . X . @ @ @ @ @ @ @ @ @ @ @ @ @ @ @ X ",
"% % % $ $ $ & & % % % % % % % % % % % % * % % % % % % % % % % = * * * % % % % % % % % % % % * * * * * * * * * * * * * * * * * * * * * * * * - - - - * * * * * * * * * * * * * * - - - - - - 6 6 6 6 6 6 6 6 6 6 6 6 6 6 - * * * - - - - - - - - 6 6 6 - - * * * * * * * 6 6 6 6 6 6 6 6 6 6 6 6 - - 6 6 6 6 6 6 6 6 6 6 6 6 6 6 6 6 6 6 6 6 6 6 6 6 6 6 6 6 6 6 4 6 6 6 6 6 * * * * 6 6 6 6 4 * * * 6 6 6 6 6 6 * * * * * * * * 6 6 6 6 6 6 6 6 6 6 6 6 6 6 6 6 6 6 6 6 6 6 6 6 7 7 6 6 6 6 6 6 7 7 6 6 6 6 6 - 6 6 6 6 6 - 6 6 6 6 6 6 - - - * 6 * * * 6 6 * * 4 4 * * 6 6 6 6 - - - - - - - - * * * * * * * * * * * * - - - - * * * * * * * * * * * - - * * * * * * * * * * * * * * * * * * * * * * * * * * * * * * * * * * * * * * * * * * * * * * * * * * * * * * * * * * * * * * * * * * * 6 6 - 6 6 6 6 6 6 6 6 6 6 6 6 6 - - - - - - - - * * * * * * * * % % * % * * % % * * * * % % & % * * % % % % % % $ % % % % % $ $ $ % % % % % % $ $ $ $ $ $ $ $ $ $ $ $ $ $ $ % % $ $ $ $ $ $ $ $ % % $ $ $ $ $ $ $ @ @ @ @ @ @ @ $ $ $ $ $ $ $ $ % % % % % % % % $ $ $ % % % % % @ @ @ @ @ @ @ $ $ $ @ @ @ @ $ $ @ @ $ @ $ $ $ $ @ @ @ @ @ @ $ $ $ @ @ @ $ $ $ $ @ @ @ @ @ @ @ @ $ $ $ $ $ $ $ $ @ @ @ @ @ @ @ @ @ @ @ @ @ @ . . X X X @ . @ @ @ @ @ @ @ @ @ @ @ @ @ # X ",
"& & $ $ $ % % % % % % % % % % % % % % % * * % % % % % % = % = * % % % % % % % % % % % % % % * * * * * * * * * * * * * * * * * * * * * * * * - - * * * * * * * * * * * * * * * * - - - - - 6 6 6 - - - - - - - - 6 6 6 6 * * * * - - - - - - - - - - - - - - - - * * * * 6 6 6 6 6 6 6 6 6 6 6 6 - - 6 6 6 6 6 6 6 6 6 6 6 6 6 6 6 6 6 6 6 6 6 6 6 6 6 6 6 6 6 6 4 * 6 6 6 6 * * * * 6 6 6 6 4 4 * * - - 6 6 6 6 * * * * * * * * 6 6 6 6 6 6 6 6 6 6 6 6 6 6 6 6 6 6 6 6 6 6 6 6 6 6 6 6 6 6 6 6 6 6 6 6 6 6 6 - 6 6 6 6 6 - 6 6 6 6 6 6 - - - - 6 * * * 6 6 6 * 6 * * * 6 6 6 4 - - - - - - - - * * * * * * * * * * * * - - - * * * * * * * * * * * * - - * * * * * * * * * * * * * * * * * * * * * * * * * * * * * * * * * * * * * * * * * * * * * * * * * * * * * * * * * * * - - - - - - - - 6 6 - 6 - - - - 6 6 6 6 6 6 6 6 - - - - * * - - * * * * * * * * % % * * * * % % * * * * % % % % * * * % % % % % $ $ % % % % $ $ $ % % % % % % $ $ $ $ $ $ $ $ $ $ $ $ $ $ $ % % $ $ $ $ $ $ $ $ & & $ $ $ $ $ $ @ @ @ @ @ @ $ $ % % $ $ $ $ $ $ % % % % % % % % $ $ % % % % % % @ @ @ @ @ @ $ $ $ $ @ @ @ @ @ @ $ $ $ $ $ $ @ @ @ @ @ @ @ @ $ $ @ @ @ @ $ $ $ $ $ $ $ @ @ @ $ $ $ $ $ $ $ $ $ $ @ @ @ @ @ @ @ @ @ @ @ @ @ . . . X X X @ . @ @ @ @ @ @ @ @ @ @ @ # @ #   ",
"$ $ $ $ % % % % % % % % % % % % * * % % * * % % % * * * % % = = % % % % % % % % % % % * % * * * * * * * * * * * * * * * * * * * * * * * * * * * * * * * * * * * * * * * * * * * - - 6 6 - 6 6 6 - - - - - - - - 6 6 * * * * * * - - - - - - - - - - - - - - - - * * 6 6 6 6 6 6 6 6 6 6 6 6 6 6 - - - 6 6 6 6 6 6 6 6 6 6 6 6 6 6 6 6 6 6 6 6 6 6 6 6 6 6 6 6 6 * * 6 6 6 6 - * 4 4 6 6 6 6 * * * * * - * 4 6 6 * * * * 6 6 6 6 6 6 6 6 6 6 6 6 6 6 6 6 6 6 6 6 6 6 6 6 6 6 6 6 6 6 6 6 6 6 6 6 6 6 6 6 6 6 - - 6 6 6 6 6 6 6 6 6 6 6 6 6 - - - 6 * * * 6 6 * * 6 6 6 6 6 6 * * - - - - - - - - * * * * * * * * * * * * - - * * * * * * * * * * * * * * * * * * * * * * * * * * * * * * * * * * * * * * * * * * * * * * * * * * * * * * * * * * * * * * * * * * * * * * * * * * - - - - - - - - 6 6 6 - - - * * - - - - - - - - * * * * * * * * * * * * * * * * % % * * * * % % * * * * % % % % * * * * * * * * $ $ % % % % % $ $ % % % % % % $ % % % % % % % % & & % % $ % % % $ $ $ $ $ $ $ $ $ $ $ $ $ $ & & @ @ @ @ @ $ $ $ & & $ $ $ $ & & % % % % % % % % % $ % % % % % % @ @ @ @ @ @ @ @ @ @ @ @ @ @ @ @ $ $ $ $ $ @ @ $ @ @ @ @ @ @ @ @ @ @ @ @ @ @ @ @ $ $ $ $ @ $ $ $ $ $ $ $ @ @ @ @ @ @ @ @ @ @ @ @ @ @ . @ . . . X X X X @ . . . . @ @ @ @ @ @ @ @ # @ #   ",
"$ $ $ $ % % = = % % % % % % % % * * * % * % % % % % * % % % % % % % % % % * * * % % * * * * * * * * * * * * * * * * * * * * * * * * * * * * * * - - - - - - - - * * * * * * * * - - - 6 * * * - * * * * * * * * * * * * * * * * - - - - - - - - * * * - - 6 6 6 * * 6 6 6 6 6 6 6 6 6 6 6 6 6 6 - - - 6 6 6 6 6 6 6 6 6 6 6 6 6 6 6 6 6 6 6 6 6 6 6 6 6 6 6 6 6 * * 6 6 6 6 - * 4 6 6 6 6 6 * * * * * * * 4 6 6 * * * * 6 6 6 6 6 6 6 6 6 6 6 6 6 6 6 6 6 6 6 6 6 6 6 6 6 6 6 6 - - - 6 6 6 6 6 6 6 6 6 6 6 6 6 6 6 6 6 6 6 6 6 6 6 6 6 6 6 - - 6 4 * * 6 6 6 * 6 6 6 6 6 6 * * - - - - - - - - * * * * * * * * - * * - - - * * * * * * * * * * * * * * * * * * * * * * * * * * * * * * * * * * * * * * * * * * * * * * * * * * * * * * * * * * * * * * * * * * * * - - - * * * 6 6 6 6 6 6 6 6 6 6 6 6 - - - * * * * * * * * * * * * * * * * * * * * * * * * * % % * * * * % % * * * * % * % % * * * * * * * * $ % % % % % % % $ % % % % % % $ % % % % % % % % & & & % $ $ % % $ $ $ $ $ $ $ $ $ $ $ $ $ & % % @ @ @ @ @ $ $ $ % % % % % % % % % % % % & & & & % % % % % % % % $ @ @ @ @ @ @ @ @ @ @ @ @ @ @ @ @ @ @ $ @ @ @ @ @ @ @ @ @ @ @ @ @ @ @ @ @ @ @ @ $ $ $ $ $ $ $ $ @ @ @ @ @ @ @ @ @ @ @ @ @ @ @ @ . . . . . . X X . X X @ . . . . @ @ @ @ @ @ @ @ # @ # X ",
"@ $ $ $ % % = = % % % % % % % % * * % % % % % % % % % % % $ $ $ % % % % % * * * * * * * * * * * * * * * * * * * * * * * * * * * * * * * * * * * - - - - - - - - * * * * * * * * * * * * * * * * * * * * * * * * * * * * * * * * * * * - - - * * * * * - - 6 6 6 * * 4 4 - - 6 6 6 6 6 6 6 6 6 6 - - 6 6 6 6 6 6 6 6 6 6 6 6 6 6 6 6 6 6 6 6 6 6 6 6 6 6 6 6 6 6 6 6 6 6 6 6 6 6 * * 6 6 6 6 * * * * * * 4 6 6 6 4 4 * * - - - - 6 6 6 6 6 6 6 6 6 6 6 6 6 6 6 6 - - - - - - - - * * * * - - 6 6 6 6 6 6 6 6 6 6 6 6 6 6 6 6 6 6 6 6 6 6 6 6 6 6 6 6 * 4 6 6 6 * 6 6 6 6 6 6 * * - - - - - - - - * * * * * * * * * * * * * * * * * * * * * * * * * * * * * * * * * * * * * * * * * * * * * * * * * * * * * * * * * * * * * * * * * * * * * * * * * * * * * * * * 6 6 6 6 6 6 6 6 6 6 6 6 6 6 6 6 6 6 6 6 6 - - - * * * * * * * * * * % % % % * * * * * * * * * * % % % * % % % % * * % % % % % % * * * * * * * * % % % % % % % % $ % % % % % % $ % % % % % % % % % % % % $ $ & % $ $ $ $ $ $ $ $ $ $ $ $ $ $ % % @ @ @ @ @ $ $ $ & & $ $ $ $ & & & & $ & & $ $ $ & & & & % % % % $ $ @ @ @ @ @ @ @ @ @ @ @ @ @ @ $ $ $ $ @ @ @ @ @ @ @ @ @ @ @ @ @ @ @ @ @ @ @ @ $ $ $ $ @ @ @ @ @ @ @ @ @ @ @ @ @ @ @ @ . @ @ @ @ @ @ . . X X X . . X @ @ @ . . @ @ @ @ @ @ @ @ @ @ # X ",
"$ $ $ $ % % % % % % % % % % % % % % % % * * % % % % % % $ $ $ $ % % % % % % % % * * * * * * * * * * * * * * * * * * * * * * * * * * * * * - - - - - - - - - - - * * * * * * * * * * * * * * * * * * * * * * * * * * * * * * * * * * * * - - * * - - - - - - - - * * 4 4 - - 6 6 6 6 6 6 6 6 6 6 - 6 6 6 6 6 6 6 6 6 6 6 6 6 6 6 - 6 6 6 6 6 - - 6 6 6 6 6 6 6 6 6 6 6 6 - 6 6 6 * * 6 6 6 6 * * * * * * 6 6 6 6 4 6 * * - - - - 6 6 6 6 6 6 6 6 6 6 6 6 6 6 6 6 * * * * * - * * * - * * * - - - 6 6 6 6 6 6 6 6 7 7 6 6 6 6 6 6 6 6 6 6 6 6 6 6 6 6 * * 6 6 6 * 6 6 6 6 6 6 * * - - - - - - - - * * * * * * * * * * * * * * * * * * * * * * * * * * * * * * * * * * * * * * * * * * * * * * * * * * * * * * * * * * * * * * * * * * * * * * * * * * * * * * - - 6 6 6 6 6 6 6 6 - - - - - - - - 6 6 6 - - - * * * * * * * * * * * * % % % % * * * * * * * * * * % % % % % % % % * * % % % % % % * * * * * * % % % % % % % % % % $ % % % % % % $ % % % % % % % % % $ % % $ & % % $ $ $ $ $ $ $ $ $ $ $ $ $ $ $ $ @ @ @ @ @ @ $ $ $ $ $ $ $ $ $ $ $ $ $ $ $ $ $ & & & & & % % % % $ $ @ @ @ @ @ $ @ @ @ @ @ @ @ @ @ @ @ @ @ @ @ @ @ @ @ @ @ @ @ @ @ @ @ @ @ @ @ @ @ @ @ @ @ @ @ @ @ @ @ @ # # # # @ @ @ . X X . . @ @ @ . X X X X X . X @ @ @ @ @ @ @ @ @ @ @ @ @ @ @ # X ",
"$ $ $ $ & % % % % % % % % % % % % % % % * % % % $ % % % % % % % % % % % % % % % * * * * * * * * * * * * * * * * * * * * * * * * * * * * * - - - * * * * * - * * * * * * * * * * * * * * * * * * * * * * * * * * * * * * * * * * * * * * * * * * - - - - - - - - * * * * - - 6 6 6 6 6 6 6 6 6 6 - - 6 6 6 6 6 6 6 6 6 6 6 6 6 6 - - - - 6 6 6 - 6 6 6 6 6 6 6 6 6 6 * * * * 6 6 * * 6 6 6 4 * * * * * * 6 6 6 6 6 6 6 6 6 6 6 6 6 6 6 6 6 6 6 6 6 6 6 6 6 6 6 6 * * 6 4 * * * * 6 6 6 6 - 6 - - 6 6 6 6 6 6 7 7 7 7 7 6 6 6 6 6 6 6 6 6 6 6 6 6 6 * * * 6 6 6 * * * - - 6 6 6 6 - - - - - - - - * * * * * * * * * * * * * * * * * * * * * * * * * * * * * * * * * * * * * * * * * * * * * * * * * * * * * * * * * * * * * * * * * * * * * * * * * * * * * - - - 6 6 6 6 6 6 6 6 - - - - - - - - * * * * * * * * * * * * * * * * * % % % * * * * * * * * * * * * % % * * % * % % * * % % % % % % * * * * % % % % % % $ $ % % % % $ % % % % % % $ % % % % % % % % $ $ $ $ $ $ & & $ $ $ $ $ $ $ $ $ & $ $ $ $ $ $ @ @ @ @ @ @ @ @ $ $ $ $ $ $ $ $ $ $ $ $ $ $ $ $ $ $ $ $ $ $ $ $ $ @ @ @ @ $ $ $ @ @ @ @ @ @ @ @ @ @ @ @ @ @ @ @ @ @ @ @ @ @ @ @ @ @ @ @ @ $ $ $ @ @ @ @ @ @ @ @ # # # # # # # # @ @ @ X X X . . @ @ @ . X X X X X . X @ @ @ @ @ @ @ @ @ @ @ @ @ @ @ @ X ",
"% % % $ & & & & % % % % % % % % % % % % % % % % % % % % % % % % * * * % % % % % * * * * * * * * * * * * * * * * * * * * * * * * * * * * * - - - * * * * * * * * * * * * * * * * * * * * * * * * * * * * * * * * * * * * * * * * * * * * * * * * 6 6 6 - - * * * * * * * - - 6 6 6 6 6 6 6 6 6 6 - - 6 6 6 6 6 6 6 6 6 6 6 6 6 6 - - - - 6 6 6 6 6 6 6 6 6 6 6 6 6 4 * * * * 6 6 * * 6 6 6 6 * * * * * * 6 6 6 6 6 6 6 6 6 6 6 6 6 6 6 6 6 6 6 6 6 6 6 6 6 6 6 6 6 6 6 6 6 6 - - 7 7 6 6 6 6 6 6 6 6 6 6 7 7 7 7 7 7 7 6 6 6 6 6 6 6 6 6 6 6 6 6 6 * * * 6 6 6 * * * * * 6 6 6 6 - - - - - - - - * * * * * * * * * * * * * * * * * * * * * * * * * * * * * * * * * * * * * * * * * * * * * * * * * * * * * * * * * * * * * * * * * * * * * * * * * * * * * - - - - - - - - - - - * * * * * * * * * * * * * * * * * * * * * * * * * * * * = * * * * * * * * * * * % % * * * * % % * * % % % % % % % * * % % % % % % $ $ $ % % % % $ % % % % % % $ % % % % % % % % $ $ $ $ $ $ & & $ $ $ $ $ $ $ $ % % & $ $ $ $ $ @ @ @ @ @ @ @ @ $ $ @ @ @ @ $ $ $ $ $ $ $ $ $ $ $ $ $ $ $ $ $ $ $ $ @ @ @ @ $ $ @ @ @ @ @ @ @ @ @ @ @ @ @ @ @ @ @ @ @ @ @ @ @ @ $ $ @ @ @ $ $ $ @ @ @ @ @ @ @ @ @ @ @ @ # # # # @ @ . X X X X . @ @ . . X X X X X X X @ @ @ @ . @ @ @ @ @ @ @ @ @ @ @   ",
"$ $ $ $ $ $ $ $ % % % % % % % % % % % % % % % % $ % % % % % % $ % % % % % % % % % % % * * * * % * * * % * * * * * * * * * * * * * * * * * * * * * * * * * * * * * * * * * * * * * * * * * * * * * * * * * * * * * * * * * * * * - - - - - - - - - - - - - - - - * * - - - - 6 6 6 6 6 6 6 6 6 6 6 6 6 6 6 6 6 6 6 6 6 6 6 6 6 6 6 6 6 6 6 6 6 6 6 6 6 6 6 6 6 6 * * * * * * - - * * - 6 6 6 6 6 6 6 6 6 6 6 6 6 6 6 6 6 6 6 6 6 6 6 6 6 6 6 6 6 - - 6 6 - - - - - - - - 6 6 6 6 6 6 6 6 6 6 6 6 6 6 6 6 6 6 6 6 6 6 6 6 6 6 6 6 6 6 6 6 6 6 6 6 6 6 6 6 6 6 6 6 * - 6 - - - - - 6 6 - - * - - 6 * * * * * * * * * * * * * * * * - - - - - - - - - - - 6 6 6 - - 6 6 - - - - - * * * * * * * * * * * * * * * * * 6 6 - - - - 6 6 6 6 6 6 6 6 6 6 6 6 6 6 6 6 6 6 - - - - - - - - * * * * * * * * * * * * * * * % % % % % % * * * % % % % * * * % * * * * * * * * * * * * * * * * & & % % % * * * % % % % % % % % % % % % % % % % & & % % % % % % % % % % % & % % $ $ $ $ $ $ $ $ @ @ @ @ $ $ $ $ @ @ @ @ @ @ @ @ @ @ @ @ @ @ @ @ @ @ @ @ @ @ @ @ @ @ @ @ $ $ @ @ @ $ $ $ $ $ @ @ @ @ @ @ @ @ @ @ @ @ @ @ @ @ $ $ $ @ @ @ @ @ @ @ @ @ @ @ @ @ @ @ @ @ @ @ @ @ @ @ @ @ @ @ @ @ @ @ @ @ @ @ @ @ @ @ @ @ @ . . . . . . . . . @ @ @ @ X X X X X # # # @ @ @ @ @ @ @ @ @ @ #   ",
"@ @ @ @ $ $ $ @ % % $ % % % % % % % % % % % % % % % % % % % % % % % % % % % % % % % % * * * % % * * * * * * * * * * * * * * * * * * * * * * * * * * * * * * * * * * * * * * * * * * * * * * * * * * * * * * * * * * * * * * * * - - - - - - - - - - - - - - - - * - - - - - 6 6 6 6 6 6 6 6 6 6 6 6 6 6 6 6 6 6 6 6 6 6 6 6 6 6 6 6 6 6 6 6 6 6 - - 6 6 6 6 6 6 * * * * * * - - * - - 6 6 6 6 6 6 6 6 6 6 6 6 6 6 6 6 6 6 6 6 6 6 6 6 6 6 6 6 6 6 6 6 6 6 6 6 6 - 6 6 6 6 6 6 6 6 6 6 6 6 6 6 6 6 6 6 6 6 6 6 6 6 6 6 6 6 6 6 6 6 6 6 6 6 6 6 6 6 6 6 6 6 6 6 6 6 6 6 6 6 6 6 6 6 6 6 - - - 6 6 * * * * * * * * * * * 6 6 6 6 * 6 6 6 6 6 6 6 6 6 6 6 6 6 6 6 6 6 6 - - - - - - - - - - - - - - 6 6 6 6 6 6 6 6 6 6 - - - - 6 6 6 6 6 6 6 6 6 6 6 - - - - - - - - - - - - - - - * % * * % * % % * * * * * * * % % % % % % % * * % % % % * * * % * * * * * * * * * * * * * * * * & % % % % * * * % % % % % % % % % % % % % % % % & % % % % % % % % % % % % % & % $ $ $ $ $ $ $ $ @ @ @ @ $ $ $ @ @ @ @ @ @ @ @ @ @ @ @ @ @ @ @ @ @ @ @ @ @ @ @ @ @ @ @ @ $ $ @ @ $ $ $ $ $ $ @ @ @ @ @ @ @ @ @ @ @ @ @ @ @ @ $ $ @ @ @ @ @ @ @ @ @ @ @ @ @ @ @ @ @ @ @ @ @ @ @ @ @ @ @ @ @ @ @ @ @ @ @ @ @ @ @ @ @ @ . . . @ . . . . . . @ . @ @ X X X X X # # @ @ @ @ @ @ @ @ @ # @ #   ",
"@ @ @ @ @ @ @ @ % % $ $ $ % $ % % % % % % % % % % % % % % % % % * % % % % % % * % % * * * * % % % % % % % % % % * * * % * * * * % % * * * * * * * * * * * * * * * * * * * * * * * * - - * * * * * * * * * * * * - - - - - - - - - - - - - - - - - - - - - - - - - - - - - - 6 6 6 6 - 6 - - 6 6 6 6 6 6 6 6 6 6 6 6 6 6 6 6 6 6 6 6 6 6 6 6 6 6 - - - 6 - - 6 6 - - - - - - - - - - 6 6 6 6 6 6 6 6 6 6 6 6 6 6 6 6 6 6 6 6 6 6 6 6 6 6 6 6 6 6 6 6 6 6 6 6 6 6 6 6 6 6 6 7 7 7 6 8 6 8 8 8 8 8 6 6 6 6 6 6 6 6 6 6 6 6 6 6 6 6 6 6 6 6 6 6 6 6 6 6 6 6 6 6 6 6 6 6 6 6 6 6 6 6 6 6 6 6 6 6 6 6 6 6 6 6 6 6 6 6 * * 6 6 6 6 6 6 6 6 6 6 6 6 6 6 6 6 6 6 6 6 6 6 6 6 6 - - - - - - - 6 6 6 6 6 6 6 6 6 6 6 6 6 6 6 6 - - - - 6 6 - - - - - - - - - - - - - - - - * * * * * * * * % % % % % % % % % % * * * * * * * * % * % % % % % % * * * * % % % % % % % % % % * * * * * * * * % % % % % % % * % % % % % % % % % % % % % % % % & % % % % % % % % % % % % % % % $ $ $ $ $ $ $ $ $ $ @ @ @ @ @ @ @ @ @ @ @ @ @ @ @ @ @ @ @ @ @ @ @ @ @ @ @ @ $ $ @ @ @ @ @ @ @ @ $ $ $ $ $ @ @ @ @ @ @ @ @ @ @ @ @ @ @ @ @ @ @ @ @ @ @ @ @ @ @ @ @ @ @ @ @ @ @ @ @ @ @ @ @ @ @ @ @ @ @ @ @ @ @ @ @ @ @ @ @ @ @ @ . . @ @ @ @ @ @ @ @ @ @ . . . . X X X X X # @ @ @ @ @ @ @ @ @ @ # @ # X ",
"@ @ @ @ @ @ @ @ % % $ $ $ $ $ % % % % % % % % % % % % * * % % % * % % % % = % * % % % * * % % % % % % % % % % % * * * % * * * * % % * * * * * * * * * * * * * * * * * * * * * * * * - - - * * * * * * * * * * * - - - - - - - - - - - - - - - - - - - - - - - - - - - - - - 6 6 6 6 6 6 6 6 6 6 6 6 6 6 6 6 6 6 6 6 6 6 6 6 6 6 6 6 6 6 6 6 6 6 * * * * - - - - - - - - - - - - - - 6 6 6 6 6 6 6 6 6 6 6 6 6 6 6 6 6 6 6 6 6 6 6 6 6 6 6 6 6 6 6 6 6 6 6 6 6 7 6 6 6 6 8 6 6 9 6 6 6 6 6 6 6 6 6 6 6 6 6 6 6 6 6 6 6 6 6 6 6 6 6 6 6 6 6 6 6 6 6 6 6 6 6 6 6 6 6 6 6 6 6 6 6 6 6 6 7 7 7 6 6 6 6 6 6 6 6 6 6 6 6 6 6 6 6 6 6 6 6 6 6 6 6 6 6 6 6 6 6 6 6 6 6 6 6 6 6 6 - - - - 6 6 6 6 6 6 6 6 6 6 6 6 6 6 6 6 6 - - - - - 6 6 - - - - - - - - * * * * * * * * * * * * * * * * * * * % * * % % % % % * * * * * * * * * % % % % * % * * * * % % % % % % % % % % * * * * * * * * * * % % % % & & % % % % % % % % % % % % % % % % % % % % % % % % % % % % % % % % $ $ $ $ $ $ $ $ $ $ @ @ @ @ @ @ @ @ @ @ @ @ @ @ @ @ @ @ @ @ @ @ @ @ @ @ @ @ $ @ @ @ @ @ @ @ @ @ @ @ @ @ @ @ @ @ @ @ $ $ $ $ @ @ @ @ @ @ @ @ @ @ @ @ @ @ @ @ @ @ @ @ @ @ @ @ @ @ @ @ @ @ @ @ @ @ @ @ @ @ @ @ @ @ @ @ @ @ @ @ @ @ . . . . @ @ @ @ @ @ @ @ . . . . X X X X X # @ @ @ @ @ @ @ @ @ @ # @ # X ",
"$ $ $ $ $ $ @ @ % % $ $ $ $ % % % % % % % % % % % % % * * % % % * % % % % % % * % % % % % % % % % % % % % % * * * * * * * * * * % % % % * * * * * * * * * * * * * * * * * * * * - - - - - - - - * * - 6 - - - - 6 - - - - - - - - - - - - - - - - - - - - - - - * * - - - - 6 6 6 6 6 6 6 6 6 6 6 6 6 6 6 6 6 6 6 6 6 6 6 6 6 6 6 6 6 6 6 6 6 6 6 6 6 6 - 6 6 6 - - - - - - - - - 6 6 6 6 6 6 6 6 6 6 6 6 6 6 6 6 6 6 6 6 6 6 6 6 6 6 6 6 6 6 6 6 6 6 6 7 7 7 7 6 6 6 8 8 8 8 8 6 6 6 6 6 6 6 6 6 6 6 6 6 6 6 6 6 6 6 6 - 6 6 6 6 6 6 6 6 6 6 6 6 6 6 6 6 6 6 6 6 6 6 6 6 6 6 6 6 6 7 7 7 6 6 - 6 6 6 6 6 6 6 6 6 6 6 6 6 6 6 6 6 6 6 6 6 6 6 6 - 6 6 6 6 6 6 - 6 6 6 6 6 - - - 6 6 6 6 6 6 6 6 - - 6 6 6 6 6 6 6 6 - - - - 6 6 - - - - - - - - * * * * * * * * * * * * * * * * * * * * * * * * % % * * * * % % * * % % % % * * * * * * % % % % % % % % * * * * * * * * * * * * * * * * % & & & % % % % % % % % % % % % % % % % & $ $ $ $ $ % % & & & $ & $ & & $ $ $ $ $ $ & & $ @ @ @ @ @ @ @ @ @ @ @ @ @ @ @ @ @ @ @ @ @ @ @ @ @ @ @ @ @ @ @ @ @ @ @ @ $ $ $ $ $ $ $ @ @ @ @ @ $ $ $ @ @ @ @ @ @ @ @ @ @ @ @ @ @ @ @ @ @ @ @ @ @ @ @ @ @ @ @ @ @ @ @ @ @ @ @ @ @ @ @ @ @ @ @ @ @ @ @ @ @ @ @ . @ @ . . . @ @ . . . @ @ @ X X X # # # # @ @ @ @ @ @ @ @ @ @ @ @ @ # X ",
"$ $ $ $ $ $ @ @ % % $ $ % % % % % % % % % % % % % % % % % % % % % % % % % % % % % % % % % % % % % % % % % % % % * % % % % * * * % % % % % * * * * * * * * * * * * * * * * * * * - - - - - - - - - - - 6 - - - - - - - - - - - - - - - - - - - - - - - - - - - - * * - - - - 6 6 7 7 6 6 6 6 7 7 6 6 6 6 6 6 6 6 6 6 6 6 6 6 6 6 6 6 6 6 6 6 6 6 6 6 6 6 6 6 6 6 - - - - - - - - 6 6 6 6 6 6 6 6 6 6 6 6 6 6 6 6 6 6 6 6 6 6 6 6 6 6 6 6 6 6 6 6 6 6 6 6 6 7 7 7 6 6 8 8 8 8 8 8 8 8 8 8 6 6 6 6 6 6 6 6 6 6 6 6 6 6 6 - - 6 - 6 6 6 6 6 6 6 6 6 6 6 6 6 6 6 6 6 7 6 6 6 7 7 7 7 6 6 6 6 6 6 6 6 6 6 6 6 6 6 6 6 6 6 6 6 6 6 6 6 6 6 6 6 6 6 6 6 * - 6 6 6 6 - * 6 6 6 6 6 6 - - 6 6 6 6 6 6 6 6 - - - - - - - - 6 6 - - - - 6 6 - - - - - - - - * * * * * * * * * * * * * * * * * * * * * * * * % % * * * * % % * * % % * * * * * * * * * * % % * * * * * * * * * * * * * * * * * * % * % % & & % % % % % % % % % % % % % % % % & $ $ $ $ $ % % & & & $ $ $ $ $ $ $ $ $ $ $ $ & $ @ @ @ @ @ @ @ @ @ @ @ @ @ @ @ @ @ @ @ @ @ @ @ @ @ @ @ @ @ @ @ $ @ @ @ @ @ $ $ @ @ @ @ @ @ @ @ @ @ @ @ @ @ @ @ @ @ @ @ @ @ @ @ @ @ @ @ @ @ @ @ @ @ @ @ . . . X @ @ @ @ @ @ @ @ @ @ @ @ @ @ @ @ @ @ @ @ @ @ @ @ @ @ @ @ . . @ @ . . . . @ @ X . X # X # # # @ @ @ @ @ @ @ @ @ @ @ @ # X ",
"@ @ @ @ @ @ @ @ % % % % % % % % % % % % % % % % % % % % % % % % % % % $ $ % % % % % % % % % % % % % % % % % % % * % % % % % * * % * % % % % * * * * * * * * * * * * * * * * * * - - - - - - - - - - 6 6 - - - - 6 6 6 6 - - 6 6 - - - - - - - - - - - - - - - - * * - - - - 6 6 6 6 6 6 6 6 6 6 6 6 6 6 6 6 6 6 6 6 6 6 6 6 6 6 6 6 6 6 6 6 6 6 6 6 6 6 6 6 6 6 6 6 6 6 6 6 - - 6 6 6 6 6 6 6 6 6 6 6 6 6 6 6 6 6 6 6 6 6 6 6 6 6 6 6 6 6 6 6 6 6 6 - 6 6 6 7 7 6 6 6 6 6 6 8 8 6 6 6 6 6 6 6 6 6 6 6 6 6 6 6 6 6 - - - - - 6 6 6 6 6 6 6 6 6 6 6 6 6 6 6 6 6 6 7 7 6 6 6 6 7 6 7 7 6 6 6 6 6 6 6 6 6 6 6 6 6 6 - 6 6 6 6 6 6 6 6 - 6 6 6 6 6 6 - 6 6 6 6 6 6 - 6 6 6 6 6 6 6 6 6 6 - - 6 - 6 6 - - - - - - - - 6 6 - - - - 6 6 - - * * * * * * * * * * * * * * * * * * * * * * * * * * * * * * % * * * * % % % * % % % * * * * % % * * * * * * * * * * * * * * * * * * * * * * % * % % % % * * % % % % % % % % $ $ $ $ $ $ $ $ $ $ $ $ $ $ $ $ $ $ $ $ $ $ $ $ $ $ $ $ $ $ & & @ @ @ @ @ @ $ $ @ @ @ @ @ @ @ @ @ @ @ @ @ @ @ @ @ @ @ @ @ @ @ @ $ $ @ @ @ @ $ $ @ @ @ @ @ @ @ @ @ @ @ @ @ @ @ @ @ @ @ @ @ @ @ @ @ @ @ @ . . . . . . @ . . . X X @ @ . @ . . . . . . @ @ . . . . @ @ @ @ @ @ @ @ @ @ @ @ . . . @ . X X . @ @ @ . X X X # # # # # @ @ @ @ @ @ @ @ @ @ #   ",
"@ @ @ @ @ @ @ @ % % % % % % % % % % % % % % % % $ % % % % % % $ % $ $ $ $ $ $ % % % % % % % % % % % % % % % % % * % % % % % * * % * % % % % * * * * * * * * * * * * * * * * * * - - - - - - - - - - - - - - - - 6 6 6 6 - - 6 6 - - - - - - - - - - - - - - - - * * - - - - - - 6 6 6 6 6 6 6 6 6 6 6 6 6 6 6 6 6 6 6 6 6 6 6 6 6 6 6 6 6 6 6 6 6 6 6 6 6 6 6 6 6 6 6 6 6 6 - - 6 6 6 6 6 6 6 6 6 6 6 6 6 6 6 6 6 6 6 6 6 6 6 6 6 6 6 6 6 6 6 6 - - - - 6 6 6 7 6 6 6 6 6 6 6 6 6 6 6 6 6 6 6 6 6 6 6 6 6 6 6 6 6 - - - - - 6 6 6 6 6 6 6 6 6 6 6 6 6 6 6 6 6 6 6 6 6 6 6 6 6 6 7 7 6 6 6 6 6 6 6 6 6 6 6 6 6 6 - - 6 6 6 6 6 6 - - - - - - - - 6 6 6 6 6 6 6 6 6 6 6 6 6 6 6 6 6 6 - - - - 6 6 - 6 6 6 6 6 6 6 6 6 - - - - 6 6 - - * * * * * * * * * * * * * * * * * * * * * * % % % * % % % % % % * * % % % % * * % % * * * * % * * * * * * % * * * * * * * * * * * * * * * * % % % % * * * * % % % % % % % % $ $ $ $ $ $ $ $ $ $ $ $ $ $ $ $ $ $ $ $ $ $ $ $ $ $ $ $ $ $ $ $ @ @ @ @ $ $ $ $ @ @ @ @ @ @ @ @ @ @ @ @ @ @ @ @ @ @ @ @ @ @ @ $ $ $ @ @ @ @ @ $ @ @ @ @ @ @ @ @ @ @ @ @ . . . . @ @ @ @ @ @ @ @ @ @ @ @ . . . . . . @ . . X X X @ @ . . . . . . . . . @ @ . . . @ @ @ @ @ @ @ @ @ @ @ @ . . . @ . X X X @ @ @ . X X X # # # # # @ @ @ @ @ @ @ @ @ @ #   ",
"@ @ @ @ $ $ @ @ $ $ $ $ @ @ $ $ % % % % % % % % $ $ @ @ @ @ @ $ @ @ @ @ @ @ @ @ $ $ $ $ $ $ % % % % % % % % % % % % % * * % % % % % % % % % % % * * * * * * * * * * * * * * * * * * * * * * - - % * * * * * * * * * * * * * * * * * * * * * - - * * * * - - - - 6 6 6 - - - 6 6 6 6 6 6 6 6 6 6 - - - - 6 6 6 6 6 6 6 6 - - 6 6 - - 6 6 6 6 6 6 6 6 6 6 6 6 6 6 6 6 6 6 6 6 6 6 6 6 - - - - 6 6 6 6 6 6 - - 6 6 6 6 6 6 6 6 6 6 6 6 6 6 6 6 6 6 6 6 6 6 6 6 6 6 8 6 6 6 6 6 6 8 6 6 6 6 6 6 6 - - - - - - - - - - - - - - - - - - - - - - - - - 6 6 6 6 6 6 6 6 6 6 6 6 6 6 - - 6 6 6 6 6 6 6 6 6 6 6 6 6 6 6 6 7 7 6 6 6 6 - - 6 6 6 6 6 6 6 6 6 - - - - - - 6 6 6 6 6 6 6 6 6 - - - - - - - - * * - - - - 6 6 6 - - - - - * * - - - - - - - - * * * * * * * * * * * * * * * * * * * * * * * * * * * % % % & & & & & & & & & & % % % % * * * * * * * * * * * * * * * * * * * * * * % % % % % % % % $ $ % % % % $ & & % $ $ $ $ $ $ $ $ $ $ $ $ $ $ $ $ $ $ $ $ @ @ @ $ $ $ $ $ @ @ @ @ @ @ @ @ @ @ @ @ @ @ @ @ @ @ @ @ $ $ $ $ @ @ @ @ @ @ @ @ $ $ @ @ @ @ @ @ @ @ @ @ @ @ @ @ @ @ @ @ @ @ @ @ @ @ @ @ @ @ @ @ @ @ . . . . @ @ X X # # # # # X X X X X X # X X . . @ @ @ . . . @ @ @ @ @ @ @ @ @ @ @ @ @ @ @ @ # # # # X X # # X X X @ @ X X X @ @ @ @ @ @ @ @ # @ #   ",
"@ @ @ @ $ $ $ @ $ $ $ $ @ @ $ $ % % % % % % % % $ $ @ @ @ @ $ $ $ $ $ $ $ $ $ @ $ $ $ $ $ $ % % % % % % % % % % % % % * * % % % * * * * * * * * * * * * * * * * * * * * * * * * * * * * * * - - % * * * * * * * * * * * * * * * * * * * * * - - * * * * - - - - 6 6 6 - - - 6 6 6 6 6 6 6 6 6 6 - - - - 6 6 6 - 6 6 6 6 - - 6 6 - - 6 6 6 6 6 6 6 6 6 6 6 6 6 6 6 6 6 6 6 6 6 6 6 6 - - - - 6 6 6 6 6 6 - - 6 6 6 6 6 6 6 6 6 6 6 6 6 6 6 6 6 6 6 6 6 6 6 6 6 6 8 6 6 6 6 6 6 8 6 6 6 6 6 6 6 - - - - - - - - - - - - - - - - - - - - - - - - - 6 6 6 6 6 6 6 6 - - 6 6 6 6 - - 6 6 6 6 6 6 6 6 6 6 6 6 6 6 6 6 6 6 6 6 6 6 6 6 6 6 6 6 6 6 6 6 6 - - - - - - 6 6 6 6 6 6 6 6 6 - - - - - - - - * * - - - - 6 6 - - - - - - * * * * * * * * * * * * * * * * * * * * * * * * * * * * * * * * * * * * * * % % % % & & & & & & & & % % % % % % * * * * * * * * * * * * * * * * * * * * % % % % % % % % $ $ % % % % $ & & % % $ $ $ % % & & $ $ $ $ $ $ $ $ $ $ $ $ @ @ @ @ $ $ @ $ @ @ @ @ @ @ @ @ @ @ @ @ @ @ @ @ @ @ @ @ @ @ @ @ @ @ @ @ @ @ @ @ @ @ @ @ @ @ @ @ @ @ @ @ @ @ @ @ @ @ @ @ @ @ @ @ @ @ @ @ @ @ @ @ @ @ @ . . . @ @ X X # # # # X X X X X X # # X # . . @ @ @ @ . . @ @ @ @ @ @ @ @ @ @ @ @ @ @ @ @ # # # X X X X # X X # @ @ X X X @ @ @ @ @ @ @ @ # @ #   ",
"$ $ @ @ $ @ @ @ $ $ @ $ @ @ $ $ $ $ $ $ $ $ $ $ $ $ $ @ $ $ $ $ $ $ $ $ $ $ $ $ % % $ $ $ $ % % % % % % % % % % % % % * * % % % * * * * * * * * * * * * * * * * * * * * * * * * * * * * * * * * % % * * * * * * * * * * * * * * * * * * * * * * - - * - - - - - 6 6 6 6 - - - 6 - - - - 6 6 6 6 - - 6 - 6 6 - - 6 6 - 6 - - 6 6 - - - 6 - - - - 6 6 6 6 6 6 6 6 - - - - - - 6 6 6 6 - - - - 6 6 6 6 - 6 - - 6 6 6 6 6 6 6 6 6 6 6 6 6 6 6 6 6 6 6 6 6 6 6 6 6 6 6 6 6 6 6 6 6 6 6 6 6 6 6 6 6 6 - - - - - - - - - - - - - - - - - - - - - - - - 6 6 6 6 6 6 6 6 - - - - 6 6 - - 6 6 6 6 6 6 6 6 6 6 6 6 6 6 6 6 6 6 6 6 6 6 6 6 6 6 6 6 6 6 6 6 6 6 - - - - 6 6 6 6 6 6 6 6 6 6 - - - - - - - - - - - - - - - - - - - - - - - - * * * * * * * * * * * * * * * * * * * * * * * * * * * * * * * * * * * * * * * * % % % % % % & & * * * * % % % % * * * * * * * * * * * * * * * * * * % % % % % % % % $ $ % % % % $ $ % % % % $ $ % & & & % % $ $ $ $ $ $ $ $ $ $ @ @ @ @ @ @ @ @ @ @ @ @ @ @ @ @ @ @ @ @ @ @ @ @ @ @ @ @ @ @ @ @ @ @ @ @ @ @ @ @ @ @ @ @ @ @ @ @ @ @ @ @ @ @ @ @ @ @ @ @ @ @ @ @ @ @ @ @ @ @ @ @ @ @ X . . . @ @ X X X # X X X X X X # # # # # # @ @ @ @ @ @ @ @ @ @ @ @ @ @ @ @ @ @ @ @ @ @ @ @ # # X X X X # # X X # @ X X # X @ @ @ @ @ @ @ @ # @ @ X ",
"$ $ @ @ @ @ @ @ $ $ @ @ @ @ $ $ $ $ $ $ $ $ $ $ $ $ $ @ $ $ $ $ $ $ $ $ $ $ $ $ % % % % % % % % % % % % % % % % % % % % % % % % * * * * * * * * * * * * - - - - * * * * * * * * * * * * * * * * % % * * * * * % * * * * * * * * * * * * * * * * - - - - - - - - 6 6 6 6 - - 6 6 6 - - - 6 6 6 6 6 6 6 6 6 6 - - 6 6 - - - - 6 6 - - - 6 - - - - 6 6 6 6 6 6 6 6 - - - - - - 6 6 6 - - - - - - 6 6 6 - - - - 6 6 6 6 6 6 6 6 6 6 6 6 6 6 6 6 6 6 6 6 6 6 6 6 6 6 6 6 6 6 6 6 6 6 6 6 6 6 6 6 6 6 - - - - - - - - - - - - - - - - 6 6 - - - - - 6 6 6 6 6 6 6 6 6 - - - - 6 6 - - - 6 6 6 6 6 6 6 6 6 6 6 6 6 6 6 6 6 6 6 6 6 7 7 6 6 6 6 6 6 6 6 6 - - - - - 6 6 6 6 6 6 6 6 6 6 - - - - - - - - - - - - - - - - - - - - - - * * * * * * * * * * * * * * * * * * * * * * * * * * * * * * * * * * * * * * * * * * % % % % % % & & * * * * % % % % * * * * * * * * * * * * * * * * * * % % % % % % % % $ % % % % $ $ $ % % % % $ $ $ $ $ $ $ $ $ $ $ $ $ $ $ $ $ $ @ @ @ @ @ @ @ @ @ @ @ @ @ @ @ @ @ @ @ @ @ @ @ @ @ @ @ @ @ @ @ @ @ @ @ @ @ @ @ @ @ @ @ @ @ @ @ $ @ @ @ @ @ @ @ @ @ @ @ @ @ @ @ @ @ @ @ @ @ @ @ @ @ @ X X X X @ @ X X # # X X X X X X X # # # # # @ @ @ @ @ @ @ @ @ @ @ @ @ @ @ @ @ @ @ @ @ @ @ @ # # X X X X # # X X X # X # # # @ @ @ @ @ @ @ @ @ @ @ X ",
"$ @ @ @ @ @ @ @ $ @ @ @ $ $ $ $ % % % % % % % % $ $ $ $ $ $ @ @ $ $ $ @ @ @ @ @ % % % % $ $ % % % % % % % % % % % % % % % % % % * * * * * * * * * * * * * * * * * * * * * * * * * * * * * * * * % * * * * * % % * * * * * * * * * * * * * * * * - - - - - - 6 6 - - - - 6 6 - - 6 6 6 6 6 6 6 6 6 6 6 6 - - - - 6 - - - 6 6 6 6 - - - - - 6 6 6 6 6 6 6 6 6 6 6 6 6 6 6 - 6 6 6 - - - * * - - - 6 - - - 6 6 6 6 6 6 6 6 6 6 6 6 6 6 6 6 6 6 6 6 6 6 6 6 6 6 6 6 6 6 6 6 6 6 6 6 6 6 6 6 6 6 - 6 - - - - - - - - - - - - - - - - 6 6 - - - - 6 6 6 6 6 6 6 6 6 6 6 6 6 - - - - - - - 6 6 6 6 6 6 6 6 6 6 6 6 6 6 6 6 6 6 6 6 7 7 6 6 6 6 6 6 6 6 6 6 - - - - 6 6 6 6 6 6 6 6 6 6 - - - - - - - - - - - - - - - - - - - * * * * * * * % % % % * * * * * * * * * * * * * * * * * * * * * * * * * * * * * * * * * * % % % % % % % % * * % % % * * % * * * * * * * * * * * * * * * * * * % % % % % % % % % % % % % $ $ $ $ $ & $ $ $ $ $ $ $ $ $ $ $ $ $ $ $ $ $ $ $ @ @ @ @ @ @ @ @ @ @ @ @ @ @ @ @ @ @ @ @ @ @ @ @ @ @ @ @ @ @ @ @ @ @ @ @ @ @ @ @ @ @ @ @ @ @ @ $ @ @ @ @ @ @ @ @ @ @ @ @ @ @ @ @ @ @ @ @ @ @ @ @ @ . . X . . . . X X X X X # # # # # # # X X # # @ @ @ @ @ @ @ @ @ @ @ @ @ @ @ @ @ @ @ @ @ @ @ @ # X X X X # # # X X X X # @ # @ @ @ @ @ @ @ @ @ # @ # X ",
"$ $ @ @ @ @ @ @ $ @ @ @ $ @ $ $ % % % % % % % % $ $ $ $ $ $ @ @ $ $ $ @ @ @ @ @ % % % % $ $ % % % % % % % % % % * % % % % % % * * * * * * * * * * * * * * * * * * * * * * * * * * = * * * * * * % % * * * % % & * * * * * * * * * * * * * - - - - - - - - 6 6 6 - - - - 6 6 6 - - - - - - - - - 6 6 6 6 6 6 - - - - - - - - 6 6 - - - - - - 6 6 6 6 6 6 6 6 6 6 - - - - - - - - - - - - * * - - - - - - - - 6 6 6 6 6 6 6 6 6 6 6 6 6 6 6 6 6 6 6 6 6 6 6 6 6 6 6 6 6 6 6 6 6 6 6 6 6 6 6 6 - - - - - - - - - - - - - - - - - - 6 6 - - 6 - 6 6 6 6 6 6 6 6 6 6 6 6 6 6 - - - - - - - - - - - - 6 6 6 6 6 6 6 6 6 6 6 6 6 6 6 6 6 6 6 6 6 6 6 6 6 6 - - - - 6 6 6 6 6 6 6 6 6 6 - - - - - - - - - - - - - - - - - - * * * * * * * * * * * * * * * * * * * * * * * * * * * * * * * * * * * * * * * * * * * * * * % % % % % % % % * * % % * * * * * * * * * * * * * * * * * * * * * * % % % % % % % % % % $ % $ % $ $ $ $ & & $ $ $ $ $ $ $ $ $ $ $ $ $ $ $ $ $ $ @ @ @ @ @ @ $ @ @ @ @ @ @ @ @ @ @ @ @ @ @ @ @ @ @ @ @ @ @ @ @ @ @ @ @ @ @ @ @ @ @ @ @ @ @ @ @ @ @ @ @ @ @ @ @ @ @ @ @ @ @ @ @ @ @ @ @ @ @ @ @ @ @ . X X . . . . X X X X X X # # # # # # X # # # @ @ @ @ @ @ @ @ @ @ @ @ @ @ @ @ @ @ @ @ @ @ @ @ X X X X X X # # X X # # X # # @ @ @ @ @ @ @ @ @ # @ # X ",
"@ @ @ @ $ @ $ @ $ $ @ @ @ @ @ @ % % % % % % % % $ $ $ $ @ @ @ @ $ $ $ $ $ @ @ @ % % % % $ % % % % % % % % % % % * % % % % % % * * * * * * * * * * * % * * * * * * * * * * * * * % % * * % % % % * * * * % % & & * * * * * * * * * * * * * - - - - - - - 6 6 6 6 - - 6 6 6 6 - - - - - - - - - - - - 6 6 6 6 6 6 6 6 - - - - - - 6 6 - - 6 6 6 6 6 6 6 6 6 6 6 6 - - - - - - - - - - * * * * - - 6 6 - - - - - - 6 6 6 6 6 6 6 6 6 6 6 6 6 6 6 6 6 6 6 6 6 6 6 6 6 6 6 8 6 6 6 6 6 6 6 6 6 - - - - - - - - - - - - - - - - - - - 6 6 6 6 6 6 6 6 6 6 6 6 6 6 6 6 6 6 6 6 - - - - - - - - - - - - 6 6 6 6 6 6 6 6 6 6 6 6 6 6 6 6 6 6 6 6 6 6 6 6 6 6 - - - - 6 6 6 6 6 6 6 6 6 6 - - - - - - - - 6 6 - - - - * * * * * * * * * * * * * * * * * * * * * * * * * * * * * * * * * * * * * * * * * * * * * % * * % % * * * * * * * * * % % % * * * * * * * * * * * * * * * * * * * * * * * % % % % % % % $ $ % % % % % % $ % & & & $ $ $ $ $ $ $ $ $ $ $ $ $ $ $ $ $ @ $ @ @ @ @ $ $ @ @ @ @ @ @ @ @ @ @ @ @ @ @ @ @ @ @ @ @ @ @ @ @ @ @ @ @ @ @ @ @ @ @ @ @ @ @ @ @ @ @ @ @ @ @ @ @ @ @ @ @ @ @ @ @ @ @ @ @ @ @ @ @ . . . . . . . . X # X X # # # # X # X X X X # # @ @ @ @ @ @ @ @ @ @ @ @ @ @ @ @ @ @ @ @ @ @ @ @ X X X X X X X X X X X X X # @ @ @ @ @ @ @ @ @ @ # @ #   ",
"@ @ @ @ $ $ $ @ $ @ @ @ @ @ @ @ $ $ $ $ $ $ $ $ @ @ $ $ $ @ @ @ $ $ $ $ $ $ $ $ % % % % $ % % % % % % % % % % % * % % % % % * * * * * * * * * * % % % % % % % % * * * * * * * * % % % * * * % % * * * * % % & & * * * * * * * * * * * * * - - - - - - - 6 6 6 6 - 6 6 6 6 6 - - - - - - - - - - - - 6 6 6 6 6 6 6 6 - - - - - - 6 6 - 6 6 6 6 6 6 6 6 6 6 6 6 6 - - - - - - - - - - * * * * - - 6 6 - - - - - - 6 6 6 6 6 6 6 6 6 6 6 6 6 6 6 6 6 6 6 6 6 6 6 6 6 6 6 8 8 6 6 6 6 6 6 6 6 - - - - - - - - - - - - - - - - - - - 6 6 6 6 6 6 6 6 6 6 6 6 6 6 6 6 6 6 6 6 - - 6 6 - - - - - - - - 6 6 6 6 6 6 6 6 7 7 6 6 6 6 - - 6 6 6 6 6 6 6 6 6 6 - - - - 6 6 6 6 6 6 6 6 6 6 - - - - - - - - 6 6 - - - - * * * * * * * * * * * * * * * * * * * * * * * * * * * * * * * * * * * * * * * * * * * % % % % % % % * * * * * * * * * % % % * * * * * * * * * * * * * * * * * * * * * * * * % % % % % $ $ $ % % % % % % % % $ & & & $ $ $ $ $ $ $ $ $ $ $ $ $ $ $ $ $ $ @ @ @ $ $ $ @ @ @ @ @ @ @ @ @ @ @ @ @ @ @ @ @ @ @ @ @ @ @ @ @ @ @ @ @ @ @ @ $ @ @ @ @ @ @ @ @ @ @ @ @ @ @ @ @ @ @ @ @ @ @ @ @ @ @ @ @ @ @ @ . . . . . . . . # # X X X # # # X X X X X X # # @ @ @ @ @ @ @ @ @ @ @ @ @ @ @ @ @ @ @ @ @ @ @ @ # X X X X X X X # X X X X # @ @ @ @ @ @ @ @ @ @ # @ #   "
};
