/* XPM */
static char *d6ecfb381c31423f871b8b4d77dab909Bqt5hobqA2e4Ap15[] = {
/* columns rows colors chars-per-pixel */
"256 256 256 2 ",
"   c #313015",
".  c #091B2D",
"X  c #03283A",
"o  c #112E36",
"O  c #2F3231",
"+  c #191B14",
"@  c #493A2F",
"#  c #49361B",
"$  c #344534",
"%  c #284527",
"&  c #494B19",
"*  c #574838",
"=  c #4F4E30",
"-  c #6A5536",
";  c #6E6639",
":  c #57642F",
">  c #022C47",
",  c #013345",
"<  c #02344B",
"1  c #023B4C",
"2  c #073949",
"3  c #023553",
"4  c #033B54",
"5  c #023C5B",
"6  c #093A57",
"7  c #15344D",
"8  c #2C3A4A",
"9  c #043D63",
"0  c #083C72",
"q  c #1F395F",
"w  c #483C48",
"e  c #04454A",
"r  c #034354",
"t  c #02435C",
"y  c #034B5B",
"u  c #094858",
"i  c #154859",
"p  c #06545B",
"a  c #17565A",
"s  c #174D49",
"d  c #384747",
"f  c #2F5053",
"g  c #2F6559",
"h  c #034463",
"j  c #024B64",
"k  c #024C6B",
"l  c #094867",
"z  c #154966",
"x  c #02536C",
"c  c #085867",
"v  c #155868",
"b  c #034A76",
"n  c #025473",
"m  c #035C74",
"M  c #035C7B",
"N  c #095978",
"B  c #165976",
"V  c #154B75",
"C  c #265968",
"Z  c #31546F",
"A  c #09636A",
"S  c #16646B",
"D  c #046374",
"F  c #03637C",
"G  c #0B647C",
"H  c #0C6B7B",
"J  c #096776",
"K  c #166878",
"L  c #0B737A",
"P  c #17747B",
"I  c #13736B",
"U  c #286769",
"Y  c #266978",
"T  c #376878",
"R  c #28767A",
"E  c #377678",
"W  c #346B6A",
"Q  c #13645B",
"!  c #484848",
"~  c #5A5548",
"^  c #485757",
"/  c #575857",
"(  c #4D4E4D",
")  c #675848",
"_  c #675B56",
"`  c #71594B",
"'  c #4F6455",
"]  c #696548",
"[  c #776749",
"{  c #6A6557",
"}  c #776857",
"|  c #7A7459",
" . c #767349",
".. c #485967",
"X. c #50596D",
"o. c #506B73",
"O. c #676767",
"+. c #737170",
"@. c #645C68",
"#. c #877658",
"$. c #8C7151",
"%. c #877767",
"&. c #8E796E",
"*. c #A47657",
"=. c #8C663C",
"-. c #27847A",
";. c #658674",
":. c #92845A",
">. c #988567",
",. c #978778",
"<. c #8C8772",
"1. c #AC8F71",
"2. c #AD8B60",
"3. c #C89872",
"4. c #064989",
"5. c #085888",
"6. c #135B8A",
"7. c #054B94",
"8. c #074A96",
"9. c #075798",
"0. c #135E93",
"q. c #134D8A",
"w. c #0C6B83",
"e. c #076787",
"r. c #136B84",
"t. c #166889",
"y. c #0B7488",
"u. c #137384",
"i. c #14748C",
"p. c #197889",
"a. c #086797",
"s. c #146294",
"d. c #14639B",
"f. c #1A659B",
"g. c #1D6B9C",
"h. c #196995",
"j. c #097796",
"k. c #187795",
"l. c #266A85",
"z. c #267787",
"x. c #377787",
"c. c #226C9B",
"v. c #257799",
"b. c #38708C",
"n. c #055CA3",
"m. c #025CAA",
"M. c #0556A3",
"N. c #054FA3",
"B. c #0B64A3",
"V. c #0966A9",
"C. c #1C6BA3",
"Z. c #146BA8",
"A. c #0879A8",
"S. c #1875AA",
"D. c #087DB2",
"F. c #1977B2",
"G. c #106AB2",
"H. c #236EA2",
"J. c #2472A3",
"K. c #2B7BAC",
"L. c #2777A8",
"P. c #277CB3",
"I. c #327DAE",
"U. c #2D5A85",
"Y. c #4E738B",
"T. c #6C7889",
"R. c #4F759F",
"E. c #297EC3",
"W. c #013E81",
"Q. c #867D87",
"!. c #0A849A",
"~. c #198498",
"^. c #16898C",
"/. c #288489",
"(. c #268698",
"). c #358B92",
"_. c #0787A9",
"`. c #1687A7",
"'. c #0694AD",
"]. c #0887B3",
"[. c #0393B4",
"{. c #0799B9",
"}. c #1490B4",
"|. c #2887A4",
" X c #3486A9",
".X c #2B82B7",
"XX c #3585B8",
"oX c #3194AB",
"OX c #07A4BC",
"+X c #13ABB2",
"@X c #25AAA4",
"#X c #4F8792",
"$X c #718994",
"%X c #508FB4",
"&X c #6F93AC",
"*X c #72A5B6",
"=X c #53A5B4",
"-X c #0B9DC2",
";X c #3C8AC4",
":X c #3884C3",
">X c #2D85C3",
",X c #08A6C4",
"<X c #10ACC6",
"1X c #25A7C6",
"2X c #448CC5",
"3X c #4C8DC3",
"4X c #488EC8",
"5X c #528EC3",
"6X c #5A8EC2",
"7X c #4C91C7",
"8X c #5492C4",
"9X c #5B93C5",
"0X c #5897CA",
"qX c #5296D0",
"wX c #659AC7",
"eX c #719EC7",
"rX c #69A2CB",
"tX c #78A6CA",
"yX c #77ABD2",
"uX c #71ACD1",
"iX c #55AEC7",
"pX c #3CC6C3",
"aX c #918E8D",
"sX c #A79688",
"dX c #AD988E",
"fX c #B3A493",
"gX c #8B99AA",
"hX c #91A6B3",
"jX c #B3AEAC",
"kX c #9E9F9D",
"lX c #C9AE96",
"zX c #CAB5AB",
"xX c #DBAB99",
"cX c #D6C4B4",
"vX c #E6CAB4",
"bX c #85ACCB",
"nX c #89B2CD",
"mX c #97B5CD",
"MX c #89B5D5",
"NX c #97BAD5",
"BX c #8AADCD",
"VX c #A4BDD4",
"CX c #AAB8C7",
"ZX c #8CBEE2",
"AX c #99C4DA",
"SX c #A9C3DA",
"DX c #B7C9DB",
"FX c #B6CDD6",
"GX c #B8CDE2",
"HX c #B4D0E5",
"JX c #9FD2EA",
"KX c #C4CFDA",
"LX c #C8D5E3",
"PX c #CFD9E4",
"IX c #E1DDD9",
"UX c #BFC3C1",
/* pixels */
"LXLXLXLXLXGXGXGXLXLXGXGXGXGXGXGXGXGXGXGXGXGXDXDXSXSXSXSXSXSXSXSXSXSXSXSXSXSXAXAXAXNXNXNXNXNXNXNXNXNXNXNXNXNXNXNXMXMXMXMXMXMXMXMXMXMXMXMXMXMXMXMXyXyXyXyXyXyXyXyXyXyXyXyXyXyXyXyXyXyXyXyXyXyXuXuXuXuXrXrXrXrXrXrXrXrXrXrXrXrXrXrXrXrXrXrXrXrX0X0X0X0X0X0X0X0X0X0X0X0X0X0X0X0X0X0X0X0X0X0X0X0X0X0X8X8X8X8X8X8X7X7X8X7X7X7X7X7X7X7X7X7X7X7X7X3X7X7X7X7X4X4X4X4X4X4X4X4X4X2X2X2X2X2X2X2X2X;X;X;X;X;X2X2X;X;X;X;X;X;X;X;X;X;X;X;X;X;X;X;X;X;X;X;X;X;X;X;X;X;X;X;X;X;X;X;X;X;X;X;X;X;X;X;X;X;X;X;X;X;X;X;X;X;X;X;X;X;X;X;X;X;X;X;X;X;X",
"LXLXLXLXLXGXGXGXGXGXGXGXGXGXGXGXGXGXGXGXGXGXGXGXSXSXSXSXSXSXSXSXSXSXSXSXSXSXSXAXAXAXAXNXNXNXNXNXNXNXNXNXNXNXNXNXMXMXMXMXMXMXMXMXMXMXMXMXMXMXMXMXMXMXMXyXyXyXyXyXyXyXyXyXyXyXyXyXyXyXyXyXyXyXuXuXuXuXuXrXrXrXrXrXrXrXrXrXrXrXrXrXrXrXrXrXrXrXrX0X0X0X0X0X0X0X0X0X0X0X0X0X0X0X0X0X0X0X0X0X0X0X0X0X8X8X8X8X8X8X8X8X8X7X7X7X7X7X7X7X7X7X7X7X7X7X7X7X7X7X7X4X4X3X2X4X4X4X4X4X2X2X2X2X2X2X2X2X;X;X;X;X2X2X2X2X;X;X;X;X;X;X;X;X;X;X;X;X;X;X;X;X;X;X;X;X;X;X;X;X;X;X;X;X;X;X;X;X;X;X;X;X;X;X;X;X;X;X;X;X;X;X;X;X;X;X;X;X;X;X;X;X;X;X;X;X",
"LXLXLXLXLXLXGXGXGXGXGXGXGXGXGXGXGXGXGXGXGXGXGXGXDXDXSXHXDXSXSXSXSXSXSXSXSXSXSXAXSXAXAXAXNXNXNXNXNXNXNXNXNXNXNXNXNXNXNXMXMXNXMXMXMXMXMXMXMXMXMXMXMXMXMXMXMXMXyXyXyXyXyXyXyXyXyXyXyXyXyXyXyXyXyXyXuXuXuXuXuXrXrXrXrXrXrXrXrXrXrXrXrXrXrXrXrXrXrXrXrX0X0X0XrXrX0X0X0X0X0X0X0X0X0X0X0X0X0X0X0X0X0X0X0X0X8X8X8X8X8X8X8X8X7X7X8X7X7X8X7X7X7X7X7X7X7X7X7X7X7X7X7X7X4X2X2X2X2X4X4X2X4X2X2X2X2X2X2X2X2X2X2X2X2X2X2X2X2X2X;X;X;X;X2X;X;X;X;X;X2X;X;X;X;X;X;X;X;X;X;X;X;X;X;X;X;X;X;X;X;X;X;X;X;X;X;X;X;X;X;X;X;X;X;X;X;X;X;X;X;X;X;X;X;X;X",
"LXLXLXLXLXLXGXGXGXGXGXGXGXGXGXGXGXGXGXGXGXGXGXGXGXGXHXHXHXHXDXSXSXSXSXSXSXSXSXSXSXSXSXAXAXAXAXAXNXAXNXNXNXNXNXNXNXNXNXNXNXMXMXMXMXMXMXMXMXMXMXMXMXMXMXMXMXMXMXMXMXyXyXyXyXyXyXyXyXyXyXyXyXyXyXyXyXuXuXuXuXuXuXrXrXuXrXrXrXrXrXrXrXrXrXrXrXrXrXrXrXrXrXrXrXrXrX0X0X0X0X0X0X0X0X0X0X0X0X0X0X0X0X0X0X0X0X8XqXqX8X8X8X8X8X8X8X8X8X8X7X7X7X7X7X7X7X7X7X7X7X7X7X7X7X7X7X7X7X7X3X2X4X4X4X4X4X2X4X2X2X2X4X2X4X2X2X2X2X2X2X;X;X;X2X2X;X;X;X;X;X;X;X;X;X;X2X;X;X;X;X;X;X;X;X;X;X;X;X;X;X;X;X;X;X;X;X;X;X;X;X;X;X;X;X;X;X;X;X;X;X;X;X;X;X;X",
"LXLXLXLXLXLXLXLXGXGXGXGXGXGXGXGXGXGXGXGXGXGXGXGXGXHXHXHXHXHXHXHXSXSXSXSXSXSXSXSXSXSXSXSXAXAXAXAXAXAXNXAXNXNXNXNXNXNXNXNXNXNXNXNXNXMXMXMXMXMXMXMXMXMXMXMXMXMXMXMXMXMXyXyXyXyXyXyXyXyXyXyXyXyXyXyXyXyXyXyXyXuXuXuXuXrXrXrXrXrXrXrXrXrXrXrXrXrXrXrXrXrXwXwXrXrXrXwXwX0X0X0X0X0X0X0X0X0X0X0X0X0X0X0X0X0X0X0X0X0X0X0X8X8X8X8X8X8X8X8X8X8X7X7X7X7X7X7X7X7X7X7X7X7X7X7X7X7X7X7X3X7X3X3X2X2X3X4X4X4X4X4X4X4X4X4X4X4X4X4X4X2X2X2X2X2X2X2X2X2X2X2X2X2X2X2X2X2X2X;X2X;X2X2X;X;X;X2X2X;X;X;X;X;X;X;X;X;X;X;X;X;X;X;X;X;X;X;X;X;X;X;X;X;X;X;X",
"LXLXLXLXLXLXLXLXLXLXGXGXLXGXGXGXGXGXGXGXGXGXGXGXGXHXHXHXGXHXHXHXHXSXSXSXSXSXSXSXSXSXSXSXSXAXSXSXSXSXVXAXNXNXNXNXNXNXNXNXNXNXNXNXNXNXNXNXMXMXMXMXMXMXMXMXMXMXMXMXMXMXMXMXnXyXyXyXyXyXyXyXyXyXyXyXyXyXyXyXyXyXyXuXuXuXuXrXrXrXrXrXrXrXrXrXrXrXrXrXrXrXrXrXrXrXrXwXwXrX0X0X0X0X0X0X0X0X0X0X0X0X0X0X0X0X0X0X0X0X0X0X0X0X0X0X0X8X8X0X8X8X7X7X7X7X8X8X7X7X7X7X7X7X7X7X7X7X7X7X7X7X3X3X7X7X4X7X3X3X3X4X2X4X4X4X4X4X4X4X4X4X4X2X4X2X4X4X2X2X2X2X2X2X2X2X4X2X2X2X2X2X2X2X2X2X2X2X2X2X2X2X;X;X;X;X;X;X;X2X;X;X2X;X;X;X;X;X2X;X2X;X2X;X2X;X",
"LXLXLXLXLXLXLXLXLXLXLXLXLXLXGXGXGXGXGXGXGXGXGXGXGXGXGXGXDXDXDXDXHXDXHXSXSXSXSXSXSXSXSXSXSXSXSXSXSXVXSXAXNXNXNXNXNXNXNXNXNXNXNXNXNXNXNXNXNXMXMXMXNXMXMXMXMXMXMXMXMXMXMXMXnXnXnXnXnXMXyXyXyXyXyXyXyXyXyXyXtXyXyXyXyXuXyXuXuXuXrXrXrXrXrXrXrXrXrXrXrXrXrXrXrXrXrXrXrXrXrXrXwXwX0X0XwXwXwX0X0X0X0X0X0X0X0X0X0X0X0X0X0X0X0X0X0X0X0X0X0X0X0X0X8X8X8X8X8X7X7X7X7X7X7X7X7X7X7X7X7X7X3X7X7X7X7X3X3X3X3X3X7X7X3X3X3X4X3X4X4X4X4X4X4X4X4X4X2X2X2X2X2X2X2X2X2X4X2X4X2X4X4X4X4X2X4X4X4X4X2X2X2X2X2X2X2X2X2X2X2X2X2X2X2X2X2X2X2X2X2X2X2X2X2X2X",
"LXLXLXLXLXLXLXLXLXLXLXLXLXLXGXGXGXGXGXGXGXGXGXGXGXGXGXGXDXDXDXDXHXHXHXSXSXSXSXSXSXSXSXSXSXSXSXSXVXVXVXSXVXNXNXNXNXNXNXNXNXNXNXNXNXNXNXNXNXNXMXMXNXNXMXMXMXMXMXMXMXMXMXMXMXnXnXnXnXnXMXMXyXyXyXyXyXyXyXyXyXtXtXyXyXyXyXyXuXuXuXuXrXrXrXrXrXrXrXrXrXrXrXrXrXrXrXwXrXrXrXrXwXwXwXwXwXwXwXwX0X0X0X0X0X0X0X0X0X0X0X0X0X0X0X0X0X0X0X0X0X0X0X0X0X8X8X8X8X8X7X7X7X7X7X7X8X7X8X7X8X7X3X3X7X7X7X7X3X3X3X3X7X7X3X3X3X3X3X3X3X4X4X4X4X4X4X4X4X4X4X4X2X4X2X4X2X4X2X4X2X4X2X2X2X2X2X4X2X4X2X2X2X2X2X2X2X2X2X2X2X2X2X2X2X2X2X2X2X2X2X2X2X2X2X2X",
"PXPXLXLXLXLXLXLXLXLXLXLXLXGXGXGXGXLXGXGXGXGXGXGXGXGXGXGXDXDXDXDXHXHXDXDXSXSXSXSXSXSXSXSXSXSXSXSXSXSXSXSXSXSXVXSXSXNXNXNXNXNXNXNXNXNXNXNXNXNXNXNXNXNXMXMXMXMXMXMXMXMXMXMXMXMXMXMXMXnXMXnXbXyXbXyXyXyXyXyXyXyXtXtXtXyXtXtXtXtXtXuXuXuXuXuXuXrXrXrXrXrXrXrXrXrXrXrXrXrXrXrXwXwXwXrXwXwXwXwXwX0X0X0XwXwX0XwX0X0X0X0X0X0X0X0X0X0X0X0X0X0X0X0X0X8X8X8X0X0X8X8X8X7X8X8X8X8X8X8X8X8X8X8X8X7X8X7X3X3X3X3X7X7X3X7X7X7X7X7X3X3X3X3X4X4X4X4X3X3X4X3X3X3X3X3X2X2X3X2X3X2X2X2X3X3X3X4X4X4X4X4X2X2X2X2X2X2X2X2X4X4X4X4X4X4X4X2X2X2X2X2X2X2X2X2X",
"PXPXLXLXLXLXLXLXLXLXLXLXLXLXGXGXGXLXGXGXGXGXGXGXGXGXGXGXDXDXDXDXGXHXHXDXSXSXSXSXSXSXSXSXSXSXSXSXSXSXSXSXSXVXVXVXVXNXNXNXNXNXNXNXNXNXNXNXNXNXNXNXNXNXMXMXMXMXMXMXMXMXMXMXMXMXMXMXnXMXMXMXnXnXbXbXyXyXyXyXyXyXtXyXtXtXtXyXtXtXtXtXtXuXtXuXuXrXrXrXrXrXrXrXrXrXrXrXrXrXrXrXwXwXwXwXwXwXwXwXwXwXwX0XwXwXwXwX0X0X0X0X0X0X9X9X0X0X0X0X0X0X0X0X8X8X8X8X8X8X8X8X8X8X8X8X8X8X8X8X8X8X8X8X8X8X8X8X5X3X3X3X3X3X3X3X7X3X7X7X3X3X3X3X7X4X7X7X3X3X3X3X3X3X3X3X3X3X3X3X3X3X3X3X3X3X3X3X4X4X4X4X2X2X2X2X2X2X2X2X4X4X4X4X4X4X2X2X2X2X2X2X2X2X2X2X",
"LXLXPXPXLXLXLXLXLXLXLXLXLXLXLXLXLXLXKXKXKXGXGXGXDXDXDXDXGXDXDXDXDXDXDXDXDXSXSXSXSXSXSXSXSXSXSXSXSXSXSXSXSXSXVXVXSXVXNXNXSXSXSXNXNXNXNXNXNXNXNXNXNXNXNXMXNXNXNXMXMXMXMXMXMXMXMXMXMXMXMXMXMXnXMXnXnXnXbXbXyXyXyXyXyXtXyXtXtXtXtXtXtXuXtXuXtXuXuXtXrXrXrXrXrXrXrXrXrXrXrXrXrXeXeXeXwXwXwXwXwXwXwXwXwXwXwXwX0X0XwX0X9X9X9X9X9X9X9X0X0X0X0X0X9X8X8X9X8X8X8X8X8X8X8X8X8X8X8X8X8X8X8X8X5X5X8X8X5X5X5X5X5X5X5X5X5X5X5X3X3X3X3X3X3X3X3X3X3X3X3X3X3X3X3X3X3X3X3X3X3X3X3X3X3X3X3X3X3X3X3X4X2X2X2X2X2X2X2X2X2X2X4X4X4X4X4X4X2X2X2X2X2X2X2X2X",
"LXLXLXPXLXLXLXLXLXLXLXLXLXLXLXLXLXLXKXKXKXKXGXGXDXDXGXDXGXGXDXGXGXDXDXDXSXSXSXSXDXSXSXSXSXSXSXSXSXSXSXSXSXSXSXVXVXVXVXVXVXVXVXNXAXAXNXNXNXNXNXNXNXNXNXNXNXNXNXNXMXMXMXMXMXMXMXMXMXMXMXMXMXMXMXMXnXnXnXbXyXyXyXyXyXyXyXyXtXyXtXtXtXtXtXtXtXrXuXuXrXrXrXrXtXrXrXrXrXrXrXeXrXrXeXeXwXwXwXwXwXwXwXwXwXwXwXwXwXwXwXwXwX0X9X9X0X9X9X9X9X0X0X0X8X8X8X8X0X8X8X8X8X8X8X8X8X8X8X8X8X8X8X8X8X8X8X8X5X5X5X5X5X5X5X5X5X5X5X5X3X3X3X3X3X3X3X3X3X3X3X3X3X3X3X3X3X3X3X3X3X3X3X3X3X3X3X3X3X3X3X3X3X3X3X3X3X3X2X2X2X2X4X4X4X4X4X4X2X2X2X2X2X2X2X2X",
"PXPXPXPXLXLXLXLXLXLXLXLXLXLXLXLXLXLXKXKXKXKXGXGXGXGXGXGXGXDXDXDXDXDXDXDXDXDXDXDXDXDXDXSXSXSXSXSXSXSXSXSXSXSXVXVXVXSXVXVXVXVXVXVXSXVXVXNXNXNXNXNXNXNXNXNXNXNXNXNXNXMXMXMXMXMXMXMXMXMXMXMXnXnXnXMXMXnXnXnXnXbXbXbXbXbXyXyXyXyXyXyXtXtXtXtXtXtXtXtXtXtXuXrXtXtXtXtXrXrXrXrXeXeXeXeXeXrXwXwXwXwXwXwXwXwXwXwXwXwXwXwXwXwX9X9X9X9X9X9X9X0X0X9X0X0X0X9X9X9X9X9X8X8X8X8X9X9X9X8X8X8X8X8X5X8X8X8X5X5X5X5X5X8X5X8X5X5X5X5X5X3X3X3X3X3X3X3X3X5X7X5X3X3X3X3X3X3X3X5X3X5X5X3X3X3X3X3X3X3X3X3X3X3X3X3X3X3X3X2X3X3X3X3X3X3X3X3X3X3X3X3X3X3X3X3X",
"PXPXPXPXLXLXLXLXLXLXLXLXLXLXLXLXLXLXLXKXKXKXGXGXGXGXGXGXGXGXDXDXDXDXDXDXDXDXDXDXDXDXDXDXSXSXSXSXSXSXSXSXSXSXVXVXSXVXVXVXVXVXVXVXVXVXVXVXVXVXNXNXNXNXNXNXNXNXNXNXNXNXMXMXNXMXMXMXMXMXMXMXMXMXnXMXMXnXnXnXnXnXnXbXbXbXbXbXyXyXyXyXyXtXtXtXtXtXtXtXtXuXuXuXtXtXtXtXrXrXrXrXrXeXrXrXrXrXwXwXwXwXwXwXwXwXwXwXwXwXwXwXwXwX9X9X9X9X9X9X9X9X9X9X0X0X9X9X0X9X0X0X8X8X8X8X9X9X9X8X8X8X8X8X8X8X8X8X5X5X5X5X5X5X5X5X5X5X5X5X5X5X5X5X5X5X5X8X3X5X7X5X3X3X3X3X5X3X3X5X5X5X5X5X3X3X3X3X3X3X3X3X3X3X3X3X3X3X3X3X3X3X3X3X3X3X3X3X3X3X3X3X3X3X3X3X",
"PXPXPXPXLXLXLXLXLXLXLXLXLXLXLXLXLXKXKXKXKXKXKXGXGXGXGXGXGXDXGXDXDXDXDXDXDXDXDXDXDXDXDXDXSXSXSXSXSXSXSXSXSXSXSXSXSXVXVXSXSXSXSXSXSXSXSXSXVXVXVXVXSXVXNXNXNXNXNXNXNXNXNXNXNXNXMXMXMXMXMXnXMXMXMXnXMXnXnXnXnXnXbXbXbXbXbXbXbXbXbXyXyXyXyXyXtXtXtXtXtXtXtXtXtXtXtXtXrXrXrXrXrXrXrXrXrXrXrXrXeXeXeXeXwXwXwXwXwXwXwXwXwXwXwXwXwX9X9XwX9X9X9X9X9X9X9X9X9X0X9X9X0X0X0X0X9X9X9X9X9X8X8X8X8X8X8X8X8X5X8X8X5X5X5X5X5X8X8X5X5X5X5X5X5X5X5X5X3X3X3X3X3X3X5X5X5X5X5X5X5X5X5X5X3X3X3X3X3X3X3X3X3X3X3X3X3X3X3X3X3X3X3X3X3X3X3X3X3X3X3X3X3X3X3X3X",
"PXPXPXPXPXLXLXLXLXLXLXLXLXLXLXLXLXKXKXKXKXKXKXDXDXGXGXDXDXDXDXDXDXDXDXDXDXDXDXDXDXDXSXSXSXSXSXSXSXSXSXSXSXSXSXSXSXSXVXSXDXDXDXDXDXDXDXDXSXSXSXSXSXSXVXNXNXNXNXNXNXNXNXNXNXmXNXMXMXMXMXnXMXnXnXnXnXnXMXnXnXnXbXbXnXbXbXbXbXbXbXyXyXyXyXyXyXtXtXtXtXtXtXtXtXtXtXtXtXrXtXtXtXrXeXrXrXrXrXrXeXeXeXeXwXwXwXwXwXwXwXwXwXwXwXwXwX9X9X9X9XwXwX9XwX9X9X9X9X9X9X9X9X0X0X0X9X9X9X9X9X8X8X8X8X8X8X8X8X8X8X8X8X8X5X5X5X5X5X5X5X5X5X5X5X5X5X5X5X5X7X7X5X5X5X5X5X5X5X5X5X5X5X5X3X3X3X3X3X3X3X3X3X3X3X3X3X3X3X3X3X3X3X3X3X3X3X3X3X3X3X3X3X3X3X3X",
"PXPXPXPXPXPXPXPXPXLXPXLXLXLXLXLXLXLXLXLXLXLXLXLXDXDXDXDXDXDXDXDXDXDXDXDXDXDXDXDXDXDXDXDXDXSXDXDXSXSXSXSXSXSXSXSXSXSXSXSXSXSXSXSXSXSXVXVXVXVXVXVXVXVXVXVXVXVXVXVXNXmXNXNXmXmXNXmXmXmXmXMXMXMXMXMXnXnXnXnXnXnXbXbXnXnXbXbXbXbXbXbXbXbXbXtXtXtXtXyXtXtXyXtXtXtXtXtXtXtXtXtXtXtXeXeXeXeXeXeXeXeXeXeXeXrXwXwXwXwXwXwXwXwXwXwXwXwXwXwXwXwXwXwXwXwXwX9X9X9X9X9X9X9X9X9X9X9X9X9X9X9X9X9X8X8X8X8X8X5X8X8X8X8X8X8X5X5X5X5X6X5X6X6X5X5X6X5X5X3X5X5X5X5X5X5X%X%X6X8X8X5X5X3X5X5X5X5X5X3X3X3X3X3X3X3X3X3X3X3X3X3X3X3X3X3X3X3X3X3X3X3X3X3X3X3X",
"PXPXPXPXPXPXPXPXPXPXPXPXPXPXPXLXLXLXLXLXLXLXKXKXDXDXDXDXGXDXDXDXDXDXDXDXDXDXDXDXDXDXDXDXDXSXDXDXSXDXDXSXSXSXSXSXSXSXSXSXSXSXSXSXSXSXVXVXVXVXVXVXVXVXVXVXNXNXVXNXNXNXNXNXNXNXNXNXmXmXmXmXMXMXnXMXMXnXnXnXnXnXnXbXnXnXnXbXbXbXbXbXbXbXbXtXtXtXtXtXtXtXyXyXtXtXtXtXtXtXtXtXtXtXeXeXeXrXeXeXeXeXeXeXrXrXrXwXwXwXwXwXwXwXwXwXwXwXwXwXwXwXwXwXwXwXwXwXwXwX9X9X9X9XwXwX9X9X9X9X9X9X9X9X9X9X8X8X8X5X8X8X8X8X8X5X5X5X6X6X5X6X9XwXwXwXwX0X5X3X5X5X5X5X5X%XwXwXwXwX0X8X5X3X5X5X5X5X5X5X3X3X3X3X3X3X3X3X3X3X3X3X3X3X3X3X3X3X3X3X3X3X3X3X3X3X",
"PXPXPXPXPXPXPXPXPXPXPXPXPXPXPXLXLXLXLXLXLXLXLXLXDXDXDXDXKXDXDXDXDXDXDXDXDXDXDXDXDXDXDXDXDXDXSXSXDXSXDXSXDXSXVXVXVXVXSXSXSXSXSXVXSXSXVXVXVXVXVXVXVXVXVXVXVXNXNXNXNXmXNXNXNXmXNXNXmXmXmXmXmXmXmXnXMXMXnXnXnXnXnXbXnXnXnXnXbXbXbXbXbXbXbXbXtXtXtXyXtXtXtXtXtXtXtXtXtXtXtXtXtXtXtXtXtXtXrXrXrXrXeXrXrXrXeXeXwXwXwXwXwXwXwXwXwXwXwXwXwXwXwXwXwXwXwXwXwXwXwX9X9XwX9XwX9X9X9X9X9X9X9X9X9X9X9X8X8X8X8X8X8X8X8X5X5X6X6X6X6X9XwXyXrXwXwX0X5X8X5X5X5X5X%X%XrXwXwXwX0X8X5X5X5X5X5X5X5X3X3X3X3X3X3X3X3X3X3X3X3X3X3X3X3X3X3X3X3X3X3X3X3X3X3X3X",
"PXPXPXPXPXPXPXPXPXPXPXPXLXLXLXLXLXLXLXLXLXLXLXLXDXDXDXDXKXKXKXKXDXDXDXDXDXDXDXDXDXDXDXDXDXDXSXSXSXDXDXDXDXSXSXVXVXSXSXSXSXSXSXVXSXSXVXVXVXVXVXVXVXVXVXVXVXVXNXNXmXmXmXNXmXmXmXmXmXmXmXmXmXmXmXmXmXMXMXnXMXnXnXnXnXnXnXnXbXbXbXbXbXbXbXbXbXbXbXbXbXbXtXtXtXtXtXtXtXtXtXtXtXtXtXtXtXtXtXtXrXrXrXeXrXrXeXeXeXwXeXwXwXwXwXwXwXwXwXwXwXwXwXwXwXwXwXwXwXwXwXwX9X9XwXwX9X9X9X9X9X9X9X9X9X9X9X9X8X8X8X9X8X8X8X8X9X6X6X6XwXwXrXrXwXwX6X5X5X8X5X5X5X5X%X%XwXwX9X9X5X%X5X5X5X5X5X5X5X5X5X3X3X3X3X3X3X3X3X3X3X3X3X3X3X3X3X3X3X3X3X3X3X3X3X3X",
"PXPXPXPXPXPXPXPXPXPXLXLXLXLXLXLXLXLXKXKXKXKXKXKXLXKXKXKXKXKXGXGXDXDXDXDXDXDXDXDXDXDXDXDXDXDXDXDXDXDXDXDXDXSXSXSXSXSXSXSXSXSXSXSXSXSXVXVXVXVXVXVXVXVXVXVXVXVXVXVXVXVXVXVXVXmXNXNXNXNXmXmXmXmXmXmXmXnXnXnXmXnXnXnXnXnXBXbXBXbXbXbXbXbXBXbXbXbXbXbXbXtXbXtXtXtXtXtXtXtXtXtXtXtXtXtXtXtXtXtXtXeXeXrXeXrXeXeXeXeXwXeXeXwXwXwXwXwXwXwXwXwXwXwXwXwXwXwXwXwXwXwXwXwXwXwX9X9X9X9X9X9X9X9X9X9X9X9X9X6X6X9X8X8X8X9X9X9X6X9XwXwXwXwX6X6X6X%X5X5X5X5X5X5X%X%X%X%X%X%X%X%X5X5X5X5X5X5X5X5X5X5X3X3X3X3X3X3X3X3X5X5X5X5X3X5X5X5X3X3X3X3X3X3X3X3X",
"PXPXPXPXPXPXPXPXPXPXPXPXPXLXLXLXLXLXLXKXKXKXKXKXKXKXKXKXKXKXDXGXDXDXDXDXDXDXDXDXDXDXDXDXDXDXDXDXDXDXDXDXDXDXSXSXSXSXSXSXSXSXSXSXSXSXVXVXVXVXVXVXVXVXVXVXVXVXVXVXVXVXVXVXVXVXVXVXNXNXmXmXmXmXmXmXmXmXnXnXmXmXnXnXnXnXBXBXBXBXBXBXBXBXBXBXbXbXbXbXbXbXbXbXtXtXtXtXbXbXtXtXbXtXtXtXtXtXtXtXtXeXeXeXrXrXeXeXeXeXeXeXeXeXeXwXwXwXwXwXwXwXwXwXwXwXwXwXwXwXwXwXwXwXwXwXwX9X9X9X9X9X9X9X9X9X9X9X9X9X6X9X8X8X9X9X6X6X6X9X6X6X6X6X%X%X6X6X5X5X5X5X5X5X5X%X6X%X5X%X5X5X5X5X5X5X5X5X5X5X5X5X5X3X5X5X3X3X3X3X5X5X5X5X3X3X5X5X3X3X3X3X3X3X3X3X",
"PXPXPXPXPXPXPXPXPXPXPXPXLXLXLXLXLXLXLXKXKXKXKXKXKXKXKXKXDXKXKXKXKXKXKXKXDXDXDXDXDXDXDXDXDXDXDXDXDXDXDXDXDXDXDXDXSXDXSXDXSXSXVXVXSXSXVXVXVXVXVXVXVXVXVXVXVXVXVXVXVXVXVXVXVXVXVXVXmXmXmXmXmXmXmXmXmXmXmXmXmXmXnXnXnXnXBXBXBXBXBXBXBXBXBXBXBXbXbXbXbXbXbXbXbXbXbXbXbXbXbXbXbXtXtXtXtXtXtXtXeXeXeXeXrXrXeXeXeXeXeXeXeXeXeXwXwXwXwXwXwXwXwXwXwXwXwXwXwXwXwXwXwXwXwXwXwXwX9XwX9X9X9X9X9X9X9X9X6X6X9X9X9X8X9X9X6X6X6X6X5X%X6X6X%X%X9X9X5X5X5X5X5X5X5X5X6X6X5X5X5X5X5X5X5X5X5X5X5X5X5X5X5X5X5X5X3X3X3X3X5X5X5X3X3X3X3X3X3X3X3X3X3X3X3X3X",
"PXPXPXPXPXPXPXPXLXPXPXLXLXLXLXLXLXLXLXLXLXKXKXKXKXKXKXKXKXKXDXDXKXKXKXKXKXDXDXDXDXDXDXDXDXDXDXDXDXDXDXDXDXDXDXDXSXSXSXSXSXSXVXVXSXSXVXVXVXVXVXVXVXVXVXVXVXVXmXmXVXmXmXmXmXmXmXmXmXmXmXmXmXmXmXmXmXmXmXmXmXmXnXBXnXnXnXBXBXBXBXBXBXBXBXBXBXbXbXbXbXbXbXbXbXbXbXbXbXbXbXbXtXtXtXtXtXtXtXtXeXeXeXeXtXeXeXeXeXeXeXeXeXeXeXeXwXwXwXwXwXwXwXwXwXwXwXwXwXwXwXwXwXwXwXwXwXwXwXwX9X9X9X9X9X9X9X9X6X6X9X9X9X8X5X5X6X6X6X5X6X6X9X9X5X%X%X%X5X5X5X5X5X5X5X5X5X5X%X5X%X%X3X3X5X5X5X5X5X5X5X5X5X5X5X5X3X3X3X3X5X5X3X3X3X3X3X3X3X3X3X3X3X3X3X3X",
"PXPXPXPXPXPXPXPXPXPXPXLXLXLXLXLXLXLXLXLXKXKXKXKXLXLXKXKXDXDXDXDXKXKXKXDXDXDXDXDXDXDXDXDXDXDXDXDXDXDXDXDXDXSXSXSXSXSXSXSXSXSXVXVXSXSXSXSXSXVXVXVXVXVXVXVXVXVXVXVXVXVXmXmXmXmXmXmXmXmXmXmXmXmXmXmXmXmXnXmXmXmXmXnXnXmXBXBXBXBXBXBXBXBXBXBXBXbXbXbXbXbXbXbXbXbXbXbXbXbXtXtXtXtXtXtXtXtXtXtXtXtXtXtXtXtXeXeXeXeXeXeXeXeXeXeXeXeXwXwXwXwXwXwXwXwXwXwXwXwXwXwXwXwXwXwXwXwXwXwXwX9X9X9X9X9X9X9X9X9X9X9X9X9X5X5X6X6X6X6X6X6X6X9X5X8X8X8X5X5X5X5X5X5X5X5X5X5X5X5X5X5X5X5X5X5X5X5X5X5X5X5X5X5X5X5X5X5X5X3X3X3X3X3X5X5X5X5X3X3X3X3X3X3X3X3X",
"PXPXPXPXPXPXPXPXPXPXPXPXLXLXLXLXLXLXLXLXLXKXKXKXLXLXKXKXDXDXDXDXKXDXKXKXDXDXDXDXDXDXDXDXDXDXDXDXDXSXDXDXDXDXSXSXSXSXSXSXSXSXVXSXSXSXSXSXVXVXVXVXVXVXVXVXVXVXVXVXVXVXVXNXVXNXmXmXmXmXmXmXmXmXmXmXmXmXmXnXmXmXmXmXmXnXBXBXBXBXBXBXBXBXBXBXBXbXbXbXbXbXbXbXbXbXbXbXbXbXbXbXtXtXtXtXtXtXtXtXtXtXtXtXtXtXtXeXeXeXeXeXeXeXeXeXeXeXwXwXwXwXwXwXwXwXwXwXwXwXwXwXwXwXwXwXwXwXwXwXwXwX9XwX9X9X9X9X9X9X9X9X9X9X9X6X6X6X6X6X9X9X6X6X5X8X8X8X5X5X5X5X5X5X5X5X5X5X5X5X5X5X5X5X5X5X5X5X5X5X5X5X5X5X5X5X5X3X5X3X3X3X3X3X5X5X5X3X3X3X3X3X3X3X3X3X",
"PXPXPXPXPXPXPXPXPXPXPXPXPXPXLXLXLXLXLXLXLXKXLXKXLXLXKXKXLXDXDXDXDXDXDXDXDXDXDXDXDXDXDXDXDXDXDXDXSXDXDXDXDXSXSXSXSXSXSXSXSXSXSXSXSXSXSXVXSXSXSXVXVXVXVXVXVXVXVXVXVXNXVXNXNXNXNXNXNXNXmXmXmXmXmXmXmXmXnXmXmXmXnXmXnXnXnXnXBXBXBXBXBXBXBXBXbXbXbXbXbXbXbXbXbXbXbXbXbXbXbXtXtXtXtXtXtXtXtXtXtXtXtXtXtXtXtXtXtXeXeXeXeXeXeXeXeXeXwXwXwXwXwXwXwXwXwXwXwXwXwXwXwXwXwXwXwXwXwXwXwXwXwXwX9X9X9X9X9X9X9X9X9X9X9X9X9X9X9X9X9X9X8X8X5X8X8X8X5X5X5X5X5X5X5X5X5X5X5X5X5X5X5X5X5X5X5X5X5X5X5X5X5X5X5X5X5X3X3X3X3X3X3X3X3X3X3X3X3X3X3X3X3X3X3X3X",
"PXPXPXPXPXPXPXPXPXPXPXPXPXPXLXLXLXLXLXLXLXKXKXLXLXKXKXKXKXDXDXDXKXKXDXDXDXDXDXDXDXDXDXDXDXDXDXDXDXSXDXDXDXSXSXSXSXSXSXSXSXSXSXSXSXSXSXSXSXSXSXSXVXVXVXVXVXVXVXNXNXNXNXNXNXNXNXNXNXNXmXmXmXmXmXmXmXmXnXmXnXmXmXmXmXmXmXnXBXnXBXBXBXBXBXBXBXbXbXbXbXbXbXbXbXbXbXtXbXbXbXtXtXtXtXtXtXtXtXtXtXtXtXtXtXtXtXeXtXeXeXeXeXtXeXeXeXeXeXwXwXwXwXwXwXwXwXwXwXwXwXwXwXwXwXwXwXwX9XwXwXwXwX9XwXwXwX9X9X9X9X9X9X9X9X9X9X9X9X9X9X9X8X8X8X5X8X8X5X5X5X5X5X5X5X5X5X5X5X5X5X5X5X5X5X5X5X5X5X5X5X5X5X3X5X5X5X5X3X3X3X3X3X3X3X3X3X3X3X3X3X3X3X3X3X3X",
"PXPXPXPXPXPXPXPXPXPXPXPXPXLXLXLXLXLXLXLXLXLXKXLXLXLXLXLXKXKXKXDXKXKXDXDXDXDXDXDXDXDXDXDXDXDXDXDXSXSXSXSXDXDXDXDXDXDXDXSXSXSXSXSXSXSXSXSXSXSXSXSXSXSXVXVXVXVXVXVXNXNXNXNXNXNXNXNXNXNXNXNXNXmXmXmXmXmXmXmXnXnXnXnXmXmXMXMXMXnXnXnXBXBXBXbXbXbXbXbXbXbXbXbXbXbXbXbXbXtXtXtXtXtXtXtXtXtXtXtXtXtXtXtXeXtXtXeXeXeXeXeXrXeXeXeXeXeXwXwXwXwXwXwXwXwXwXwXwXwXwXwXwXwXwXwXwXwXwXwXwXwX9X9XwX9X9X9X9X9X9X9X9X0X0X0X0X0X9X9X9X9X9X9X9X9X9X9X9X9X8X8X8X5X5X5X5X8X7X8X7X7X7X7X8X8X5X8X5X8X8X8X8X3X5X3X3X3X3X3X3X3X3X3X3X3X3X3X3X3X7X3X3X3X3X3X",
"PXPXPXPXPXPXPXPXPXPXPXPXPXPXLXLXLXLXLXLXLXLXLXLXLXLXLXLXLXKXKXKXKXKXGXDXDXDXDXDXDXDXDXDXDXDXDXDXDXDXDXDXDXDXDXDXDXDXDXSXSXSXSXSXSXSXSXSXSXSXSXSXSXSXSXSXVXVXVXNXVXNXNXNXNXNXNXNXNXNXNXNXNXNXNXmXmXmXmXmXnXnXnXMXnXmXnXMXMXMXnXnXnXnXnXBXbXbXbXbXbXbXbXbXbXbXbXyXtXtXtXtXtXtXtXtXtXtXtXtXtXtXtXtXtXtXtXtXrXrXeXrXrXrXeXeXeXeXeXeXeXeXwXwXwXwXwXwXwXwXwXwXwXwXwXwXwXwXwXwXwXwXwXwXwXwXwXwX9X9X9X9X9X9X0X0X0X0X9X9X9X9X0X0X9X9X9X9X9X9X8X8X8X8X5X5X8X7X7X8X7X7X7X7X8X8X8X8X8X8X8X7X7X7X7X7X8X3X3X3X3X5X7X7X3X3X3X3X3X3X7X7X4X4X4X3X",
"PXPXPXPXPXPXPXPXPXPXPXPXPXPXLXLXLXLXLXLXLXLXKXLXLXLXLXLXGXGXGXGXLXLXLXLXDXDXDXDXDXDXDXDXDXDXDXDXDXDXDXDXDXSXDXDXDXDXSXDXDXSXSXSXSXSXSXSXSXSXSXSXSXSXSXSXSXSXVXSXVXVXVXVXNXNXNXNXNXNXNXNXNXNXNXmXNXNXNXNXmXmXmXmXmXmXmXmXMXnXnXnXnXnXnXnXMXnXbXbXbXbXbXbXbXbXbXbXyXyXbXyXyXyXtXtXtXtXtXtXtXtXtXtXtXtXtXtXtXtXrXrXtXrXrXrXeXeXeXeXeXeXeXeXeXeXwXwXwXwXwXwXwXwXwXwXwXwXwXwXwXwXwXwXwXwX9X9X9X9X9X9X9X9X9X9X0X0X0X0X9X9X9X9X0X9X9X9X9X9X0X8X8X8X8X7X7X7X8X8X8X8X8X8X7X7X7X7X8X8X8X8X7X7X7X7X7X7X7X7X7X7X7X7X7X8X7X7X7X7X7X7X7X7X7X7X",
"PXPXPXPXPXPXLXLXPXPXPXLXLXLXLXLXLXLXLXLXGXGXGXGXHXHXHXHXHXHXGXGXGXGXGXHXGXGXHXHXGXHXHXHXGXGXGXGXHXHXGXHXHXGXHXHXHXHXSXSXSXSXSXSXSXSXSXSXSXSXSXSXSXSXSXAXAXAXAXAXAXAXAXAXAXAXAXAXNXNXNXNXNXNXNXNXZXMXNXNXNXMXMXMXMXMXMXMXMXMXMXMXMXMXMXMXMXMXMXMXMXyXyXyXyXyXyXyXyXyXyXyXyXyXyXyXyXyXyXyXyXyXyXyXyXuXyXuXuXuXuXrXrXrXrXrXrXrXrXrXrXrXwXwXrXrXrXrXwXwXwXwXwXwXwXwX0X0X0X0X0X0X0X0X0X0X0X0X0X0X0X0X0X0XqX0X0X0X0X0XqX0X0XqX0X0X0X0X0X0XqXqXqXqXqXqXqXqXqXqXqXqXqXqX7X7X7X7X7X7XqX7X7X7X7X7X7X7X7X7X7XqX7X7X7XqXqX7X7X7X7X4X4X4X4X4X",
"SXSXSXSXSXSXSXSXSXAXSXAXSXAXAXAXAXAXAXNXNXNXNXNXNXNXNXNXNXNXNXNXNXNXNXNXMXMXMXMXMXMXMXMXMXMXMXMXMXMXMXMXMXMXnXMXbXbXyXbXbXyXyXyXyXyXyXyXtXtXtXyXtXuXuXuXuXrXuXuXrXrXrXrXrXrXrXrXwXwXwXwXwXwXwXrXwXwXwXwXwXwX0X0X0X0X0X0X0X0X0X0X0X0X0X0X0X0X0X0X8X8X8X8X8X8X8X8X5X5X5X5X3X3X3X3X3X3X3X3X3X3X3X3X3X3X3X2X2X2X2X2X2X2X2X2X;X;X;X;X:X2X:X2X:X:X:X:X:X:X:X:X:X:X:X:XXXXXXXXXXXXXXXXX:X:X:X:X:X:X:X:X:X:X:X:X:X:X:X:X:X:X:X:X:X:X:X:X:X:X:X:X:X:XE.E.E.E.E.E.>X>X>X>XE.E.E.E.E.E.E.E.>X>X>XE.>X>XE.E.E.E.E.>X>X>XE.E.E.>X>X>XE.>XE.E.",
"MXMXMXMXnXbXbXbXyXyXyXyXyXyXyXyXtXtXtXtXtXtXtXtXtXtXtXtXtXrXrXrXrXrXeXeXwXeXwXwXrXeXeXwXwXwXwXwX9X9X9X9X9X9X%X%X9X9X9X9X8X9X8X8X9X8X8X8X8X8X%X8X8X8X8X3X5X5X%X%X%X%X3X2X%X%X%X%X%X%X%X%X%X%X%X%XXXXXXXXXXXXXXXXXXXXXXXXXI.I.I.XXI.I.I.I.I.I.I.I.I.I.I.I.I.I.I.I.I.I.I.I.I.I.I.P.I.I.P.P.I.I.P.P.P.P.P.P.P.P.P.P.P.P.P.P.P.P.P.P.P.P.P.P.P.P.P.P.P.P.P.P.P.P.P.P.F.F.F.F.F.F.F.F.F.F.F.F.F.F.F.G.F.F.F.G.G.G.Z.G.F.G.F.G.F.F.F.G.F.F.F.F.F.F.F.F.G.G.G.G.G.G.G.G.G.G.G.G.G.G.G.G.V.G.G.V.G.G.G.G.G.G.G.G.G.G.G.G.G.G.G.G.G.G.G.G.",
"rXrXrXrXrXeXeXrXwXwXwXwXwXwXwXwXwXwX=X=X%X%X%XwX9X9X%X%X%X%X%X%X%X%X%X%X%X%X%X%X%X%X%X%X%X%X%X%X%X%X%X%X%X%X%X%X%X%X%X%X%X%X%XXXXXXXXXXXXXXXXXXXXXXXXXXXXXXXXXXXI.I.I.I.I.I.I.I.I.I.I.I.I.I.I.K.I.I.I.I.I.I.I.I.I.I.I.P.P.P.P.P.P.P.P.P.P.P.P.P.P.P.P.P.P.P.L.L.L.L.L.L.J.S.S.S.S.S.J.S.S.S.S.S.F.S.F.S.S.S.S.S.G.G.G.Z.Z.Z.Z.Z.Z.Z.S.S.S.S.G.G.Z.Z.G.G.G.G.G.G.Z.Z.Z.G.G.G.G.G.Z.Z.G.G.G.G.G.G.G.G.G.G.Z.G.G.G.G.G.G.G.G.G.G.G.V.V.V.V.V.V.V.V.V.V.V.V.V.V.V.V.V.V.V.V.V.V.V.V.G.G.G.V.V.V.V.V.m.m.m.m.V.V.m.m.V.V.G.G.G.G.G.G.",
"wXwXwXwXwXwXwX9X9X9X9X9X9X9X9X9X9X8X8X%X%X%X%X8X8X8X%X%X%X%X%X%X%X7X%X%X%X%X2X%X%X%X%X%XXXXXXXXXXXXXXXXXXXXXXXXXXXXXXXXXXXXXXXXX.X.X.X.X.X.X.X.XI..X.X.XP.P.P.I.P.P.P.P.P.P.P.P.P.P.P.P.P.P.P.L.P.P.L.L.L.L.P.P.L.L.L.L.L.L.L.L.L.L.L.F.S.S.S.S.S.S.S.S.S.S.S.S.S.S.S.S.S.S.S.S.S.S.S.S.S.S.Z.Z.Z.Z.Z.Z.Z.Z.Z.Z.Z.Z.Z.Z.Z.Z.Z.Z.Z.V.Z.Z.Z.Z.V.V.Z.Z.G.G.G.G.G.G.G.G.V.V.V.V.V.V.V.V.V.V.V.V.V.V.V.V.V.V.V.V.V.V.V.V.V.V.V.V.V.V.V.V.V.V.V.V.V.V.V.V.V.V.V.V.V.V.V.V.V.V.V.V.V.V.G.F.G.V.V.V.m.V.m.m.m.m.V.V.m.m.V.V.V.V.m.m.m.m.",
"0X8X9X8X9X8X8X8X8X8X7X7X8X5X5X%X5X7X%X%X%X%X%X%X%X%X%X%XXXXXXXXXXXXXXXXXXXXXXXXXXXXXXXXX.X.X.X.X.X.X.X.X.X.X.XP.P..XP..XP.P.P..X.X.XP.P.P.P.P.P.P.P.P.P.P.P.F.P.P.P.P.P.P.F.F.F.F.F.F.F.F.S.F.F.S.S.S.S.F.S.S.S.S.S.S.S.S.Z.Z.Z.Z.Z.Z.Z.Z.Z.Z.Z.Z.Z.Z.Z.Z.Z.Z.Z.Z.Z.Z.Z.Z.Z.Z.Z.Z.Z.G.G.G.Z.G.Z.B.B.B.B.B.B.B.B.V.V.V.V.V.V.B.B.V.V.V.V.V.V.V.V.V.V.V.V.V.V.V.V.V.V.V.V.V.V.V.V.V.n.n.V.V.V.V.V.n.n.V.V.n.n.m.m.m.m.m.m.m.m.m.m.m.V.m.m.m.m.m.m.m.m.m.m.m.m.m.m.m.n.m.m.m.m.m.m.m.V.m.m.m.m.m.m.m.m.V.V.V.V.V.V.m.m.m.m.m.m.m.m.",
"7X7X7X7X7X%X2X2X2X2X2X2X%X%X%X%X;X2XXXXXXXXXXXXXXXXXXXXXXXXXXXXXXXXXXXXX.X.X.X.X.X.X.X.X.X.X.XP..X.X.X.X.X.X.XP.F.F.F.F.P.F.F.F.P.F.F.F.F.F.F.F.F.S.F.F.F.F.F.F.F.F.F.F.F.F.F.F.F.F.F.F.F.F.S.S.F.F.F.F.F.F.F.F.S.S.F.G.G.G.G.G.G.G.Z.G.G.Z.G.Z.G.G.Z.G.Z.G.Z.G.V.V.V.V.V.B.B.V.V.V.V.V.V.V.V.V.V.Z.V.V.V.V.V.V.V.V.V.V.V.V.V.V.V.V.V.V.V.V.V.V.n.n.n.n.V.V.B.B.V.V.V.V.V.V.V.V.V.V.V.V.V.V.V.V.V.V.V.V.V.V.V.V.V.V.V.V.m.V.m.V.m.m.m.m.m.m.m.m.V.V.V.V.V.V.V.V.V.V.V.V.V.V.V.V.m.m.m.m.m.m.m.G.m.m.m.m.m.m.m.m.m.m.m.m.m.m.m.m.",
"2X2X2X2X2X2X2X2X2X;X;X;X;X;XXXXX;X;X;X;XXXXX;X:X:X;X:XXX:XXXXXXX>X>X>X>X.X.X.X.X.X.X.X.X.XP.P..XP.P.P.P.P.P.F.F.P.F.F.P.F.P.F.F.F.F.F.F.F.F.F.F.F.F.F.F.F.F.F.F.F.F.F.F.F.F.F.F.F.F.G.G.G.G.G.G.G.Z.G.Z.G.G.G.G.G.Z.G.Z.G.V.G.G.G.V.V.V.V.V.V.V.V.B.V.V.V.B.V.V.G.V.G.V.V.V.V.V.V.V.V.V.V.V.V.V.V.V.V.V.V.V.V.V.V.V.V.V.V.B.V.V.B.B.B.B.B.B.B.B.V.V.V.V.V.V.V.V.n.m.m.m.m.n.n.n.m.m.m.m.m.m.m.m.n.n.n.m.m.m.m.n.m.m.m.m.m.m.m.m.V.V.V.V.m.m.m.m.m.m.m.m.m.m.m.m.m.m.m.m.m.m.m.m.m.m.m.m.m.m.m.m.m.m.m.m.m.m.m.m.m.m.m.m.m.m.m.m.",
"2X2X;X;X;XXX;X;XXXXX:X:X:XXXXXXX;X:X:X:X:XXXXX>XXXXXXX.X.X.X.X.X.X.X.X.X.X.X.X.X.X.X.X.X.XP.P.P.P.P.P.P.P.P.F.F.F.F.F.F.F.F.F.F.F.F.F.F.F.F.F.F.F.F.F.F.F.F.F.F.F.F.F.F.F.F.F.G.G.G.G.G.G.G.G.G.G.G.G.G.G.G.G.G.G.G.G.G.G.G.G.G.G.G.G.G.G.G.G.G.G.V.G.V.G.V.V.V.G.V.V.V.V.V.V.V.V.V.V.V.V.V.V.V.V.V.B.B.V.V.V.V.V.V.V.V.V.V.V.V.V.V.V.V.V.V.V.V.V.V.V.V.V.V.V.V.V.V.m.V.m.m.m.m.V.V.V.V.V.V.m.V.V.V.V.V.V.m.m.m.m.m.V.V.V.m.m.m.m.m.m.m.m.m.m.m.m.m.m.m.m.m.m.m.m.m.m.m.m.m.m.m.m.G.m.m.m.m.m.m.m.m.m.m.m.m.m.m.m.m.m.m.m.m.m.m.",
";X;X;X;X;X;X:X:XXXXX:X:X:XXX:X:X:XXXXXXXXXXX>XXX.X.X.X.X.X.X.X.X.X.X.XP..XP.P.P.P.P.P.P.P.P.P.P.P.P.P.P.P.P.F.F.F.F.F.F.F.F.F.F.F.F.F.F.S.S.S.F.F.F.F.F.Z.S.F.F.G.G.F.F.G.G.G.F.G.G.G.G.G.G.G.G.G.G.G.G.Z.Z.G.G.G.G.V.V.G.G.G.V.V.Z.V.Z.V.V.V.V.V.V.V.V.V.V.B.V.B.B.B.B.B.B.V.V.V.V.B.B.V.V.V.V.B.B.B.B.V.V.V.V.V.V.V.V.V.V.V.V.n.V.V.V.V.V.V.V.V.V.V.V.V.V.m.V.n.n.n.B.V.B.n.B.n.B.n.n.n.n.n.n.m.m.m.m.m.m.m.m.m.m.m.m.m.m.m.m.m.m.m.m.m.m.m.m.m.m.m.m.m.m.m.m.m.m.m.m.m.m.m.m.m.m.m.m.m.m.m.m.m.m.m.m.m.m.m.m.m.m.m.m.m.m.m.m.",
";X;X;X;X;XXX:X:XXXXX:XXXXXXX:XXXXX.X.X.X.X.X.X.X.X.X.X.X.X.X.X.X.X.XP..X.X.XP.P.P.P.P.P.P.P.P.P.P.P.P.P.P.F.F.F.F.F.F.F.F.F.F.F.F.F.F.F.S.S.F.S.F.F.F.S.Z.S.Z.Z.F.G.F.G.F.G.G.G.G.G.G.G.G.G.G.Z.G.Z.Z.Z.Z.Z.Z.Z.G.G.V.V.Z.Z.G.V.V.V.V.V.Z.Z.Z.V.B.V.V.V.B.V.B.B.B.B.V.B.B.B.B.B.V.V.V.V.V.V.V.V.V.V.V.V.V.V.V.V.n.V.n.V.V.V.V.V.n.n.n.V.n.V.n.V.n.V.m.V.m.m.m.n.n.n.n.n.n.V.n.n.n.n.n.n.n.n.n.n.n.m.m.m.m.m.m.m.m.m.m.m.m.m.m.m.m.m.m.m.m.m.m.m.m.m.m.m.m.m.m.m.m.m.m.m.m.m.m.m.m.m.m.m.m.m.m.m.m.m.m.m.m.m.m.m.m.m.m.m.m.m.m.m.",
"XXXXXXXXXXXXXXXXXXXXXXXXXXXXXXXXXX.X.X.X.X.X.X.X.X.X.X.X.X.X.X.X.X.X.X.X.X.XP.P.P.F.F.F.F.F.F.F.F.F.F.F.F.F.F.F.F.F.F.F.F.F.F.F.F.F.S.S.S.S.F.F.F.S.S.S.S.G.Z.S.Z.G.Z.G.Z.G.Z.Z.G.G.G.Z.Z.Z.Z.Z.Z.Z.Z.Z.Z.Z.Z.Z.Z.V.V.V.V.V.V.V.V.V.Z.V.Z.V.B.B.Z.V.Z.V.B.B.B.B.B.B.V.B.B.B.B.B.V.V.V.V.B.B.V.V.V.V.V.V.V.V.V.V.n.n.n.n.V.V.V.V.n.n.n.n.n.n.n.n.n.n.n.n.n.n.n.n.n.n.n.n.n.n.n.n.n.n.n.n.n.n.n.n.n.n.n.n.m.m.m.m.m.m.m.m.m.m.m.m.m.m.m.m.m.m.m.m.m.m.m.m.m.m.m.m.m.m.m.m.m.m.m.m.m.m.m.m.m.m.m.m.m.m.m.m.m.m.m.m.m.m.m.m.m.m.m.m.",
"XXXXXXXXXXXXXXXXXXXXXXXXXXXXXXXXXXXX.X.X.X.X.X.X.X.X.X.XP..XP.P..X.X.X.X.X.XF.F.F.F.F.F.F.F.F.F.F.F.F.F.F.F.F.F.F.F.F.F.F.F.F.F.F.F.S.F.F.F.F.F.S.G.S.S.G.G.Z.Z.G.G.G.G.Z.Z.Z.Z.Z.Z.Z.Z.Z.Z.Z.Z.Z.Z.Z.Z.V.V.V.V.Z.V.V.V.Z.V.V.B.Z.Z.Z.Z.Z.B.B.B.B.B.B.B.B.B.B.B.B.B.B.B.B.B.V.V.B.B.B.B.B.n.n.n.B.B.B.B.V.V.V.B.n.n.n.n.V.V.n.n.n.n.n.n.n.n.n.n.n.n.n.n.n.n.M.n.n.n.n.n.n.n.n.n.n.n.n.n.n.n.n.M.n.n.n.n.n.m.m.m.m.m.m.m.m.m.m.m.m.m.m.m.m.m.m.m.M.m.m.m.m.m.m.m.m.M.m.m.m.m.m.m.m.m.m.m.m.m.m.m.m.m.m.m.M.M.M.M.m.m.m.m.m.m.m.m.",
"XXXXXXXXXXXXXXXXXXXXXXXXXX.X.X.X.X.X.X.X.X.X.X.X.X.X.X.XP.P.P.P.P..XP..X.XF.F.F.F.F.F.F.F.F.F.F.F.F.F.F.F.F.F.F.F.F.F.F.F.F.F.F.S.S.F.F.F.F.F.S.S.S.Z.G.G.G.Z.Z.Z.Z.Z.Z.Z.Z.Z.Z.Z.Z.Z.Z.Z.Z.Z.Z.Z.Z.Z.Z.Z.B.B.B.Z.Z.B.B.B.B.Z.B.Z.Z.Z.Z.B.B.B.B.B.B.B.B.B.B.B.B.B.B.B.B.B.B.B.B.B.B.B.B.V.V.V.B.B.B.B.B.B.B.n.B.n.n.n.n.B.B.n.n.n.n.n.n.n.n.n.n.n.n.n.n.n.n.n.n.n.n.n.n.M.M.n.n.M.M.M.M.M.M.M.M.M.M.M.M.M.M.M.M.M.M.M.m.m.m.m.m.m.m.M.M.M.m.M.m.M.m.M.m.M.M.M.M.M.M.M.M.M.M.M.M.M.M.M.M.M.M.M.M.M.M.M.M.M.M.M.M.M.m.m.m.m.m.m.m.",
"XXXXXXXXXXXXXXXXXXXXXXXX.X.X.X.X.X.X.X.X.X.X.X.X.X.X.X.XP.P.P.P.P..XP..X.XF.F.F.F.F.F.F.F.F.F.F.F.F.F.F.F.F.F.F.F.F.F.F.F.F.F.F.F.S.S.S.F.Z.Z.Z.S.S.Z.Z.Z.Z.Z.Z.Z.Z.Z.Z.Z.Z.Z.Z.Z.Z.Z.Z.Z.Z.Z.Z.Z.Z.Z.Z.Z.B.B.B.Z.Z.B.Z.B.B.B.B.Z.Z.Z.Z.B.B.B.B.B.B.B.B.B.B.B.B.B.B.B.B.B.B.B.B.B.B.B.B.B.B.B.B.a.a.a.a.n.n.n.n.9.9.9.n.n.n.n.n.n.n.n.n.n.n.n.n.n.n.n.n.n.n.n.n.M.n.n.M.M.M.M.M.M.M.M.M.M.M.M.M.M.M.M.M.M.M.M.M.M.M.M.M.M.M.M.M.M.M.M.M.M.M.M.M.M.M.M.M.M.M.M.M.M.M.M.M.M.M.M.M.M.M.M.M.M.M.M.M.M.M.M.M.M.M.M.M.M.M.M.M.m.m.m.m.",
"XXXXXXXXXXXXXXXXXXXXXX.X.X.X.X.X.X.X.X.X.X.X.X.X.X.X.X.X.X.X.X.XP.P.P.F.P.P.P.P.F.F.F.F.F.F.F.F.F.F.F.F.F.F.F.F.F.F.F.F.F.F.F.F.F.S.F.S.G.G.G.G.Z.Z.G.G.G.G.G.Z.Z.Z.Z.Z.Z.Z.Z.Z.Z.Z.Z.Z.Z.Z.Z.Z.Z.Z.Z.Z.Z.Z.Z.Z.Z.Z.Z.Z.B.Z.B.B.B.B.B.B.B.B.B.B.B.B.B.B.B.B.B.B.B.B.B.B.B.B.B.B.B.B.B.n.B.B.B.B.a.a.a.a.a.B.n.n.9.9.9.9.9.9.9.9.n.n.9.n.9.9.9.9.n.9.n.n.n.n.9.9.M.M.M.M.M.M.M.M.M.M.M.M.M.M.M.M.M.M.M.M.M.M.M.M.M.M.M.M.M.M.M.M.M.M.M.M.M.M.M.M.M.M.M.M.M.M.M.M.M.9.9.9.9.M.M.M.9.9.M.M.M.M.M.M.N.N.M.M.M.M.M.M.M.M.M.M.M.M.M.M.",
"XXXXXXXXXXXX.XXXXX.X.X.X.X.X.X.X.X.X.X.X.X.X.X.X.X.X.X.X.X.XP.P.P.P.P.P.P.P.P.P.P.F.P.F.P.F.P.P.F.F.F.F.F.F.F.F.F.F.F.F.F.F.F.F.F.S.S.Z.S.S.Z.Z.S.S.S.Z.Z.Z.Z.Z.Z.Z.Z.Z.Z.Z.Z.Z.Z.Z.Z.Z.Z.Z.Z.Z.Z.Z.Z.Z.Z.Z.B.Z.Z.Z.B.B.B.B.B.B.B.B.B.B.B.B.B.B.B.B.B.B.B.B.B.B.B.B.a.a.B.B.a.a.n.n.9.n.B.B.B.9.9.9.9.9.a.a.9.9.9.9.9.9.9.9.9.9.n.n.9.9.9.9.9.9.M.M.M.M.M.M.9.M.M.M.M.9.9.M.M.M.M.M.M.M.M.M.M.M.9.9.9.9.9.9.M.9.M.M.M.M.M.M.M.M.M.M.M.M.M.M.M.M.M.M.M.M.M.M.M.M.9.9.9.9.M.9.M.M.9.9.M.M.M.9.M.M.M.M.M.M.M.M.M.M.M.M.N.N.N.N.N.N.",
"XXXXXXXXXXXXXX.X.X.X.X.X.X.X.X.X.X.X.XP.P.P.P.P..X.X.X.XP..XP.P..X.X.X.XP.P.P.P.P.P.P.F.F.F.S.F.F.F.F.F.S.S.S.S.S.S.F.F.F.S.S.S.S.S.S.Z.S.S.S.S.Z.Z.Z.Z.Z.Z.B.B.Z.Z.Z.Z.Z.Z.B.Z.Z.Z.Z.Z.Z.Z.Z.B.Z.Z.Z.B.B.B.B.B.B.B.B.B.B.B.B.B.B.B.B.a.B.B.B.B.B.B.a.a.a.a.a.a.9.a.d.5.d.9.9.B.d.9.9.B.9.B.B.9.a.a.9.9.9.9.9.9.9.9.9.9.9.9.9.9.9.9.9.9.9.9.9.9.9.9.9.9.9.9.9.9.9.9.9.9.9.9.M.M.9.9.9.9.9.9.9.9.9.9.9.9.9.9.9.9.M.M.9.9.9.9.8.8.9.9.9.9.8.8.8.8.9.9.9.9.9.9.M.M.9.9.M.M.M.M.M.M.9.9.M.M.M.M.M.M.M.M.M.M.M.M.N.M.N.N.N.N.N.N.N.N.",
"XXXXXXXXXXXXXXXX.X.X.X.X.X.X.X.XXXXXXX.X.X.X.X.X.XP.P.P.P.P.P.P.P.P..XP.P.P.P.P.P.P.P.P.F.F.F.F.F.F.F.F.S.S.S.S.S.S.S.S.S.S.S.S.S.S.S.S.S.S.S.S.S.S.Z.Z.S.Z.Z.Z.Z.Z.Z.Z.Z.Z.B.B.B.B.B.Z.Z.Z.B.B.B.B.B.B.B.B.a.B.d.B.B.B.B.B.B.B.B.B.B.B.B.B.B.B.B.B.B.a.a.B.a.a.Z.a.5.0.I.L.Z.9.d.9.9.B.n.9.9.9.9.9.9.9.9.9.9.9.9.9.9.9.9.9.9.9.9.9.9.9.9.9.9.9.9.9.9.9.9.9.9.9.9.9.9.9.9.9.9.9.9.9.9.9.9.9.9.9.9.9.9.9.9.9.9.9.9.9.9.9.9.9.9.8.9.9.9.9.9.9.9.9.9.9.9.9.9.9.9.9.9.9.M.M.M.9.9.9.9.9.M.M.M.M.9.9.M.9.M.M.M.M.M.M.N.N.N.N.N.N.N.N.",
"XXXXXXXXXXXXXXXXXXXXXX.XXX.X.X.X.X.X.X.X.X.X.X.X.XP.P.P.P.P.P.P.P.P.P.P.P.P.P.P.P.P.P.L.P.P.P.F.F.F.F.F.S.S.S.S.S.S.S.S.S.S.S.S.S.S.S.S.S.S.C.C.Z.C.C.C.Z.Z.Z.Z.C.C.C.B.B.B.B.B.C.Z.Z.Z.Z.Z.C.Z.B.B.d.d.B.B.B.B.d.d.B.B.B.B.B.B.B.B.B.d.a.a.d.B.d.d.d.a.d.d.d.a.5.a.f.c.qXI.0.9.n.9.9.B.B.9.9.B.9.9.9.9.9.9.9.9.9.9.9.9.9.9.9.9.9.9.9.9.9.9.9.9.9.9.9.9.9.9.9.9.9.9.9.9.9.9.9.9.9.9.9.9.9.9.9.9.9.9.9.9.9.9.9.9.9.9.9.9.9.8.8.8.9.9.9.9.9.9.9.9.9.9.9.9.8.8.8.9.9.9.8.9.8.9.9.9.9.9.8.9.8.8.8.9.9.9.9.9.9.9.N.N.N.N.N.N.N.M.N.N.",
"XXXXXXXXXXXXXXXXXXXXXX.XXX.X.X.X.X.XP.P.P.P.P.P.P.P.P.P.P.P.P.P.P.P.P.P.P.P.P.P.L.L.L.L.S.S.S.L.F.F.F.S.S.S.S.S.S.S.S.S.S.S.Z.Z.Z.Z.C.S.Z.Z.Z.C.B.B.B.B.C.Z.C.C.C.C.C.B.B.B.C.B.d.d.d.d.B.B.B.a.B.B.B.d.B.B.B.B.B.B.B.B.B.B.B.B.d.d.B.d.d.0.d.d.d.d.d.d.d.d.9.9.9.C.6.c.uX8X0.9.9.9.n.9.9.9.9.B.9.9.9.9.9.9.9.9.9.9.9.9.9.9.9.9.9.9.9.9.9.9.9.9.9.9.9.9.9.9.9.9.9.9.9.9.9.9.9.9.7.9.9.7.9.9.9.7.9.9.9.9.8.9.8.8.7.7.7.9.8.8.8.8.9.9.8.8.8.8.8.8.7.7.7.7.8.8.8.8.8.8.8.8.8.8.8.8.8.8.8.8.8.8.8.8.9.9.9.9.9.8.8.8.N.N.N.N.N.N.N.N.",
"XXXXXXXXXXXXXXXXXXXXXX.XXX.XI..XP.P.P.P.P.P.P.P.P.P.P.P.P.P.P.P.P.P.P.P.P.P.P.P.S.S.S.S.S.S.S.S.S.S.S.S.S.S.S.S.S.S.S.S.S.S.Z.Z.Z.C.C.S.C.Z.C.C.C.Z.C.C.C.C.C.C.C.C.C.C.Z.C.Z.C.C.C.C.C.C.C.C.B.d.d.d.d.B.B.B.B.d.d.d.d.d.d.d.d.d.d.d.d.0.0.0.d.d.d.d.d.9.0.9.9.L.5.b b.JXyXL.0.9.9.9.9.9.d.9.a.9.9.9.9.9.9.9.9.9.9.9.9.9.9.9.9.9.9.9.9.9.7.7.9.9.9.9.9.9.9.8.9.7.7.7.7.7.7.7.4.7.7.7.7.9.7.7.7.7.7.7.7.8.8.8.7.7.7.7.7.7.7.7.7.7.7.7.7.7.7.7.7.7.7.7.7.8.8.8.8.7.7.7.7.7.7.7.7.8.8.8.8.8.8.8.8.8.8.9.9.8.8.8.8.8.8.8.8.N.N.N.N.",
"XXXXXXXXXXXXXXI.XXXXXX.XXXI.I.I..XP.P.P.P.P.P.P.P.P.P.P.P.P.P.P.S.S.L.S.S.S.S.S.S.S.S.S.S.S.S.S.L.S.S.S.S.S.S.S.S.S.S.S.Z.S.Z.C.C.C.C.C.Z.Z.C.C.C.C.C.C.C.C.C.C.Z.C.Z.C.C.C.C.C.C.C.C.C.C.C.C.C.d.d.d.d.d.d.d.d.d.d.d.d.d.9.9.0.d.d.d.d.0.0.0.0.0.0.0.0.0.0.0.0.0.6.wXJXHXwXI.L.d.9.d.5.5.d.9.9.9.9.9.9.9.9.9.9.9.9.9.9.5.5.5.5.9.9.7.7.7.7.7.9.7.7.7.7.7.7.7.7.7.7.7.7.7.4.7.7.7.7.7.7.7.7.7.7.7.7.7.7.8.8.7.7.7.7.7.7.7.7.8.8.7.7.7.7.8.7.8.7.7.7.7.7.7.7.7.8.7.7.8.7.8.7.8.7.8.7.8.7.8.8.8.7.8.8.8.8.8.8.8.8.8.8.8.8.8.8.8.8.",
"XXXXXXXXXXXXI.I.I.I.I.I.I.I.I.I..X.XP.P.P.P.P.P.P.P.P.P.P.P.P.P.L.L.L.L.S.S.S.S.L.L.L.P.P.L.L.S.L.L.S.S.S.S.S.S.S.S.S.S.S.Z.Z.C.C.C.C.C.C.C.C.C.d.d.d.C.C.C.C.d.C.C.C.C.C.C.C.C.d.d.d.d.d.d.0.9.d.d.d.d.d.d.d.d.0.0.0.0.0.0.0.0.d.d.d.0.0.0.0.0.0.0.0.0.0.0.0.0.4.%XJXPXZXb.c.I.J.5.0.0.5.0.5.9.9.9.9.9.9.9.9.9.9.5.5.5.7.7.7.7.7.7.7.7.7.7.7.5.7.7.7.7.7.7.7.7.7.7.7.7.7.7.4.4.7.7.4.4.7.4.7.7.7.7.7.7.7.7.7.7.7.7.7.7.7.7.7.7.7.7.7.7.8.8.8.8.7.7.7.7.7.7.8.8.7.7.8.7.8.8.8.7.7.7.8.7.8.8.8.8.7.7.8.8.7.8.8.8.8.8.8.8.8.8.8.8.",
"XXXXXXXXXXXXXXI.I.I.I.I.P.I.I.I..X.XP.P.P.P.P.P.P.P.P.P.P.P.P.P.P.P.P.L.L.P.L.L.L.P.P.P.P.P.L.L.L.L.S.S.S.S.S.S.S.S.S.S.S.S.C.C.C.C.C.C.C.C.C.C.C.d.d.d.d.d.d.d.C.C.C.C.C.C.C.C.C.C.C.C.d.d.d.d.d.d.d.d.d.d.d.d.d.d.d.d.d.d.d.d.d.d.d.0.0.0.0.0.0.0.0.0.0.0.0.0.5.I.%XY.R.U.U.H.I.4.0.s.5.5.5.0.9.9.9.9.9.9.9.5.5.5.5.5.7.7.4.5.4.4.4.4.7.7.7.7.4.4.4.4.4.4.7.4.4.4.4.4.4.4.4.4.4.4.7.4.4.4.4.4.7.7.7.7.7.7.7.7.7.7.7.7.4.4.7.7.7.7.7.7.7.8.8.8.7.7.7.7.7.7.8.8.7.7.7.8.8.8.8.8.7.7.8.8.8.8.8.8.7.7.7.7.8.8.8.8.8.8.8.8.8.8.8.8.",
"I.I.I.I.I.I.K.K.XXXXXX.X.X.XXXXX.XI.P.K.P.P.P.P.P.P.P.P.P.P.P.P.P.P.P.P.P.P.L.P.L.L.L.P.L.L.L.L.L.L.S.S.S.S.S.C.C.C.C.C.C.C.C.C.C.C.C.C.C.d.d.Z.C.C.C.f.f.f.f.f.C.C.C.C.C.C.C.C.d.d.d.f.f.f.f.d.0.d.d.d.d.d.0.0.d.d.d.d.d.d.d.d.d.s.s.s.d.d.d.d.0.s.s.0.0.0.0.6.5.I.b.B U.k b J.I.0.6.0.5.0.0.5.0.0.9.9.9.9.5.9.5.5.q.7.7.7.7.5.6.6.5.6.7.7.7.7.7.7.7.4.4.4.4.4.7.5.4.4.4.4.4.4.4.4.4.4.4.4.4.4.4.4.8.7.8.8.4.4.4.4.4.4.7.7.7.7.8.7.4.7.8.8.7.7.7.7.7.7.7.7.7.7.7.7.4.4.4.4.7.7.7.7.7.7.7.7.7.8.8.7.8.7.8.8.8.8.8.8.8.8.8.8.8.8.",
"K.K.K.I..XXXXXXXXXXX.X.X.X.X.X.XXXXX.X.X.X.X.X.XP.P.P.P.P.P.P.P.P.P.P.P.L.L.S.L.L.L.L.L.L.L.L.L.J.S.S.C.S.S.S.S.S.S.S.H.C.C.C.C.C.C.C.C.C.C.C.C.C.C.f.f.f.f.d.d.C.C.C.C.f.d.d.0.d.d.d.d.f.f.d.d.C.g.d.d.d.d.d.d.0.0.0.d.d.d.d.d.d.s.s.s.s.s.s.0.d.d.d.d.d.s.d.s.0. X%X6.6.b 6.J.I.6.5.5.9.0.9.0.9.5.5.5.5.4.4.4.b b 4.4.4.5.6.6.4.5.4.4.4.4.4.4.7.5.5.4.4.4.4.4.4.4.4.4.4.4.4.4.4.4.4.4.4.4.4.4.4.4.4.4.4.4.4.4.4.4.4.7.7.7.7.7.7.7.4.4.8.8.4.7.7.7.7.7.7.7.7.7.4.4.4.4.7.7.7.7.7.7.7.7.7.7.8.8.8.8.7.8.8.8.8.8.8.8.8.8.8.8.8.8.",
"XXXXXXXXXXXXXXXXXXXX.X.XI.P.P.P.K.L.L.L.L.L.L.L.L.L.L.L.L.L.L.L.P.P.P.P.P.L.L.P.L.L.L.L.L.L.L.S.S.S.C.C.S.C.J.L.J.J.C.C.C.C.C.C.C.C.C.C.C.C.C.C.C.C.f.C.C.C.f.f.0.0.0.0.0.0.0.0.d.d.d.d.f.f.d.0.0.0.0.s.d.d.d.d.0.0.0.d.d.d.d.d.d.s.s.s.0.0.0.6.0.5.5.0.0.0.0.s.5.I.%Xc.t.5.6.c.%Xc.0.d.B.9.9.5.0.0.0.0.0.0.0.0.0.0.0.6.6.5.5.5.6.6.6.6.6.6.q.q.5.5.4.4.4.4.4.4.4.4.4.4.4.4.q.q.q.4.4.4.4.q.4.4.4.4.4.4.4.4.4.4.4.4.4.4.4.4.4.4.7.7.4.4.8.7.4.7.4.4.4.4.4.4.4.4.4.7.7.7.7.7.7.7.4.7.7.7.7.7.7.7.7.7.8.8.7.7.8.8.8.8.8.8.8.8.8.8.",
"XXXXXXXXXX.XI.K.XX.X.XP.K.K.K.K.K.K.K.K.K.K.K.L.K.L.L.L.L.L.L.L.L.L.L.P.P.P.P.P.L.L.L.L.L.L.S.S.C.C.C.f.C.f.C.C.C.C.C.C.C.C.C.C.C.C.C.C.C.f.C.C.d.d.d.d.d.d.0.0.0.0.0.0.0.d.d.d.d.d.d.f.f.f.d.0.d.f.g.g.f.d.s.0.d.d.d.d.d.d.d.s.d.s.s.s.s.s.0.0.0.5.0.5.0.d.s.h.N L.%Xl.6.V 6.c.I.6.6.0.9.B.0.0.6.6.6.0.6.0.0.0.6.6.6.5.5.5.4.4.5.5.5.5.5.4.4.4.4.4.4.4.4.4.4.4.4.4.4.4.4.4.4.4.4.4.4.4.4.4.4.4.4.4.4.4.4.4.4.4.4.4.4.4.4.4.4.4.4.4.4.4.7.4.4.4.4.4.4.4.4.4.4.4.7.7.7.7.7.4.4.4.4.4.4.4.4.4.4.4.7.7.7.7.7.7.8.8.7.8.8.8.8.8.8.8.",
"XXXXXXXXXXXXXXXX.X.XI.K.K.K.K.K.I.P.P.I.I.I.I.I.I.I.P.P.L.L.L.L.L.J.L.L.L.L.L.L.L.L.L.L.L.J.S.C.C.C.C.C.C.C.C.g.C.C.C.C.f.C.C.C.C.f.f.f.f.f.d.d.C.f.f.f.f.f.f.f.f.f.f.f.f.d.d.d.d.d.d.d.d.d.d.d.C.f.s.s.0.0.s.s.f.f.d.d.d.d.d.d.d.s.s.s.s.s.s.0.0.0.s.5.6.d.0.s.l.%X%XY.Z z l.R.%X6.q.0.7.9.0.0.5.5.5.5.5.5.5.5.4.5.5.5.5.5.4.5.5.4.4.4.4.4.b b 4.4.4.4.4.4.4.4.4.5.4.4.4.b b 4.b b b 4.b 4.b b 4.4.4.4.4.4.4.4.4.4.4.4.4.4.4.4.4.4.4.4.7.4.4.4.4.4.4.4.4.4.4.4.7.7.7.7.7.4.4.W.4.4.4.4.4.4.4.4.7.7.7.7.7.8.7.8.8.8.7.8.8.8.8.8.",
"XXXXXXXXXXXXXXXXI.I.K.K.K.L.L.L.K.L.L.K.P.P.P.K.XX.XI.P.P.P.P.K.P.L.L.L.L.J.S.L.L.L.L.L.L.L.S.S.L.L.L.L.J.C.C.C.C.C.C.C.C.C.C.C.f.f.f.d.d.d.d.d.C.C.f.f.C.C.C.C.f.f.d.d.d.d.d.d.d.d.d.d.d.d.d.d.6.6.6.0.0.s.s.f.s.s.d.d.d.d.d.d.s.s.s.s.s.s.s.0.s.s.s.5.5.s.5.s.l.%XhX$XY.T Y.R.%XB B c.0.6.5.5.6.5.5.5.5.5.5.5.5.5.5.5.5.5.5.5.6.6.6.6.5.q.5.5.4.4.4.4.5.5.4.5.5.5.5.5.4.q.q.q.q.q.q.q.4.4.4.4.4.4.4.4.4.4.4.4.4.4.4.4.4.4.4.4.4.4.4.4.7.4.4.7.4.4.4.4.4.4.4.4.4.4.4.4.4.4.4.4.7.7.7.7.7.7.7.7.7.7.7.7.8.8.7.7.8.8.8.8.8.8.8.8.",
"I.K.K.L.K.L.L.J.I.K.K.K.K.K.K.K.I.I.I.I.I.I.P.K.K.P.K.L.K.K.K.K.P.K.K.P.P.L.L.L.L.L.L.L.L.J.J.S.C.g.g.C.C.C.g.g.C.C.C.C.C.C.C.f.f.f.f.f.f.d.d.d.d.0.0.0.0.0.0.0.s.s.d.d.d.d.d.d.d.d.d.d.d.d.d.s.s.f.g.g.g.f.s.0.0.0.s.s.d.d.d.s.s.0.0.0.0.0.6.6.f.0.f.0.s.f.6.K.R.bXCXhXkX$XT.#XT Y b.U.6.0.0.0.5.5.5.5.5.5.5.5.5.5.5.5.5.5.5.5.5.5.5.5.5.5.5.5.5.5.4.5.q.q.q.q.4.4.4.4.b 4.4.4.q.q.q.q.q.q.4.4.4.4.4.4.4.4.4.4.4.4.4.4.4.4.7.7.4.7.4.4.8.4.4.8.4.4.4.4.7.4.4.4.4.4.4.4.4.7.7.7.8.7.7.8.8.8.8.8.7.7.7.7.8.7.7.7.8.8.8.8.8.8.8.8.",
"I.I.I.K.I.K.K.L.I.K.K.K.K.K.K.K.I.K.I.K.P.K.L.J.J.J.J.J.J.J.L.L.L.J.L.L.K.L.K.P.L.L.L.L.L.L.J.J.H.C.J.J.L.J.J.C.C.C.C.C.f.f.d.d.C.C.C.f.f.f.f.f.C.C.f.f.f.C.C.f.H.C.g.f.f.f.d.d.0.0.0.0.d.d.s.s.f.s.s.0.0.s.s.d.s.s.d.s.s.s.0.0.0.0.6.6.6.5.5.5.0.4.6.6.s.0.5.I.eXGXPXjXjXgX$X$XY.bXtXl.b 6.5.5.s.0.0.0.5.5.5.5.0.5.5.5.5.5.5.5.4.5.5.5.5.5.5.5.5.5.5.5.q.5.6.5.5.5.5.5.4.4.4.4.4.4.4.4.4.4.4.4.5.4.4.4.4.4.4.4.4.4.4.4.7.7.7.8.4.7.7.7.8.4.4.8.4.4.7.4.7.4.7.7.7.4.4.4.4.4.4.7.7.7.7.7.7.7.7.7.7.7.7.7.8.8.8.8.8.8.8.8.8.8.8.8.",
".X.X.X.XI.I.K.K.I.I.K.K.L.L.L.L.K.K.K.L.K.L.L.L.J.J.J.J.H.J.H.J.J.g.C.C.C.J.J.g.C.C.C.C.C.C.C.C.H.C.H.C.C.C.C.C.C.C.C.C.C.C.C.C.C.C.C.C.C.C.C.C.C.C.C.H.H.H.C.g.g.f.s.s.0.s.f.f.f.f.f.s.s.s.0.0.0.0.s.s.s.s.d.s.0.0.0.0.0.0.0.0.0.0.0.0.0.0.0.6.q.q.0.5.0.6.5.%XAXHXPXKXhXgXgXT.T.R.R.c.s.6.6.t.s.s.0.5.a.a.S.S.Z.Z.Z.a.a.a.a.9.a.d.d.d.s.0.5.5.5.5.5.5.5.5.5.5.4.5.5.4.4.b b 4.b 4.b 5.5.4.5.4.b 4.b 4.6.4.4.b 4.4.4.4.0 4.4.4.q.q.4.4.8.8.8.4.4.4.8.4.4.4.4.8.q.4.7.4.4.4.4.8.4.4.4.4.7.7.8.8.8.8.8.7.7.7.7.7.7.4.7.7.7.7.8.8.",
".X.XI.I.I.K.K.K.I.I.I.K.K.I.I.I.K.L.L.L.L.L.J.J.K.L.L.L.L.J.J.J.H.H.J.J.H.H.J.J.H.J.J.J.J.J.J.J.H.H.H.H.H.H.C.C.H.C.C.C.C.C.C.C.C.C.C.C.C.g.C.g.g.g.g.g.f.f.f.f.0.0.f.f.f.f.s.0.s.s.0.0.0.6.0.0.s.s.s.s.s.s.0.0.0.0.0.0.0.0.0.0.d.s.d.d.d.d.0.0.0.0.d.6.s.s.5.I.*XhXgX$XT.T.X.Z Z Z U.6.s.h.h.t.s.e.s.a.a.a.a.Z.A.A.A.A.A.A.B.Z.B.Z.Z.Z.a.d.a.0.a.0.0.0.0.5.5.5.5.5.5.5.5.5.6.0.5.5.b 5.5.4.5.4.5.5.5.5.4.4.5.6.4.4.4.4.4.q.q.q.4.4.W.0 W.4.4.4.q.4.4.4.4.4.W.4.4.W.W.4.W.0 0 4.4.4.4.4.4.4.7.7.7.4.4.4.4.4.4.4.8.7.8.8.8.8.8.8.",
".X.XI.I.I.I.I.I.I.I.I.I.K.K.K.K.K.K.K.K.K.K.L.J.J.J.J.J.J.H.H.H.J.C.J.L.C.C.J.J.J.J.L.J.J.J.J.L.H.H.H.H.H.H.C.C.H.H.C.C.C.C.C.C.f.f.f.f.f.f.d.s.s.s.s.0.0.0.0.0.g.g.c.g.g.g.f.f.f.f.s.0.0.0.s.s.s.s.s.s.s.s.0.0.0.0.0.0.0.0.s.s.d.d.s.d.d.d.0.0.0.0.d.9.6.h.5.6.Y #X+.^ ....Z Z C C B 6.e.s.6.5.s.s.a.a.a.a.j.A.A.A.D.D.D.D.D.].A.A.A.A.A.A.a.a.a.a.a.a.5.5.5.5.5.5.5.5.5.5.5.e.h.h.t.a.e.e.e.5.5.5.5.5.5.4.5.6.5.4.q.q.q.q.4.4.q.q.q.q.4.q.q.q.4.4.4.q.q.q.4.4.4.4.4.4.4.7.4.4.4.4.4.4.4.4.4.4.7.7.7.8.8.8.8.8.8.8.8.8.8.8.8.7.",
".X.X.X.X.XI.I.K.I.I.I.K.K.L.L.L.J.J.L.L.L.J.J.J.J.J.J.L.L.L.L.L.L.J.J.L.L.P.I.L.C.C.J.C.C.C.C.C.J.J.H.H.H.H.C.C.H.H.H.C.C.C.C.C.f.f.f.f.h.s.s.s.s.s.0.0.s.s.s.f.f.s.s.s.s.f.g.g.g.f.f.s.s.s.f.f.s.s.s.s.s.s.s.s.s.s.s.s.s.s.s.s.s.s.s.s.d.d.0.0.0.9.d.0.5.h.0.N B hXhX+...Z Z Z z C U.6.s.a.0.t.e.t.h.a.a.a.A.A.A.D.D.].].D.].].].].].A.A.A.A.j.a.a.a.a.s.5.5.5.0.5.5.e.s.s.t.e.e.y.i.k.k.k.k.h.a.e.t.e.5.6.6.5.5.V V B V V q.q.0 V q.V V 0 0 0 q.b 0 0 0 0 b q.4.4.4.W.4.0.0.q.4.4.4.4.4.4.4.4.4.7.7.7.7.7.8.8.8.8.8.8.7.7.8.7.",
".X.X.XI.I.K.K.L.L.L.L.K.K.K.K.K.L.L.K.K.K.L.L.J.K.K.K.K.K.L.L.L.XXK.L.J.J.J.C.d.C.C.C.C.g.g.g.g.J.J.H.H.H.C.C.C.H.C.C.C.C.C.C.C.H.g.g.f.f.f.f.f.c.c.c.f.g.g.c.c.s.f.f.f.f.s.0.0.s.s.s.s.s.s.s.s.s.s.s.s.s.s.s.0.s.s.s.s.s.s.s.s.0.0.s.s.f.f.d.d.d.0.d.d.0.s.s.6.Z mXFXaXX.Z ..Z C Z U.s.a.a.s.s.e.a.a.a.a.a.A.D.D.D.D.D.D.D.D.D.].D.D.A.A.A.A.Z.a.a.a.a.a.5.5.5.a.e.a.k.k.k.k.y.e.i.i.i.k.k.k.k.|.v.v.t.B t.B B B V V V Z U.b.R.&X*XeX*X&X%XR.R.b.U.V U.U.V l 0 b q.q.q.4.4.4.b 4.4.4.4.4.4.4.4.7.7.7.4.7.4.7.7.8.8.8.8.8.8.8.8.",
"K.K.I.K.K.K.K.L.K.K.K.K.K.K.K.K.K.K.I.I.K.K.L.L.J.J.J.J.J.J.J.J.g.g.C.J.C.J.L.L.J.J.J.J.J.C.C.J.J.J.H.H.C.C.C.C.C.C.C.C.C.C.C.g.H.H.c.g.f.f.f.g.c.c.c.g.f.f.f.f.c.g.f.f.s.s.s.0.0.s.s.s.s.s.s.s.f.f.d.s.s.0.6.6.s.s.s.s.s.s.s.s.0.0.0.0.s.s.d.s.d.0.s.s.0.6.0.t.C hXCXaXX.Z Z C T Y 6.0.a.a.a.5.h.h.d.a.a.a.A.A.A.A.D.D.D.D.D.D.A.A.D.A.A.A.A.A.a.a.a.a.a.a.s.a.a.j.k.S.S.S.k.k.k.k.i.r.i.k.k.(.h.z. X).#X#XY.#X#XY.Y.Y.Y.$X&X&X$X&XgXgXgX&X&X&XHXnX*XtXbX*XR.U.V b b q.5.4.4.5.4.4.4.4.4.4.4.4.4.4.4.7.7.7.8.8.7.7.8.8.8.8.8.8.",
"I.I.I.I.I.I.K.K..X.XK.K.K.L.L.L.L.L.J.J.J.J.J.H.J.J.J.J.L.L.L.L.I.I.I.I.L.J.L.J.J.J.J.J.J.J.J.J.J.J.H.c.C.g.g.g.g.g.g.g.g.g.g.f.g.f.f.d.d.s.h.f.f.f.s.s.s.s.0.0.0.6.5.6.0.s.g.c.s.s.s.s.s.s.f.f.f.f.f.s.s.0.6.6.0.0.0.0.s.s.s.s.6.6.6.6.0.0.0.0.6.9.5.5.6.6.6.6.Z CXCXaX@...Z Z Z Z 6.0.a.a.a.a.d.k.d.a.a.j.A.A.A.D.D.].].].D.D.A.D.D.A.D.A.A.A.A.A.A.Z.Z.S.S.S.S.S.S.S.S.S.`.|.L.|.(.v. X Xv.%X%X=X*X&X&X&XY.$XhXhXhXhXkXkXkXkXgXgXaXaXaX$X$X$X$XT.X.Y.$X&XhXBX&X%Xb.6.b b 5.5.5.5.5.5.4.4.4.4.4.4.4.4.7.7.7.7.7.7.8.8.8.8.8.7.",
"I.I. XXXXXXXXXXXK.K.K.K.K.K.K.K..XI.K.L.L.L.L.L.J.J.J.J.J.J.J.J.J.g.C.J.L.K.K.L.J.J.J.J.J.g.g.C.J.J.H.g.g.g.g.g.g.g.f.f.f.g.f.f.s.s.0.0.0.0.0.0.s.s.s.f.f.f.f.s.0.s.g.f.f.f.s.s.s.s.s.0.0.s.f.f.f.f.f.f.f.s.s.s.0.0.0.0.0.0.0.0.0.0.6.6.0.0.0.5.5.9.5.5.0.s.0.6.Z DXKXQ.X...X.o.Z U.c.d.a.a.a.a.a.a.a.a.a.j.A.A.].].].].].].D.D.D.D.D.D.D.D.D.D.].A.A.a.a.a.a.a.a.a.a.a.a.a.k.J.iXiXuXrXuXiX%X%X=X=X%XY.$X&XT.aXaXgXkXjXjXjXkXkXkXkXaXaXaXgXaX$XT.T.o...8 . 7 f %XyXZXrX Xv.h.5.5.5.5.5.5.5.7.7.9.9.9.9.7.7.7.7.8.7.9.9.8.8.8.7.",
"K.XXXXXXXXK.L.L.K.K.K..XK.K.L.J.L.L.J.J.L.K.L.L.L.K.K.L.J.H.J.L.J.J.J.H.g.g.H.H.J.J.J.c.c.c.g.g.g.g.f.f.g.g.g.g.J.H.g.g.g.C.H.H.J.C.C.g.g.d.d.f.g.f.s.s.s.s.d.f.c.c.c.c.c.c.H.H.J.J.H.C.g.f.d.s.5.5.5.5.6.6.6.6.0.0.0.0.0.0.s.f.s.s.0.5.0.0.s.s.d.d.d.d.s.s.s.6.Z SXKXaXX.X.Z Z Z Y q.5.5.9.a.a.a.a.e.a.j.j.A.D.].D.D.D.D.D.D.D.D.D.D.D.D.].].].].].D.A.A.A.B.a.5.5.5.5.5.5.5.5.s.h.v.v.v.v.v.v.l.l.b.b.C T $X&XgXaXgXgX+.@.( 8 d ..^ f X.o.f o i f i f T Z Z R.*XuXyXuX=X Xv.t.e.e.e.5.5.5.9.9.5.5.5.5.4.4.4.7.4.4.4.4.4.4.7.7.",
"XXXX.XI..XXXXXXXK.K.L.J.J.L.L.K..X.XK.K.I.I.K.K.K.K.K.L.J.H.J.J.K.L.L.J.J.J.J.J.c.c.c.c.J.J.J.J.f.h.s.s.s.s.s.s.g.g.f.f.g.g.C.C.g.f.d.d.d.d.g.g.h.s.s.0.0.0.0.s.s.0.6.5.5.5.5.6.0.0.0.s.s.s.s.s.f.f.f.c.c.f.0.6.5.5.5.5.5.5.0.s.s.s.s.s.s.s.s.s.f.d.f.d.s.s.s.6.Z SXKXaXX.X.Z Z Z Y t.a.a.a.a.e.j.j.j.A.A.].}.}.].].D.D.D.D.D.D.D.D.D.D.D.D.D.D.].D.].].].].].F..XP.Z.a.5.5.5.5.5.6.s.h.g.k.k.v.v.v.v.z.x.x.x.T o...o.o...W ..Z T Y.o.T o.T C z C T T b.b.b.Y.#Xb.x.b.l.t.t.h.k.S.S.k.h.a.a.a.a.0.0.0.5.9.5.9.9.5.5.9.5.4.7.7.4.",
"I.L.L.J.L.J.g.h.L.L.L.L.L.J.J.J.L.L.L.L.K.K.K.K.L.L.L.J.H.H.J.J.H.H.g.c.c.c.H.J.L.L.L.J.J.J.J.J.J.J.c.g.g.g.g.g.f.f.f.f.f.g.g.g.J.J.C.C.C.C.C.C.g.g.g.g.g.g.g.g.f.s.f.c.g.c.c.f.s.s.f.f.g.g.g.g.0.0.0.s.f.c.c.c.c.f.0.6.5.0.0.0.h.s.s.s.s.s.s.a.s.s.d.s.0.s.h.6.Z FXKXaXX.X.Z Z C U.h.Z.S.F.}.}.}.}.}.}.}._._.A.].].].].].]._._.A.A.A.A.D.D.D.].A.A.D.D.D.D.A.A.a.a.Z.Z.Z.Z.a.a.5.a.s.t.k.k.k.k.y.k.i.i.v.v.l.b.l.l.x.x.x.x.x.b.z.b.z.z.b.z.z.).v.v.v.v.z.v.v.z.v.v.v.v.v.v.|.|.y.y.e.e.e.e.e.5.t.t.s.s.a.s.0.0.0.0.9.5.5.9.9.9.",
"J.K..X.X.XK.K..XJ.L.L.K..X.XXXI.K.I.I.K.K.L.L.K.L.L.L.L.L.K.K.K.L.L.J.J.J.J.J.J.J.J.c.c.c.c.c.c.J.J.J.J.J.J.J.J.c.g.f.f.g.g.g.g.d.d.d.f.f.g.g.g.g.g.g.f.f.s.s.s.h.6.s.c.f.f.0.5.s.s.0.0.0.6.5.5.H.c.g.f.f.f.c.g.6.6.5.5.0.s.s.h.s.h.h.h.f.h.h.s.s.s.d.d.s.f.g.t.T FXKXaXX.X.Z T b.b.L.F.F.`.}.}._._._._._._.]._.].].].D.].].].].}.}.}.].].].].].].].].].D.A.A.A.9.9.B.F.F.S.B.a.a.a.a.a.e.e.e.a.j.S.k.y.i.w.r.v.t.p.v.v.v.v.v.p.v.k.k.v.(.k.k.|.(.k.w.e.e.w.t.t.G w.r.i.i.w.F m k.k.i.i.k.k.k.j.e.e.e.e.a.a.a.e.a.a.a.0.5.9.9.5.",
"L.K..X.XK..XXXXX4X;XXX.XK.K.K.K.L.L.L.L.J.J.L.L.L.L.L.L.L.J.J.J.H.H.H.H.H.H.J.J.c.c.c.c.c.c.v.J.c.g.g.g.c.c.J.J.J.c.g.g.c.c.c.g.J.J.J.C.c.g.g.f.f.f.f.g.g.g.f.f.J.c.c.f.f.g.c.f.s.s.s.s.0.6.5.5.b b b b b b b b b b 4.5.0.s.f.f.s.s.s.h.h.s.s.s.s.s.s.s.0.s.s.6.T FXKXaXX.X.o.T U.b..X.X}.}.`.A.}.}.}.].D.A.A.A.D.D.D.D.].D.D.D.].].]._.A.A.A.A.A.A.A.D.].].].].].D.D.D.D.A.A.Z.Z.Z.a.a.a.a.a.a.5.5.5.e.i.k.k.k.k.v.|.L.L.|.|.|.k.v.v.|.|.|.~.~.y.e.M m e.e.e.i.i.k.k.(.|.oXoXoXoX|.|.(.`.~.k.j.y.e.e.e.e.e.e.e.a.a.s.a.5.5.5.5.",
"L.L.L.L.K.K.L.J.J.g.g.g.g.g.c.H.H.J.J.J.H.c.H.J.J.H.H.H.J.J.H.c.c.c.g.g.g.g.g.g.c.c.c.c.c.c.c.c.c.g.g.g.c.J.J.J.c.g.g.c.J.J.J.J.h.h.f.g.J.J.J.L.c.c.c.c.g.f.h.h.5.N 5.5.5.6.0.6.f.f.f.f.f.f.d.h.f.s.0.0.6.6.5.5.6.6.6.0.0.0.0.0.0.0.s.s.s.s.0.0.s.s.a.a.a.a.d.t.x.GXCXaXX.X.o.T Z l.g.S.S.S.].`.j.j.a.j.A.A.S.F.F.D.D.D.D.F.F.S.A.j.j.A.A.A.A.A.}.}.}.].].].D.D.].D.A.A.A.A.A.F.Z.Z.Z.g.Z.g.j.g.S.a.g.S.g.k.k.h.k.k.k.k.k.S.S.S.k.(.k.i.y.i.j.k.k.|.~.k.|.|.|.|.|.|.(.~.~.~.(.~.(.~.~.k.k.j.y.e.y.e.e.e.e.e.e.e.e.e.a.e.a.a.5.5.",
"K.K.K..XXX.X.XL.L.K.K.I.I.I.I.I.I.I.K.L.J.J.H.c.L.L.L.K.K.I.K.K.K.L.J.H.c.c.g.f.c.c.f.f.h.s.t.t.c.g.f.f.g.c.c.c.g.g.g.g.g.g.f.f.s.s.0.6.5.N b b b b b N 6.6.t.h.c.c.J.L.c.c.c.c.5.6.0.0.0.0.0.0.5.5.5.4.5.6.0.s.0.0.0.0.0.0.0.0.0.0.0.0.0.6.0.0.f.a.d.g.S.S.|.v.x.GXjXaXX.X.o.Z T U.0.9.9.9.a.a.5.5.5.5.9.a.a.a.Z.Z.Z.Z.Z.Z.a.a.5.5.5.5.5.5.5.5.5.5.5.a.a.a.A.A.A.A.A.A.A.A.A.A.a.a.9.5.a.a.a.Z.a.a.a.9.4.5.e.5.M M n M n b b n n m m M F y.~.`.k.~.~.~.~.(.~.k.~.(.(.(.(.(.~.~.k.k.k.j.j.j.k.j.y.y.j.j.y.e.e.e.e.e.a.e.a.a.a.e.",
".X.XL.C.g.h.h.g.g.g.f.f.c.H.K.I.H.c.H.J.L.K.K.K.L.J.J.J.J.J.c.c.g.c.c.c.H.J.L.L.c.c.c.c.c.c.c.c.J.J.c.c.J.J.J.J.H.c.f.f.f.h.s.0.s.s.h.h.h.h.t.t.6.6.6.6.6.6.6.6.5.5.5.5.b 5.0.s.f.f.f.f.f.d.s.s.c.c.c.c.c.c.c.c.c.c.c.f.0.0.s.s.0.0.0.0.0.6.5.5.a.e.e.a.a.j.S.t.Y.GXjXaXX.o.o.Z T l.f.d.f.g.f.a.f.f.f.f.f.f.Z.Z.a.a.a.9.9.5.5.5.5.5.5.5.5.5.5.5.5.a.a.Z.A.A.A.A.A.A.].D.D.D.D.A.a.a.5.5.9.a.a.a.a.B.Z.B.Z.S.S.a.S.h.e.5.b b b M e.w.k.~.|.`.~.k.`.k.|.oX|.k.|.|.v.(.|.v.k.k.y.y.y.j.y.e.e.e.e.y.y.y.j.j.j.e.e.e.e.e.a.a.a.a.a.e.",
"L.L.P.K..X.X X.X.XK.K.XXXXK.H.J.K.L.K.I.I.K.L.L.L.J.c.c.J.J.L.L.I.J.c.L.K.J.c.c.H.c.c.c.g.f.s.0.5.5.5.5.5.5.5.5.0.s.s.s.h.c.L. XL.g.h.c.v.J.c.c.c.c.v.v.v.c.c.c.s.c.H.H.c.c.f.6.0.0.6.6.6.6.0.0.5.5.5.5.q.5.q.q.q.q.4.5.0.h.h.s.c.H.J.g.g.a.a.a.S.S.S.j.j.j.a.r.E KXUXaXX.o.Z f T b.c.0.c.v.c.t.v.c.b.v.c.6.5.e.e.a.a.a.a.a.5.5.e.5.e.f.s.5.s.5.e.a.S.j.A._.}._.]._._.].].].].].].].].}.}.F.S.S.A.A.A.A.A.A.A.j.j.j.S.S.S.`.`.`.`.`.`.`.`.|.|.|.S.S.k.k.k.h.h.t.h.h.h.k.k.k.k.k.`.~.j.j.!.!.j.j.j.y.y.y.e.e.e.y.y.e.e.e.a.a.a.5.",
"C.C.C.C.g.g.g.h.L.c.f.J.K.K.K.K.K.K.L.H.H.J.L.J.L.K.XXXXI.K.L.L.L.J.L.L.J.c.c.J.f.f.c.J.J.f.s.s.c.c.J.J.c.f.0.5.5.5.N b b b b b b b b b b b N 5.6.6.6.6.6.6.6.6.0.6.5.4.b 6.f.f.f.g.f.f.f.f.f.f.0.6.6.6.5.5.q.q.6.6.5.5.5.5.e.s.0.5.5.5.5.e.e.a.j.j.j.j.j.a.e.N o.LXUXaXX.Y.o.T T R.8X%X#X%XrXrX%X&XMXJXMXuX%Xv.h.k.g.g.k.h.a.e.e.5.t.k.J.J.K.XXJ.S.S.S._._._._.A.A._._.A.A.D.D.D.D.D.A.A.V.B.a.a.a.j.A.A.j.j.j.a.j.a.j.j.j.j.j.j.j.j.j.j.e.e.5.e.5.5.5.5.5.5.5.5.4.b 5.5.a.j.S.e.j.j.j.j.j.j.j.j.j.j.j.j.j.k.k.e.t.t.a.a.e.5.a.",
"J.J.J.J.J.g.g.g.c.c.J.L.K.K.K.K.g.H.J.f.g.H.c.f.g.f.c.g.s.s.s.f.f.c.c.c.c.f.c.J.c.c.c.c.c.f.f.c.f.f.f.f.c.J.L.J.K.K.K.L.L.v.v.v.c.c.J.J.v.c.v.K.I.K.K.L.L.L.v.c.c.f.s.6.6.0.g.f.s.s.s.s.s.s.0.0.s.s.s.s.s.s.s.s.f.f.c.g.h.t.t.e.s.a.e.a.j.`.`.`.`.`.`.`.A.k.k.z.o.LXUXaXX.Y.o.Y.T U.b.%X*XyXMXtX&XbXSXNX&X#Xx.K l.z.z.v.v.v.v.v.k.i.e.M M M n 5.v.v.|.oXoX}.~.!.`.`.`.A.A.A.D.D.].].].].D.D.A.A.A.A.A.A.A.A.A.A.A.j.j.j.j.j.j.j.e.e.5.M M b b b b b b b 4.5.5.5.5.5.5.5.5.5.5.e.g.j.k.j.j.j.a.e.y.w.w.w.e.e.e.e.5.s.h.h.s.a.a.a.",
"XXXXXX.XK.L.J.J.K.XXXXXXK.L.H.H.c.K.I.I.XXXXXXI.K.K.L.L.I. XXXXXI.I.K.L.J.J.c.c.c.c.c.g.g.c.L.L.XXXXK.J.c.c.c.g.s.s.h.h.h.h.h.h.t.t.s.s.h.f.c.c.t.s.6.t.c.c.c.c.h.f.c.J.c.c.g.s.f.f.s.0.5.5.4.4.5.5.5.5.5.5.6.6.s.s.5.s.a.g.g.d.a.a.a.j.j.!.!.j.j.j.j.j.a.a.t.t.Y.PXUXaXX.Y.o.T T Y.R.R.&X*X&X$X&XgXgX$XY.Y.%X#X#X#XY.#X#X#Xx.z.z.).v.B x n k k k k m w.k.~.`.`.j.j.e.e.a.A.S.D.D.D.D.D.D.D.D.D.].].]._._._._._.].]._.A.A.A.A.A.A.j.a.e.5.5.5.5.5.5.4.5.4.4.4.5.b b 4.5.5.5.a.e.5.5.e.a.S.`.S.S.j.y.i.k.i.i.i.t.n M 5.5.5.5.a.a.",
"C.C.J.J.J.J.J.J.J.L.J.c.c.c.c.H.L.J.c.c.c.g.c.H.c.c.J.L.L.L.J.c.f.f.h.h.c.L.L.c.c.L.L.c.c.J.c.g.s.s.s.s.s.s.t.6.h.h.h.h.h.h.h.h.h.f.f.g.f.h.s.s.6.6.5.5.5.5.b b s.s.h.g.c.c.J.c.f.f.f.f.s.f.g.f.f.g.g.c.c.H.J.J.H.g.g.g.g.f.s.5.e.a.j.j.j.j.j.j.j._._.j.j.a.5.n Y.PXjXaXo.T.Z Z T &XeXR.$X&X$XT.8 8 8 ! ..X.....o.o.o.o.T.T.Y.Y.x.x.#Xx.l.l.t.t.t.t.i.i.~.~.`.!.|.k.e.e.a.Z.A.A.A.A.A.A.A.D.D.A.A.A.A.A.A.A._._._.A._.].A.A._.A._._._.A.A.A.A.j.S.A.a.a.a.5.5.5.5.5.4.4.4.4.5.5.5.5.5.a.a.a.a.e.e.e.a.k.k.k.k.k.J.J.g.f.a.a.a.e.",
"J.J.J.L.L.K..X.XK.L.c.J.L.K.L.J.J.c.f.c.f.f.s.f.f.f.c.g.s.6.6.s.c.c.g.f.g.f.h.s.s.c.c.c.c.I. XL. X|.K.L.L.L.J.v.v.c.k.k.g.g.g.g.s.g.f.h.6.6.5.5.6.6.6.6.s.h.s.s.5.5.N 5.b 5.5.5.b b b 4.5.6.s.f.0.0.6.5.5.b b b b 5.5.5.5.5.5.a.S.`.`.`._.!.`.`.j.j.j.e.e.5.M l o.LXjXaXo.Y.f i T Y.#XR.Y.T.T.@.O.+.+.Q.aXaX$X$X+.O.X.X.o.o.+.$X$XZ T Y.Y.b.z.v.t.k.p.i.k.~.`.~.`.k.k.a.a.a.S.F.}.].].].].].].].].].].].].A.].].].].].].D.D.A.A._._._._.].].}.}.}.].].A.A.A.Z.Z.S.C.Z.0.9.5.4.4.5.9.a.a.a.9.a.a.5.5.e.a.a.e.5.5.b 5.5.5.5.5.a.a.",
"XXXXXXXX.XK.K.K.XX X XXXI.L.c.c.J.L.XXXXXXXXXXXXXXXXXX X X XXX%X XI.I. XI.L.K. XI.L.c.c.g.h.g.g.v.c.s.t.6.6.t.t.s.s.s.s.s.h.s.s.h.g.c.c.c.J.J.v.J.J.J.J.L.J.J.J.g.h.h.h.s.s.s.s.h.h.s.s.s.s.s.s.s.s.s.h.h.k.k.k.d.a.a.5.5.e.k.|.`.`.!.!.j.j.j.j.j.j.e.e.e.i.k.z.Y.PXjXaXX.Y.Z z T T b.Y.T f f X.aXaXkXkXjXjXjXjXjXjXgXaX$X+.T.$XT.Z o.#X&X%Xb. X).).p.G G i.v.|.M n n 5.5.5.9.Z.S.S.S.A.A.A.A.A.`.].].].].D.A.].].].].].].D.D.D.]._.A.A.A.A.A.].A.A.A.A.A.A.A.A.B.Z.Z.Z.Z.Z.B.a.a.a.a.a.a.a.a.a.a.B.A.A.Z.a.5.5.5.5.5.5.5.9.9.a.",
"g.g.f.s.s.s.s.s.5.5.6.s.6.5.0.c.f.f.f.s.s.h.f.h.f.f.g.g.c.g.h.s.v.c.c.c.c.c.c.c.L.c.c.J.v.h.s.h.6.6.r.t.h.c.v.v.g.h.h.h.g.h.h.f.h.s.s.s.c.c.f.6.6.6.0.s.0.6.6.6.5.5.5.s.s.h.h.g.L.J.J.S.k.k.k.k.k.k.k.k.k.j.j.j.e.j.k.S.`.`.k.j.!.!.!.!.!.~.~.~.k.k.~.k.k.k.k.l.Y.PXCXaXo.Y.Y.b.T Y.b.Y o.W f ../ ( ( @.O.+.+.@.^ ..O.o.^ 8 8 f o f #X&X&X#Xl.x.l.z.z.v.v.t.t.t.h.5.M 5.5.b b 5.9.9.9.5.a.a.a.a.a.a.a.A.A.A.A.A.A.D.D.D.D.D.D.D.D.D.].].].].]._.].].]._.A.A.A.a.a.a.a.9.9.9.9.a.a.9.9.a.B.Z.A.Z.B.B.A.D.A.B.a.9.9.9.9.a.Z.F.F.F.",
"K.L.L.L.L.L.J.g.L.K.I.I.I.I. X XK.L.J.c.f.s.t.6.5.6.6.s.s.t.t.t.s.s.s.t.s.h.f.h.g.c.c.v.L.L.L.L. X X XI.K.v.v.v. XI.L.v.v.g.h.s.g.s.6.h.s.5.b b b b N b N 6.s.s.h.k.v.k.t.5.5.e.e.e.e.e.e.e.e.e.M n n M e.y.y.y.k.j.j.y.j.!.~.~.!.!.!.!.~.y.y.y.e.e.e.F F F w.K #XPXFXaXo.Y.Y.R.T #XR.Y.Y.Y.f 8 O ! ( 8 O ^ o...d f Z f Z Z o.Y.o.Y.Y.b.x.l.r.G r.G G N N n k k k b b b b b 5.5.a.Z.F..X`.`.S.A.A.A.A.A.D.].].].D.].].].D.D.].].].].D.D.D.D.D.D.].].].].].].].D.A.A.a.9.9.9.9.B.S.A.A.A.A.A.a.a.D.D.D.D.D.D.D.F.Z.V.B.9.9.9.9.B.",
"XXXXXXXXXXXXXXXX X X X X XI.I.I. X X X XK.K.L.J. XK.J.c.v.v.v.c.h.g.h.h.s.s.s.6.N N N 5.5.5.5.5.N 6.6.t.h.c.c.v.K.v.h.6.6.6.6.6.c.h.t.h.c.v.L.I.c.c.J.L.J.c.h.h.h.i.t.i.h.i.h.w.k.i.k.j.k.j.j.j.y.y.i.k.k.y.y.y.y.y.y.y.y.e.e.y.y.y.y.y.y.y.w.L y.y.y.y.y.k.(.z.#XPXCXaXo.Y.Z b.Y.Y.Y.R.Y.Y.o.o.^ ( ! w ! O.T.T.o.o.o.o.Y.Y.o.o.Y.Y.Y.x.x.x.x.l.v.v.z.h.t.G N N N 5.e.s.e.5.e.e.a.a.S.S.S.S.S.S.}.].].].].].].].].].].].].].].].D.D.D.D.D.D.D.D.].D.D._.].].D.D.D.A.Z.Z.F.S.F.F.F.F.].].D.D.S.F.D.D.D.D.D.D.F.S.G.Z.Z.Z.Z.B.d.9.",
".X.X.XK.L.v.v.J.v.J.L.L.L.L.L.L.g.g.c.c.c.c.c.c.h.h.h.g.c.c.c.h.t.h.g.g.g.c.g.g.g.h.h.t.t.6.6.5.b b b b n N N N N N 6.6.t.c.v.L.h.c.c.t.6.N 5.6.N b n M 5.5.5.e.e.e.e.e.k.k.i.y.e.e.e.y.j.!.!.j.!.j.j.k.!.j.!.!.~.!.!.~.!.j.!.`.!.~.!.~.~.!.!.!.`.~.~.!.!.~.~.z.$XPXjX$Xo.Y.Z Z Y.T.&X&Xo.X.^ ! ( ( _ O.&.aXkXkXhXaX$X$X$X$X$XT.Y.Y.Y.Y.x.Y.b.x.).b.v.v.v.v.v.k.v.k.k.k.k.i.i.k.e.e.e.e.a.j.S.`.S.A.A.A.A.A.A.A.D.D.A.A.D.D.D.D.].].].].].].].].D.D.D.D.].].].D.S.S.Z.B.a.5.4.5.5.5.a.a.a.A.A.S.].F.S.S.S.F.F.F.F.Z.9.9.4.4.4.4.",
"6.5.5.5.t.s.s.s.h.h.h.g.c.c.c.c.g.g.c.c.c.c.v.v.v.K. X XK.L.v.v.v.L.L.L.L.L.L.v.J.v.v.c.v.v.c.c.c.c.v.v.L.I. X Xv.v.v.v.h.6.n b N N N b b b N N 5.M M M e.e.e.i.e.e.i.i.w.e.e.F e.e.e.y.j.!.!.!.!.j.y.y.j.j.j.!.~.y.y.y.j.y.!.!.j.j.!.!.!.!.!.!.!.j.!.!.!.!.~.P $XPXjX$XT.Y.q Z o.Y.Y.T.! ! O + @ ) &.sXjXjXjXjXjXjXjXjXjXjXjXhX$X&X&X$XY.T T T Y Y Y l.z.z.z.p.z.p.p.p.k.k.i.i.i.e.M M e.e.i.k.S.S.S.S.`.`.S.S.S.S.S.S.D.D.D.D.D.D.D.D.D.D.D.D.].].].].D.D.D.D..X.XF.S.Z.d.9.a.a.a.a.A.A.B.A.B.a.a.a.a.9.9.9.9.0.d.0.0.7.4.4.4.",
"2XXXXX X X X XK.I. XI.I.K.L.L.J. X X X X XK.K.K.v.L.L.v.g.h.c.v.v.k.v.k.v.v.v.v.h.h.h.g.v.v.v.v.L.v.v.c.h.t.t.r.r.t.t.t.t.h.h.h.v.c.h.h.v.v.v.t.h.k.k.k.k.k.k.i.e.w.i.i.i.i.i.k.k.i.i.k.~.~.~.~.~.~.~.~.~.i.u.u.u.u.y.y.y.y.y.y.y.y.y.!.!.!.!.!.!.!.!.!.!.^.~.p.&XPXjX$Xo.Y.q Z X.o.o.T.O.+.+.~ | ,.jXcXzXjXjXjXjXjXjXjXjXkXjXkXjXjXjXjXhXkXgXgX$X$X#X#X#X#Xx.x.R R z.Y z.z.K t.r.G N n n k k k M M 5.5.5.5.5.5.5.5.5.9.9.a.Z.F.D.D.D.D.D.D.D.D.D.D.D.D.D.D.F.S.Z.Z.B.Z.L.P..X>X.X.X}.D.A.A.A.a.5.5.5.5.5.4.4.4.b 4.4.4.4.4.4.q.",
"v.J.J.J.v.J.L.I. X X X XXX X XI.K.K.K.L.J.v.c.c.c.c.c.v.L.L.K.K.|.|.L.k.h.h.h.h.L.L.v.v.v.v.c.c.t.e.5.N 5.N M n n n b n n M M M N N N 6.r.t.t.t.e.i.i.e.e.y.y.e.e.e.F F e.w.i.i.e.w.y.y.j.!.!.~.i.p.p.z.z.z.z.).z./.)./././././.^.^.^.^.^.^.^.^.^.^.^.^.^.^.(./.&XPXjXaXO.T.Z X.o.$X$XaX+._ } %.sXfXdX,.,.,.,.,.sXfXsXdXdXsXkXsXkXkXkXkXkXkXkXkXkXkXhXgXgX&X$X$X$X#XY.a Y x.Y x.l.l.l.l.z.l.t.6.k k k k k k k 9 b b b b b 4.9.S.D.D.D.D.].].].D.].].D.A.B.9.9.9.5.5.4.4.4.5.9.a.B.A.A.A.A.A.A.A.B.Z.Z.Z.S.S.Z.Z.9.4.4.0 0 4.4.4.",
"b b 5.5.5.6.t.s.h.h.c.v.v.L.L.L.L.L.J.v.c.c.c.g.v.v.L.K.K.L.v.c.h.k.k.k.v.|. X XL.v.v.g.h.h.s.t.t.t.s.t.t.t.t.t.h.t.t.t.i.h.i.t.h.t.t.r.w.w.i.v.k.k.i.y.y.y.y.y.y.w.M m M M m n F F w.y.y.y.~.~.=X%X#X#X#X#X&X&XE E E E E E E R /./././.-.-.R -.-.-././././.).-.&XPXjXaX+.T.o.Y.X.$X$XaX+.{ %.dXfXsX>.[ ) * = @ ] %.&.fXjXdXsXsXsXaXaXaXaXaXaXaXkXkXaXaXaXaX$X$XgX$X..o W #XT T v B Y l.l.l.t.t.t.r.t.r.r.r.t.r.6.5.5.5.5.e.a.S.A.D.D.D.D.A.A.A.A.V.V.B.a.9.9.a.a.a.9.5.5.4.4.4.A.A.A.D.].].].].A.D.D.].F.].F.F.F.F.Z.Z.Z.9.7.4.",
"h.s.s.s.h.g.g.h.t.s.g.v.L.L.K.K.K.K.K.K.K.K.K.L.c.v.v.c.s.r.s.h.k.k.k.k.h.h.t.t.5.5.e.s.s.h.g.g.k.g.g.v.|.|.|.|.|.v.v.z.z.z.z.z.z.l.b.%X=X%X).z.t.r.t.k.k.i.i.p.k.z.v.v.(.(.(.z.p.z.(.(.(.(.(.).*X&XY.Y.Y.o...f d d f o.o.o.o.o.;.#X#X#X$X$X$X$X#X$X$X&X$X#X#X;.kXIXjXQ.o.T.o.o.X.aX;.aXaX<.| | :.<.>.<.,.,.%.| } | } ,.fXsXsXfXfXfXfXfXkXdXsXsXaXaXaXaXaXaXaXaXaX$Xd o o.hXo.C T b.l.Y K t.r.t.r.G G G M M 5.5.t.s.s.h.a.e.5.a.A.D.].].].].].].].D.A.V.a.9.7.5.9.a.a.Z.L.S.F..XF.`.].].].].A.D.].D.A.A.A.A.V.V.V.A.A.A.V.V.G.F.",
" X X%X7X XL.K.L.L.%XK.v.L.v.k.g.c.g.s.6.5.6.6.t.c.h.s.s.h.h.c.c.v.g.t.t.h.g.k.k.v.v.v.L.L.v.v.v.v.(.oX X|.k.w.t.N l.b.x.Y.Y.#X#X&X#X*XMXAXMX*XtX*X=X).x.).).)./.).).).).).).).).).).).#X#X).x.#XY.$X+.T.aXaX;.+.<.aXkXfXkXkXkXkXaXaX,.<.sX,.<.<.<.<.;.;.;.aXaX+.aXIXjXQ.O.o.Y.o.O.aX+.= = = = ] <.,.<.<.<.,.<.<.<.<.| _ | sX,.<.} { _ * @ * | dXsXsXsXsXaXQ.aXaXaX$XX.. O ....&XR.U.l.l.l.l.z.l.l.t.r.G r.r.r.r.t.e.t.h.t.5.M M e.A.A.A.A.]._.].].].].A.a.9.4.4.4.b 0 4.9.S..X.Xa.B.a.a.a.a.j.a.A.A.D.D.A.A.A.A.A.A.A.A.D.D.D.D.",
"v.v. X Xv.h.g.t.s.v.c.c.L.k.k.k.c.J.L.L.K.I. X X X X|.|. X X X X%XXX X X|.L.L.L.L.L.L.L.L.v.v.g.v.i.r.w.r.r.G t.B b.%XbXAXHXHXSXhX*XmX&XT.$X$X&X*X&XY.Y.x.E E E W W W W C U E o.#X#X$X$X$X$X$XgX$XgXkXaXaXsXsXsXsXsXsXsX1.,.:.[ : : ; ;  .:.:.:.:.:. .= $ = = = dXIXzXaXo.Y.Y.o.O.{ { ] | :.| | ] } | <.<.| = O ] <.aX| | ,.sXdX| } | | | | &.aXaXaXaXsXkXaXaX+.T.O./ O O X.o.$X$XY.b.b.l.Y l.K K u.z.z.t.r.w.w.w.M n M e.t.t.e.d.S.S.`.].]._._.A.D.D.F.F.F.P.P.C.C.B.a.a.9.9.9.a.B.A.A.A.A.A.A.D.].].}.].].].].].].].].].].].D.",
"t.t.k.v.k.v.K.v.v.v.J. X XL.|. XL.L.L.L.v.c.c.g.t.t.t.t.t.t.t.r.c.h.h.h.h.g.k.v.h.h.h.g.k.g.h.p.w.G G r.z. X#X%X#XR.&XbXHXLXDXmX&X$X$X..O 8 d 8 ^ ^ ^ X.o.o.o.;.O./ +.$X;.$XkXaX;.aXkXkXkXkXkXkXkXaXfXfXsXsX1.<.1.sX1.%.} } | [ <.:.:.#.$.#.#.[ #.#.| ] ] ] } %.sXIXzXaX+.T.T.T.+./ { |  .| | | ~ * O * { <.| | <.%.,.sX<.| | ,.fXsXaXsXsXdXfXsXsXsXaXaXaXkXaX+.kXO.! O O d ..o.o.T l.l.l.l.l.K l.r.K N N G G G t.t.t.w.M 5.M b b b b 5.a.A.D.].].].D.D.D.S.S.F.F.F.`.].D.A.A.A.a.A.A.A.A.A.A.A.A.].].].].].].].].].].].].].].].",
"v.v.L.|.|. XXX XXX XI. XL.v.L.v.c.g.s.6.6.6.6.r.t.t.r.r.r.r.5.5.t.t.t.t.s.h.h.g.k.k.k.v.v.h.t.t.r.v.%XrXuXyXMXAXHXHXHXSXVXmX$X..8 O d ( ( O.+.+.+.aXaXkXkXkXkXkXsX,.sXdXsXaX,.<.kXsX,.<.<.<.<.<.,.:.>.#.[ ] ] - ) [ } $.[ } >.>.[ ;  .$.[ ; - - - - ] } | | ) * ,.IXzXaXO.o.T.T.+.{ | | ] ] : = ( { +.+.~ { | | =   ~ | <.,.&.{ &.fXfXdX,.sXdXaX,.aXaXaXaX&.aX+.+.( O ( O.+.+.$XY.Y.b.b.l.l.l.K t.K B G r.i.t.t.n 5.r.t.t.s.t.h.h.s.5.5.a.a.a.a.a.B.a.B.B.Z.Z.Z.F.F.D.].}.}.].D.D.D.D.A.A.A.A.A.A.A.A.A.A.A.D.D.].].].].].].].].",
"L.L.v.g.h.h.h.t.c.t.t.t.6.t.h.r.h.t.t.6.6.t.t.t.c.v.v.v.K. X X X X X X X X X X Xv.v.L.L.v.v.v.v.v.%XrXuXyXyXnXNXBXmXmX$XX.X.d O d ! / _ O.+.+.aXaXdXfXdXdXfX1.1.>.>.>.>.%.#.%.<.| ] ]  .| | } ] ] #.>.} - - - ] [ ` [ >.1.&.#.#.= & [ #.$.$.} } } ` #.,.<.<.| * sXIXcXaX+.T.T.T.O.! $ & & = = = = / +.<.@ O = = | { | | ,.kX,._ _ aXsX,.sXfXfXsXdXdXaXaXaXaXaXQ.O.! O O 8 +.$XhX$XR.b.l.l.l.l.K l.l.l.r.G G G r.p.t.r.r.t.t.t.t.s.h.h.g.d.g.a.a.a.9.5.5.4.4.4.b 4.4.9.a.V.D.].].].].D.D.D.D.D.D.A.j.j.A.A.A.S.D.A.D.]._._.].].].",
"L.v.c.g.g.h.h.h.h.t.c.c.h.v.v.c.v.v.L.L.L.v.v.v. X XK.v.c.h.s.t.N N N N N N N 5.e.M M M N n n N v.v.b.b.R.#X*XmXDXhXgXX.8 8 8 8 ( { O.+.&.&.,.dXsXsXsX&.&.>.>.$.:.:.$.$.#. .[ [  .] ] ] - =     # [ >.[ [ >.>.,.@ # @ $.>.$.#.>.>.| #.#.- - - - } ` %.>.#.%.1.%.fXIXzXaXT.T.T.T.T.(     & & & =   + O { ~ { <.<.;.;.=   { aX&.+.&.fXfXfXfXaXaXdXdXsXaXaXkXkXaX+.O O / O.X.o.T.o.Y.b.l.l.l.l.l.l.K K K G G G r.t.t.r.r.t.t.t.t.t.e.e.t.t.5.5.5.5.0.9.9.5.5.5.6.6.4.4.5.5.9.B.A.D.D.].D.D.D.D.D.A.a.a.a.a.a.Z.Z.S.A.A.A.A.A._._._.",
"L.L.L. X XK. XXX X X%X XK.K.K. X X X X X XK.v.v.h.c.c.c.c.h.h.h.v.v.c.c.c.c.g.h.v.k.t.t.t.t.z.b.v.b.b.Y.#X&XBXVXT...^ 8 d ^ X.O.O.+.+.%.&.&.&.&.,.&.&.%.&.1.1.2.:.$.;  .$.[ ; - #.| | | ) ] | %.) %.%.* @ * * [ %.#.#.1.>.- $.#.>.#.>.#.#.&.>.,.$.[ $.$.- =.$.=.lXvXfXQ.T.T.T.T.aX+.{  .] : = = = = * <.| | | ;.<.1. .# ] sXsXaX} sXjXcXjX&.sXjXaXaXaXkXQ.O.( + O O ( O.o.o.o.o.T b.b.b.z.l.l.l.l.t.t.t.p.t.G m m G r.e.e.r.t.t.i.h.i.t.5.5.5.5.5.5.5.5.4.5.6.0.0.9.9.9.a.A.D.].].].].].].].D.A.A.a.a.a.a.a.a.a.a.a.j.j.j.A.A.A.",
"s.s.t.s.e.n n r.N N t.t.6.N t. Xv.v.h.t.5.N N N t.g.v.v.v.c.c.c.h.h.t.h.c.v.v.k.t.r.t.p.v. X=XrXrXMXNXJXAXhX&X$XX.o O 8 8 ( O.aXaX<.,.aX,.&.&.&.&.%.&.&.>.2.*.*.$.; [ $. .$.$.$.#.#.| ] * = * @ @ ) %.| ) * = #.[ #.>.lX1.[ $.#.- [ #.#.#.>.#.` $.$.$.*.$.*.*.*.xXvXzXdXQ.Q.T.T.T.@.{ {  .<.<.<.:.] & = = : = = = & : ;  .| <.sXfXsX<.dXzXjXjXdX+.@.Q.aX8 O ! ( ^ X.X...o.Y.Y.T b.b.l.l.K B K z.l.r.K N x x G G r.r.M x m r.r.M M M e.s.5.e.e.5.5.5.5.5.5.5.f.H.C.d.a.a.A.D.].].].].D.D.].].].].].D.A.a.a.e.5.5.5.e.e.e.a.j.j.j.",
"h.h.g.h.t.s.t.6.N b k k k k x n n n N N r.t.c.v.|.K.v.c.t.e.5.M 5.5.5.5.w.G r.r.v.v.v. X%XiXiXuXuXAXbXmXVXgXgXjXO.d ^ d O ( / +.&.aXaX,.&.%.&.&.&.,.,.&.dX1.$.$.2.*.$.=.- ; *.$.$.*.#.$.` - $.&.1.&.%.#.[ ]  .; #.:.; $.1.#.- #.:.[ $.[  .[ = $.1.*.*.2.2.2.2.*.xXvXzXaXQ.T.T.T.O.O.+.,.| &.&.%.} [ [ ] ) = = = & &   & - ; ) ] | { ,.fXsXaX&.+.Q.! O d O 8 T.T.T.o.Z ..o.Y.b.b.x.l.l.l.z.z.z.z.r.u.r.r.K H G G F r.i.r.w.w.w.e.5.M M M 5.6.5.b b b b b b 5.5.5.e.k.S.S.A._._.]._._._._._._.A.A.D.].A.A.A.a.j.S.`.`.`.S.S.a.a.9.",
"h.h.h.h.t.h.v.v. Xv.h.t.t.r.t.v.v.c.v.v.v.v.|.|.c.k.h.h.g.v.|. XL.L.|.|.|.(.|.|.|. XoX=X%XoX(.x.#X&X*XSXPXPXFX$XX.O o + + O ( _ +.&.&.&.+.} &.&.,.sXdX&.$.*.1.3.*.*.2.:.$.$.2.:.*.$.$.$.$.$.$.$.- * - [ - - ; ; ; ; & - #.#.[ [ [ [  .- - : - :.1.2.3.3.xX3.3.*.vXIXcXkXQ.T.T.T.T.@.@ @ ~ %.} ) - } %.<.| ] ]  . . .$.:.>.] = @     ) <.{ * O.+./ 8 8 o.T.o.o.f Z T T o.Y.b.x.x.b.l.z.z.l.l.K K K r.t.t.r.r.u.p.G t.k.i.t.h.k.k.t.e.e.e.s.h.g.h.5.5.5.s.s.a.5.5.e.k.j.j.`.}.}.}.A._.A.A.D.A.A.A.S.S.F.S.`.`.A.j.j.j.a.a.a.a.a.d.",
" X X X XL.v.K.|.|.v.v.v.(.(.(. X X X X X X X X|.|.(.v.v.k.k.i.i.t.t.t.i.t.r.u.i.i.r.r.p.z.z.(.oX).#X*XJXmXT...o X.X...^ 8 O O O ( _ +.<.+.+.,.,.aXsXfX,.$.1.1.*.*.*.$.$.=.$.$.$.1.:.$.:.$.- [ $.$.[ #.:.#. .; ; ; - & - ; $.>.[ ] ; [ ; ; $.; ; 1.3.3.3.xXxXxXxXzXlXkXaX+.T.T.X.( / ! ~ @ @ } dX&.&.} ) [ | #.<.#.#.#.#.>.#.[ ] ] } ) { +.<.+.O o . . f o.o.Y.Y.Y.Y.Y.T B v z v Y l.l.z.z.z.z.r.K r.t.r.G J J G H u.i.r.w.w.w.e.e.M M M M 5.e.6.e.6.e.s.h.h.h.i.w.y.e.e.j.j.j.j.a.a.a.a.a.a.a.5.b b 5.5.a.S.A.A.a.A.A.a.a.5.b b ",
"v.k.v.v.v.g.k.k.t.t.k.v.v.v.v.v.t.t.t.r.r.G M M M M e.w.i.i.i.i.i.i.k.k.k.k.k.p.(.k./.(.(.(.(.oX).#X#X%X&X*XmX&XY.$X$XT.X.8 O + ! { +.<.+.O.+.%.) %.,.,.>.>.2.2.2.$.=.=.=.$.=.; - - - $.$.[ $.>.*.$.[ [ ; ; =.=.=.; =.=.- $.1.$.- [ :.$.; ; ; - 3.vXvXxXxXdXdX&.} ( ( @.T.T.T.O.+._ ~ } ` - ) %.&.1.1.,.>.#.%.%.#.<.%.| | #.| [ %.:.<.| +.+.d 8 +.T.Y.Y.Y.Z T Y.T T T Y Y l.l.z.Y K P r.u.r.t.K K H G H u.p.p.u.p.p.p.t.w.w.G m G M e.i.i.e.t.h.s.5.5.5.e.e.e.y.y.j.j.j.j.a.e.e.5.5.5.5.4.b b b 5.5.6.5.b 5.a.a.A.D.].D.A.a.5.5.",
"k.h.c.v.c.h.k.k.v.p.t.t.r.r.r.r.k.k.k.k.k.k.k.k.k.k.k.k.k.k.k.k.(.(.|.|.|.(.(.(.~.(.(.|.oXoXoX(.(.p.K K ).%X&XY.Y T T #X&X$XT.8 O O O * !   + * O.,.aXaX,.&.$.2.1.2.$.=.; - & & & & & - $.=.- - ` - * = & & $.3.2.2.3.2.$.2.3.2.- ; *.$.$.$.$.=.3.xXvXvXxX*.` ~ @./ ..( T.Q.Q.Q.Q./ @ ` $.%.` * [ * # = - [ #.) [ %.%.| [ ] ] ] ] = $ O ( / d d X.o.o.Y.Y.Y.Y.Y.b.T b.x.x.x.l.z.z.z.z.z.z.z.u.u.v.z.u.p.p.p.H J J H K r.t.t.t.r.r.r.r.t.h.r.t.h.k.k.h.i.w.e.e.e.~.~.j.j.j.a.5.M 5.5.b b b b 0 0 9 k 6.h.a.a.S.`.].].]._._.]._.].",
" X|.|.K.v.v.v.v.k.k.v.v.|.|. XoXoX X|.v.v.k.k.k.i.i.i.i.i.i.i.i.k.i.i.i.i.y.y.u.^.^.p.u.u.p.p.p.~.(.(.oX).R K Y z.z.x.%X#X#Xo.d d O O / +.( O / +.<.&.&.,.,.1.1.*.2.2.2.$.- - - - ; - - $.$.$.$.- * * - - - *.xX3.3.3.3.*.*.2.*.*.$.$.$.$.1.lX1.2.3.3.xXdX$.- ` / @.O.! +.Q.&.@.@.w @ ` @ * ) ` - ` [ $.` - [ { _ _ ~ _ } ] * ; = ] = O + O +.+.o.o.o.Y.T T Y.T b.T x.x.x.Y Y z.z.z.z.z.z.z.z.z.u.u.p.p.p.p.p.p.J H K u.t.t.t.t.G H G G G M M F e.F e.e.i.k.~.`.j.j.e.j.j.S.k.t.5.5.4.b b b b b b b 5.h.g.a.S.`.`.]._.A._._._._.",
"v.v.v.g.t.k.v.k.k.p.k.k.i.w.M m n n n n n m M F w.y.k.~.~.p.p.y.~.k.k.~.p.y.y.p.u.u.p.p.~.~.(.~.~.oXoXp.p./.)./.(.oX).).R Y W W d O d +.aXO.O 8 / @./ ! @ ) &.,.1.1.1.2.*.*.$.:.$.:.*.*.2.2.2.1.2.*.$.$.$.; =.2.3.3.3.3.2.2.2.*.*.$.$.$.$.1.vXvXxXxXdXdX1.=.$.$.O O ! w &.&.&.$.%.* @ * @ @ @ * @ @ # @ * @ @ * @ w 8 / &.<.|  .|  .] { ! O ^ o...o.Y.Y.b.b.b.b.Y.E E E x.x.x.x.Y R R R K K K K z.z.p.p.p.p.P P p.p.p.p.u.r.r.r.H r.H H r.r.r.t.i.e.F M m m F e.`.k.a.a.k.k.a.5.5.5.5.5.4.4.4.b a.a.e.e.a.e.e.e.j.A.`.`.}._.].].",
"v.v.v.v.v.v.v.k.v.v.v.v.k.k.k.k.v.k.k.k.k.k.k.k.i.i.i.y.u.y.y.y.k.y.y.k.p.p.p.^.^.p.p.^.p.u.i.k.~.i.~.(.(.(.(.(.~.~.~.^.).).R E Z ..o.T.$XO.O + O O + + @ ( ) * 1.$.- - $.2.2.*.*.2.2.3.3.2.2.2.2.1.1.2.$.*.1.3.3.3.3.3.*.*.2.*.$.$.$.*.*.1.lX1.vXvXvXvXvXlXlXdX%.@ @ # &.*.dXdXdXdX&.&.` ` ~ ~ _ &.{ } %./ / +.O.T.+.@.+.%.| #.; [ ] ~ +.O.O O ..o...Z o.Y.T Y.Y.E E E x.x.x.Y z.z.x.z.z.z.P P K K J H u.P K J K K K K J J G K J r.H G r.w.F F G e.w.r.r.r.r.t.M 5.M n 5.5.5.6.6.5.6.6.5.5.5.5.b e.a.5.s.t.5.5.M e.j.`._.A.A._.",
"(.v.(. XoXoXoXoX X|.v.i.k.k.i.k.k.k.i.w.w.y.y.y.y.w.F y.k.~.~.~.|.(.~.~.~.~.~.p.y.y.u.p.p.k.k.~.(.(.(.(.(.~.^.^.~.^.~.(././.z.x.x.x.Y.#X$XT.@.( / + O @ ( / @   ) } ) ) } @ - ` &.$.$.*.*.2.2.=.*.2.1.2.*.2.1.3.1.2.2.1.1.2.*.*.2.2.*.3.$.>.xX- + zXdXlXvXvXIXvXzXlXsX*.*.=.=.$.*.*.1.dXdX&.sX&.@.Q.@.+.T.X.T.Y.o.X.../ O.| [ :.:.:.#.[ ] ~ = O + ^ $Xo.....o.o.T T E x.Y R #Xz.x.Y z.l.z.z.z.P z.u.z.K D K p.p.K z.u.K u.P J G K u.r.u.u.v.(.r.r.w.M m n N N N 5.5.5.5.b b 0 0 b 0 b b b C.L.0.5.5.4.b 5.5.a.k.j.j.a.a.j.`.}._.",
"oX XoXoX X(.v.v.e.i.i.k.k.k.k.k.(.k.i.y.y.i.i.y.y.i.p.p.~.~.~.~.~.k.i.i.i.i.i.u.k.p.k.p.p.i.u.i.u.y.u.p.p.p.p.^.p.p.p.p.p.p.p.p.).z.R T W f ^ ^ @.O = ! O.aX+.$ = _ %.sXfX) @ ) * $.$.$.$.*.2.2.3.3.1.1.3.1.2.$.; - - - - $.1.3.3.3.2.3.lXlXzX#.` zX` @ sXzXsXzXvXvXvXxXxXlX1.*.=.=.=.$.&.%.&.O.@.T.@.X.X.X.X.Z Z q f X.O.{ * * = &   = ] %.%.+.+.+.<.O.+...f f W Y.T U E U S R x.z.l.z.l.z.z.r.K u.K J p./.P P J K K P K K K c r.p.K K H H u.D i.t.G N N N 6.6.6.6.5.M b 5.6.6.5.b b b b 4.5.4.9.0.0.6.5.4.a.S.oX|.`.S.A.j.A._.",
"|.|.v.p.t.r.t.i.|. XoXoXoX|.(.(.~.k.i.i.k.~.k.y.y.~.~.i.w.w.w.F w.y.w.w.w.u.u.u.H F H L u.u.p.^.~.^.^.~.~.~.^.^.^.^.^.^.(./.(.(./.z.z.x.x.o.#X$XgX+.^ O d $X+.^ ! ~ ~ ) } _ &.&.sX&.- - $.*.2.2.2.:.$.$.$.; : & = & & &     - $.*.2.1.1.*.*.lXvXfXzX&.` fXsX# aXlXsXlXzXvXvXvXxXdX&.%.} &.+.@.@.@.X.@.X.X.Y.Z Z Z 7 f o.+.+.{ ~ =     = ] %.<.<.| | %.+.aX;.O.O...7 s T T U E R x.z.z.z.z.z.p.u.z.z.p.K P P K z.P K K K J K r.u.J J x N r.t.t.t.M N N r.r.r.6.6.6.5.5.M t.k.g.s.5.6.6.0.0.5.b 5.b 4.4.b 4.5.5.g.S.k.k.k.a.5.5.e.",
"m G r.i.v.oX=X=XoXoX|.v.k.k.i.i.F F e.y.p.~.i.y.y.k.i.w.F H w.H y.y.i.p.k.p.~.(.(./.~.~.~.~.(.(.~.~.^.~.^.p.p.p.u.u.p.p.p.z././.(./././.x.Y U U o.g s o f o.o.o.$ O @ O @ { sX%.sX&.$.*.*.*.2.2.$.; - & & & : : ; = & &   # - $.- *.1.*.$.1.zXIXvXcXcXlXzXsX@ dXfX* ` lXlXdXvXvXIXvXzXQ.+.@.X.X.Y.w T...f ..7 Z q X 8 o.O.+.aX<.<.+.{ ) ] | %.#.%.| %.} ] { { ! o.o...Z W f a T T R l.x.z.z.z.z.z.K Y z.K S K P K z.R K z.K x m p.p.K J r.r.G r.N N N N 5.5.5.5.b b k b M s.t.s.s.5.5.s.f.0.5.6.5.4.b b 5.5.b b n n 5.a.S.S.j.j.",
"%X%X%XoXoX X(.v.r.w.F M F w.w.y.y.y.~.~.~.~.y.y.w.F F w.w.y.i.k.p.p.~.~.(.(.(.(.(.(.^.p.p.u.L u.L L L L u.u.u.u.L L L L L P P u.p.p.p./.).).#X#XE W W o.o.#Xo.o.' O O   O @ +.%.) - $.3.2.2.2.$.; - - ;  .:. .; & & & # * #.1.fX>.1.1.; $.lXcX3.lXzXvXcXvXcXdXzXfX` ` lX&.# sXzXsXzXIXaX@.X...X...q X.7 7 Z X Z Z Z X...8 o d @.+.O.O./ { | | ] ] ] [ [ } <.,.} +.$X+.d ..o.f f f C v v v v v B z.Y z.x.z.Y S y v S v K z.P S P z.z.p.G t.t.B K t.B n b n M t.h.t.t.N b k h M k.k.5.n b b b 5.b s.g.a.a.5.5.5.5.g.h.a.a.S.`.S.j.",
"G G N m m F M m G e.w.i.~.(.(.(.oXoXoX|.(.~.~.p.(.~.k.(.(.(.(.(.u.u.u.u.u.u.u.L D m D D D D D D L H H L u.L L L L y.u.u.p.p.z.z.).).)././././.z.).E E E o.o.o.o.^ d O O *   O * ,.` - 2.2.*.*.$.:.2.:.$.- & &   & : ; - [ 1.lX1.* - - # & :.1.#.[ #.>.dXcXcXIXIXzXfXsXzX&.@ ,.zX  ` zXQ.X.Y.X.Y.q q Z 7 q Y.7 Z Z Z ..f 7 o o 8 8 d ^ X.O.+.+.<.| <.| %.%.| [ } O d +.+./ @.+.o.....W C v z p v v Y Y v B Y l.l.l.Y S v c c K S J K P K K z.l.l.K B N n N r.k.v. Xv.t.r.N N i.|.k.e.e.M h k b k s.i.e.e.e.e.e.5.5.5.5.5.e.j.j.j.",
"D m x m m G r.p.p.p.k.(.|.|.|.|.v.v.k.p.p.k.k.p.i.r.r.w.w.w.G m D D D D D D D D F G H u.u.L L L u.y.L u.u.L L L u.u.p.p.^./.(././././.(./././././.-.).#X#X#XY.W d d ! O @ @ ~ } &.` =.2.2.*.2.2.2.*.$.; # # =  . . .:.#.[ #.fX1.1.2.1.1.#.$.$.$.:.$.- [ [ - fXzXcXvXcXzXzXsXlXzX@ ) zXQ...X.Z Y.q q Z q Z Z X > 7 7 7 7 7 7 o X 7 7 7 8 O d / +.;.<.{ O.+.{ { <.^ 8 o d aXaX@.^ o.o.Y.o.Y.T T x.C E v r 4 t B b.B B K K S K K c K S P K K K K K K K G G G G G G G N M r.i.i.k.~.j.y.k.i.e.e.w.N e.j.y.e.e.e.e.5.b b 5.5.5.e.a.j.",
"r.r.p.v.v.p.k.(.oXoX(.k.p.w.H w.G G N G G r.G m m m M n n G w.F D D D F w.u.u.u.p.u.p.p.p.p.u.u.y.L u.p.^.^.~.(.^.^.^.~././.z.z.).z.p./././././.)./.).).x.#X#Xo.o.^ O.O.~ @ _ } ` &.1.2.*.2.2.*.$.- - $.#.#.|  .=   ; #.& & #.1.1.1.>.$.- - $.:. . . .>.[ # >.#.>.1.lXzXvXIXcXlXfX&.zXT.8 Z 7 Z U.Z T Z q 7 . . . . X . X 7 7 7 7 7 7 o o o o o O O o / O.O./ ^ T.f 8 O ! +.+./ O d f W o.o.T o.T U Y T v u z v 5 c l y B K K Y S c K Y S S S K K S N N m x x x x N t.t.w.F w.i.i.k.i.k.k.k.t.k.y.~.|.~.j.e.y.k.v.h.e.5.M 5.a.S.",
"(.(.|.|.(.v.k.p.w.w.H H w.r.p.k.p.t.G M m n x x n m M w.r.t.i.t.(.p.w.r.(.|.(.k./.p.p.i.i.p.~.^.|.~.p.p.p.^.^.p.u.u.u.p.p.(.(.)./.)././.z.z./.z.z.z.).E E #Xo.W f ^ kX+.*   %.} ` *.1.*.*.*.*.*.*.$.*.2.:.#.#.] | :.>.; - :.>.1.1.lXlX[ - $.>.; = #.#.#.; - #.[ $.:.:.#.>.fXvXcXIXKXKXT.f Z Y.Z Z Z Z 7 . X o . o . . o o X . 7 o 7 7 o 7 7 7 7 8 7 o o o O 8 d f f f ..+.aXaX+.X.d f f ..o.o.o.T W E E E b.T Y l.l.Y l.Y v S R K z.v y S K c S c P K K r.z.z.z.K x y x m m G i.e.m m F m H p.w.i.i.~.|.k.y.i.5.M e.k.S.h.e.e.h.",
"|.|.k.k.k.k.k.k.i.w.w.G F F F F m G G G M G G r.i.w.G G t.k.k.k.w.i.k.v.k.k.p.w.m D D F y.y.y.u.L p.(.(.p.u.P u.p.(.(.(.(.p.p.z.P z.P P p.P z.P /.K R E Y.#XE W W ^ O.O + + ) ` ` - *.2.*.*.*.2.*.2.2.$.[ #.:. .; ; | :.:. .- >.$.$.>.>.#.&.&.[  .[ ; [ #.[ #.[  .:.; ; #.>.#.* ,.jXKXaXo.Z U.Z q 7 7 7 7 o o o 8 7 o o . . . . X o 7 7 7 q 7 7 7 7 8 f f 7 o o . o 8 f ..o.T.o.gX$X$Xo.X.X.....o.o.T C C T E T C Y Y Y z.Y v S Y K K S c A K c c K J K m j x N l.z.z.v.z.r.r.t.r.G w.G m D H D D y.y.y.j.e.e.5.M M e.h.w.5.5.5.",
"F m m m F F G w.F F e.w.r.i.i.k.k.k.(.(.(.(.|.|.~.k.k.(.|.|.(.~.i.i.w.F m m m m H w.i.k.~.~.~.p.^.^.p.L L P p.^.p.p./.p.p.p.p.z././.p.z./.z./.z.).R E E E E E o.o.o./ ( O @ { %.&.$.*.2.*.*.*.=.*.2.$.=.; ] - = ;  . .= = = = * #.2.1.*.#.$.>.>.>.#.#.>.#.; [ ; [ :.; ; #. .; - = | aXo...Z 7 7 . . . X . . o f o o 7 7 7 8 7 7 7 7 o o 7 7 o > o 7 8 7 o o O o o o . . . o 8 8 8 f o.Y.T.$X$X$Xo.$X$X&X$XW Z T T U T T U U Y Y Y N K z.K K /.p.J G D G J m x x r c K G J K K r.t.K r.G D H i.i.k.y.D F ~.~.k.w.e.5.e.e.w.e.e.5.",
"F w.i.k.v.v.v.(.|.|.|.|. X X X X|.|.|.|.|.|.|.|.k.k.~.k.p.y.w.F F F w.r.k.k.k.k.(.(.(.~.k.i.y.H u.L D H p././.p./.z.p.p.z.z.z.z./.z.P z.z.P z.R S R x.E E E T T o...O.;.* ~ %.&.` *.2.3.2.2.*.=.*.*.$.$. .] = = = : = & $ $   & #.lXlX; - # # - [ #.#.[ # - #.[ ; [  .#.:. .;  .: : ~ $ d 8 o . 7 8 8 o o o 8 f 7 X . . X o . o o . . . o o o o 8 8 f f 8 ^ ' d d d $ % o o o o X o 7 8 f X.o.o.CXhX$XhXDXmX&X$Xo.C o.Y.U E #XY Y K K z.z.A H p.u.u.F m D G G x N G J m x x x j x x N G m D w.y.i.y.i.i.F w.k.i.w.N n n M e.e.e.",
"|.|.oX X X|. XoX|.|.|.v.v.v.v.k.v.v.k.h.i.i.e.G i.t.r.w.H r.i.k.(.|.oX(.k.u.w.w.w.u.u.u.i.p.p.p.^.^././.z.p.u.u.H P u.u.u.K J m K K J K K A R R z.R R U W E W W W f ^ aX* ~ %.&.&.*.*.2.3.*.=.=.=.$. .[ | ;. .: % %             - 2.1.$.$.[ $.$.>.#.&.1.>.$.#.#.>.#.#.:. .[ #.[ #.] ] $ O O O + 8 d O . 8 f 8 7 X . . . . X . . . . o o o o O O O O O d ! = ' ' ' ' ' g f d o o s o o o o o 8 d ^ ..8 ..T.$XgXhX&XY.Y.Z a W W i Y Y K z.z.K K /.H u.u.G D H w.H u.u.u.u.p.u.H G D H i.p.y.F F m F w.(.(.H F w.F G m k b M 5.e.e.",
"v.k.i.i.i.t.r.w.M M N M 5.5.5.w.M 5.5.M M M w.t.M G w.p.(.oXoXoX(./.i.H G G w.p.k.p.p.u.u.p.p.p.L L P H H K u.p.p.p.z.p.K J m m m m m J c c K K Y S v a a C C W T Z d +._ * @ @ %.$.- 2.2.3.2.2.:.:.:. .; = %   % %   &     = ; - >.fX#.; ; $.; $.>.1.1.>.- - >.&.[ [ - & - #.$.[ ] | ~ { <.<./ { O.^ O o o o . . o o o o o . . . o O o o O 8 ! +.aX{ O $ O O = % % %   + O O $ ^ ^ ^ @.X.^ ^ f 8 X.X...8 Z Y.*XBXbX*XY.b.E Z T U R R R K K /.z.z.P p.p.p.r.G H u.w.r.u.u.G F H F H i.i.i.i.i.i.F w.r.G u.u.D m r.G N N e.e.w.y.",
"r.r.r.r.r.w.M M r.r.t.r.t.t.t.t.6.6.N n k k k n m G r.v.(.(.k.u.H J F u.p.p.p.p.p.p.p.u.p.p.p.p.p.p.p.p.z.z.p.u.p.p.p.H m x x x x x x x y c Y S v Y E E E Y.o.Y.T T d / /   + + * $.2.3.*.3.3.2.*.$.$. .: & & & & = =  .#.; #.1.# >.lX#.; - #.- ` $.- # $.lX1.$.` [ | - = - [ >.&.&.#.{ dXfXsX%.| | { * O 8 ^ ..8 o o . . o o 8 O O O O 8 ^ / ( { aX} = ~ ~ * = & $ $   O ~ | <.%.&.&.,.&.+.<.+.kX+.o...Z Z z q V b.%XR.R.Y.Y b.T T T Y i u U v v y c K u.p.u.u.G F F D m m F w.i.u.F m m n n k x N N k j x x G N N N N 6.e.e.e.",
"r.r.t.r.G G w.t.t.t.t.r.5.5.5.N N N b b b N M w.v.v.k.i.y.y.y.p.p.~.(.(./.u.H u.u.u.u.p.p.p.u.P J H H H H H J J J J H P u.K K D m x x c c S x.R x.Y.E v C Y.o.o.T W d ! ~ O * _ #.1.2.2.=.2.2.2.2.$.; &   & &   = >.#.; $.#.>.$.; fXlX$.[ - $.#.# = [ #.$.$.&.lX#.#. .= = # # >.[ } @ # &.%.* ` [ ~ @   @ +.;./ ! O O O O O O ^ O./ ( ( O.+.~   { { * ] | } | | { | <.| | %.%.#.&.,.&.%.} _ { ~ { +.jXgXY.Y.Y.U.Z V b.b.l.b.U.V Z C C Y v i Y x.v v Y S c K J D r.r.G G N m m D G G G r.i.v.t.t.M j k h h N N x n k k b N 6.t.e.",
"v.v.p.k.k.v.v.k.h.h.k.i.r.5.5.M n n M e.h.k.k.k.k.i.i.k.(.|.|.(.oX(.^.p.u.H H P G H J P P D J D H P P u.p.p.p.p.u.p.p.u.P P P p.z.P P Y Y Y Y Y Y T U T o.W ....W f d ( O @ O { sX1.2.2.3.3.2.*.2.1.>.2.$.$.$.; >.$.- - $.[ = &   >.lX>.$.[ [ $.#.>.#.` >.1.%.1.sX>.= # #     - :.%.} } } ` ` ~     @ ~ | | * = = : ] ' ' / / +.= ( O.O.* = ~ _ } { { { * ~ | ) ) ) ] ] ~ ) { ` } } #.} } | { { O.+.gXCXLXhXT.mXBXY.Y.%XR.H.q.q.9 9 l z l.l.B B l B B Y c j c c K K K t.t.r.t.v.t.m w.N n r.t.t.w.s.6.b N g.c.6.6.5.b b N k k n ",
"z.v.v.p.i.i.k.k.r.w.e.i.h.v.v.v.k.k.h.k.k.k.i.i.~.(.(.|.oX|.(.(.L P u.L H J J J H P J A A D H A H H H H H u.u.P u.P H L P P P P P P R R E E E E E Y.E T T W ..W o.f +.aX! O   @ 1.fXlXlXlX1.*.*.*.*.$.2.:.$.$.2.:.:.$.:.1.$.= = * 1.lX#.; ; ; - [ #.[ ; ` %.dXlX$.$.[ - ; :.,.<.] ) - } } ` ) * * ) } ) = = : : : : : = = = = ~ { { / ~ ~ } +.{ { ) ) { ) ) _ @ = * ) ] ) } | [ } } %.#.#.| } %.~ +.aXo.X.X.f +.gXCXhXZ U.I.K.H.6.V 9 l V b V V l k l V l c B v j N K N x m r.t.r.N N n n N n N 5.5.6.N b b b 6.b 5.b b k h h h ",
"r.r.r.w.G r.t.i.(.v.k.k.p.i.t.r.i.t.i.i.k.p.k.p.i.^.~.~.^.u.H D D L H D J L u.u.G P H H P p.p.P u.u.u.p.p.p.p.p.u.H J K P P P I P R R R E W W E W o.o.o.o.o.o.W f d @.O.  O ~ _ &.lXzXlXlX>.$.$.$.*.$.>.2.$.; >.:. .: & = ; [ #.$.1.lX1.>.>.>.#. .[ ] | ] - sXvX>.1.3.:.; :.>.; : = = - * # # # ) ] | ] = = ] : & & %         O = ~ { } %.&.| } } } } | { ~ ~ = [ ) =     = ) ) ` ` ` ) ` $.$.#.{ O.+.^ X.gXo.O / hXhX..T R.R.R.I.U.0 q.U.V V b B V k b b N N B h B t.K N N N N N N N b N N b N h 9 b 6.6.b b b k n n b b b b k ",
"r.r.r.t.p.v.v.v.r.r.G F m M r.i.i.r.i.i.k.p.p.p.u.u.p.p.L J D D L D D A J u.u.r.u.p.p.p.p.p.p.H L L L P P H P P p.p.p.P P K I I P P R R R E E E E E E E W W g f W o.O.( O { +.{ } aXsX&.&.&.,.1.#.1.1.>.:.=.$.1.- &   + & :.1.1.*.$.$.- - - : & = &   & = + ~ zXfX1.1.:.: : : & & & & = = = :  . .* * ) = = - = = = =       $ = %.%.| } } ) ) %.* ~ } | } ) ] | :. .] * * [ } | #.$.} [ $.&.*.%.} } kXaXd X.gXhXQ.Q.@.d o.hX*X&X%XR.U.V V z 5 9 V l k k h h l n B B n N B B B B k b k 9 b b b N 6.V k k b b b k N 5.6.5.6.5.b 0 ",
"i.i.t.r.t.t.H m G r.i.t.r.H w.r.w.w.w.u.u.u.u.u.^.p.u.L L L J D L D D u.p.p.p.u.z.u.r.K K K K p.p.p.p.u.u.u.u.u.u.p.p.P P P P R /.-.R R E E E E -.E T W W W g g ....{ _ * _ ) * %.&.&.%.} &.,.,.sX>. . .1.3.1.1.& # = ; >.xXxXlXlX2.$.- & & & &       +     @ ,.lX:.; : & & & & & & & & & & & & [ [ [ | } } %.<.| | | ] ) ) ]  .;.| ] ] | } } %.%.` } } ` ) )  .- - ] [ #.#.[ #.#.$.$.#.#.$.$.$.$.[ _ O...o.hXkXzXzXaX! O ^ ..f T.&X$X..Y.Y.q i z V V z l l l l z l l k k l 9 3 b b b k 9 9 9 9 0 b b 9 k N 6.t.n n n 6.h.s.0.s.",
"w.r.t.r.G G F m r.u.p.v.(.(.p.r.D F G H u.u.u.p.L L D D L L L L (.^.^.^.p.H J G u.G K u.p.u.u.z.z.z.z.z.p.u.u.u.J J A K P z.z.z.R R R E -.-.E E E E E W o.o.g ....d O.fX| = ~ } ,.&.,.aX&.%.%.&.1.&.:.; - - #.lXfX1.1.1.>.2.2.2.2.$.*.$.- & & &     ] : = ] * ] cX1.&   & & & & & & = = = = &   = } } } } { } } } | | | ] ] ; : & : ; - ] ` ) ) } ) } [ ] | [ #.| ] [ [ #.$.$.1.[ = & $.&.$.$.*.$.%._ @.T.T.T.+.@.&.sX,.O.! / aXT.$X$XX.$XmXo.C Z Z Z v v Y v z 4 h l l l b b l 9 9 b b b b q.q.0 0 b b b h k k N N N 6.6.N 5.h.",
"h.k.v.v.v.v.(.(.v.p.H D D G H r.r.u.u.u.u.H L u.D J L L p.^./.(.L u.u.u.H G H K K G t.K K K m m m x x x x x x x m c c A K P z.z.-.R E E E W W U W W o.o.o...f ^ ^ d +.fX%.# * %.&.&.,.aX,.&.,.sX1.#.#.; - - >.vXlX1.lX1.; - $.*.2.$.2.2.1.$.; = = * >.#.[ %.` # fXlX[ & & & & & & & &   & & & & & ] ) ` } { ` * * ) ) ] * = : & = = &     = { #.@ = #.| [ #.[ ]  .] [ [  .$.#.1.1.#.$.>.1.>.>.#.$.} { aXgXo...gXjXaX,.fXfXO.( O.aXaXT...o.$Xo.C C C C p v Y B v l.l.Y B l l B l.B 6.q.V V 0 b b 6.b b b k 9 h k k k k n n b 5.g.",
"|.v.k.h.r.r.G m G H H H J D J G G H H H G D D H ^.^.(.(.(.^.u.L L p.p.u.u.r.G x x x x j y x y t k k x x x n n N N N J K K P z./.R R R E W W E E E E o.T W o.X.+.X.^ ~ _ { ) { ,.&.,.&.} %.aXsXdXfXlXcXlXfX>.:.1.1.>.1.#.* - *.2.2.$.$.$.1.lX1.$.- %.>.* @ >.,.@ #.cXfX#.] = : = & & &     = - | | <.| } } _ _ @ } | } ~ = =  . .] =     : | %.| } ] :.] = [ [ ] = = : : ; [ [ 1.lXlXfX1.&.>.1.&.$.%.jXjXDXhXZ 8 +.aXsX%.* O O O @.aXhXgXT.Y.Y.Y.T E T i v Y v j v v K x.l.B B l.I.%Xc.6.6.b 0 b b 4.4.b b b k h h k k k b M r.k.",
"t.h.k.i.r.G m m x m D m m c m J D D D D F H y.p.^.p.u.u.L D D H p.u.u.u.u.H J m N N N K t.t.K r.t.t.r.t.r.r.t.t.v.l.z.z.v c S R K S U R E E E E W U W o.o.o.o.o.+./ O.sX~ { +.<.&.) ` &.,.,.fXlXdX} } fXfX] & = # & $.>.2.1.*.  1.1.>.$.1.dX&.lXfX$.* * #.%.- # >.zXvXfX1.>.[ - #   ] #.} %.%.%.<.= ~ { ~ ~ { | | { { | | ] = = & = :  . .: ] ] | | = +   = = & & & $ & &   & ] #.#.&.>.>.>.1.lXlXfXaX$X$XT.Y.f T.aX&.&.&.+.O.w ! o.T.T.&X&X%XY.T Y v p v v B K c ).z.v c v c h h t.6.t.t.N k b 5.N b b b b b N b b b n N 5.r.r.",
"i.h.i.i.v.v.z.z.z.z.u.H H H J J u.p.p.p.p.k.~.~.y.y.y.u.u.p.^.~.u.u.u.H H G J m J N N G N N N G r.r.t.p.h.c.h.t.t.G B c r r y p y p p a S S a a a U U W o.o.o...^ / * %.%.+.} { } %.1.fXfXzXzXsX@ # = %.#.&         - lXcXlX1.1.$.#.:.; # @ - &.sX,.%.%.,.dX>.%.zXvXsX) [ %.>.| = [ #.| | | } ) = * ~ ~ O.+._ { ~ ~ ~ _ =   =  .;.:. .: = = : : $ = = = = = & & = = % %         #.#.#.%.1.sX1.fXzXzXjXjXhXo.Z o.o.T.aXQ.O.( ! ( 8 o.T.Y.Y.Y.b.b.v Y E Y v S K S K z.z.K v S K r j N N G r.x n N 5.6.r.t.6.5.b b 5.b b n M N M n ",
"t.t.r.r.u.p.u.p.u.u.K H p.p.p.p.p.i.p.k.p.k.k.k.i.^.~.p.p.p.p.y.D D D D D A m m x x c x n N r.t.t.t.t.c.h.t.r.N 5 t y y j v S v R R R S U U U U R R W U W o.o.o.' +.~ = * @ ~ { ,.fXfXfXfXcXzXfX,.sXsXdX#.&     &  .fXfX1.1.2.- #   - %.#.>.dXlX%.[ * # - 1.fXfXcXfX- [ fXfX1.<. .| ] { ) * _ } ~ | ~ O / O./ +.{ { { ~ ~ | <.,.:.;. .] =   $ = $ + +     = = = &   %           ] #.} } 1.fXlXlXzXzXfXkXgXo.q 7 ..+.aX+.! O @ +.aXgX&XY.R.Y.C z v U W E W U v Y R P P R S c S S j x m r.t.r.G x n n N N 6.5.5.5.5.5.b b 5.N n b ",
"G t.p.p.z.z.z.z.K P K J A c D H G H H H H H y.y.i.p.~.~.p.i.u.J u.L H G J A D m j x x j x N K t.t.B r.r.r.B B n K t.t.K P z.z.Y A K P S S S U U E R U U E o.o.' +.+.<.@   @ ~ <.sXsX,.>.<.,.,.fXsXsXdXfXdX,.,.<.,.fXcXfX#.#.$.  #   * %.1.lXfX1.1.#.* # } fXzXzXvX>.* &.fX%.]  . .| %.} * ~ } { = = O O ( O.{ +.{ _ * = ~ #.#.[  . . . .= +   $ $       = |  .- * : ] ] ~ = : ] | <.<.,.dXfXlXzXfXjXdXkXgXgXT.8 . 8 @.@.! ! { kXjXhX$X$XtX&XC i U C s s a e e U R /.R K K c p S N K K K r.z.z.G N m n n n M 5.5.5.5.b b b N N b ",
"oXoX X/.u.A c c y c c c c c J K D F F F H H y.y.p.i.p.p.u.u.u.p.u.L L H H H H K K K G m N G G B n n N B N N B B l.K K S S S S K S R E E ).#X#X#XU U U E ;.o.' ' ! = %.[ #.} ] | <.|  .] *     ~ sX,.&.sXfXsX<.;.;.: ] :.| >.fXfX1.1.%.- - &.1.*.vXlXlXlXzXzXcXvXlX>.*.>.[ * = [ [ - ) ) ) %.+._ { { _ / / ~ ~ = = = ~ { ) - ]  .|  .] ] $   = = = * | | | #.[ * } | | | | | ] ] ~ ~ } sXzXfXfXlXzXzXfXdXaXgXCXhXY.8 8 w ( / _ &.^ f f W &X&Xx.x.U E x.E U a e e S R Y v K P c c c c t.u.K G H G r.G G M M M M M 5.5.5.N b b b b ",
"/.z.P A c p y r y y y y c c c m J H y.u.i.i.p.p.u.L H u.u.H H u.J J H H H H H H K K G G G G N N x x c c j j j j y p v S K S I E E E E W E E W U o.o.o.o.o.' ' +.O * #.fXlX[ - ] =   $ $ O O = %.fXdXsXsX%.] = $ % & $ $ = ] ,.lXfXfXfXfXdXlXlXlX1.lXfX>.*.lXvXlX1.$.:.#.- - = ; - & = * { | _ %.| %.+./ = = ] : ] ] { ) * # = - - = & = = = ] { ] ) { ) * ) [ ` ` } ) ~ | | ~ $   + = sXjXfXjXjXdXzXjXjXjXgXhXmXmXX.8 X.T.T.O.O.8 f f s W T C Y x.z c p e a E Y R v S v p p Y #Xv j x K u.H G u.G G M N m n n n n N 6.6.5.5.5.5.",
"A c p y y p p y p p y y c c c c G H u.u.u.u.L L D D F H H H H L u.u.H H J J A A c x x m m x x x B c c c c c c c Y R x.).).E R ).E E E o.#X#X$X$X$X$Xo.o.O.O.+.sXjXzXzXvXlX*     =       = O.<.kX,.sXsX<.] % % % % = = % %   * ,.zX1.1.sXsX1.fXcX#.1.&.* - lXvX1.; & & & = : = =   : { _ _ _ _ } ) { { ~ $ = : : : = ~ * * ) ` - * @ = [ ] * ) [ ) * - * ) } } } ` ` ) ) | | { ~ { ~ | sX,.sXzXdX} fXzXIXKXaXT.Z T.Z q Y.&X$XT.X.....X.f Z T C Y Y j v l.Y Y U a S e p U c y x.AXrX%Xz.B G G m w.i.e.M n n x k k k k N N 5.5.5.5.",
"c c c c p y y c p c c c c c c J H H H H F J D D H u.H J D G H H D D c c c A D D K H K K J x j x c x c c v Y z.z.R R R Y U a a W W o.o.#X$Xo.o.+.^ O.+.aXjXzXzXIXvXcXzXvXlX>.* = = + +   ( O.~ * sXdXsX,.{ = $       + +     = ] 1.1.:. .] = - :.sXzXlXdXfXzXxX:.  & : : & & & & ] =   * { { | _ } _ { ] $ & :   +   = { ) ) [ } } } | #.` ) ] ` } | %.| | %.) = } ) ) } ) ~ { %.zXcXcXsX* | zX&.~ sXzXzXaXO.T.X.T Z > . > Z Y.Y.Z f ..Z f f 2 i 4 v B v Y Y S v p a S Y Y c y z.x.#X#XK K u.G r.i.h.t.r.G G N N b k k k b n b 5.",
"c c c p c c A A K K K p.p.z.z.p.L P P H D m J H G x x x c j y y c c A A J J H H D J D m m J H H P z.P z./.R K S B S Y C W o.o...g ..d O ! / +.aXjXjXzXKXzXIXvXsX,.vXzXlXlXfXsX%.~ ) } ,.fXsX| &.fXdXsXdXfX,.| { *   = = ] +.<.<.1.3.1.;.: & & & = | fXcXlXlXzX1.- : : : : : : : : $ $ / | { ) ] - : =   & : & = =  .| } %.{ ~ _ } ) ) [ { ) ) _ ~ @ @ * ) ~ @ @ | * * { %.,.dXsXkX+.( / * ~ ` &.#.fXjXaXT.T.Y.T Z q . . X q U.R.Y.U.o.Z i i C E Y Y z v Y Y Y Y K K v c c j c S Y x.x.K c J r.r.H u.J m G m e.i.i.t.e.t.e.5.M b ",
"H H H P P u.p.p.u.P H H L H H J D c c c c m x x N m x j j x c K K K P J A A A H H P u.u.u.p.(.(.z.).z.K p y v v B Y T T Z Z ..X.+.( O = / | aXfXfXdXfXzXzXzXzXfXlXzXzXlXlXdX,.,.dXdXsX,.sXsXsXfXdXdXsXsX,.,.sXsXsX,.aXsXkXfX<.]  .; = & & & & & : & = 1.cXlXdXlX- & : : : : & & %   O = ~ ] ] : = : & & & & : ; =  .| | } ) * ~ { ) ) { ~ @ @ @ * @ @ O @ ) * @ * * } fXzXlXfXjX_ +.&.aX&.aXsXlXvXvXjXT.o.Y.Y.Z 7 7 X o X 7 q U.R.&X&XR.Y.T i e C C v z v R x.Y K K N N N x x A S K K c j x J G x m c J G m M e.e.w.i.k.k.k.w.5.",
"u.p.p.^.p.p.u.u.p.p.P H J D D D H J D D G r.u.u.G u.r.J m K P K c A J J J H P p.p.p.p.z.p.K K K c S S Y U Y x.T x.x.Y.Y.o.o.T.aXjX/ O ~ { { %.&.zXzXzXcXzXlXzXvXfX>.1.dXdXdXsXdX,.1.sX,.,.,.,.sXsXdXdXdXsXsXsXaXsX<.+.{ { +.~ O [ =         & &     * fXvXzXzXdX>.#.; : & & & & + +   = = = &   & : : ; : & : : & = = = = = @ * ~ @ @ ~ ~ @ @ O @ @ * # @ ) * * %.sXfXfXsXsXsX%.sXzXcXzXjXzXjXzXjXjXaX+.^ 8 X . . > . 7 Z R.R.U.R.R.Y.Z Z C i i i a i i u v E Y R Y K K K N x x c c N c c D G H G H G H G m w.e.M M e.t.k.v.k.e.",
"u.p.p.p.u.H D D J J D D D D D D D D H u.u.u.r.w.m H r.H H u.P J P P P P p.p.p.p.P J c A S S K K ).U U T E E Y.o.T T o.o.T.T.gXjXaXO + O @ * ) ` %.&.,.sXsXsXfXlXzXdXdXdXdXdXdXsXsX1.sXdXsX,.,.sXfXfXdXsXdXdXsXsX| { ~ ~ ~ { { ] ] = = : : ;  . .; - } 1.,.fXdX- 1.>.- & & : : &   O = ] : : : & : : : : : & & : = = = & $ O O O O O   O O O O @ _ &.&.,.dXsX1.dXzXdXfXlXsXsXfX1.dXzXlXfXjXjX+.@.+.T.@.8 . . . . . Z Y.Y.R.&X&XR.R.Y.Z Z T Z C W a a v Y v a a u K K K P u.G n x j j x G K H J J H F F F n n w.t.r.t.t.t.i.k.w.M ",
"u.y.y.L H D D D D D J H H P P u.p.u.u.H D m x x F F J J J P P P ^.p.p.u.P L J D P K K P R R R x.#XE o.Y.o.T o.o.Y.o.T.$X$XaXaXkXjX_ @ @ @ ~ _ ` #.&.sXlXzXzXzXfXdXlXfXfXlXfXfXdXdXsX,.,.,.| [ | <.<.<.<.<.<.,.sX* = ~ { | | <.,.#.| #.1.fXfX1.:.#.lXzXfX,.&.&.,.fXlX#.= ;  .:   + + $ $ % % = % & : ; : : : $ : { ~ = $   + + + O 8 8 8 O O O ! +.aXaXfXfX,.sXsXfX,.sXfXdXsXsX#.>.lXlXfXdXdX+.O.+._ O + . . o 8 7 Y.T.Y.X.Y.R.Y.Y.Z z Z Z C C C W U v C Y Y v a a c c G K G N N n k x N K K J D G F G G m x n n r.t.t.t.i.e.e.m ",
"y.y.u.u.u.p.p.p.u.u.p.p.p.p.p.p.u.G J F u.p.k.~.p.u.L L u.u.p.p.L P L L H J J P A K z.x.x.x.).#XY.#X#XY.Y.Y.o.o.o.o.o.o.O.@.@.@.{ @ O O ! _ | } } %.sXzXzXzXzXzXdXzXfXfXdX,.1.fXfXzXfXsX,.%.] ~ = = ~ ~ = O = ] | ) ~ { | | ,.fXfXfXlXzXzXzXfX&.lXvXzXfXzXsX) @ fXzXzX>.:.:./ O + + O ~ = + + +   : & & : % % + % %     + + O d 8 o 8 ..8 O 8 ! +.&.%.sXdXdXzXfX,.sX,.dXlXlXdX#.&.lXlXdXsXsXQ.+._ } _ @.@.( ! ^ X.X.X.Y.X.Y.Z Y.Y.Z Z Z C C Z C a T v u a v C v a c c c G G G r.r.N x x x m m G G G r.H G G m N n N G w.e.M n n ",
"u.u.u.u.p.i.p.p.u.u.u.u.H H G H G H u.p.~.p.u.H H L u.u.p.p.u.u.u.u.P L L L P P /.z.R S v U E Y.Y.Y.Y.o.T.&X&X&XgXgXgXaXaXT.+.+.w @ O O ! ( ~ { ,.fXfXfXfXdXfXzXzXzXzXlXlXdXfXcXzXcXzXfXsXsX<._ = $ ! = = / +.kX~ =   @ * ) ,.zXzXzXcXlXfXlXlXfXzXzXzXlXzXzXdX&.%.&.cXzX<.+.( d ^ d / $X;.( O O { ;.' : $ % d . d d $ O . . 7 Z 8 . . 8 8 8 ! ! ( / _ } &.dXfX1.sX,.#.,.fXsXsXsXsXsX&.dXzXkX+./ &.fXjXjXkX+.+.+.+.+.T.$XT.Y.f Z Z T Z Z Z f f s 2 C T C v v v u c v S S G N c N N N x x j x x m x x x x G H J p.t.G G G M M n M ",
"D L H L H F D D D J J G G G H r.p.p.u.H J D H u.u.p.p.u.L L L L L L L L P P P I S S S S U T T C o.Y.Y.T.&XhXgXhXgXgXgXaXaX@.@ O   @ O O / / { sX} sX,.&.fXzXzXzXcXlXzXzXzXzXfXcXcXzXzXzXjXfXaX~ ! O O + O { &.aXzXjXfXfXsX&.dXzXzXzXlXfXsXfXzXzXvXzXfXsXsXsXaXaX_ @ aXsX{ _ @.T.X.+.O./ ' / ..^ ^ O.+.O.^ ' ^ f 8 d d d 8 o 7 q X.8 o 8 ..d 8 / w ( _ _ ,.dX#.&.dXsX%.&.&.1.fX,.sX&.%.fXdXO./ O.sXfXfXfXfXsX%.| O.@.@.o.T.Y.Z X.Z Z Z Z Z Z ..o.g C U U U E #XY r p v S S c y y c c K K G N M m N m m m H H x H u.m x n M M e.k.",
"J J J D J J F G D D J G r.u.i.u.H G D D D J G G H H J H L u.u.L P L L L J S S S v v T #XY.Y.Y.T Z f T.VXgXhXhX^ $Xo.^ / +.{     * @ @ O O O O.} %.} %.sXjXjXzXzXzXdXjXzXdXdXzXdXfXjXzXjXfXfXjXaX/ O.! / O.aXjXjXzXzXjXjXzXzXjXjXjXjXfX%.&.zXzXzXfXzXzXzXjXaXO.+./ O +.aX@.@.@.X.@.T.kXjXkXaXaX$X$XkXaXaX+.8 d 8 8 ..o...X.o.f f ..^ T.$XT.aX+.@.UXaXaXfXzXlX1.1.fX#.} sX%.dXsX,.1.} * _ +.O.! &.&.&.&.%.,.,.%.~ * O.@...o.o.Z o.Y.o.Z ....f g f f a C U C v U R Y K K K c p p c p c K z.z.t.r.r.N m m x x x m r.m x x x x M e.e.",
"D D D D D J H H r.H H G G G F m H H u.u.p.p.u.H G J J H L L H J D A A J K S S U x.T Y.&X*X*X&XY.Z $XT.Y.f X.T.! 8 O O O ~ | ) * ` @ + O O + @ * ~ ) { &.&.,.dXfXsXfXaX%.jXzXdXjXzXzXzXfXjXjXkX_ aXKXjXzXjXzXzXzXzXzXjXjXzXzXjXfXfXsXjXfXsXfXjXcX%.Q.jXaX+.T.+.@.! ^ ( ( Q.T.( +.kXkXkXaX( ( O./ O.+.8 8 @.T.$X..o @.T.d o 8 ..T.O.^ O.@.^ / ! O @ { &.sXdX&.[ sX&.#.} ,.%.&.&.dXfX1.} %._ _ &.aX&.%.} _ ) ) ] _ { aX... Z Y.Z Y.Y.X.f Z ..g g f f f C a v U Y E R R K S c c S S c c c K K K N N t.t.J x x m J G r.J D F w.k.~.~.",
"H H H H H H H H G F D m m m m m m D H H r.u.H J m D J G H H G J P K c K Y Y E Y.Y.#X*XNXNXhX&X&XSXVXo.X.O.aXgX( O O ( @ # ` #.#.@ * O O O + O   @ ! _ +.+.+.&.&.} ~ @ * _ * ~ dXfXzXcXzXjXaXaXaX&.cXcXzXzXcXzXjXcXcXzXzXzXzXjXfXdXsXjXjXaXaXjXKXO.@.aXaX+.aXT.d 8 @.( O ! / ! +._ @.~ O   @ / @ + ! + + ! / ! + + 8 ( . + . o 8 O O O O O ! 8 O @ ! O @ *     } ` ` } ,.,.&._ ,.1.1.,.1.| %.dXsXsXQ.%.%.%.+.O.O.d ..q > Z R.T.Y.Z Z ..o.o.o.o.W U U C a p a U Y R z.R P A A c p c c p c c c N K v.(.p.N x x N K H J G i.k.!.~.!.",
"J J J J J D J J r.w.w.r.t.i.i.u.u.u.H J D J J D H H u.u.r.H H K N c c B Y x.Y.#X&X*XbX&X&X&XBXHXHXDXhXCXCXhXT.O O O * O   - $.>.O O O w / * @ O @ ! ! ( ( ~ *   + +   ` ) * ` } %.&.%._ %.,.dXdX,.fXsXdXzXIXIXjXzXfXdXfXzXzXfXdX&.sXjXjXkXaX+.aX+.@.Q.aXO.O.^ . O O.$X/ O O O O       O ! ( ! + O ( O O O O O ! O + + . . O O O ! ( O.O.+.+.+.aXjXaX_ { _ @ @ * @ # @ * ~ _ _ } &.%.&.&.} | _ %.dXsXaX&.&.O.d o X > 3 q Z R.mXmXgXgX&X$Xo.f f s W U a p p a S S S I P z.z.P P K c c c c c S z. X(.v.p.r.N x x K m D u.~.~.!.!.!.",
"H H u.u.p.p.k./.v.p.p.p.p.u.u.u.u.u.G D D J H H r.H H G J N N N N c B l.Y.Y.Y.#X*X&X*X&X&XmXNXmX&XhXCXCX$XX.^ ( ^ 8 O = ) | #.} + + O ! O./ _ ~ O O . . + O   + @ } | %.* @ } ` ` * * * %.%.&.&.sX,.,.dXzXzXzXfXfXsXdXjXzXjX,.} dXdXsXaXaX+.@.O.+.@.O.@.O o O o O ! / O + + O @ @ @ * O./ ( ( + o o . . + + + ( 8 . . O O d d f ' ' ' ( ( / @.+.+.aXkXkXaXaXaX,.} ; [ ) = @ @ @ } ` ` ) ) _ ~ %.~ _ ) ~ ( O o X q Z R.%X&X$X$X$XhXgXhXgX$Xo.o.#XE U v v v a a a S I P /./.L p.p.H K K A c c c K (.v.t.r.t.N j j j x y.~.~.!.!.!.",
"k.k.~.~.~.~.k.k.p.u.H H G m x m c m D m m D D D D D J G G r.r.t.z.z.z.b.%X%X%X&X&X&X*X&X&X&XY.Z o.Y.gXhXgXX.8 ..( ^ / / ( ! @ O O 8 ^ 8 O d / ! + . . . . O ~ } | } ) | *   - *   @ ) } %.} %.<.{ ) } ,.&.} &.,.&.aXjXzXfXsX&.,.fXfXkXkXT.O.( o ^ d 8 o . o ..+.+./ ^ ( ! ! O.aX} ,.{ ( / d 8 o o o o O O + O o O O O O $ d f f ' ^ ( d ( ^ / / O / +.+.+.$XaXkX,.<.,.%.&.* @ ) # * @ ~ @ * _ ( @ @ @ ! / ! 8 f T b.R.tX*X&X&XY.Z Z Y.Y.o.U C a R S v S S p p p R P P /.^.D H D c c c A J J c x D w.w.G t.t.r.G D m F y.!.!.!.'.",
"y.y.y.y.w.F D D p.H G H H J J G G H H G J D D m H r.t.p.v.v.v.v.t.c.t.t.l.b.R.%X#X#X&XY.Y.Y.Y.R.&XT.$X$X$Xo.T.$XhXCXFXkX^ O w ! o.o.X.f d O O O o o 7 7 o 8 O.<.} @ +     * } @ # * ` @ # * } _ * ~ { } } _ %.,.} &.sX&._ { +.,.dXsX&./ d d 8 o o o o o 8 o.T.$XT.X.O.+./ O @ @ * } O O 8 7 o o 7 o o o + O ! $ / ^ d O d ^ ' ^ ! $ $ $ ( ( ( ! ( / / O.+.O./ O.aXaX%.` &.- - $.- - * ) @ @ @ +     + O ! ! 8 ..hX$XY.Y.o.Y.&XY.Y.Y.#XY.W W U U S S S S S v v A A L L ^.^.^.^.L D A J K p.u.G m m i.p.r.D m F w.k.i.y.y.j.!.`.`.",
"k.k.k.k.k.k.k.i.y.G G H u.u.u.p.u.u.u.H H r.u.p.z.v.z.v.v.l.B N B t.B n z l 5 z R.Y.Y.Y.Y.T z T o.o.T.T.Y.$XDXhXhXgXhX$Xf f T.gX..T.$XZ Z f f f 7 2 2 i 7 o d ( +   @ @ * ) ~ * %.* @ * *   @ _ @ ~ _ ~ } _ } _ _ ~ *   O _ +.+.O./ O O O . . 8 o 7 8 X.T.$XT.o.T.T.+.+.+.O.O.+.+.+.+.T...f Z 7 f f o.o.d ! / / ! ^ ^ ^ ' ^ d d ' ( d ! $ d ( ( ( ! ^ ^ O.O./ O.+.+.+.~ #.` [ >.lX,.,.<.%.,.} } ~ { ) * ! ! ( X.gXhXY.o.Y.C i z T Y.&XY.U E E R R /.).R A p p p P /.L P ^.(.oX^.D D J J K H J m m G G G D x F k.k.k.j.y.y.y.!.!.",
"~.~.~.i.w.k.~.w.D J G G G H u.p.p.p.P H u.u.p.z.G K N k B B B z z 5 < < < 3 5 t Y b.Y.Z z 6 z Y.o.o.Y.Y.$XhX&X&XR.Y.i q ....Y.$X..Z C i i i 2 < 1 u p p a i 8 O ( / O.( @ _ _ ) # * $.[ ` *   * @ @ * @ @ ~ * * O     @ / { / O O O O d d / / ..X.o.T.Y.o.$X$Xo./ w O.hXCXhXgXhXgXjXgX$X$Xo.Z i Z g f ^ ' ' ( ! ^ ( $ $ g g g g f ^ $ d ^ ! ! ( ( ! ( d ! / ( ^ / +./ ! %.fXfXdX&.+.<.<.} { &.sX1.[ ] { / ( ! w 8 T.$XY.Y.#X#XT f Z C C #XY e E Y /.R R ).).P A P P L J L ^.^.^.L H H J J J J J x x N m x D r.w.i.i.y.y.e.F F F ",
"~.k.i.w.D F H x u.p.~./.p.p.u.p.K K J J J c x x x y t t t 4 4 t < 1 4 4 4 5 5 5 5 4 < < 6 6 i Z Y.Y.#X&X&X&XR.R.R.b.C T Y.Y...Z i 7 i i u l u u Y z.R P Y Y Z f o.O.@.d O * * @ ` ` - * ` [ * ) * @ * # # = @ * * ~ _ +.@.d O + + . o d o O . o X.X.Y.T.T.T.+.' / +.$Xo.T.$XT.T.T.T.o.o.o.f f s g f f g ^ d d ( ( d ' ' g f ^ ..f f O O d d d ! ! ! ( d ( ' ( ! / $XaX+.( ! @ ! ! $ $ ( ~ ~ { ,.dX$.) @   ( ( O + ^ ..o.Y.Y.#X#Xo.a i a a a a C Y S I P /.).).P P P P L L L L L L P H J J m j t x x x x x m H F y.y.y.y.y.H m m ",
"y.y.y.y.F H u.u.p.p./.z.p.K c x y y y y p j x x x x K r.c j j y c v v v v B B v r j v B Y v a C T o.&XbXnX*X#X#Xl.B z z z q q > i 6 i p j v v c v K P P z.R C f O O O O ! / ( * O O     * [ [ >.[ ` - - - - @ * _ { @.X.8 . o o 7 7 8 f o 8 f ..X.X.T.T.X.....f 8 ..o.Z o.o.f f g f $ $ O o s s $ $ f g ' ' d d d f ^ f $ % $ $ s $ o $ d d d $ ! ( ^ d ! ^ ^ ! ^ o.T.+.^ d ! ( ! O o O ! O O * >.$.) @ + +   + / ^ o 8 o.o.o.$Xo.e e v a S v , v p P /.P /.).P P P P P P L D L L H J H K J x j x x m m D u.i.u.y.y.y.i.i.w.m m ",
"F D F H H u.p.p.p.u.P A A c p y j y y y y y x x c N K B c B K K c c c c c K K c K x.x.Y Y Y Y U Z Y.&X*X&XY.Y Y t c v v u 6 i i i u v v S K Y K P u.P z.z.R a 2 g ^ f f X.O./ ^ ( ( ! O   @ * [ $.$.*.$.$.*.&.,.jXjXCXgXZ . . , , 7 Z Y.$X$XgXgX&X$X$XT.o...f f s s s i W C s s o s d $ % $ f g f g g f g f o % o f d o $ d O d s s s d d d d $ $ $ d $ $ $ $ d 8 o o o o o O o O d d d ^ ! d = fX>.*   + O O ! @.! . o ....g o.W e e a v x.x.S p p /.).A A P J P -.^.^./.L D H J A D J K K K B c m m m J u.^.^.y.y.y.y.i.w.n k ",
"y.F F L L H H J H D c p p p p y y y j c c c c c c G c y y j y p c p c A K R R P Y R K S R ).#Xx.C T b.Y B Y l.z.p.v.u.K B v v l v S K P P p.z.u.z.z.p.P K S p e X X o o s d f f Z f ....! ! * # # @ $.>.>.1.fXjXKXLXPXHX$Xi i z i Z Y.&XhXhXhXgXgX$Xo.T.T.X...f Z g a a U C a s o f f d f s o s s f f s o o o f f ..f $ ^ ' ( ' f f f f d d d d d d d ^ d O O O o o o o 8 f f d d d ^ ' d $ d $ { | ~ O O / O./ O 8 d ^ X.^ o.#Xe e v v p S R R p c P P A A P P /.^.^././.P J N c c c c x c l z K K N c J u.p.p.^.u.H F G N k k ",
"u.y.y.u.u.P J D c c c c c c c c c c c c c c x x j x j x K c c c A A A S A c S K ).).x.).).R S a T T v r j K z.p.p.p.H H t.K l.l.K u.p.p.u.u.p.J A P z.R Y U S U U W U C Z C f i i 2 i Z ^ X.@.! * @ ) %.} { O.O.SXhX&X#XT C T T Y.Y.#X$X&X&XgX$XgXT.....Z s f g T U a a a a a s 2 s o o f s 2 f g o f W a a g W ..g f ^ ^ d ! ^ f f g f f d d ( d d d ^ ' ^ ^ ^ d g g f W W g o.g d d d d d d ! $ $ ( O.( ! @.@.( ^ X.o.o.f s a i a R Y y c K S A c c A I P P P /./.^./.z.K c j h j k k k h l h B K B c J u.p.p.u.L D m m n k l ",
"D D D H L H D D D D D J J J A A c c c c c A J K K K J N c c c K K Y R R R x.).#XY U U U v u u a v v y j N u.p.u.H y.p.k.p.H u.K H u.r.u.u.p.^.L J z.).).#X-.o.E Y.o.U W W T o.T E U a s s s f ^ / d O d d g o.Y.&XY.C C C T x.T T T Y.#X&X$X$X$XT.T.o...Z Z Y.#XY.T p e e e a U U a e e a a s C W s g W f f s o f s d d d $ d d d d f f ^ d $ d ^ ^ d d d d g g ^ ' g g ..W g ..o.g d f ^ ^ ^ ^ O.O . O o . O X.T.o.f o o s a W Y.E x.Y u v R K A A A I I R R P ^.^.P P K B l 5 h h h h h l l l l x k j c J H H J J m x x k k k ",
"D L F H H H J J H H J D A c c c A D J J J A D D x c P K m S z.z.).#X#X).E Y U a a i u r r r z v y y p K r.K u.p.p.H F w.D J p.H u.p.r.u.u.p.^.J A S S U E o.o.o.W o.o.o.W U T U u a a a a e e s s f Z f i C Y Y Y x.x.Y.x.x.#X#X#X#X#X*XhXY.Y.Y.Y.&XT.o.T.$X$XY.C E v p S S S U a e s s a U C a s U o.g g g s f d d d $ d ^ ^ ^ f f d $ d d O $ O d d d $ f ' ' ' g f g o.' f f f g f f ^ ' ' X.f o.g 7 7 o f o.T.&X$Xo.T U U Y Y.#X#XY y r e p p S R P A I R R P P K v B z l 5 B k h 9 9 9 9 5 l c c x B G D D c x x x n k k k ",
"y.y.y.y.H H H D D L D D J A P u./.H H u.J m J H z.z.p.p.p.u.H K v U U u , 1 e e e 1 1 r r u u r r c J K r.u.r.r.u.p.u.F F u.p.p.p.D w.p.u.u.p.A A p a W o.W W o.o.o.W W a C a e a a a S a v U a C v u p Y Y v S S K x.x.#X*X#X#X#X%X#X#X$X$X$XT.hX$X$X$XgXhX&XT C i C E E o.#XE C U U U W o.C E o.W W g $ $ $ d $ $ $ ^ ^ ^ o.f d d ^ ^ $ d ( $ $ O $ f $ f ' ' o.' g o.g d ' g f f s f f ..o.$X$XW 2 i T C o 7 g $X&X&X#Xa e r v u 1 r r y c p S ).#X/.).=X/.P P S y t 5 5 5 9 N v.v.5.b k k 5 h 5 h x B B B N x x x N r.t.r.N ",
"~.^.y.L y.i.i.y.c H H p.~.u.p.u.J D J G H p.oXoX/.v.u.H H J D J S a u e u a i a e e r r r y c x K p.p.u.p.p.p.p.r.u.p.p.p.u.u.p.L H u.u.H J L L /.P R E o.;.o.W C s s W U U W o.W ).#Xx.x.R Y Y S K R z.z.z.p.P p.z.=X).R #X#XY.#X*X*XhXhXgX$X+./ / O.O.aXaX$XX.o...g o.;.o.' ..o.o.#X*X#X#Xo.o.o.o.o.' ' ( / +.$ d ^ O.' f f f d ' ' d d ' ^ ( ' ' g ' ;.o.g g g ' g g $ o f ' o.s s g g f g f f e e u v U T W s f g W R R R S r v v S z.z.)././.).)././.P A A S y 4 t 9 9 V b N c.c.e.M M N k k h h k k h t t l l j k N N N k ",
"F F e.e.F D D D ~.~.p.~.p.u.u.J F H p.p.p.k.k.H w.H G D G H H K S a r p S p e e c c c c c K u.p.u.p.u.G G H H H G G r.p.u.D D J P /.P K J A S z.R I S S Q E -.E R S U E T Y.#X#X#X&X&X#X&X*Xx.).z.R P K A K z.z.u.p.=X=X).#X#X#Xo.gXhXgX+.( _ &.&.fXjX&._ ( O.+.+.+.+.{ { / ' +.o.$XgX&Xo.o.&XgXhX$X+.+.+.{ _ { O ! $ d ' O.o.f ^ +.' d d ^ d ' ' ' g f ' g f g f W g ' o.f f o.a X e C s e o X X a Y R U U U C g s s U R S p p j v c c c A P /././././.J p A p.c 4 5 l 9 9 V 6.b 6.s.M N N 6.6.N l 9 9 5 5 5 t h l l h k x x k ",
"F F w.y.F w.k.(.(.~.y.y.H H i.H (.~.~.~.k.i.y.H m m D J H r.r.P c c c S K c c c c c A A D G w.u.u.u.H J G H H H u.G J H P J A J c P S S K p y p c p Q U U R -.-.#XR U E #X&XT.f f Z o.T &XMX#Xl.z.P P z.P P z.p.(.u.).=X#X#XY.#X;.kX+.~ +.fXcXcXcXfX%.%.aXaXkX+.) [ #.#.[ #.{ ~ O aXgX$X$X$XhXhXFX+./ { ] * ~ O O / ' ^ ' +.o.d ' ^ ' o.' ^ ' ' f ' ' g f f f o f g s s f o o s a e e e e u a a v v a v Y R Y T U a g W R Q 1 1 K J c c c p p A L I P P J J u.z.r < 5 h 9 9 b q.b b b b b n N 6.6.B b l l h l h 5 h l h h k n n ",
"~.~.~.~.(.(.|.|.F D D F F H i.H y.F F H F F F D F H G G H K J D P K P P A A K K H H u.p.p.p.k.p.H u.H G H u.H G v.p.P H J c p y c S c p y e r r A S R -.-.-.R E U U #X$XgX$XT.o.d ..Y.R.*XtXx.K K S K x.).z.z./.P I R #X&X&X&XgXaX;.= ~ dXvXcXlXfXsXfXzXjXT.T.^ { - [ $.$.>.) + O.aXo.$XVXhXaX$X+.{ } } } * ~ ! ( @.O.O.O.^ o o g o o f s $ f s g g g g g o.;.g o s f f s s s g U a a p p a p p v v r e p p S x.U U U Q I #Xx.u c j c c y p c c P L P P p.).(.H k N k k k k 9 9 b b b b b b b B h h 9 h l l l l 9 l l l h k n N ",
"k.~.(.(.k.i.F x F F H y.w.w.w.F y.y.i.y.y.y.H D w.w.G J G J m D c c D A c A P H p.u.u.u.w.H D x D G J D F G D D c D H J c c c p c c p p u i Y Y S R ).#X#X#XW U #XnXLXmX$X..X.T.$XT.&X*X#Xx.v K ).z.S K R R Y Y S E o.Y.$XgXgXgX@.( ( ,.cXcXfXlX,.fXKXjX@.d X.8 %.%.#.&.%.,.) ! T.+.f o.CXCXCXkX* } #.[ #.* _ +.O.X.......f f o.g f s s s s f g W W f s s g W s e f W g s s a s e a U a a S p S r y S v e e p a E U E Q p ).x.r j x t.K x u.).).P J A c m u.p.r.x v.v.n n b k b 9 9 h b b b l b 6.V h 9 9 h k h l k l l l k k k ",
"w.y.i.H m F w.F y.i.y.y.y.y.y.i.p.u.H D D F w.u.H w.G H H H J H D K m x J J m m D D G H H H u.r.G r.H G H L F D u.p.p.P c p y p K P K Y Y v U u Y x.=X*X*X#X#X$XhXnXhXT.$X$XT.&X&XY.Y.b.B 5 t B z.Y R x.#X#X$X$X$X$X$XO.+.+.O.O O.aXaXfXzXlX1.1.cXsX+.! @.gXaXd + * * ~ ) } O ( T.T.T.T.$XT.T.O.} } $.[ #.) aXjXO.T.T...f f f g o s f g g s a g s f s s a s s e Q s a a a a a a W W E a e p p S a e e p c K R A U S R S p A y j G K z.t.x N N c x y y r 5 t n r.m v.v.M k b k k h k k k b k k b  Xv.6.N b k k h k k l l l l j j ",
"w.w.e.D F k.k.y.i.~.p.y.i.i.y.~.u.F F y.y.F F k.u.u.u.u.u.H D D r.p.G m p.p.r.(.p.p.p.u.J J H u.r.u.u.H u.u.u.u.p.u.L J c c S Y K K c Y Y.#X&X#X#Xo.#X#Xo.o.hXLXhXo.i f nXSXhXNX&XR.Y Y l.Y l.Y #X%X*X&Xo.o.$XaXaX<.O.O.+.;.O.O +.aXjXcXzX>.1.vXsX&.kXkXCXDXhXT.. O + O / +.O . 7 8 X.X.X.d / +.~ @ ` } ) O @.^ d 8 8 o 8 f s o g s s g g g g g g g a U W Q U U g s s W W s e U E a Q a Q U p e p p p c S I P /.S R E S R K y r.t.N k h h h h N x x j x n n n k k m m m e.|.|.k.i.h.5.n b b n n k k n 5.h.c.t.N k k k k x c x j ",
"F e.F F w.y.y.k.~.~.i.~.~.i.p.y.H k.i.y.i.~.|.~.~.p.F H i.p.i.~.w.e.i.k.i.p.u.D J r.G m J J D J G K J m m J D D L D A J K K S c c S x.&X*XhXCXgXgX$X&XZ $XSXPXSX*XbX*X#X*XbX#Xb.b.l.z h l.l.l.#X&X*XhX+.+.| * ) ,._ O ~ &.Q.aX<.aX%.&.1.fXxXlX1.` ,.zXjXkXgXY.X.. . o 8 ^ 8 o 7 7 7 o.Y.T.T...+.O._ @ ! O O 8 f f 8 f f f f f s f g f s s o.a e Q U U a a e a U U g g g s s U U s g g g U Q p a v c y v A A I A P I v p p y c K r.r.N b b b n M n b e.k.~.`.j.e.M n x M y.`.}.+X}.}.`.`.`.`._.!.e.m x x m G r.r.v. X|.G j x x c ",
"y.y.y.y.k.k.k.~.|.k.H F H w.k.k.k.(.~.~.~.k.p.y.H F y.~.~.i.y.y.k.~.i.w.p.u.H u.K J K H A H u.H m c c N K J A J H D J K K K K K Y z.#X*X$X+.O.( ( +.gXT.hXGXGX&XY.R.&XR.b.l.B B t t v b.b.Y %X&XnXhXhX{ * * - ` - * ~ &.kX&._ !   * $.$.*.3.lXzXfXjXzXkXO.o.o.Z q 7 7 8 f 8 7 q q 7 Z ..o.T.X...+.+.O.O.X.^ ^ d o 8 8 f s s s s s a g s s o.g e e s s s e a S Q W -.W g s e p a W a s g -.-.p 1 u S v p p A A A P c y r y v c j k b b k n b M 5.5.e.j.}.}.+X1X}.!.j.y.y._.}.OXOXOXOX+X{.'.'.'.'.!.j.y.F F F F M w.v.v.t.G N x x ",
"k.i.y.i.k.i.y.i.m F y.k.~.~.k.i.y.w.e.i.i.y.i.k.y.y.~.~.i.u.i.w.F w.e.H i.u.H u.H A A J m m D m H J m G G m m H u.L P u.J c K P Y x.&X*Xo.d / _ kXjXPXCXCXgXT.Y.T z Z Z l B K K Y B B b.b.T tX*XbXY.X./ | ,.zXfX%.#.` } } * O   * %.&.$.$.2.1.lXdX&.aX+.....T Z X . . X 8 7 > q q 7 q f ^ X.@./ ( ^ ^ ^ d d f o o o o o f f f s 2 s a s f o.o.g a X e e e U R e Q W W g Q s p a a e e g W Q , e u S v c S I P /./.c r p v B x t h n 5.e.j.j.j.A.}.}.+X{.{.OXOX'.+X{.'.'.{.OXOXOX<XOXOX+XOXOXOXOX{.'._.!.!.j.j.y.M e.e.F F G G G ",
"y.y.y.y.y.w.F e.k.(.(.k.i.w.F F i.w.e.y.w.e.y.i.y.i.i.F m F F D y.y.i.k.H G J c D J D J u.H J u.H J J K K J G u.L H H K c x c K v E *X*X..@.aXkXkXkXjXgXgX$X$X&XR.z 9 l t K r.B B Y C b.&X&XnXhXmX&XaXkXkX,.,.` ` [ ` - ) * * * - $.#.*.1.lXlXfXfX_ / @...X.T Z Z f o X 8 7 . 7 7 7 Z T.O.X.@.O.@.( d d 8 8 f 8 d f f s f f s s e s s f g W g g a e a U g E U X Q R -.#XE a p a a a g E W e e v S v p c S I P /./.r r S K x j x M i.k.`.}.}.'.[.{.'.{.'.{.<X<XOXOXOXOXOXOXOX,X,X,X<X<XOXOXOXOXOXOX{.'.'.'.'.}.}.`.j.e.F M M F e.",
"w.w.y.y.y.w.w.y.k.k.e.n m F w.k.i.e.w.w.e.F F m m H F D y.y.y.y.p.y.y.y.D J H D J G D D G m x D D J H H K H H H D A A J c c c S K x.tX*X..+.aX/ @.O.X.f o.#X$XR.Z V V l j N u.z.x.&XbX*XSXHXHXSXSXGXCXkX_   ) ) #.$.$.$.` ) ` ` %.&.&.1.1.>.dXzX,.w d o.o.o.o.Z T.X.7 X 7 7 o 7 7 7 q o.o.X.O.O.$X^ d ^ ^ f ....8 o s s o o e e s s s s f o X X X X s g s s a S Q Q E -.Q e a U E W W #X#X-.U S Y p c P I I P -.p.p y K K j r j m e.j.`.}.{.{.OX<X{.{.'.{.OX[.OXOXOXOXOXOX,X,X,XOX,X,X,XOXOXOXOXOXOXOX{.'.'.'.'.+X}._.!.j.e.e.e.",
"i.i.k.k.y.i.k.k.F F M m w.k.i.i.e.M e.F F e.w.F y.i.w.p.oX~.y.(.i.i.H D F D m D H J H u.H u.u.u.G G J x x A G D H J J J c c A J z.).=X#XZ T.gX@.^ f f q Z Y.U.Z B l.l.K K z.z.#X*XNXHXNXSXHXSXmXmXhXT.8   O %.,.&.` - $.&.&.,.sX,.>.>.1.; # ) aX/ O O ....f q q Z 8 > . . . 8 o 7 > > 7 f ^ X.@.+.^ ^ o.^ 8 8 d f o s g g U E W s s s s s o s X s o s s o X e R #Xa s s e e a a a a a E #XE v e p y P z.I P p.L D c x G G m x M e.j.!._.{.OX,X<XOX{.OX[.{.OX'.OX{.{.{.{.{.OXOXOXOXOX,X,XOXOXOX,X,XOXOX{.[.'.'.'.'.'.'.'.'._._.j.",
"~.k.k.y.y.i.k.y.F F e.y.~.|.k.k.k.w.y.y.w.k.~.~.|.(.i.i.p.H D y.D H F F u.u.H u.H J G G m D G m G J m x c H p.u.L L P J c c A A D u.=X*X*XgXT...f 8 q C Z C C B B l.l.l.#X%X=XtXAXAXHXHXHXSXmX&XX.d O O { | #.$.2.=.$.1.1.>.&.%.} #.[ [ - # O O 8 o . o o o 7 8 q q 7 7 . . 8 o 8 o 8 8 8 ^ X.( O.O.+.+.^ 8 o 7 f s s s g W U a g g g g g f W g s , a g g W U U E e X X e a v v X e a Q p e e e r c R K c A D c L L w.F m j t n `.}.}.{.<X<X<X<X,XOXOX[.OX1X[.[.[.[.{.{.{.{.{.[.OXOXOXOXOXOXOXOX,XOXOXOX{.[.'.'.'.'.'.'._.'.'._.",
"i.y.e.F F y.k.e.i.k.~.~.`.k.e.y.~.y.~.~.k.~.~.~.w.y.w.F D F F D F D D F D F H J D H D c D D m D F G H u.u.p.p.P D J K c y y c A H c c Y #XY.Z f 8 7 q C Y b.b.Y K b.x.#X#X#X#X*XJXAXmXmXNX&X&XT.d O O ! | [ $.1.:.$.2.2.$.&.dXdX_ | @   } ,.+.O o o . . . . . . . q X . o . O ^ +.8 8 8 o d ^ ! / ' O.X.X...f f s f f s s a s s W o.g s g o s g s e g g g W a e e X 1 X X e r r 1 i U S p p K /.c K z.c y x x x D y.y.j.y.x n ~._.'.{.OX<X<X<X<X<X,XOX'.1XpX<X[.[.[.[.[.[.[.[.'.{.{.+X+XOXOXOXOXOXOXOXOXOX[.'.'.'.'.'.[.'.'.{.'.",
"e.e.e.j.k.k.i.y.k.j.~.`.~.~.`.~.k.~.|.~.k.i.y.F w.D D m m m F F m J u.H H G F D x F G F G u.k.(.p.p.p.J c D J J y S c r c A c A c A S S v i i f 8 o.Y.T Z Y Y Y x.%X*XtXMXyXtXnXHXNXSXAX$XY.R.T.8 w / +.<.%.#.$.$.1.1.$.,.sXaX+.~ _     +.aX+.8 d O O + O + . . . . . . . ^ aXaX^ aXX.d O.+.;./ ( / O.T.T...7 o s g s s s s g s f s o s s e a U a U U g e X e 1 1 1 i v u r p v u u y p P ).oX/.(.p.N j t t x j.}.{.'.'.}.}.}.'.+XOX{.OX,X<X<X<X<X<X,XOX{.[.[.[.{.[.[.[.[.[.'._.j.!.`._.'.{.OX{.OXOXOXOXOXOX{.'.'.'.'.'.'.[.[.'.",
"k.k.~.|.|.~.~.~.`.|.oXoX|.`.`.`.~.k.y.H F D F w.m x m D D F w.w.p.p.p.u.G F D m F m F p.k.k.p.u.H H D x c c A A P c c c c A S A K K S z.x.C Z o.$XhX*XY.Y Y =XJX=X*X*XtXAXAXAXMX*XNXnX&X&X&X$XT.+.kXkXaX<.&.#.; >.>.#.[ %.{ / ! ~ O + ~ <.( + o d o d @.w _ O.O + + + + ( <.O.= ! +.d o 8 d / O./ X.O...f f X o g g g ;.g s o.o.s s g W g g U a 1 e X 2 X e S S 1 < 4 r r p v t t u u r y P (.oX(.p.m k n r.~.1X1X<X+X<X<X<X<X<XOXOXOXOX,X,X,X,X<X<X<X,XOXOX{.{.[.'.[.[.[.[._.j.e.m n F e.y.!.'.'.'.OXOX{.OXOXOXOXOXOX{.{.{.OXOX",
"`.`.`.`.`.~.~.|.|.~.~.i.i.i.y.e.m G G G w.D x F x x D w.w.i.i.i.u.w.H F D m m m F G w.k.p.H F D D J D c c K K K K c p p y c K A K c Y uXuXx.Y.*X*X&XY.Y x.=XuX*XY.#X&XbXyX*X%X&XnXtX&X&X&XY.T.mXCXkXQ.+.+._ %.1.&.#.` @ @ @ @ O   + @ ,.&.@ + O ^ O + / @ _ | ) = ) ) * | <.~ O / @.O o d d d d f f o.f f W s a W s g ;.g s g s a C U W S U R p r e X 1 r v /.(.j y y y y v B l 3 t t 4 r G z.oXoX~.w.n G v.oX1X+X<X<XOX,XOXOXOXOXOXOXOX,X,X,X,X,X,X,XOX{.[.{.[.[.'.'.'.[.[._.j.k.e.k k k k M e.`.}.}.{.'.'.'.{.OX<X,XOX[.'.[.{.",
"`.`.`.~.~.k.k.~.~.w.e.F x F F j x x x x x x x x G w.u.k.p.k.k.p.H F D G G F F G w.i.i.w.F F F D c m J c c c c c c c p p p p c K K  X X=X=X=X*X#XY.#XY.Y z.z.z.Y #X&XyXMX*X*X=X&X*X*XBXhX$XT.gXhX@.8 w aXdX} #.dX&.&.`       @     ) #.,.%.* O o O d O _ ~ @ O = $.*.>.>.#.{ ~ ! d ! O o o o d d d f W s s s X X s s W W g o.o.s W Y U R U Y Y S v c r p v P (./.z.z.z.z.S c l 5 l l l t 4 4 r j y.w.m h x h.|.`.}.+X<X<X<X+X+X+X{.{.OX{.OXOX,X,X<X<X<X<X,XOX{.{.[.[.[.[.[.[._.j.e.M k 9 h b M e.e.e.e.j._.'.'.OXOXOX,XOX{.'.[.[.",
"`.~.k.k.i.y.i.i.w.m m m x k x l.x.x t x m K u.H G r.t.t.i.i.i.w.t.G G G G F M G r.w.G M F w.H m m N B c j y y c S c p v v c c z.).iXiX Xz.z.=X*Xb.Y.x.x.Y S z.=X*X*X*X%X#XtXtX*X#XR.&XT.Y.hXhX@.O ( +.kXsX&.%.$.$.` ) * ] #.#.` $.1.*.` #.) + + d O.O.( ! O _ ) ` $.$.>.>.~ ! o o o o X . X 7 o 7 s s o o o e a s -.;.Q g #XW e E Y S S S p p Y z.K v S Y z.p.r.p.K H H N v B v 4 3 3 5 t t j m p.~.r.j 5 k n n j.j.`.`.`.}.}.}.+XOX<X<X,X,XOXOX<X<X<X<X,X,XOXOX{.{.OX{.[.{.{.}.j.e.n h 9 h n 5.S.j.e.j.j.j._.{.OXOXOXOX{.{.{.[.",
"y.w.F F F F F m j x x x m y c uXJX).B K K N N x m G M m M F M m r.w.G F F G w.r.w.e.w.i.i.H D D J B B v c c S K v c p y y c P K =X Xv.%X Xl.b.=XtXtX=X#X).).#X*X*X*XnX*X&X*XtXMXbX*XBXhXmXKXgXw w +.&._ * } >.[ } ` ) ` >.$.$.$.*.>.*.$.[ } @ + T.T.X.. O w &.+.,.sX#.} | ! 8 8 o X . . < z i X W C e o s e s s g #XW e U E a p p e e e p e e ).).z.S S v v x x x c K p./.%X%Xb.5 3 3 3 5 l B z.p.~.z.K h k k b k k n M M M e.e.j._.{.-X,X,X,X,XOX,X,X,X,X,X,X,X{.{.OX{.{.{.-X{.}.j.e.5.n M e.`.}.}.A.j.j.j._.<X<X<X,XOX[.[.[._.",
"m m n n x x j x x m m c K J K iXuXx.c c j j x m x N n x n m n n M G G G w.t.h.k.i.k.v.(.k.w.F H m j t j c v v S y y y 4 y K u.u.Y x.%X%Xx.K Y %XtXAXJXnX&X#X*XMXAXmXSXmX*X#XY.&XBXBX&Xo.T.$XT.@.Q.kXQ._ ) } $.- ) ` ~ @ - * - $.$.=.*.$.` +.@.. f ..7 . ..T.T.T.kXkX+.! O O 8 Z ..Y.Z X > 2 2 a E s o o s s e X E E e e R -.R R u e a W W a e p R S p r 1 , , 4 t m p.z.z.z.v > 3 3 3 > 3 l B K G H p.K l 5 h k k h k k k k k k k M j._.[.{.OX,XOX,X,X<X<X,X<X,XOX{.{.{.[.{.{.[.+X}.S.k.j.A._.}.}.}._.j.j.j.j.[.<X<X<X<X{.[.[.].",
"n n N N x k j x x x u.r.K z.A x c c c c c c c x x B B n B B N N k N M M M F G F w.i.r.w.w.r.G x x t 4 t j c y r r y 4 v l.v v %X#Xb.T Y.&X*X#XY.bX*X*XAXAX*X*XSXSXmXBX*XmXSX*X&X$X&XhXgXgXT.@.aXjXzXQ._ ` ) - ` ) | ) + @ - $.*.=.- - ; } +.^ o f Z 7 X 7 &XgX$X$XT.hXhXgX&Xo.o.C #XY.6 1 , , x.R e a s a W g g E W e e a a c c u X s W o.-.U a v y 1 , , , r v K r.z.K r < 3 3 3 6 6 3 6 V B j m J K B h 3 9 h b l l l 9 h k k k 5.j.}.}.{.{.,X{.OX,X,X,X,X,XOX,X,X{.{.[.[.[.A._._.`.`.}.}.}._._.{._._._.]._._.[.,X<X<X,X{.[.].",
"x k k k j k m m w.w.G D m m m x j B c j x x z z l l l l c l l h 9 N B n H p.u.y.y.H F D G F m k k n B B x x x j c y Y %X#XE #XE $X&X$X$XhXjXkXhX$X&XtX*XbXVXNXSXmXSXmXmXSXSXNXSXVXhXhXjXCXjXQ.&.~ @ @ # ) #.[ #.%.* @   * [ ; - - # - $.) / ^ . 7 o.b.Z Z Y.&X&X&X$XVXPXPXHX&Xo.i T i X v z.S p v R a e g g g f W U I I S p c c r , X 2 a u e y p u i i 1 4 c B K z.c 4 3 < 3 3 3 3 3 3 6 3 5 l v B r 3 5 9 9 9 l l 5 < < 3 5 h N k.S._.}.{.[.,X{.{.{.OX<X,X,X,XOXOX,X{.[._._.A.e.M e.`.}._.j.A._.}.{.].]._._._.[.{.,X,X,X{.[.[.",
"h h k n N G r.r.G e.G D m m x j j l h x B c l 5 5 l h h l 5 3 5 9 V k j K H D G D G G D m x k n v.v.v.p.i.r.K c v Y #X#XW W o.o.^ +.aXkXaX( ( $XT.&XtX&X&XHXHXVXmXmXSXVXhXhXmXhXX.$XkXaXO.O._ ~ * } ) } #.[ $.`     ~ + @ $.$.*.$.- #.%.@ w ..8 q T Z z Z U.Z Z R.Z T &XNXhXT 2 i e 1 u Y R I c p S a s W f s g a I -.-.R c c v 1 u 4 , r y y y v y 4 1 r j x N z.t.t 3 6 3 > > 3 3 < > < < 3 4 v B l 4 5 V t.k h h h t h t 4 4 k e.j._.{.{.[.{.[.[.[.[.{.OXOX,XOXOX{.{.[.].].}.j.e.M a.`.}.`._.A.{.{.{.{.[._._.[.{.,X,X,X{.[.{.",
"n n N G G r.r.e.F G G N N x j 5 5 5 5 h l 5 5 5 5 l h 5 l 5 3 z 5 9 h l v N N G N J m m G G i.(.(.k.k.k.p.u.K S E W f d d ( { _ } { O.+.@.w w X.R.%X*XbXmXSXSXmXBXhXSXFXhXgXjXjXT.kX/   ) { ) } ` ` #.` * - $.- # * `   * } - $.* - #.%./ 8 8 X q q 3 3 6 z Y l.B l v Y x.Y e a e e R #X#XR R R R R e e s X X e Q R R I a e r 1 v S v r c P P A c c y r x c J z.z.N 3 > 6 7 > 7 > > > > > > > < K p.u.G n t.v.e.M n n n M n k k e.!._.{.<X,XOX,X{.[.[.[.{.{.{.-X{.{.[.[.[.{.[.{.}.j.5.M a..X}._._.{.{.-X<X,X[.[.[.{.{.{.{.[.[.{.",
"t.r.r.r.G w.w.M G M m N k h 5 4 5 l l h 9 l V V V z h 5 l 5 3 6 9 5 l l 5 5 l l l h t k n F e.y.e.F F w.u.P P S #Xg f O.+.{ ` - [ } O.@.@.T.$X&XY.R.&XbXNXNXNXNXSXVXCXCXjX+._ O.aX&.+.{ @ @ #.%.` [ [ # # $.$.$.` ` * * #.- - - [ #.,.+.d o > q Z 3 3 z 5 t K Y K l.z.K P S S ).a S -.#XR I ).#XR a X X e 2 , , x.R A e e r r r S S c c P ).).^.(./.p.K A c J z.z.N 4 > 3 > 7 q > < < < < > > 3 c K z.(.h.e.v.|.k.k.y.e.a.j.j.j._.{.OX,X,X,XOXOX,XOX{.[.[.'._._._._._.}.{.{.{.[.}.A.e.b b j.}.].[.{.{.{.-X-X{.{.[.{.{.[.[.[.[.{.",
"t.r.r.r.r.r.B N n k k h h t 5 5 V k k k n V l 9 l 5 3 3 3 3 3 3 3 6 5 3 3 5 5 5 t 3 k t.k.~.|.k.y.e.e.y.G J S S C s ! +.} - - =.} _ ( X.T.$XY.b.b.#X&X&X*XAXAX*XSXSXhXkXkX%.) } %.,.dXdX} } ,.%.- 1.- * $.$.$.=.- - - [ %.- - ` #.| O.d 7 Z b.R.U.z 9 B K u.(.p.u./.)./.P I R ).R -.U Q Q W -.-.U a o o o , 2 X v A p e e e p S p c y p A P ).(.^.L A K J J P u.u.N h 3 3 < > < < < < 3 6 3 3 6 t N G p.i.n M v.|.|.}.}.}.}.}.{.[.{.{.{.OXOXOX,X,XOX{.[.].j.e.e.e.e.j.j._.'.'.'._.A.a.b k 5._.{.{.{.[.[.].{.{.{.[.{.{.[.{.[.[.[.",
"i.r.r.t.B N k h 9 5 9 h h l l l V h l V k 9 3 9 9 3 6 6 > > 3 3 > 5 > > 5 9 3 9 l l B k.i.i.k.e.k.j.i.y.J c v a g s O / ) * - - ~ @.X.Z Z 6 z Z #X&XnXhX*XSXmXY.&XhXkXaX| | %.&.&.,.%.%.sXdX,.&.&.&.[ #.#.$.$.$.- ; $.` $.} * * ~ O d 8 i R.%XR.V V 5 3 c r.(.(.^.^.^./.P P -./.Q -.U Q Q g -.-.a e X X X . , , 1 A p.z.c 1 r v p A p p p I ).^.P A c A A c D c c x j 5 5 5 < > > < < < 3 3 3 6 4 l j x G k h b t.k.oX1X1X<X,X,X-X{.{.{.{.OX,X,XOX,X{.{.].j.5.n b n M 5.a.j.'.{.[._.j.5.b 5.A.}.{.[._._.A._._.[.{.{.{.{.{.{.[.{.",
"r.G G B k h 5 3 5 5 h k B B N V l 9 V V 9 9 z V z 0 0 9 5 3 5 5 9 z 9 5 l h 5 h k B t.t.y.k.j.k.e.e.e.G m S Y C C f O ^ aXdX&._ @.^ q q z U.R.#X&X&XSXSXCXDXgX$X$XkXjXkX,.>.>.,.,.,.,.sX,.,.&.,.,.- ) } } #.#.>.; [ $.* ` } * ~ @ ! +.Y.Y.&X&XeXR.R.U.Y K J p.~.@X^.-.-.).)./.A Q -.I Q Q Q W E s s o 2 o X , r c z.oX=X/.e 1 u S I A p A P ).I J A c S S c c N j h z l l z 4 < > < < < < > < 3 < t t j B x h h k N k.}.}.<X,X,X,X-X{.[.[.[.{.{.,X,X-X-X}._.j.e.n b b n 5.a._.{.OX}.A.j.e.a._.[.{.{.[._._._._.[.[.[.[.[.{.{.[.{.",
"x k k h 5 5 9 9 5 9 k 6.l.6.B B V V V 9 5 z 9 3 3 5 3 9 V V l l B l B l.j h B N n v.v.h.k.k.j.j.j.j.w.G N B C C Z Z o 8 aXgXO.( 8 7 7 C V Y R.#X#XgXFXCXKXCX$XhXKXkX%.%.,.,.&.>.%.&.%.[ &.&.` %.` )   @ } ) } } ` %.} ~ +.O.@.T.aXhXCXVXVX*XR.tXMXY.Z b.v x p.y.y.@X@X@X).).I e P -.I -.-.-.E e e a a C W C i p R P L /./.p 1 1 p A Q I I P /.A p p r p S v y c c j B c l l 5 6 3 6 3 < 3 < < 4 4 t j B K x t 3 5 h n e._.[.,X,X,X,X,X{.{.[.{.{.,X,X-X-X-X}._.`.M M M M M e._.[.{.'._._.A._.{.{.{.{.-X-X[._.[.{.[.[.[._.[.[.[.{.",
"B c 5 5 l 5 h k t.l.l.b.b.V 9 l V 3 5 0 9 9 3 > > 3 9 9 l V 6.6.Y B B k x t.t.v.|.v.i.e.e.y.y.e.j.y.k.M j B V z z 7 7 i i f f i i 2 i u B R.&X*XSXFXKXjXsX<.%.,.<.%.%.,.1.%.} #.,.%.#.#.#.,.dX&.&.aX_ @ _ %._ } ~ _ Q.Q.kXgXgXhXmXhXhXhXY.Z hXR.&XT Z b.v c u.H ^.@X@X^.-.I p I ).I I I -.#XQ X e p a U T C u p p A P /.A 1 1 e p Q Q R -.-.-.A A p 1 , 1 y y y r m c c y 4 < < < 7 6 5 3 j K c x B B K N j x h h 9 h b e._.{.<X,X<X,X-X{.{.[.[.-X,X<X,X-X-X}.}.j.y.M M e.j.].-X,X{.{.{.[.[.[.[.[.{.{.{.{.[._._.[.[.[.[.[.[.[.[.",
"l B V B B B l.v.v.l.B V V 9 9 z z z 9 3 3 3 3 6 z 5 V U.B V B B V l k k t.v.r.i.e.e.e.e.j.j.`.`.j.y.k.i.t.l.V z z z C z 4 4 6 6 z r Y x.#XrXbXmXgXFXjX<.,.1.#.[ #.,.,.%.%.| } &.<.%.%.,.%.%.,.%.&.&._ w ( _ <.jXjXQ.O.T.CXBXX.Z gXmXhXY.Y.Y.BXmX*X&XR.T Y P H u.^.^.^.)./.A A ^.@X-.-.-.-.W o X u p p u i s p A p p p A A r 1 e Q R R -.-.).).I I S p r r u r y j H K J B l < < > < t y j J z.z.K B N m x x m x N k h h M j._.{.,X<X,X{.{.{.{.{.{.,X,X,X,X-X{.'.}.`.`._.}.}.[.{.-X{.{.{.{.[.[.[.[.[.[.[.[.]._.A._._.[.[.[.[.{.[.",
"b 6.t.c.l.l.v.b.B V 9 3 5 6 6 z 3 V z 3 6 z z V U.9 z V 9 5 l l 9 V l h N N x M e.e.e.e.y.j.j.!.`.!.!.y.w.n 5 5 3 3 t h t j c c K K ).#X#X%X#X$XhXjXkX| } } ` [ #.%.} } &.<.%.} %.` #.>.%.&.sX&.&.+.! / O.( ! ( kXgXgXgX$XhXY.o.&XgX&XY.$X&XY.Y.Y.*X&Xx.Y K A p.p.p.^.p.p p P oX).-.-.R g s X 2 u u e e e e p I I Q y S R c 1 1 e Q I I -.).).I I P K v i i z c J /.p.J B t > 3 6 u c G u.p.u.u.G N b k M j.`.`.j.e.n k b e._.[.,X<X,X{.{.{.[.{.[.-X,X,X,X-X[._.'._.].}.{.{.[.{.{.{.{.{.{.[.{.{.{.].].].].]._.A.j.j._.[.[.[.[.[.",
"n N 6.N N t.l.l 3 5 3 3 5 6 6 3 > 3 X X 3 6 5 5 9 9 z V 9 9 9 3 3 l k 5 k M w.k.j.j.j.j.!.`._.`.!.!.j.w.F x j B l.z t h x G K K c z.z.Y #XbXVXKXIXsX| ) * ) [ ` $.#.#.&.%.{ ~ @ &.} #.#.` &.sX} { O.( O.+.= + + d T.mXVXY.&XY.Y.Y.Y.BX&XY.Y.z Z i b.#X#Xx.K K K z.K c p p p.oX(.).P Q e X X X i 2 r e e e p A A A Q p S R S y e p e p I /./.P A A A v i 1 1 r r x K K x y 4 < 6 3 j J u.~.(.u.G B n n n e.`.}.}.}.`.j.e.e.j._.}.OX,X,X{.{.{.[.[.[.{.{.,X,X-X[._.[.[.[.[.{.{.-X<X{.{.{.[.[.[.[.]._.].[.[.].].].].A._.[.{.{.[.[._.",
"e.e.M n k V z 3 < 5 5 5 h 5 3 3 3 > > V V 3 6 z h V z h l V l 5 B B k n M i.i.e.j.~.`.`.`.`.`.`.j.!.!.!.k.i.r.z.N j j K l.l.P Y x.x.T Y.*XCXhXaX<.%.,.&.* * %.%.* - ) [ * * _ _ } &.,.%.} %.%.) { _ / +.+.( $ O o 8 o.bX&XBX&X&XhXT.hX&XY.&XR.$X#XY.T C v y p y S p e A /././.L P c e X X 1 2 i i 1 e p p A A p I Q S S c A S v a a Q R ).-.p p A A v r > , , , 4 t x x t t t 5 4 x H y.~.~.G N G w.y.j.}.-X{.[.{.{.}.}.`.`.}.}.'.{.OXOXOXOX[.'.[.'.[.{.OXOX{.[.{.{.[.[.[.[.{.-X-X-X-X{.[.[._._.[.[.[.[._._._.].]._.{.,X,X,X,X{.",
"k.i.r.n k l l 3 l l l l h l l l 9 < U.BX&Xz z Y 5 5 < < 5 l V l.z 5 h t.h.i.j.y.j.!.`.`.!.!.!.!.!.`.!.j.k.y.w.G j x J z.R Y x.%X&X&X*XmXhXgX+.! } | { *   O w ~ } $.[ [ - [ &.` ) &.,.%.,.%.{ } O.( ( @.O.+.+.O 8 7 7 T &XNX*XmXVXmXGXhXY.Y.T #X%X#Xv 1 r y c c y p y J p.D J K y e X 1 a Y S v v r r c A P -.L A A S S p A A S p Q I I -.P p p I S v r , 2 r < 5 3 t j j c B l j K (.~.~.~.D x x e.y.`.1X1X<X,X{.OXOX{.}.'._.!.!.!.'.{.{.OXOX'._._._._.'.{.{.-X[.[.[.[.[.[.[.[.,X-X-X-X{.[.]._.{.[._._._.]._._.[.[.{.,X,X<X,X,X",
"t.G N h h l 5 t B z l l l l V z 5 5 U.tX%Xz 6 3 6 3 < 6 6 3 3 5 3 h N h.k.e.j.!._._.`._.`.`.`.`._.!.y.y.y.e.y.F w.u.u.z.).=XAXHXSXGXLXkXO.! ~ { @ } } { / O O ! ` 1.fX1.2.>.1.$.#.%.,.&.%.%.%.%.O./ _ ( ( &.aXO.X 7 q z R.bXtXmXmXmXBXbX&X&Xb.b.x.#XR K K A c c y c y c H H J j r e 1 p Y R K S S r r A S P ^.P c p c A A A p S S S I I I P K A A c y 1 X 2 i t t t x x x K l.K j D |.@X}.~.F m x i.e.`.1X{.,X-X{.{.[.'._.!.y.e.e.y.j.!.'.'.+X'.!.!.j.j.j._.].-X[.{.{.{.{.{.[.{.-X,X,X-X{.{.[.].[._._._.].}.}.[.[._.[.{.-X,X<X,X",
"N k h 5 l B z B B c c B B V k l l h 5 z 6 6 z < 6 > 3 h u l z l 9 t.k.k.j.j._._.'.'.'._._.`.`.!.!.j.j.~.j.y.~.i.p.z.).%XMXJXLXLXLXKXaX* ~ { ) ) } | =   = ( ( * * >.>.$.$.*.1.&.1.` &.,.} ,.dX&.&.aXQ.w ! O.( ^ Z 7 0 V b.&XbXnXgXhX$X&X%XY.l.b.).).K K S c K c c K K z.p.D x 1 p u r p S A A P S e y A c A J A z.S A A I A y S ).S I A p A A p A c u , X r v j v t.z.u.J c c j x x p.~.`.~.F D w.|.j.}.1X[.,X,X-X{.[.'._.!.j.w.F D w.y.j._.'.'.!.j.y.e.e.e.j.}.-X-X[.[.[.[.[.[.{.{.{.{.{.{.{.{.{.[.]._._._._._.[._._.{.{.-X<X<X",
"N k h k V B B B l l c z l l l l h l z h 5 5 3 5 h B l.V B B 5 k k.k.k.j.j.`.}.}._._.'.j.j.!.j.`.a.j.`.j.y.!.!.y./.uX*XJXJXSXPXPXjX<.! ~ ~ ~ * } ,.) + O } ,.&.) 1.>.&.&.%.[ ) ) ` ` %.%.%.>.| } aX+._ O O O ! o.f q R.q.U.wXHXbX&X*X#X#X&XR.b.l.Y K S P c K K J K y K (.p.D j c S c S R K A P S c S c p K P c A S S I S A p a a a a p p e p P S c v z , 1 v v c D A A D D c y j c D u.~.k.w.D M k.|.oX1X<X,X<X,X,X-X,X{._.j.y.e.w.D m e.e.j.}.}.`.F m H G m F e.].{.{.[.{.[.[.[.[.[.[.[.[.[.{.{.,X{.{.[._._._._._.'.].].}.1X1X1X",
"k 6.6.B V z h 5 l j l l h h l 9 B l h 5 5 l l B l.B l h h h h t.e.j.k.`.!.`._._._._._.!._.}.!.j.`.A.j.j.!.~.~.oXZXAXnXAXSXPXGX$X+.,.{ = @ * * ` >.sX,.,.,.#.} { ,.` * ) * @ * ) * ~ %.&.,.sX<.<.{ / @.( ! +.+...Z 3 l 9 q.6.Y.R.Y.R.R.#XY.Y Y v K S c P K K A J S x K p.p.p.K c c p c A c c I S p c c c c c y p c v S S c p u u e , 1 p y e p c c v u , 1 c c c A D J K K A x j x c H u.r.D x x N e.!.}.OXOX,X,X,X-X{.-X'._.j.e.e.F F w.F y.`.`.!.m x x j h x e.}.{.[.[.{.[.].].].].[.{.{.{.{.{.{.{.{.{.[.[._._._._._._.}.}.1X1X",
"k B l 3 l z z z l h l z l z z z l 5 3 5 l B B l.V 5 l V l k k r.M e.j.j.j.!.`.`.!.!.`.!.!.}.`.`.j.j.`.`.~.!.oXiXZX*XMXAXSXPXgXo.aXaX} * O * ~ } &.} * ) %.%.&.aXO + O ~ * * ) ` ) ) %.&.&.+./ / ( ! ( O O @.T...> 0 0 0 U.l.Z Y.Z Y Y.Y u z Y B v S c A K K A K c N K K K H J c c c c K c p S S z.A p y y y y y y p c c u r 1 1 , X 1 v c r p c v v r , y c p A K K K K K c c c c c J G m x y h h n e.`.}.{.{.,X{.[.[.{.{.}._.j.e.F M m M y.`._.j.M x k h k M e.].{.{.[.{.[.].[.[.[.{.OXOX{.{.{.[.{.{.{.{.[._._._._._._.].{.{.{.",
"h 5 3 5 z z t l l l l j h h h 5 3 5 9 l B B N l l l l l l n N G e.y.j.j.j.j.!.j.j.j.!.j.~.!.j.k.|.~.oXiXoXiXiX=X#Xx.bXSXHXPXmXDXjX&.} | * * _ } - * ) ,.dX,._ ! + O @ ! * * * # %.} } +.O./ O O 8 O O O ! O.o.f q U.0 V c.%XR.tXR.l.b.B l z l t u v c y c K K K c c J K K c x c K c K p.K y r y K A A A A c p y u u u u r 1 , , , 2 p v v c S v v c r y S A p c A c j y r r r y c c c c x t t t t h m k.`._.'.{.{.[.[.[.{.{.}.`.!.e.m n 5._.}.}._.j.e.e.M e.j.`.}.{.{.{.{.[.].[.[.[.{.OX,X,X{.{.{.{.{.{.{.{.[.[.[.].[.[.[.{.{.{.",
"3 3 z V i 4 4 4 u u r 4 5 5 5 4 5 z z l V B B k V B V 3 9 k n M e.e.j.j.`.`.!.j.j.j.j.`.iX=XoXoXoXoX=XiX=X=XrX=XtXtXJXSXHXDXmXLXIXjXdXsX=   @ * ~ ) &.,.%.} _ / O O ! ! ~ } *   sX| ~ ( ( 8 7 8 8 O O d O.o.Z q Z U.U.R.R.%X%XZXyXb.B Y Y z 4 l l v v p y y p y c y y S z.K v c j c K P S p r e A p./.I A y r r r r r 4 , < < > < 6 i u u c c c c p r c z.P A c p y r 4 4 4 t z c l j j t t 5 5 t 5 k G y.y.j.`.}.[.[.{.[.[.[.'.}.`.j.e.j.}.<XOX{.}.}._.j._.}.{.{.{.-X{.{.[.[.[.[.[.[.OX,X,X{.{.{.{.[.[.{.{.{.{.].[.[.[.{.OX,X,X",
"6 3 i 6 < 3 i 4 1 1 1 4 t l l l l V V l l l x k 5 l 5 5 k N G i.k.`.`.k.j.e.e.e.y.j.e.k.|.~.~.|.oXiXiXiXrX=XtXJXJXHXPXHXHXhX$X$XKXKXjX%.    * ~ _ } %.[ * ) ~ O O ! ( ~ _ _ ~ @ fX%.( O 8 8 8 Z o.T.O.^ ^ d 7 q V b.R.%XR.eX%XR.tX%Xb.B z < < v v u l u r 1 r r y y r v K K v y y c P J A A p y p L I A A S v v r 4 1 , < > > > < , < 1 1 1 r y y r r S z.R K c r u u u z t u l u t t 4 4 4 4 4 5 4 t k m M e.`.`._.[.{.[.[.[.'.'._.}._._.}.{.{.-X{.}.}._.'.{.-X,X,X,X,X{.[.[.[.[.[.[.{.,X,X,X{.[.[.[.[.{.{.{.{.[.].[.{.{.,X,X,X",
"6 3 6 6 < 4 4 > 4 r 4 r l l t h V V h h l 5 9 5 h h 5 9 b B v.(.y.j.j.y.e.e.j.j.e.y.y.j.y.k.oX=XiXuXMXZXJXJXHXPXHXLXPXHXHX*X$X$XDXjXsX}   @ ) ) _ } { ) ) ] ! * $ ! ( ( ( ~ ~ ~ +.O.^ ^ ^ ^ ..T.X.T.+.o...f Z U.b.R.R.U.R.MX&XZ B l.l.Y Y z u B u 1 1 1 y r p v u i u u u c v r v K z.K J A y y y A c S P K v 1 1 1 , < < < < < 6 > < < < , , u r r r v v S P c < 4 6 u 6 3 < 3 4 4 4 < 3 4 4 4 4 4 t h j k N k.j.j._.{.{.[.[._._._.`._._.[.[.{.[.{.{.}.}.{.{.-X,XOX,X,X{.{.{.[.].].[.{.-X-X-X{.[.[.[.[.[.{.{.[.[.].[.[.{.{.,X,X",
"3 3 4 6 4 < 4 z l c l c B B V V h 5 > 5 l h k V B B B 6.N 6.t.M y.j.j.y.y.y.e.e.e.e.y.k.i.oXiXiXuXuXJXHXJXAXHXSXSXSXSXhXnXhXAXSXCX$X<.sX- = * * ) * O = | | = ( ! ! / +.+.O.^ O O d ^ o.o.X.X.T.T.f o f ..Y.R.U.R.R.&X&X&XR.R.%Xx.Y p x.Y.v u u r l u 1 v c y c C i 4 u u l v r r y A K K c y c c p p v v c v r 1 1 < < < < < < 3 < 6 < < < < i r r u c r y S c 1 4 4 4 6 4 4 u 4 4 3 < < 4 6 6 4 3 5 3 5 h k t.k.j.!.`.}.'.[.'.[._.]._._.[.[.{.{.{.{.{.{.[.[.[.{.{.,X,X{.{.{.[.].].].}.-X-X-X{.{.[._._.[.[.{.{.{.{.[.[.{.[.{.{.",
"l 6 3 4 l z v K B K t.t.B l h h 3 < 5 h h l 6.B V V 6.N n 5.e.i.k.e.e.e.e.j.e.e.e.e.k.i.k.oXiXoXiXiX%X#X*XMXAXAXHXAXnXhXhXAXSXhX$XkXjX* #.1.#.[ }   + O +.aXO.^ ^ ^ +.kXaXd o . . o ..o.o.Z f X.T.f 8 f Y.R.U.R.Y.U.Y.%X&XY.U.&X*XE Y v u l u p v B v u v Y S y v r 4 u y c u r u 4 y S c c c Y S v y r , 1 4 1 1 r 4 t z u 4 z z 4 3 < 3 i u u 4 1 4 r 4 1 1 4 6 < > < 4 < 5 4 < 4 4 3 < < < < 3 < 3 3 3 3 9 l n e.w.e.!.}.}._._._._._._._.[.[.[.[.{.{.{.[.].{.[.{.[.{.{.{.{._.[.].].].[.-X-X{.{.{.[.[.[.[.[.{.[.[.[.[.[.{.{.{.",
"< 5 t 4 t l c B N G K K B N l l 9 l B B n n B B B V 6.N e.h.h.i.e.e.j.j.y.j.y.e.k.|.oX|.|.oX|.|.oX X%XuXJXJXJXJXJXAXAXAXSXmXgX$XhXjX+.&.zXsX&.>.[ * O O +.kXO.d d 8 d X...8 d Z ..Y.$X$XY...Z f 8 f Y.X.Z Z Z b.Y.Z V z z z C Y.T v R Y p p r u z v l r v K K v z u u j c c p u r 1 r v v c S K v v r 1 1 1 r v S l.Y v c v c l l 5 4 3 4 z u i i 4 4 4 , , , , < 6 < 4 < < 4 4 5 5 4 4 4 6 3 < < 3 3 5 6 6 5 h t k m F j.`.}.}.'._._._._._._._.[.[.[.[.[.[.].]._._.].{.{.[.[.'.[.[.[.[.{.-X,X,X,X-X{.{.[.[.[._.{.{.{.{.[.[.[.[.",
"l z l t l x j j N N N N B n l l z 6 l B B t.B V 5 9 k b t.i.e.e.k.k.`.`.`.`.|.|.oX|.|.`.~.`.|.oXiXoXiXZXZXuX=X*XHXAX&X&XhXgXT.+...$XaX%.&.lX>.- [ ) ! O / O.d O d 8 7 7 8 8 Z ..Z Z Y.Y.Y.R.Y.z > q Y.Y.Z Z z V V q V V z z C T T U v e 1 z i i r u j t y j c v p y c c c p u i i u u p u r r r i z r , , , r K c c B c j B K c j j j t 4 u u 4 z u 4 4 < < > > X < < < < 4 l l 5 4 4 4 6 6 6 4 3 3 3 6 6 6 5 3 3 5 j x e.j.}.1X{.'._.'._.[.[.[.[.[.[.[.[.[._._.}._.}.}.+X[.'.[.[.[.'.[.[.{.OXOX{.{.{.[.[.{.'._.'.'.{.{.[.'._.'.",
"z h t l c x x x G N m n x k k l z 6 h z n c l 3 9 V N N h.i.y.k.|.`.`.k.j.j.~.|.j.i.|.oX|.|.oX=XiX=XiXiXoXoX%X=XyX&X$X$XT.@.( 8 . 8 T.Q.O.dX#.$.#.} @.X.X.^ 8 f f q 7 7 7 q q > q 7 q T R.R.Y.q z < z U.Y.Y.Z Z z 3 3 l 5 4 i U Y.T v 1 1 i < , 1 u B v u r r v c p c A c p u r 6 6 r 1 , 1 r r 1 i r > 1 y c J c p y y c c c x x D c j t t 4 4 z t t u 4 < < < < , , 4 u l l j t h h 4 < < < 3 3 4 3 3 3 6 6 3 4 4 5 k M e._.-XOX{.[.{.[.{.{.[.[.[.[.[.[.[._._.j.a.e.j.`.}.'.'.'.'.'.[.'.[.{.{.{.{.[._._._._.j.j.!._.}.'.'.[.'.",
"t t j j t t j B K G N x x k l h > 5 V B l 5 9 h B l.h.t.k.k.|.oXk.j.e.e.F e.j.k.y.oXiX=X|.~.|.oXw.k.oX|.|.oX=XuXtX*XT.X...w O . ^ T.@.aXaXaX%.| fX+.T.$X$XX.8 Z Z i 7 7 7 7 7 . . X > z b.U.Z V z < > 6 Z Z C b.b.V 3 4 z i i T a i e X > , , 4 < 4 z l u r u Y K A A K S j u 4 > 1 1 1 1 r r u 1 , , 1 c z./.A H A y y j r t c J P B y 4 5 t t t 5 t u 4 < 3 6 < , 1 z B K v z t h t 3 < < 3 3 3 3 6 3 3 3 3 < 4 3 4 j 5.a._.-X{.[.[.[.[.[.[.'.{.[.[.{.[.[.]._.j.e.M n e.j.!.!.'.'.'.'.'.'.[.[.{.{.[._.!.!.j.e.y.y.!.`.}.{.'.'.",
"l v v c j x B N K G N c x l l l z B Y V 5 > 5 k N t.h.h.k.k.k.`.e.e.e.e.e.w.i.y.k.iXiXi.i.k.k.|.e.k.|.oXoX(. Xx.&X&XZ 8 ! / ( ( +...T.CXhXX./ aX+.^ f X.T.Y.X...f i i 6 7 7 7 > 7 q 6 z Z B Y l.c z u z C z z C u z 4 u v u 4 i 1 1 1 e 6 i z Z 4 < r 1 r y u S K A A S c u 4 , < 1 1 r u y r 1 1 > 4 v S z./.P D A j r 4 4 t K z.z.v t 4 3 6 t 4 4 t t 4 < 4 i 4 , < z B Y K l.l l t 3 3 3 3 3 < 3 6 6 3 3 < < < < 3 h e.j.].-X{.[.[.[.[.[.[.[.[.[.[.{.{.[.]._.`.j.e.n b M w.y.!.!.`.`._._.'.[.{.[.{.'.j.j.k.e.m m F y.!.'.{.'.",
"v c x c B K K N N c x j j l l l B v l 3 3 6 V B n t.h.k.k.e.e.e.e.y.e.e.e.F w.F w.|.i.F y.k.k.k.k.k.i.k.k.(.=X#Xb.R.T.T.X.^ d ^ X.X.hX$XZ Z Z d ^ d o o 8 8 8 q > > q 2 > > > > 7 6 > 3 z z Y Y Y Y Y Y Y Z v z u v u u u 4 t u 1 , e u r r u r z u u 1 u v y p c c c c y 4 < < < 4 r u c c p y r r v v c A L u.D H J j r 4 t v K Y l 4 6 3 3 4 5 4 t j t t t u i 6 4 1 u c c B B B z h 3 3 < > < < 3 6 5 3 3 < < 4 t j e._.{.,X,X{.[.[.[.[.[.[.[.[.[.{.-X{.]._._.j.y.M k k x G F y.j.j.j.j._._.{.{.{.}.j.e.m k h t h n e.j.'.'.",
"v j c B c c x c j j j t t t t l t 5 < < 6 z l k k M e.i.e.e.k.k.e.w.F F F F k.k.(.F F k.e.M i.e.e.k.e.k.t.(.uX#X%XR.&XgXT.o.T.$XT.T...7 z 3 Z 7 8 Z i 7 7 X X 7 > > 6 < > < < < z u < z z u Y Y Y v v C z z B v S p 1 r p c v y R S v u , 4 C Y u i z 4 u v r 1 c c c v u 1 < 6 6 z v c S c c c c v c c c H P L H A v v l t 4 4 5 l 3 3 q 6 6 3 u t j v v j t 4 6 < < , 4 l t t c B B l 5 3 3 3 6 < > 3 5 4 4 4 4 z n n e._.-X,X,X{.{.[._._._.[.{.[.{.-X,X{.[.'.{.!.j.e.b k 5 k h n F e.e.e.j.j._.'.}.}.y.m k h l 5 5 h x e._.}.",
"B B c x j j j j l t t l t 5 5 5 < < < 3 5 5 h n M e.i.k.w.i.i.m r.m m w.w.M e.i.e.i.k.k.e.F e.w.v.k.(.iXiX%X%Xb.b.&X&X&X&X&X$XY.Z q 7 z C C Z 6 q C T T z 6 i > X < z 3 3 k N G l.4 l l.B z z u u 6 z z z z z Y S y 1 y Y Y S K p y y c v v U Y v i r 1 4 i r , r p r u z i i 4 v 1 c S A c c c K y y v v c c c c y u u z r > < < < < 3 6 6 6 6 , r c K S v u 4 < 3 3 3 4 5 t h z l z l 5 4 3 < < < 3 3 3 3 5 9 9 k b e.`.}.{.,X{.{.[.[.[.[._.].[.[.{.-X,X,XOX[.'.'._.j.e.n h 9 h h j k x n m M e.j.`.}.`.e.n k h l h h n e.j._.",
"c l j j c x k j 3 h z l l l 5 3 4 3 3 3 3 9 b 5.k.`.k.y.e.G w.i.m G M m M e.e.y.e.e.k.v.k.k.v.v.t.p.z.v.c.K K z #XyXAXJXbX&XY.q q > > 6 3 < 6 < i z C Z z 6 z i < u Y N k e.y.k.k.z.K c t t 4 < 6 6 6 < 6 z v Y j v y y K P c J K A c p p u a v U a 1 1 u 6 > < r r u v z 4 u 6 > y S c c c c K c c S v v c c y 1 1 r 1 1 r r l z 6 < < < 6 4 4 r p K K K v u t 4 t t 5 t t 5 t z z z l 5 3 3 > 3 3 3 < < 4 h V V b e.`.}.{.,X,X{.{.{.[.[.[.].{.[.{.{.{.,X,XOX[.[.'._.`.j.M k h 5 9 t h h j k k n e.y.~.`.k.e.r.h j k n e.j.}.}.",
"y y j j c x j j x K Y B B l 3 < < < < 3 l B k.v.k.k.k.i.i.w.M m r.M M w.e.F M n e.e.h.i.r.G M n x N N x k j z l B Y Y b.Y.Y.Y.Z z 6 z Z z z C z 6 6 6 z i 6 z z 3 j t.i.j.`.`.oXk.(.H y J z.v j t 4 4 1 i B v u y c y c K P J P z.P S p p a v v u r i z i 4 < 6 < 1 z v u < 6 , u v v p c K S z.y c S v y c c y r c c 4 r c c B K v u < < 1 4 4 r p S K c y r 4 B G G G B c c c y r t u u 4 6 6 6 6 3 3 4 5 l V b 6.S.`._.-X<X[.{.{.{.[.[.[.[.{.{.{.{.{.{.OX{.{.{.'.'.`.k.e.x j h 5 5 5 5 h h h h k b M i.i.r.r.k x N M y.`.}.{.",
"x c N c j j j k K B c v v u , < 4 < 3 h B t.k.k.~.e.e.e.M F e.m i.x n e.M F i.y.i.t.i.t.r.G m k x N x k x j h t t z 3 < i 6 6 T 6 2 z T Y T b.C i 6 > 6 6 6 3 < c N k.~.`.`.~.`.oX~.u.u.z.).z.c c y l B v u r c Y y j K K J P P K S p r u i i i i 1 r , X > 6 < < 6 i u 4 4 6 > Y u y c y p c v S p c c r y c y z.K c y G p.w.D x c u < > 1 i u r v S S c y r j J H H H K D x x v j t l 5 < < 3 5 5 5 5 4 4 h k n h.S.j._.-X{.[.[.{.[.[.[.[.[.{.{.{.{.[.[.{.[.{.}.'.`.~.k.w.x j h h 5 5 5 5 9 l 9 5 5 h n M N N N N N w.j.!.'.[.",
"r j c N B K l.z.B t t u r 1 1 , 3 < 5 l N e.y.j.e.e.a.j.e.e.h.h.x m t.w.e.i.k.i.i.e.w.i.t.t.r.B B n x c B l 4 4 < 5 4 6 z 6 z V 6 6 C C z C Z i 2 > > > > < 3 3 K t.(.|.`.`.!.~.|.p.v./.z.K K J S c v B l < y Y Y c v K K J P L A v p e r e 1 , v i 6 , 6 z z < 6 z z 4 6 6 4 4 Y 1 p S r r v v p r y p p A P /.).J y x p.~.^.y.m c u < X > < 1 4 z v v y r t c A L H J J c j y r 4 4 t 6 4 6 z 5 5 5 4 4 4 h n e.e.j._.{.{.[.,X[.{.[.[.[._.[.[.{.{.[.[.'.'._.}.`.j.y.y.i.G x j t t 5 5 5 6 9 9 z l 5 9 k N B B c x n M i.~.}.}.",
"c c x c B B B B l t u 4 > , 2 > > < h B G e.k.`.j.`.`.`.k.i.e.M F i.w.e.k.i.F e.e.e.G G G N N c l t j j t t < < < > < 4 3 z V < u i C v 6 u 6 < > X > > > 3 6 z B t.(.oX`.~.!.~.i.p.u.G c c c K K c j j j y v S c K K c S K J K S v p r r 1 X X , 2 > > v v 4 4 l z i 6 u < , v l.S K K p r 1 1 u S S p A A H ).(.H p D p.~.~.|.H c 4 > > 2 6 4 > 4 r 4 4 < 4 j J L L H J c c c j u t 6 3 < < 3 3 3 3 3 3 5 k w.e.e.}.-X[.{.{.{.{.{.{.[.[.'.'.[.[.{.[.'.'._.j._.y.e.M F M n j j t t 5 5 5 9 9 9 z l 9 5 l k k l l j j k M w.~.|.",
"x j l l z l l 5 > < 6 < > > > > 3 5 N t.e.e.k.k.k.k.e.e.k.(.k.i.(.e.n e.k.e.e.k.e.e.r.r.G N B c t 4 u t 1 r r 1 1 i C C i v v i i i i 2 > < < < 6 < 6 < > 3 6 V B r.v.|.~.!.y.i.r.p.c y c c c K K c j c v S K p S z.K c c c c p p p e 1 e , > < i i 1 1 u r r v l u u u u < , z v c c y v v , X e v v p A A L (./.u.c J ^.~.(.~.z.K u < < > > X < 4 < < 4 4 4 r c A c c c p u u u r 6 4 < > < < 6 3 3 3 3 5 N e.e.j.1X-X[.,X-X[.,X,X{.{.[.[.'.[.[.{.[.'.}._.j.j.y.M x x x k h t t t t t 9 9 9 9 5 l h 5 5 5 5 t l t t h k b M t.",
"k l l l t 4 < > < < > < 6 < > 3 5 h N y.j.j.j.e.k.e.e.e.e.i.k.M e.M i.k.e.e.i.e.e.w.t.t.G B B c t 4 u r r v v i u a i a E E U Y.$Xo.C < > < < z 6 > < 6 l l 5 V t j m i.~.~.p.w.J K c y S K A P A K K K c y A A R P v p p v v p p p e e r 1 6 z i , 6 i r u v y v r l u u u r u v c c p v a , X a r p v p p P P ^.P c A p.(.~.D j r < < < < < < < 6 < < u u 3 1 r y y y u r 4 4 4 1 < < > < 1 < 3 3 6 5 5 h n e.j._.-X,X,X,X[.{.,X<X,XOX{.[.'.[._.[.[.[.}.A.e.a.j.G n x k l t 5 5 5 5 5 5 5 5 5 4 l l t t t t h h t h l h 9 9 k ",
"B l l u < < > > > > > < > < 5 l N 5.i.k.j.j.j.i.e.w.w.e.F w.w.F F e.e.e.e.e.e.y.e.M G t.t.k t t 5 5 t u v Y T U e e a E #X$X#X;.Y.2 q i < 6 6 < > 6 6 V B B B l t j x r.i.H u.u.A K p r r p P P /.R v p p p c S P S u r e e e 1 u p u r e i i i z < , 4 1 y v c y r y v z p c u v c v u u i < , 2 1 1 e r y A P P L K K K c r c r 1 < < < < < 6 3 < < z z z v 4 4 4 1 1 , < , , < > > < , , , < u 5 3 4 l j M ~.`._.-X,X{.,X{.[.,X<X<X,XOX{.{.'.[.[.[.[.[._.A.j.y.M x k 5 5 5 5 5 5 t t l h h 5 5 5 5 5 5 5 5 4 t t t 5 9 9 l h ",
"B l h 6 < > > > > > > 3 t n t.h.k.k.k.k.j.e.e.e.e.e.e.e.w.i.i.F w.k.i.e.e.y.k.e.e.w.r.r.B N l 4 z 4 4 v C C C i U W U U o.#X;.W s X 7 > X < > > < 3 3 v l.l.G B B z.K K p././.K p y v #X#XK P P I c v p y p S S S p e 1 , X X , r p p r 1 r i z > , 1 r c v v K A c c v c c v v c r i r , 2 2 u 6 2 , , r y A I J J K c v u , 1 , 1 6 6 3 < < 7 > < 3 l l t z u 4 4 4 1 1 < < < < < < < , 1 1 4 l v l t j k M j.}._.OX,X[.[.[.[.[.{.{.{.{.{.[._.[.[.[.[.[.}._.A.j.e.e.m h 5 5 5 3 5 t h h h l l 5 5 5 5 5 5 5 5 5 5 5 5 5 5 5 9 ",
"z t 4 < > > > > > > 4 l B h.L.|.y.y.j.y.e.e.e.e.k.t.e.w.w.w.H m n y.e.e.e.j.j.e.e.t.r.G l.l.B B l 4 4 u v v i 2 , i C U C f s X o 7 7 > > 6 < 6 > 3 < v b.z.r.z.z.)./.z.).).z.p y e x.JXAX/.S I c p v v y p S v e 1 X X X X X , r S S y u r i v v r 1 v S c c z.z.P K K A A K S v u 1 , X , i C 6 2 , , 1 u c A A P K p r 1 X > > 1 6 2 < > > > > < 4 u l 4 6 z 4 4 4 4 4 < < < < < < < < 1 4 t y c x j m r.k.`._._.OX,XOX{.{.{.[.'.'.'.'.'.'.'.'.[.[.[.].'.]._.`.j.j.e.n h 5 5 5 5 5 5 5 5 5 5 5 5 4 5 5 5 5 5 t t t h h l V V ",
"5 3 < < > > > > , 4 c r.t.j.j.j.j.j.j.y.e.e.i.i.k.t.e.e.F m m m m w.M e.k.e.M e.i.v.N n l.z < h 3 6 4 4 i 4 X 2 C C C T C i 2 2 7 7 7 2 6 6 > 3 6 z z l B B K oX%X%X).).oXz.p 1 r e x.AX*XS y p p e y y r a v u 1 1 , X , 2 u u r S v y p i i v Y 1 4 S S c K /.R P P K c A K R Y a 1 , , 2 e i , < < , 1 u p p S K S r , > X X < < > > > > > > > 3 4 4 j t 3 6 6 4 4 4 4 < < < < < 4 < < 1 r u c c c m r.v.|.}.{.[.,X<X<X,X{._._._.!.!.!.!.`.}._.[.].[.].].'._._.!.j.j.F k h 9 5 3 3 5 9 h 9 5 9 5 5 4 5 5 5 5 5 5 5 t t h l z ",
"< < > < < < < < l x N w.e.j.j.j.k.i.e.e.M e.i.i.e.e.M M n x n m e.e.M e.i.e.e.i.M M n k B l 3 3 3 < 6 i i 6 i T C 6 7 z C z C T C 2 7 i z 6 > < 3 z u , y B z.=X)./.J K R c 1 r r e v R K p c c c c p r r e 1 , r 2 2 , 2 i i i 1 v u r z u u i u 1 u v v S P K K P R S c A K R c r 1 e r r 1 X , < 2 1 r a v v y y e , > X , > < < X X < 6 < < 3 5 5 4 t 4 < 3 u t t 4 4 4 3 < < < 3 4 3 3 4 t j c c c G i.`.}.}.{.{.,X,X,X{._.!.j.y.y.e.y.j.`._._.].'.].]._._._._._.j.e.n k l l 5 5 5 l l 9 5 h 5 5 5 4 5 5 5 5 5 5 5 4 3 4 4 ",
"> > > < < 3 3 5 k n G y.j.j.j.j.i.w.M n n M e.e.F M F e.n x n M G F e.k.e.e.i.M e.M t.B k l z < < > i 6 < C T T C C Z C z i i C C a C C z i 6 6 6 i 4 > u v v z.K A c p c y r r e p v S K z.p.A K K v u r , , , 1 , > > 2 i i u z v u u v r r 4 u i u y v S A A I P K v p r y c y y e r 1 1 4 , , 1 2 < 6 v C v e 1 X X > X > < 2 < X > 6 4 < 3 5 l l 5 4 3 < < 3 4 4 4 4 3 3 < < < 3 3 3 3 3 4 4 r t j x m i.}.}.{.[.[.{.<X<X_.y.F F D D F w.j.j.j._.].'.'.]._.'._._.j.e.M M n k l h l h 5 5 5 h h 5 5 5 5 4 4 5 t t t 5 4 4 4 ",
"> > > < 3 3 5 l b n e.i.k.~.j.e.i.G N n n M w.e.e.e.e.e.M N t.t.i.v.|.(.i.e.e.k e.M r.B l z z 3 > < 6 X > C i 2 i C C i 2 X 2 i s a v C i 6 6 < > > < , u v r y K K K c j z u 1 X u v S R z.H c p y u r 1 , 1 r 1 1 , , 4 i v p v v u v v r u u z i 4 r v v S K p v p r e e e e P P S p 1 , 1 , , 1 2 , < i a i , , X > > > < < < < > > 6 < 4 c c h l z u 4 < 3 3 3 4 4 4 3 3 < 3 3 < < 3 3 3 3 4 4 4 t 5 h n e.`.1X-X{.[.{.{._.D m m m m x m e.e.j._._.'.[.[.'.]._._.A.j.e.e.N j h h l h 5 5 l l h h 5 5 5 5 4 3 4 5 t t 5 5 r ",
"> 2 < < 3 3 9 N N 5.w.y.y.i.j.w.x h 5 h k r.h.k.e.e.e.e.r.k.K. Xe.(.i.e.w.F M e.M e.N N B k 9 l 3 3 < < Z Z 2 C i s s f f f s 2 e e u a i < > > 2 2 6 6 1 1 1 c K S K j r v z r 1 r y p c A c K v r r u 1 1 r 1 1 r 1 , 1 u u u r r 1 z p 1 i z z 6 6 1 r S R a e r u u a S P P /./.^.K y r 4 > , 1 < > , 6 2 X X > X , , > 2 < > < < < 4 4 c z.r.j j B v l 3 4 5 t t t 5 4 3 3 3 3 < < < 3 3 3 6 < < 4 5 h k b e.}.}.}._.}.}.`.x x c m m x x m e.j._.}.}.[.[.[.]._._._.j.j.y.e.M n k x x h h l k l l h t t 5 4 4 5 t l l t t t ",
"> < < > 5 k h b i.k.k.k.k.e.N j k k n N r.g.v.i.i.|.L.k.v.v.r.w.k.w.M M F F F e.e.N N N N n k h l z z Z i 2 a i s s s f f s 7 s s e u a i > X X X < 6 4 < 1 4 r v v y y v v y 4 i v r y c c S p z u r r r v v u 1 1 4 1 1 1 4 4 r 4 u v z u r r , i , 1 v v u e p p 1 X v /.^.@X^.@X^.^.^.L v 1 u i r 1 6 > X X X 2 X X 2 , > < > > > 1 t y c r.(.p.i.G B x 4 4 t z c l l l l 4 3 < 1 4 4 4 6 6 4 4 < < 4 5 h h x M y.`.j.y.`.i.j r t j j j j k M M e._.}.{.OX{.[.].]._.A.j.j.i.e.m N n k n k k l 9 l l 5 h l t 5 4 5 5 5 l l 5 ",
"< X < 4 l N M e.k.k.y.y.i.N n 5 h h k N t.i.e.M k.|.k.i.h.w.F F F F F e.e.F e.w.M M N N N N N N n B z z < X e 2 s s s s 8 7 o e a a v a u 2 > > 7 < 3 u u 6 4 6 t j l r r v l 4 u i < 4 r r c y u u u y j S Y v v p y y y l l u z p c v p u r 1 , i 2 , i u u u u u X X S (.^.@X^.^.^.^.^.P P S r y r 1 1 , > 7 X X X X X > > < 2 2 6 i l c m w.y.F w.F D x t r t l x j l h 5 < , < 1 4 4 5 5 5 < < 3 4 5 t t 5 j x N k.k.i.k.m t r 5 t t t h k B 5.e.A._.{.,X,X[.'._._._.j.j.j.e.m N N n N N N k h k l h 5 h t h h l t 5 h h 5 ",
"3 < 5 l N h.k.k.e.y.e.e.5.N k h k k N t.k.i.w.e.e.e.e.M M F M F e.e.e.e.e.M M e.n M M N n n N N k l 5 < > , a u s s s 7 2 X X 2 u a a r 1 2 7 > > > < 4 4 , , 1 , 1 u u t v v < u 6 > , 1 1 u u r r y y y j v a v p y c v S B v v z c p u r r 1 , a i 1 1 1 r r e , X 1 ^.@X@X@X@X^.^.^.p.D A K K P J c c u , , X X X X X X > > 6 u u c c c J i.`.`.~.^.u.F x j x c c c c l 4 < > > , 1 4 4 3 3 t 5 4 4 3 4 3 3 4 5 4 n r.r.k.G t r 4 4 4 5 h l 6.w.w.A.}.{.,X,X{.[.'._._._.j.j.M n N n k n N t.N k k n j j j t h h l l 9 9 h 5 ",
"l l B n M i.w.5.k.k.k.e.n k h h N N h.k.i.e.5.5.e.e.e.e.e.e.e.e.w.e.F M F e.e.e.t.t.t.w.N N B N n l 3 < 1 u v a a a i 2 , X X 2 u a i 1 , 2 > > > < 4 , , 1 , , 4 r p z u r 4 < < < > 1 4 1 u u u y c c y y u r p v v v S v c v p u r r 1 r u r , u i e 1 1 e 2 X X X c @XpX@X@X^.-.L P L c p A /.^.^.p./.K r , X X X X X X X X r u y j c c F ~.`.'.'.!.^.y.L H K G J J N l 4 < > > < , < 4 3 3 4 4 3 < 4 4 t t t l 5 t j h k h t 4 4 4 4 5 h l n n e.k.`.}.{.OX{.[.'._._._.j.y.e.N N n k n N r.t.N n n n N N j t t h h h h l 9 ",
"k N r.M w.k.k.j.y.i.h.e.n k b N k M e.e.e.y.j.k.a.j.j.y.i.i.e.e.e.F F F e.e.e.e.r.r.r.M N G N n N l 5 t u p v v a a u 2 , X , 2 1 r 1 , , , > , 6 r r r v S c 1 , u u u u 1 < z < 2 < 1 4 u p u u p c c c y y y p c c S S A c p 1 1 1 , , 4 r 4 , 1 1 , X 2 i e X X r ^.@X@X@X@X^.L A L P c y A P P P p.^.P c r , X X X X X , , 4 p c c c c D ~.!.!.!.!.!.^.u.u.u.H G J c j 4 < < < < < < 3 6 6 u t t t t 4 < < < 5 5 t l 5 5 5 4 4 4 4 4 5 t t h j M i.j._.}.{.{.{.[._.]._.j.e.w.5.M n n N N t.t.e.M m M t.t.N k h t h l l l 5 ",
"g.v.k.k.k.k.y.k.j.e.e.M n b k n e.i.y.e.y.j.j.e.e.e.e.e.e.e.e.y.w.e.e.e.e.e.e.h.M N n n x n n h h k z v l p v S u u 2 , < < < , > , , , 2 2 2 i 4 r y S P P S c v Y i 1 r r < 2 2 6 2 , , r u u r y c c c p y y v c p c S K c p , , < 2 < , 4 1 Y p u 1 X 2 e 2 X u I (.@X!.@X@X^.L J L K c r p /./.^.P H D v S v i 2 , X , 2 2 1 i z c v y c u.^.'.'.!.!.^.u.L u.P H D c j 4 < < < < > < 3 3 5 3 4 5 5 u t u u u t 5 5 5 5 5 5 4 4 4 4 4 4 5 5 5 5 k M e.y.!.}.{.{.{.[.'._.j.e.e.5.N n n M M w.5.e.e.M M w.u.r.m j 5 h l l l l ",
"v.t.i.i.j.j.e.k.e.M M n M 5.M e.i.i.e.e.j.j.e.e.j.j.y.e.e.e.e.e.e.e.e.e.e.w.h.h.M N N N n n x k k N B z l l u y 4 1 < > < 6 < < < 6 6 < 1 1 , 6 1 u S P P P K K Y C r , i z 6 < 2 2 , , , 2 r u c c c c c c p p S c c c c c y 1 , , < < , , r l x.K K S r r e X , S ^.@X^.^.^.^.-.L L L P c 4 y ).)./.P c c K z.Y v a r , , < 2 , 6 r i p r y D ^.^.!.!.^.L P A H H H A x j t < < < < < < < 3 3 t t 6 4 3 3 4 4 i 6 4 3 3 6 6 5 4 4 4 4 4 4 4 4 t 5 h x x m y.`.'.{.{.[._._.A.j.e.e.M n M n M y.5.e.y.e.e.F G r.N j t t t h l l ",
"v.h.k.e.F e.y.y.k.w.t.e.e.e.e.k.k.k.j.j.k.j.e.e.j.e.e.e.e.e.e.e.e.e.w.i.k.i.e.n n n m N N x n n n G B x z z l 4 1 1 < < 6 6 < < < 6 6 > < < , 4 y S P L P p.p.I v y u u u 4 < < < > > , 2 1 1 i v c p c c c p p p p p c p y r , 1 , > , > , c Y K c z./.S a e X 1 S ^.@X@X^.^.L L L -.P P v , , R R K c y y c K v c y r , , , > > < , , i 4 r c u.^.!.^.y.D A c A J J c x j r < 2 2 2 6 4 4 3 3 3 4 6 6 4 4 < < 4 < 6 6 3 3 6 3 5 u 5 4 4 4 5 4 t 5 t j j k e.k._.{.{.[._._._.j.y.e.e.e.M m M i.e.e.e.j.i.F m G r.x h t 3 4 5 t ",
"M M M e.j.y.w.w.e.F G e.F e.y.k.j.y.j.j.e.e.e.e.e.e.e.e.e.e.e.e.y.y.k.y.e.e.M n N N m m x n m m w.M x x c x j j t 4 3 z z 3 5 z i i 6 < , 1 r v j z.z.L L P P K y y u u r i u 6 > > > , 2 u i i u y c c p y y y r y c c y r i 1 1 i v 1 1 v v S p P P R I p p p e A @X@X@X@X^.L L ^.^.L K K z , v R z.v r r c v y y p r , X X > , > , 2 , , 1 r H ^.y.L L D y r c A K c c j 1 4 < 2 < < 6 z z 3 < < 3 6 3 < 4 4 1 1 1 4 4 6 6 4 4 t t 4 4 4 3 3 4 3 5 h h h j m ~.}.}.'.'.'._.j.j.y.y.y.M n e.k.j.j.5.e.j.k.e.x N k k t 4 4 4 t ",
"e.e.e.y.k.y.e.e.w.M m F F e.w.e.e.e.e.j.e.e.j.e.j.j.j.i.i.i.t.e.e.e.e.e.M 5.M m N N M M m N G G e.F m m m n N N x j l z t t B B 3 < , < r u u j c z.).p.P P J c c y r r r v v i 1 , , 2 2 2 u i p c c c y y u r 4 r r u u i i 2 1 u v v a S v c I P A S K S a e e P @XpXpX@X^.^.-.^.^.L A S y , e a S c y y c j r r r 2 X X X > X X 1 i r r r r c u.p.L D c y p S c J A y r 1 < > < < , 1 u 6 3 3 3 3 3 < < 6 4 1 1 1 1 4 4 4 4 4 4 4 4 4 4 4 6 3 3 5 t t t h n i._.`.`._._._.j.j.y.y.j.e.F e.k.A..XA.e.e.e.i.k.m j j t 5 t 5 t ",
"i.y.y.y.y.w.F F F m m F w.i.y.e.e.e.e.e.e.e.e.e.k.i.i.i.i.i.e.e.M G G M n N M N m m M G G G w.w.H F F F F m G r.N K K B z h t 4 l t r u p y 1 r c P /.P c c c j c y y c v B B u i 1 , 1 1 , , 4 v v v c j u r 4 u r 1 r r r 6 , 1 1 u u a S R R S A y p a u e X p @X@X+X@X^.L ^.-.^.-.A A A v 1 2 u v v v v c c 1 1 2 X X X X > > , u v a v p y c P p.L A y e y S c S v r t 6 , > > , < 1 1 4 4 3 3 3 3 < < 1 1 < < 1 1 1 1 1 1 4 4 4 4 4 4 5 t 4 3 4 5 5 5 t j n e.k.`.`._._.!.!.j.j.!.k.i.k.k.e.`.A.j.j.e.e.e.w.x k t 5 5 3 4 ",
"w.w.w.w.w.F F F F M F w.i.j.y.y.e.e.e.e.e.e.y.e.y.e.e.e.e.e.e.M n m n x k n n m M M F G G H w.w.H H e.w.H H w.u.m N x x N j j K c c c c c p y p c K z.K p y j c j r y K Y v u v u 1 , 4 4 , , 1 i z c l u u 6 4 < , 1 4 4 1 2 2 r i v a a Q p p y p p e , X e v A pXpX+X+X@X^.L -.^.-.I A I v e , 2 1 i z c l u 2 , X X X X X > , r p v v v v y y c J J A p r r v v v j u v z > > , < 1 1 1 1 6 3 3 6 6 < < , < < < < 1 1 , , < 4 4 4 4 4 4 5 5 4 4 5 5 5 5 5 h h m w.k.k.~.`.`.!.y.e.w.e.e.i.j.`.j.j.j.`.j.e.e.e.b h t 5 5 5 4 ",
"w.H H H F m m m n F w.i.j.e.y.j.k.j.j.j.y.y.j.y.e.e.e.F e.G F M n x k k k n n N G G G G G G F F F F e.w.w.e.H H i.w.m x m x x K G c J K K S c S c S z.z.c c j u u r r c B l r v r 4 t z l 4 1 4 4 r u u i u 6 < > < 6 6 6 2 2 1 e p p p p A S p p p p e X X i Y p @X@X+X+XpXpX^.-.-.^.-.P P S e X X X , 1 r 1 1 , X X X X X , 1 , 1 u v v S v y r c c c c c u 1 r c j u v B z < < , , 1 1 1 < 6 6 6 i i 6 < < < < < < < < , < < 3 4 4 5 t 5 5 5 5 5 5 5 5 5 5 t t x G w.e.y.y.y.~.w.F m m m F F `.~.`.`.~.j.j.k.y.M k h h 5 t 5 ",
"H F D m x x x k x e.i.i.i.e.a.k.j.a.j.j.e.e.e.e.e.e.F F F G F M n n n n m M w.r.r.w.G M M M m m F F F w.w.w.F F w.m H G x K u.c H J H P P K A c y y S N c v l u u u 4 1 u t t y < r c B v u 1 1 > , < 4 4 4 < < 2 6 u 2 6 6 X X u v a p p p S Q Q p a s u 2 , 1 P @X@X+X+X+X+X@X-.L L P I I v u X X X , , , , , X X X X , 2 r u , 1 u v v v a r 1 u v p y u e , 1 r 1 u B B z 6 < , , 1 1 1 < , u 6 u 6 < < < < < < < < < , < < < < 4 4 5 t t t t 5 5 5 5 5 5 t t j x x m m M e.w.m x m m m F M m e.j.!.!.!.j.e.k.y.N N k t h 5 ",
"J m m m x k x x e.i.i.a.a.e.e.a.e.e.e.e.e.e.e.F e.F M M M F M M n m m M M G w.r.G M m n n n n x F F F w.w.e.F m r.F J x x u.u.J J D H L K K c y y y x j c v 4 u l l l t 4 u u 4 4 c K B l u 4 1 > > < 1 4 4 < > < u i 1 2 2 , X X u a S S p p e a s a a a 7 X X A @X@X+X+X+X+X@X^.L A A p p u s 2 , X X X X X X X X X X 2 e u i 6 2 e i p p u 1 , 1 r r 1 1 2 , , , 1 v B B z 6 , , , , 1 , , < 4 4 4 4 < > < > < < < < < < < < < < 3 4 4 5 t l t t 5 5 5 5 t 5 4 r t j j x n N j t j x x m m m m D e.F y.`.j.j.j.y.M M N k c l ",
"D x m N N B r.r.e.e.e.e.e.e.5.e.e.e.e.e.e.e.e.e.e.F M M M M M M n x m m m m m M m n k k k k k k F F F e.w.G M M n G m c z.p.c J J H u.L A c c y c c K N c c < 5 4 4 B Y z l z 4 v Y l.v u u u i > > 2 6 6 4 < > u v v 1 X , X X X e u Q a e e e X X 2 o X X . 1 I @X@X'.+X+X+X@X^.A p p p e a C C a e , > , X X o X X X 2 e r r i 2 , 1 1 1 , X 2 < , , , , > X > < t B B B B < > , , 1 , , , < 4 4 r u 4 < < < > < < < < < < < 4 4 3 < 3 4 t h t t 5 5 5 t t 4 u u u j j j k c j j x N N N J m H D e.e.e.j.j.j.j.j.e.w.n j k t "
};
