/* XPM */
static char *_6c261ba8a124938f5b8f828b9147307cE062umEp1JYtziQ[] = {
/* columns rows colors chars-per-pixel */
"348 348 256 2 ",
"   c #080F16",
".  c #090E17",
"X  c #0B131B",
"o  c #0D1B1E",
"O  c #091117",
"+  c #101A1F",
"@  c #012D16",
"#  c #02341B",
"$  c #013A1E",
"%  c #05341A",
"&  c #00280E",
"*  c #0B1622",
"=  c #0D1A24",
"-  c #0D1E2A",
";  c #061E2B",
":  c #101B24",
">  c #111D2B",
",  c #101721",
"<  c #0E1F31",
"1  c #0E2126",
"2  c #06232E",
"3  c #0C212D",
"4  c #072829",
"5  c #10212E",
"6  c #122325",
"7  c #023D22",
"8  c #093B25",
"9  c #052632",
"0  c #0C2432",
"q  c #032935",
"w  c #0C2936",
"e  c #0D2739",
"r  c #022B3A",
"t  c #0C2B3C",
"y  c #062638",
"u  c #112332",
"i  c #10263A",
"p  c #112B3C",
"a  c #112936",
"s  c #02313D",
"d  c #0B323C",
"f  c #133635",
"g  c #203F37",
"h  c #024325",
"j  c #03452A",
"k  c #0B452B",
"l  c #024B2C",
"z  c #0A4B2D",
"x  c #064526",
"c  c #03512E",
"v  c #09512E",
"b  c #034D31",
"n  c #0B4D32",
"m  c #0C4934",
"M  c #134C34",
"N  c #184A37",
"B  c #035334",
"V  c #0B5335",
"C  c #025936",
"Z  c #045639",
"A  c #0B5539",
"S  c #035B3B",
"D  c #0B5B3C",
"F  c #0B5936",
"G  c #13543A",
"H  c #135B3D",
"J  c #18553A",
"K  c #11462C",
"L  c #23573C",
"P  c #224A3B",
"I  c #05623D",
"U  c #15623D",
"Y  c #0A4A28",
"T  c #0C2E41",
"R  c #022D41",
"E  c #112D41",
"W  c #023342",
"Q  c #0C3344",
"!  c #0D3649",
"~  c #0E394B",
"^  c #063946",
"/  c #113345",
"(  c #113649",
")  c #133B4D",
"_  c #183C4A",
"`  c #0E3D52",
"'  c #0D3750",
"]  c #143E51",
"[  c #193F51",
"{  c #153F58",
"}  c #203D4D",
"|  c #17444B",
" . c #0B5D42",
".. c #055E41",
"X. c #135D42",
"o. c #1B5B43",
"O. c #154153",
"+. c #1B4355",
"@. c #15445A",
"#. c #1C465A",
"$. c #1D495B",
"%. c #18495A",
"&. c #144854",
"*. c #265B45",
"=. c #204759",
"-. c #224B5C",
";. c #224856",
":. c #295553",
">. c #046342",
",. c #0B6343",
"<. c #0C6B4A",
"1. c #076A47",
"2. c #136344",
"3. c #1B6345",
"4. c #136B4B",
"5. c #1C6B4C",
"6. c #176649",
"7. c #0A724C",
"8. c #17724C",
"9. c #186B51",
"0. c #1A7553",
"q. c #0D7551",
"w. c #236B4C",
"e. c #2B6C4C",
"r. c #256547",
"t. c #34694B",
"y. c #27734D",
"u. c #286C52",
"i. c #356B55",
"p. c #237453",
"a. c #2C7453",
"s. c #297A58",
"d. c #337354",
"f. c #347C5B",
"g. c #3B7C5C",
"h. c #387756",
"j. c #34744D",
"k. c #1D4B62",
"l. c #1E4760",
"z. c #224E63",
"x. c #284E63",
"c. c #245165",
"v. c #2A5365",
"b. c #26536A",
"n. c #2A566C",
"m. c #2C596E",
"M. c #2A5967",
"N. c #315A6E",
"B. c #31576A",
"V. c #2D5B73",
"C. c #2A5770",
"Z. c #315E75",
"A. c #335F77",
"S. c #336077",
"D. c #35627A",
"F. c #39667D",
"G. c #3B687F",
"H. c #396276",
"J. c #397464",
"K. c #447A5B",
"L. c #4B7458",
"P. c #467C64",
"I. c #4B786B",
"U. c #617F67",
"Y. c #3B825D",
"T. c #36835B",
"R. c #2A825C",
"E. c #3C8362",
"W. c #388764",
"Q. c #2C8361",
"!. c #1D835E",
"~. c #46855C",
"^. c #52835D",
"/. c #438463",
"(. c #4B8464",
"). c #448A64",
"_. c #4B8B64",
"`. c #4C8B6A",
"'. c #488869",
"]. c #538C6C",
"[. c #568A66",
"{. c #4B9169",
"}. c #54936C",
"|. c #5B946D",
" X c #59966C",
".X c #578C73",
"XX c #559372",
"oX c #5B9473",
"OX c #5D9A73",
"+X c #5C997A",
"@X c #4D8C72",
"#X c #62966E",
"$X c #639B74",
"%X c #639C7B",
"&X c #6B9D7A",
"*X c #669875",
"=X c #689173",
"-X c #5DA17A",
";X c #6CA37C",
":X c #66A279",
">X c #72A47E",
",X c #3D6A82",
"<X c #3C6A84",
"1X c #3F718A",
"2X c #416E85",
"3X c #416F89",
"4X c #44738B",
"5X c #49768D",
"6X c #45738A",
"7X c #4C7B93",
"8X c #4A7994",
"9X c #517E97",
"0X c #50798F",
"qX c #527FA0",
"wX c #54839B",
"eX c #58859C",
"rX c #599289",
"tX c #679C83",
"yX c #749D86",
"uX c #6CA483",
"iX c #68A786",
"pX c #73A482",
"aX c #74AA84",
"sX c #7BAC8B",
"dX c #77A988",
"fX c #79B18A",
"gX c #78AF92",
"hX c #5A89A4",
"jX c #5C90AD",
"kX c #638CA5",
"lX c #6993AB",
"zX c #6896B4",
"xX c #749DB5",
"cX c #7298AD",
"vX c #7AA3B9",
"bX c #5EA383",
"nX c #7DA7C2",
"mX c #83AF8F",
"MX c #83A8BD",
"NX c #96B7CB",
"BX c #8DB2C7",
"VX c #A2BED2",
"CX c #A9C6D8",
"ZX c #B3CDDC",
"AX c #B7D1DE",
"SX c #BAD5E4",
"DX c #B1CFE1",
"FX c #9EC1D5",
"GX c #C4DCE9",
"HX c #C7DDF1",
"JX c #CAE2ED",
"KX c #CBE4F3",
"LX c #D8EAF6",
"PX c #D9ECF6",
"IX c #E2F2FC",
"UX c #C5D8DF",
/* pixels */
"5 5 3 3 0 0 0 u u 0 0 0 0 i i i i i i t p t p p p p E E E E E E T T E T T T Q Q Q Q / ( ~ ~ ~ ! ~ ~ ~ ~ ~ ~ ! ! Q Q Q Q Q ! ! ! ! ! ^ ! ~ ` ` { @.{ ] O.%.b.V.F.,XG.D.D.F.G.G.G.,XG.G.,XG.F.F.F.G.F.S.S.S.S.S.D.S.S.S.A.S.F.D.A.V.C.n.b.n.C.C.C.C.C.V.V.V.V.V.V.V.n.b.b.b.n.n.n.V.A.S.S.A.A.A.V.V.V.V.n.z.k.k.k.c.b.b.b.b.b.n.C.C.V.V.V.A.A.A.V.V.V.V.A.A.V.V.V.V.V.V.V.V.V.V.V.A.V.V.V.V.V.V.V.V.V.V.V.V.V.V.A.Z.V.V.V.V.V.Z.Z.Z.Z.Z.Z.S.S.S.S.S.S.S.S.S.S.S.S.D.S.S.S.D.S.S.S.V.V.V.V.V.V.Z.Z.V.V.V.V.V.V.V.V.V.V.V.V.V.V.V.V.V.V.V.V.V.V.V.V.V.V.V.V.V.S.S.F.F.F.F.F.F.G.G.G.,XG.G.F.G.G.F.F.F.F.D.D.S.S.D.D.S.S.S.S.S.D.S.S.S.S.S.A.A.V.A.A.V.A.A.A.V.V.V.C.C.m.m.n.b.b.n.m.b.b.c.k.k.k.k.%.%.%.k.k.k.%.%.%.%.%.$.$.",
"3 3 3 3 3 0 u u u u 0 0 0 0 i i i i i i e t i i i p t t t t t t t T E E T t Q Q Q Q / ! ~ ~ ~ ~ ! ! ~ ~ ~ ~ ! Q Q Q Q Q Q Q ! ! ! Q ! ! ! ~ ` ` ] ` ~ O.$.b.A.D.G.F.D.F.G.,X,XG.F.F.F.G.,XG.G.G.,XF.F.S.D.D.S.D.S.D.S.A.S.D.S.V.n.z.k.k.k.k.k.k.k.k.b.b.n.n.n.n.b.b.z.z.k.k.c.b.C.V.A.A.A.A.A.A.V.V.C.n.z.k.%.%.k.k.k.k.k.k.b.b.V.V.V.V.V.A.V.V.V.V.V.A.V.A.V.V.V.V.V.V.V.V.V.V.V.V.V.V.V.V.V.V.V.V.V.V.V.V.V.A.A.V.V.V.V.V.Z.Z.Z.Z.Z.Z.S.S.S.S.S.S.S.S.S.S.S.S.S.S.S.S.S.S.S.A.V.V.V.V.V.V.V.V.V.V.V.V.V.V.V.V.V.V.V.V.V.V.V.V.V.V.V.V.V.V.V.V.V.V.V.V.A.A.S.F.F.F.F.F.F.F.F.F.G.G.F.F.F.F.F.S.D.D.S.S.S.S.S.D.S.S.S.S.S.S.S.S.S.S.S.A.V.V.A.A.V.V.A.V.V.V.V.C.C.C.m.n.n.n.n.n.n.b.c.k.k.k.k.k.%.%.%.%.%.%.%.%.%.%.%.%.",
"5 - 3 3 3 3 0 0 u u u 0 u u u u u u i i i e i i i i t t t t t t t t t t t t t t t T T Q ! Q Q Q ! ! ! ! ~ Q Q Q T T T T T Q Q ! Q Q ! ! ~ ! ! ! ! ! ~ ] %.b.V.D.,XG.F.G.,X,XG.F.F.F.G.,XG.F.F.G.,XG.F.F.F.F.S.S.S.D.S.S.S.A.V.n.k.%.O.O.O.O.O.O.@.@.@.%.%.%.%.k.%.k.k.k.%.%.k.k.n.V.V.V.V.A.A.A.A.V.C.b.z.k.%.@.%.%.%.%.@.%.k.k.n.V.V.V.V.V.V.V.V.V.V.A.A.A.A.A.A.A.V.V.V.V.A.A.V.V.V.V.V.V.V.V.V.V.V.V.V.V.V.V.V.V.A.Z.Z.Z.V.Z.Z.Z.Z.Z.Z.S.S.S.S.S.S.S.S.S.S.S.S.S.S.S.S.S.A.A.V.V.V.V.V.V.V.V.V.V.V.V.V.V.V.V.V.V.V.V.V.V.V.V.V.V.V.V.V.V.V.V.V.V.V.V.A.A.S.S.F.F.F.F.F.F.F.F.F.F.D.D.S.S.S.S.S.S.S.S.S.S.S.S.S.S.S.S.S.S.S.S.S.S.A.V.V.V.V.V.V.V.V.V.V.V.V.C.m.C.C.m.n.n.n.n.n.b.b.z.k.k.k.k.k.k.%.%.%.%.%.%.%.%.%.%.",
"> - - - - - u 0 > > 3 3 u u u u u u u u u i 0 i i i e e e e e e e i i i i t t t t t E T T T T T Q Q Q Q Q Q Q T T T T T T T Q Q Q Q Q ~ ! ! ! ! ! ! ! ! ] k.C.D.,X,X,X,X,X,X,X,XG.G.G.,XF.F.F.G.F.F.F.F.G.F.F.S.D.D.D.A.V.C.b.k.@.{ ` ` ~ ` ~ ` ` ` ` ` ` ` ` ` O.@.%.%.@.@.%.k.b.n.V.V.V.A.A.V.V.V.n.b.z.k.%.@.{ O.@.@.{ @.%.k.b.n.V.V.V.V.V.A.V.V.V.A.A.A.A.A.A.A.V.V.V.V.V.V.V.V.V.V.V.V.V.V.V.V.V.V.V.V.V.V.V.V.A.S.S.S.Z.Z.V.V.V.V.Z.Z.S.S.S.S.S.A.S.S.S.S.A.A.A.S.S.A.A.V.V.V.V.V.V.V.V.V.V.V.V.V.V.V.V.V.V.V.V.V.V.V.V.V.V.V.V.C.V.V.V.V.V.V.V.V.A.S.S.S.F.F.F.F.F.F.F.F.F.D.S.S.S.S.A.A.S.S.S.S.S.S.S.S.S.S.S.S.S.S.S.S.S.Z.A.A.V.V.V.V.V.V.V.V.V.V.V.C.C.C.C.m.n.n.n.m.n.b.b.c.k.k.k.k.k.k.k.%.%.%.%.%.%.%.%.%.",
"> > > > > > - u > > 5 5 5 5 5 u 5 5 u u u u u u u 0 0 0 0 0 e 0 0 i i i i i t i i p p T E T T T T T Q Q Q T T T E E E t t t t t Q Q Q ! ! ! ! Q ! ! ! ^ ~ @.b.V.F.G.G.F.S.A.S.F.F.G.G.G.G.G.,X,XF.F.G.,XG.F.F.F.S.S.S.V.n.z.k.l.@.` ` ~ ~ ~ ~ ~ ` ~ ~ ~ ~ ~ ~ ~ ` ` O.@.@.{ @.%.k.b.V.V.A.S.S.A.V.C.n.b.b.k.%.@.` { { ` ` ` @.%.k.c.n.C.V.V.V.V.V.A.V.V.A.A.S.S.A.V.V.V.V.V.V.V.V.V.V.V.V.V.V.V.V.V.V.V.V.V.V.V.V.A.S.S.S.S.Z.Z.V.V.V.V.V.V.V.V.S.S.S.A.A.A.A.A.A.A.A.A.A.A.V.V.V.V.V.V.V.V.V.V.V.V.V.V.V.V.V.V.V.V.V.V.V.V.V.V.V.V.V.C.V.V.V.V.V.V.V.V.A.S.S.S.F.F.F.G.F.F.F.S.D.S.S.S.S.S.A.A.A.A.A.S.S.S.S.S.D.S.S.Z.S.S.S.S.S.S.A.V.V.V.V.V.V.V.V.V.V.V.V.C.C.C.C.n.n.n.n.C.n.b.b.z.z.k.k.k.k.k.k.k.%.%.%.%.%.%.%.%.",
"> > > > > > > > > > > 3 3 5 5 5 5 5 u u u u u u u u 0 0 0 0 0 0 0 0 i i i i i i i i t t T T T E T T T T T T T T p p p p t t t t t t Q Q Q Q Q Q Q Q ! ^ ! ` %.c.C.C.V.C.n.n.C.A.S.F.G.G.G.G.G.G.G.G.,X,X,XG.F.F.D.S.A.C.b.k.%.@.{ ` ` ~ ~ ^ W W ! ! ! ! ! ~ ~ ` ` ` ` ` { { { @.k.c.C.V.A.S.S.V.V.C.n.b.c.k.%.@.{ ` ` { ` { @.@.%.k.b.C.V.V.V.V.A.A.A.A.V.V.A.A.V.V.V.V.V.V.V.V.V.V.V.V.V.V.V.V.V.V.V.V.V.V.V.V.A.A.S.S.S.S.Z.V.V.V.V.V.V.V.V.V.V.V.V.V.A.V.V.V.A.A.A.A.A.A.V.V.V.V.V.V.V.V.V.V.V.V.V.V.V.V.V.V.V.V.V.V.V.V.V.V.V.V.V.V.V.V.V.V.V.V.V.A.A.A.S.S.D.F.F.F.F.F.S.S.S.S.S.S.S.S.A.A.A.A.A.S.S.S.S.S.S.S.S.Z.S.S.S.S.S.S.A.V.V.V.V.V.V.V.V.V.V.V.V.C.C.C.m.n.n.n.n.n.n.b.b.b.b.z.z.k.k.k.k.k.k.%.%.%.%.%.%.%.",
"> > > > > > > > > > - 3 3 3 3 3 3 3 3 3 0 3 u u u u 0 0 0 0 0 0 0 0 i i i i i i i e e e t t p p t t t t t t t t t t t t t t t t t t t T T T T T t T Q Q Q ! ] @.%.k.k.k.k.k.k.k.n.V.S.F.G.,XG.F.G.G.,X,XG.F.D.D.S.V.n.b.k.%.@.{ { ` ` ~ ^ W W W ^ ! ~ ~ ` ` ` { ] ` ` ` ` ` { @.%.k.n.C.V.V.A.V.V.C.n.b.c.k.%.@.{ { ` ` { { { O.@.%.z.n.m.V.V.V.A.A.A.A.V.V.V.V.V.V.V.V.V.V.V.V.V.V.V.V.V.V.V.V.V.V.A.A.A.A.A.A.A.A.S.S.A.V.Z.V.A.V.V.V.V.A.A.A.V.V.V.V.V.V.V.V.V.V.V.V.A.A.V.V.V.V.V.V.V.V.V.V.V.V.V.V.V.V.V.V.V.V.V.V.V.V.V.V.V.V.V.V.V.V.V.V.V.V.V.A.A.A.S.S.S.S.D.D.S.S.S.S.S.S.S.S.S.S.S.A.A.A.S.S.S.S.S.S.S.S.S.S.S.S.S.S.S.S.A.V.V.V.V.V.V.V.V.V.V.V.V.C.C.C.m.n.n.n.n.n.b.b.b.b.b.z.z.z.k.k.k.k.k.k.%.%.%.%.%.%.",
"> > > > > > > > > > - 3 3 3 3 3 3 3 3 3 < 3 0 0 5 5 0 0 0 0 0 0 0 0 u i i 0 i i i 0 e e e t t p t t t t t t t t t t t t t t t t i i t t t t E p p E T T Q ! ) ] ` O.O.@.O.@.@.@.%.z.V.S.,X,X,X,XF.G.G.G.F.S.S.S.A.C.z.k.%.%.@.{ O.{ ` ~ ! ^ ^ ^ ! ~ ] ] ` ` { O.O.O.` ` ` ` { @.%.k.b.n.C.V.A.V.C.C.n.b.b.k.%.@.{ { ` ` ` ` ` ` O.%.k.b.n.V.V.A.A.A.A.V.V.V.V.V.V.V.V.V.V.V.V.V.V.V.V.V.V.V.V.V.V.V.A.S.A.A.A.A.A.A.A.S.A.V.V.V.A.A.V.V.V.A.A.A.V.V.V.V.V.V.V.V.V.V.V.V.V.V.V.V.V.V.V.V.V.V.V.V.V.V.V.V.V.V.V.V.V.V.V.V.V.V.V.V.V.V.V.V.V.V.V.V.V.V.V.A.A.A.S.S.A.S.S.S.S.S.S.S.S.S.S.S.S.S.S.A.A.A.S.S.S.S.S.S.S.S.S.V.S.S.S.S.S.S.A.V.V.V.V.V.V.V.V.V.V.V.V.V.C.C.C.m.n.n.n.n.b.b.b.b.b.b.z.z.k.k.k.k.k.k.k.$.%.%.$.$.",
": : > - - > > > > > - - - - - - 5 5 5 5 5 u u 5 3 3 u u 0 0 0 0 3 3 3 u u u u i i i e e e t t p p p p p p p t t p t e t e e t t t t t t t p p p p p T T T Q ! ~ ~ ~ ` ` ` ' ' ~ O.@.k.C.S.,X,X,X,XF.S.F.F.A.n.b.b.b.k.%.@.O.O.` ` ] ] ` ~ ! ! ! ` ` ] { { { ] ` { { { ` ` ` { @.l.b.C.C.V.V.A.A.V.V.V.n.c.k.%.@.@.{ ` ` ` ` ` { @.@.%.%.k.b.n.V.A.V.V.V.A.A.V.V.V.V.V.V.V.V.V.V.V.V.V.V.V.V.V.V.V.V.A.S.A.A.A.S.V.A.A.A.A.V.V.A.V.V.A.A.A.A.V.V.V.A.A.A.A.V.V.V.V.V.V.V.V.V.V.V.V.V.V.V.V.V.V.V.V.V.V.C.C.V.C.C.V.V.V.V.V.V.V.V.C.V.V.V.V.V.V.V.V.V.V.Z.Z.Z.Z.S.S.S.S.S.S.D.S.S.S.S.S.S.S.S.S.S.S.S.S.S.S.S.S.S.S.S.S.S.S.S.V.V.A.A.A.V.V.V.V.V.V.V.V.V.V.V.V.C.n.m.m.m.n.n.b.b.b.b.b.b.b.b.c.z.z.k.k.k.k.k.k.k.k.k.%.%.",
": : - - - - > : > - - - - - - - - - - - > > - - 3 3 5 u 0 0 0 0 5 5 u u u u u u u i 0 e e i i i t t e e p p t t t t t e e e e e e e t t t t i i p p t t t T Q ! ! ~ ! ~ ' ~ ~ ~ ^ ` %.b.V.F.G.D.V.V.V.A.A.C.b.k.k.k.%.@.O.O.O.O.O.{ { ] ` ` ` ] O.O.O.O.O.{ { { { { { ` ` ` @.@.z.b.V.V.V.V.A.A.V.A.A.V.b.k.%.@.@.O.` ` ` ` { { { @.@.@.%.k.b.n.V.V.V.V.Z.Z.V.V.V.V.V.V.V.V.V.V.V.V.V.V.A.A.V.V.V.V.A.A.A.V.V.V.V.A.A.A.A.V.V.A.V.V.V.A.A.V.V.V.V.V.V.V.V.V.V.V.V.V.V.V.V.V.V.V.V.V.V.V.V.V.V.V.V.V.C.m.C.C.C.C.C.C.C.C.V.V.V.C.C.V.V.V.V.V.V.V.V.V.V.Z.V.V.Z.S.S.S.S.S.S.F.D.D.S.S.D.D.S.S.S.S.S.S.S.S.S.S.S.S.S.S.S.S.S.S.S.V.A.A.A.V.V.V.V.V.V.V.V.V.V.V.m.n.n.n.m.n.n.n.b.b.b.b.b.b.b.c.z.z.k.k.k.k.k.k.k.k.k.k.%.%.",
": = - - - - > : - - - - - - - - - - - - 3 3 3 3 3 3 3 5 u 5 3 3 u u 5 3 u u u u u u 0 0 0 0 e i i i i i t t t t t t e e e e e e 0 0 0 e 0 e 0 0 t i t t t t T T T Q ! ! ! ! ! ~ ~ O.k.b.C.V.V.m.b.k.c.b.n.z.%.@.@.@.@.O.O.O.O.O.O.O.O.{ ] ] { { @.@.O.O.O.{ { ` ` ` { ` ` ` @.%.b.n.V.V.V.V.A.A.A.A.S.V.n.z.k.@.@.@.` ` { ` { { { { @.@.@.%.k.k.b.n.C.V.V.V.V.A.V.V.A.V.V.V.V.V.V.V.A.A.A.A.A.A.S.S.S.S.A.A.V.V.V.V.A.S.A.V.V.V.V.V.V.V.V.V.V.V.V.V.V.V.V.V.V.V.V.V.C.V.V.V.V.V.V.V.V.V.V.V.V.V.V.V.C.C.C.C.m.C.C.m.n.C.V.V.V.C.C.C.V.V.V.V.V.V.V.V.V.Z.V.V.Z.S.S.S.S.S.F.F.F.S.S.S.D.F.S.S.S.S.S.S.S.S.S.S.S.S.S.S.S.S.S.S.S.V.A.A.A.A.V.V.V.V.V.V.V.V.V.C.n.n.n.n.m.n.n.n.b.b.b.b.b.b.c.z.z.k.k.k.k.k.k.k.k.k.k.k.%.%.",
"= = - - - - - > - - - - - - - > - - - - 3 3 - - - - > 5 5 5 5 5 5 5 5 5 5 5 5 u 5 u 0 0 0 0 0 0 u u i i i 0 0 0 0 0 0 0 e e e e 0 0 0 0 0 0 i u i i i t t t p T T T Q ! ! ! ` ` @.$.c.m.m.b.c.%.@.@.@.%.k.%.O.` O.O.O.O.O.O.O.O.O.{ { { ` ` { O.O.O.O.{ ] ` ` ` ' ` ` ` ` ` @.%.b.n.m.C.V.V.S.S.A.A.A.V.C.n.z.%.@.@.{ ` { ` ` { { { { { O.@.@.%.k.z.n.C.V.V.V.A.V.A.A.V.V.V.V.V.V.V.A.A.A.A.A.A.S.S.S.A.A.S.A.A.V.V.A.S.A.V.V.V.V.V.V.V.V.V.V.V.V.V.V.V.V.V.V.C.C.C.C.C.C.C.C.C.C.C.C.C.C.C.V.V.V.C.C.m.m.C.n.n.C.m.n.n.V.V.V.C.C.C.C.V.V.V.V.V.V.V.V.V.V.S.S.S.S.S.S.D.F.F.S.S.S.D.F.F.F.S.S.F.S.S.S.S.S.S.S.S.S.S.S.S.S.S.S.V.A.A.A.A.V.V.V.A.V.V.V.V.V.C.m.n.C.m.n.n.n.b.b.b.b.b.b.b.z.k.k.k.k.k.z.k.z.k.k.k.k.k.k.%.",
"= = = - - - - = - - - > - > - - > - - - - - - - - - - - > > > > - - - - - - 5 5 5 5 u 0 0 u u u u 0 0 0 0 0 0 u 0 0 0 0 0 e e e i 0 0 0 0 0 u u i i i i t i t p E T T Q ! ' ] O.@.$.c.c.c.k.%.O.O.O.O.O.O.O.` ~ ` ` ` ` ` O.O.O.` { ` ` ` ` ] { { ] ] ` ` ` ` ` ~ ' ` ` ` ` @.%.z.b.b.n.C.V.S.S.A.V.V.V.V.C.b.k.@.@.{ { { ` ` ` ` ` ` { { { @.@.%.k.n.C.C.V.V.A.A.A.A.V.V.V.A.A.V.V.V.V.V.A.S.S.S.S.S.A.A.S.A.V.V.V.A.A.A.V.V.V.V.V.V.V.V.V.V.V.C.V.V.V.C.V.C.C.C.C.C.C.C.C.C.C.C.C.C.C.C.C.C.C.m.m.n.n.n.n.n.n.m.n.n.n.C.C.C.n.n.m.C.C.C.V.V.V.V.A.A.A.V.Z.S.S.S.S.S.F.F.F.F.S.D.F.F.G.F.F.F.F.F.S.S.S.S.S.S.S.S.S.S.S.S.S.S.Z.A.A.A.A.A.A.A.A.A.V.V.V.V.V.C.m.C.n.n.n.n.n.b.b.b.b.b.b.z.k.k.k.k.k.z.z.z.z.k.k.k.k.k.k.",
"= = = - - - - = - - - > : = = = > > > > > - - - > > > > > > > > > > > > > > > 5 5 > 5 3 u u u u u u u u u u 0 u u u u u u u u u i u u u u u u u 0 0 0 i i t t p E T T T Q ! ] O.@.%.%.%.@.O.O.] ] ` ~ ~ ~ ~ ~ ~ ~ ~ ~ ` ` ` ` O.` ` ` ` ` ` ` ` ` ` ` ` ` ` ~ ~ ~ ~ ` ` ` ` O.%.k.k.b.b.C.V.A.S.A.V.V.V.V.V.n.z.%.@.@.@.{ ` ` ` ` ` ` { { { @.@.%.k.b.n.V.V.V.A.A.A.A.V.V.A.A.A.A.V.V.V.V.V.A.S.S.D.F.S.S.S.A.V.V.V.V.A.A.V.V.V.A.A.V.V.V.V.V.C.C.C.V.V.C.C.C.C.n.n.C.C.C.C.C.C.C.C.m.m.C.C.C.C.m.n.n.n.n.n.n.n.n.n.n.n.n.n.n.n.n.n.C.C.C.V.V.V.V.A.S.S.A.S.S.S.S.S.S.F.F.F.F.F.D.F.G.,XG.F.F.S.F.F.D.S.S.S.S.S.S.S.S.S.S.S.S.S.S.S.A.A.A.A.A.A.A.A.V.V.V.V.V.C.C.n.n.b.b.b.b.b.b.b.b.b.z.k.k.k.k.z.z.z.z.z.k.k.k.k.k.k.",
"= = - - - - - = = = > : : : : = > > > > - > - - - - > > > > > > > > > > > > 5 5 > 5 5 3 u 5 u u u u u u u u u u u u u u u u u u u u 0 0 3 u u u 0 0 i 0 0 0 e t t t t T T ! ) ] @.@.O.O.` ~ ` ~ ~ ~ ! ! ! ! ! ! ^ ! ~ ~ ` ` ` ` ` ~ ~ ~ ~ ~ ~ ~ ~ ~ ~ ~ ` ~ ~ ~ ~ ~ ~ ` ` ` O.@.%.k.k.b.n.V.A.A.A.V.V.V.V.V.C.b.k.%.@.@.` ` ` ` ` ` ` ` { { @.@.%.k.z.n.V.V.V.V.A.V.V.V.V.V.A.A.A.V.n.b.b.b.n.n.V.S.F.S.S.S.A.V.V.V.S.A.V.A.A.A.A.A.A.V.V.V.V.C.C.C.C.C.C.C.n.n.n.n.n.m.m.C.C.m.n.n.n.n.C.C.m.m.m.n.b.b.b.b.b.b.b.b.n.n.b.n.n.n.n.n.C.C.C.V.V.V.A.A.S.S.A.A.S.S.S.S.S.F.G.F.S.S.S.F.G.,XG.F.D.D.G.F.F.D.S.S.S.S.S.S.S.S.S.S.S.S.S.S.S.S.S.S.A.A.A.A.V.V.V.V.V.C.C.n.b.b.n.n.n.b.b.b.b.b.c.z.z.k.z.z.b.b.z.z.z.k.k.k.k.k.",
"= = - - - - - = = = : : : : : : > > > = = = - - - > > > > > > > > > > > > > > > > > > - - 3 5 5 u u u u u 0 0 0 u u u u u u u u u u u 3 5 u u u i i i 0 0 0 e t t t e T T ! ! ] { { ` ~ ~ ~ ~ ! ! ! ! ! ! ! ! Q ^ ! ~ ~ ~ ~ ~ ~ ~ ! ! ~ ~ ~ ! ! ! ~ ~ ~ ~ ~ ! ! ! ! ! ~ ` ` O.O.@.@.%.z.n.V.A.A.A.V.A.V.V.V.V.C.z.k.%.O.` ` ` { ` ` ` ` { @.@.@.@.%.k.b.n.V.V.V.V.V.V.V.V.V.V.V.V.C.b.k.%.%.%.k.C.V.S.S.S.A.A.V.V.A.A.A.A.A.S.S.A.A.A.V.V.V.V.C.C.C.C.C.C.n.n.n.n.n.n.n.m.m.n.n.n.n.n.n.n.n.n.m.n.b.c.k.k.k.%.%.k.k.b.b.c.c.b.b.n.n.C.C.C.V.V.V.A.S.S.S.A.A.S.S.S.D.F.F.F.D.S.A.S.D.G.,X,XG.F.D.,XG.F.F.D.D.D.D.D.S.S.S.S.S.S.S.S.S.S.S.S.S.S.S.A.A.V.V.V.V.C.m.n.n.b.b.n.n.n.n.n.n.b.b.b.b.z.z.z.z.b.b.c.z.z.z.k.k.k.k.",
"= = = = - - - - - - - > : : : : : : : : : = = = = = = : > > > > > > > > > > > > > > > 5 - - > > u u u u u 0 0 0 u u u u u u u u u u 3 3 5 u u u u i i i i 0 e e e e t t T Q ~ ~ ~ ~ ~ ~ ~ ~ ! Q Q Q Q Q Q Q Q Q Q Q ! ! ! ~ ! ~ ~ ! Q Q Q ! ! ! Q Q ! ~ ~ ! ! Q Q ! ! ! ~ ` ` O.O.@.%.k.b.n.m.m.n.m.m.m.C.V.Z.Z.b.z.k.@.O.` ` { ` ` O.{ ` ` { { @.%.k.k.b.n.n.n.V.V.m.m.V.V.V.A.V.C.b.k.k.%.%.@.k.b.V.A.A.S.S.A.D.S.A.A.A.A.A.A.S.V.V.V.V.V.V.C.C.C.n.n.n.n.n.n.n.n.n.n.n.n.n.n.n.n.b.b.b.n.n.n.C.b.k.%.@.%.%.%.%.k.k.k.k.k.z.b.b.b.n.n.m.C.V.V.V.V.V.V.V.A.A.D.S.S.S.S.S.V.C.n.n.C.A.F.,X,X,X,XG.,XF.D.D.F.F.S.S.S.S.S.S.S.S.S.S.S.S.S.S.A.A.A.A.V.V.V.V.V.V.m.n.n.b.n.n.n.n.n.n.n.n.b.b.b.b.b.b.c.c.c.z.z.z.z.k.k.k.k.",
"= = = = = = = = = = : : : : : > : : > > - - = = = = = > > > - - > > > > > > > > > > > - - - - > 3 u u u u u 0 0 u u u u u u u u u u 3 3 5 u u u u u i i i 0 t e t t t t T T Q ~ ! ! ! ! ! Q Q Q Q Q Q Q T T T T Q Q Q Q Q ! ! ! ! Q Q Q Q ! Q Q Q Q Q Q Q Q Q Q Q Q ! ! ! ~ ` O.O.O.@.k.z.b.b.v.z.z.c.c.b.n.V.V.m.n.b.k.%.O.{ { ` O.{ O.@.@.O.@.@.@.%.k.k.z.b.b.n.n.n.n.m.V.V.V.S.A.C.b.z.k.%.@.%.k.n.C.V.A.S.S.S.S.S.S.S.S.A.A.A.A.V.V.V.V.V.C.C.n.n.n.n.n.n.n.n.n.n.n.b.b.b.b.c.z.k.z.z.b.b.b.n.b.k.%.@.@.@.@.@.%.%.%.%.k.k.z.b.b.b.n.n.m.C.C.C.C.V.V.V.V.A.A.S.S.S.V.V.n.b.c.b.b.V.A.S.D.D.F.G.,XF.F.F.F.F.F.F.S.S.S.S.S.S.S.S.S.S.S.S.A.A.V.V.V.V.V.V.V.C.m.n.n.n.n.n.n.n.n.n.n.n.n.n.b.b.b.b.b.b.c.b.z.z.z.k.k.k.k.",
", , = = = = : : , : : : : > > > : : = = = = = = - - > > > > > - - - - - > > > > > > - - - - - 5 3 3 3 3 5 u u u 3 3 5 5 u u u u u 3 3 5 5 u u u u u 0 i i e e e t t t t t t Q Q T T Q Q Q Q Q Q Q Q Q T T T T Q T T T Q Q Q Q Q Q Q Q Q Q Q Q Q Q Q Q Q T T T T Q Q ! ! ! ~ ` ` ` ` @.@.k.k.k.k.%.%.%.%.k.b.m.V.V.V.V.n.k.%.@.{ O.O.@.@.@.@.@.@.@.%.%.k.k.k.z.b.b.b.n.m.V.V.V.V.V.V.n.n.b.z.k.%.%.k.b.n.C.V.D.D.S.S.S.S.S.S.A.V.V.V.V.V.V.C.C.C.n.n.n.n.n.n.n.n.n.n.n.b.b.z.k.k.%.%.%.%.k.k.k.z.c.z.k.k.@.@.{ ` { @.@.%.%.%.k.k.z.c.b.b.n.n.n.m.m.m.m.C.V.V.V.V.S.V.V.n.b.z.k.k.k.c.n.C.V.V.V.A.F.F.F.F.G.,X,XF.G.F.F.S.S.D.S.S.D.D.D.S.S.A.A.V.V.V.V.V.V.V.V.C.n.n.n.n.n.m.m.m.m.m.n.n.n.n.b.b.b.b.b.b.b.z.z.z.k.k.k.k.",
", , * = * * * * = = : : : > > > = = = = = = = = - - - > > > - - - - - - - > > > > > - - - - - 5 5 5 3 3 5 5 5 5 3 3 3 5 3 3 u u 3 3 3 5 3 u u u u u i i i t t t t t t t t t T T T T T T Q Q Q Q Q Q T T E T T E T T T T Q Q Q Q Q Q T T T T T T Q Q T T T T T Q T ! ! ! ! ! ` ` ` ` { @.%.l.%.%.@.@.@.@.%.k.b.n.V.V.A.V.b.k.@.{ O.@.@.@.@.@.@.@.@.%.%.k.k.k.k.k.b.b.C.V.A.V.m.b.b.b.b.b.b.b.k.%.k.k.b.b.n.V.S.D.S.S.S.S.A.A.V.V.V.V.V.V.V.C.C.C.n.n.n.n.n.n.n.n.n.n.b.b.k.k.%.%.@.@.@.@.%.%.k.k.k.k.k.%.@.{ { ` { @.@.%.%.k.k.k.k.c.b.b.n.n.n.n.n.m.n.C.V.V.V.V.V.C.n.b.k.k.k.z.z.b.n.n.n.n.C.V.D.F.F.G.,X,X,X,X,XG.G.F.F.F.F.F.G.G.F.F.D.S.A.A.V.V.V.V.V.V.V.V.n.n.n.n.m.C.C.C.C.C.n.n.n.n.n.b.b.b.b.b.b.c.z.z.z.z.k.k.",
", , , , * * , * , , , , : : : : = : = = = = = = = = - - - - - - - - - - - > > > > > - - - - - - - - > 3 3 5 5 5 0 0 0 0 3 3 3 3 5 5 5 5 3 u u u u u i i i t t t t t t t t t t T T T T E / / / T T T T p t p t p E E T T / / / / / E T T T T T T T T T T T T T T T Q Q ! ! ! ! ~ ~ ~ ` { { @.@.@.@.@.{ { @.%.%.k.c.n.V.C.n.k.@.O.@.@.@.@.@.@.O.@.@.@.%.k.k.k.k.%.k.c.n.V.S.V.b.k.%.k.k.z.c.c.k.k.k.k.z.b.n.C.A.S.F.D.S.S.A.A.A.V.V.V.V.V.V.C.C.C.C.C.n.n.n.n.n.b.b.b.b.k.k.l.@.@.` ` ` { @.@.%.%.%.%.%.@.@.{ { @.@.%.%.k.k.k.k.z.z.b.b.b.n.n.n.n.n.m.n.C.V.V.V.V.C.n.b.b.c.b.b.n.b.n.n.C.n.n.C.C.S.F.G.,X,X,X,X,X,X,XG.G.G.G.G.F.G.G.G.F.F.S.S.V.V.V.V.V.V.V.V.C.n.n.n.m.C.C.V.V.C.m.n.n.n.n.b.b.b.b.b.b.b.b.z.z.z.z.z.k.",
", , , = * * , * = = , , , , : = = , , = , = = = : = : : > > > : : : : : : : > > > - - - - - > > - - > > 3 3 3 3 u - - - - 5 5 5 u 5 3 5 3 u u u u i i i i t t t t t t t t t t t t T E E E E t t p p p p p p p p p p p t T E E E E E E t T T T T t t t t t t t t t T T T T ! ! ! ! ! ~ ` { { O.O.O.{ O.O.O.O.@.@.%.z.v.b.c.%.@.O.O.O.O.O.O.` ` O.` O.@.%.%.%.@.@.%.k.c.m.A.C.z.%.O.@.@.%.%.%.%.%.k.k.k.z.b.C.V.S.F.D.S.S.S.S.A.A.V.V.V.V.V.C.C.C.C.n.n.n.n.n.b.b.b.c.k.k.k.%.@.@.{ { ` ` { @.@.@.%.@.@.@.@.@.@.%.k.k.k.k.k.k.z.z.b.b.b.n.n.n.n.n.n.n.C.C.V.V.V.C.n.n.n.b.n.n.C.V.m.m.C.V.V.V.V.V.S.S.G.,X,X,X<X,X,X,X,X,X,X,X,X,X,X,X,X,XF.S.S.A.V.V.V.V.V.V.C.m.m.m.m.C.C.V.V.V.C.C.C.n.n.n.b.b.b.b.b.b.b.b.z.z.z.z.z.z.",
", , , , , , , , = * * , , * = = , , , = = = = = * = = = = = : : = = = : : : : > > > - > > > - > - - - - - 3 3 3 u - - > > 5 5 5 u u 3 3 3 u u u u i i i i t t t t t t t t t p p T T t t p p t t p t p p p p p p p t t t t p E E p p t t t t t t t t t t t t t t t t T T T T Q Q ! ~ ~ ] ` ` ] { { { { { O.{ O.O.O.%.%.%.@.@.O.` ` ` ` ` ` ` ` ` O.O.@.@.@.@.@.O.@.@.%.z.n.n.k.@.` O.O.O.O.O.@.O.@.%.%.k.z.b.C.V.S.S.S.S.S.S.A.A.V.V.C.m.V.V.V.m.n.n.n.n.n.n.b.b.b.c.k.k.k.k.%.@.@.@.@.{ @.@.%.%.%.%.%.%.%.%.k.k.z.z.b.c.c.c.z.b.b.b.b.b.b.b.b.n.n.n.C.C.C.m.n.m.n.n.n.n.C.V.V.V.V.V.V.A.S.S.A.A.S.F.G.,X,X<X<X<X<X<X,X,X,X,X,X,X,X,X,X,X,XF.S.S.V.V.V.V.V.V.C.C.C.C.C.C.V.V.V.V.V.V.C.n.n.n.n.b.b.b.b.b.b.c.z.z.z.z.z.z.",
"X * , , , , , , , , * * , * = = , , , , , , = = * * = = = = : : = : = = = : : : : > > > > > > > - - - - - - 3 3 u u > > > 5 5 5 u u 3 3 3 u u u u i 0 i i e t t t t t t t t t p p E t t t t t p t t t i i i t t p t t t t t t p p p t t t t t t t t i i t t p p t t t T T T Q Q W Q ~ ~ ! ~ ~ ~ ` ~ ~ ` ` ` ` O.O.O.O.O.` ` ` ~ ~ ~ ~ ~ ~ ~ ` ` O.O.O.@.O.O.O.O.O.{ O.%.z.c.k.@.` ` ` ` ` ` O.` { O.@.%.%.k.b.C.V.V.A.S.S.S.A.V.A.V.m.n.V.V.V.C.n.n.n.n.n.n.b.b.b.b.k.k.k.k.k.%.%.%.@.@.%.%.%.%.k.k.k.k.k.k.z.b.b.b.b.b.b.b.b.b.b.b.b.b.b.b.b.b.b.n.n.m.n.n.n.b.b.n.n.C.V.V.V.A.V.V.V.S.S.S.S.A.S.D.G.,X,X<X<X<X4X1X<X<X<X<X<X<X,X,X<X<X,XF.D.S.A.A.V.V.V.V.V.V.C.C.C.V.V.V.V.V.V.V.V.m.n.n.n.b.b.b.b.b.b.c.z.z.z.z.z.z.",
"X X X , , , , , * * * * * * * * , , , , : , , , = = = = = = = = = = = = : : : : : : > > > > > > - - - - - - > - 5 5 3 3 3 > 5 u u u 3 0 5 u u u u u 0 i i e t t t t t p p p p p p p p p p p t t t t t t t t t t t t i i t t i i i t t t t t t i t i i i p p p p t t t t t T T T Q Q Q ! ! ~ ! ! ! ! ~ ~ ~ ~ ~ ) ] ] ) ~ ~ ~ ! ! ! ~ ~ ! ! ! ~ ~ ~ ~ O.O.O.O.{ { { { { @.$.$.@.] ` ` ` ` ` ` ` ` ` { O.O.@.%.k.c.v.n.V.S.D.S.V.V.V.m.m.n.C.V.V.m.n.n.n.n.n.n.b.b.b.b.b.b.b.z.k.k.k.k.k.k.k.k.k.k.k.k.k.k.k.c.b.n.n.n.b.b.b.b.b.b.b.b.b.n.n.b.b.b.n.n.n.n.n.n.n.n.b.n.C.V.V.V.A.A.V.V.V.S.D.D.S.S.S.F.,X,X<X1X4X4X4X4X4X1X1X1X1X1X1X1X1X1X<X<X,XD.S.S.A.A.A.A.V.V.V.V.V.V.V.V.V.V.V.V.V.C.m.n.n.n.n.b.b.b.b.c.z.z.z.k.k.k.",
"X * * , , , , , = = = = = = = = = = , , , , , , , , = = = = : : = = = = : : : : : : > > > > > > > - - - - - - - 5 > - - 3 - 5 5 u 0 3 3 5 u u u i i i u i e t t t t p p p p p p p p p p t t e t i i t t t t t t t t t t t t t t i e e t t t t i t e i i i t i p t t t p t t T T T T T Q Q Q ! Q Q ! ! ! ~ ~ ~ ~ ~ ~ ~ ~ ~ ~ ! ! Q Q ! ! ! ! ^ ! ~ ~ ` ` ` ` ] O.{ { ] O.@.@.{ ` ` ` ' ' ~ ` ` ` ` ` ` ` { O.@.%.$.c.n.V.Z.V.C.V.V.V.m.C.C.C.m.n.n.n.n.n.n.n.n.b.n.n.b.b.b.b.c.z.c.z.z.k.k.k.z.k.k.k.k.z.c.b.b.n.n.n.n.n.n.b.b.b.b.n.n.n.n.n.n.b.n.n.m.m.m.n.n.n.n.m.C.V.V.A.A.S.A.A.S.S.F.F.F.S.F.G.,X<X1X1X4X4X4X4X4X4X4X4X4X1X4X1X1X1X,X<X,XF.F.S.S.S.S.S.A.A.V.V.V.V.V.V.V.V.V.V.C.C.C.m.n.n.n.n.b.b.b.b.c.z.z.z.z.k.",
", , , , , , , , , , = = = = = = = = , , , , , , , , , : = = = = = = = = = = = = : : > > - - - = > - - - - - > > > > - - - 3 - u 0 0 3 5 5 u u u u u u u u 0 0 e e t t i t t i i t t t t t t t t i i i i i i i i t e e t e e i i e e e t t e t i t t i i i i t t i t t t t t t t t T t T T T Q Q Q Q Q ! Q ! ~ Q ~ ~ ~ ~ Q Q Q Q Q Q Q Q Q Q ! ! ~ ~ ~ ~ ' ` ` ` { ] ] ] { ] ` ~ ` ` ~ ~ ! ~ ~ ~ ~ ~ ~ ~ ~ ` ` { { %.%.c.b.c.c.b.m.V.V.V.V.C.n.n.n.n.n.n.n.n.n.n.n.n.n.n.n.b.b.b.b.b.b.b.b.c.z.z.k.z.c.b.b.b.n.n.n.n.n.n.n.n.b.b.n.n.n.n.n.n.n.n.n.n.C.V.V.V.C.V.C.V.A.A.A.A.S.S.S.S.S.F.F.,X,XG.,X,X<X3X4X4X4X5X4X4X4X4X5X5X4X4X4X4X1X1X1X<X<X,XF.F.F.D.S.S.S.S.A.S.A.V.V.V.V.V.V.V.V.V.V.C.m.n.n.n.n.b.b.b.c.c.z.z.z.k.",
", , , , , , , = , , , , , , , , , , , , , , , , o = = : : = = : = = = = = = = = : : > > - - - = - - - - > > > > > > > - - - - - - - 3 5 u u u u u u u u u i i 0 i i i i i i i i i i 0 0 0 0 0 0 i i e i e e e e 0 0 i i 0 0 0 0 0 0 e e e e t i e e i i i e e e i i i t t t t t t t t t T T T T Q Q Q Q Q Q Q Q Q Q Q Q Q Q T T Q Q Q Q Q Q Q ! ~ ! ! ! ! ~ ' ` ] ] ` ` ] ` ` ~ ` ~ ! ! ! ! ! ! ! ! ! ! ! ! ` ] ` ] ] O.@.%.%.c.m.V.S.V.V.m.n.n.b.b.n.n.b.b.b.b.n.n.n.n.n.b.b.b.b.b.b.b.b.b.c.c.c.c.b.b.b.b.n.n.n.n.n.n.n.n.n.n.m.m.m.m.n.n.n.n.n.C.V.V.A.V.V.V.V.A.S.S.S.S.S.S.F.F.F.G.,X,X,X,X<X2X4X4X4X5X5X8X5X5X5X5X5X5X5X5X4X4X4X1X1X1X<X<X<X,XF.F.F.F.S.S.S.S.S.S.A.A.A.V.V.V.V.V.V.V.C.m.n.n.n.b.b.b.b.z.b.z.z.k.",
", , , , , , = = , , = = = = , , = , , , , , , , , , , : = = = = : : * * = = = = = : : = - - - = > > > > > > > > > > > - - - - - - - 5 5 u u u u u u u u u u u u i i i a i i i i i i 0 0 0 0 0 i 0 0 0 0 e e e e i 0 0 i i i u u 0 0 i e e e e i e e e i i i 0 0 i i i i i i t t p i t t t T T T T T Q Q Q Q Q Q Q Q Q Q T T T T T T T T T T Q Q ! ! ! ! ! ! ~ ~ ` ` ` ` ` ` ` ` ~ ~ ! ! ! ! ! ! ! ! ! ! ! ! ~ ~ ` ] ` ` O.O.O.%.m.Z.S.V.V.n.n.b.b.b.n.n.n.n.b.b.b.b.n.n.n.n.n.b.b.b.b.n.n.b.b.b.b.b.b.b.b.b.b.n.n.m.n.n.n.n.n.n.m.m.m.m.m.m.C.C.m.C.V.V.A.A.A.A.A.S.S.S.S.S.S.F.F.G.G.,X,X<X,X,X2X4X4X4X5X5X5X7X7X7X7X7X8X7X5X5X8X5X5X4X4X4X4X1X1X1X<X,X,X,X,XG.F.F.S.S.S.S.A.A.A.V.V.V.V.V.V.C.m.n.n.b.b.b.b.z.b.z.k.k.",
", , , , , = = = , , = = * = , , = * , , , , , , , = = = = = = = : = * * * = = = * = : = - - - = - - > > > > > > > > > - - > > > - - > 5 5 5 5 5 u u u u u u u 0 u u u u u u u u u u 0 0 0 0 0 0 0 0 0 0 0 0 e e 0 0 u u u u u u u u 0 0 0 e e e e e i u u u u 0 i i i i i i i a i t t t t t t t T T T T T T T T T T T T T T T T t t T T T T T T Q Q ~ ! ! ^ ! ! ~ ~ ~ ~ ~ ~ ~ ` ! ! ! ! ! ! ! ! ! ! ! ! ! ! ! ! ! ~ ~ ] { ` ` O.M.Z.S.A.V.m.n.b.n.b.b.b.n.n.n.n.n.n.n.n.n.n.b.b.b.b.n.n.n.n.n.b.n.n.n.n.b.n.n.n.n.m.m.n.n.n.n.n.C.C.C.C.C.C.V.V.m.C.V.V.V.A.A.S.S.S.S.S.S.S.F.G.,X,X,X,X<X<X<X1X2X4X4X5X5X8X8X7X7X7X7X7X7X7X7X7X7X8X5X5X5X5X4X4X4X4X1X<X<X<X,X,X,XG.F.F.S.S.S.A.A.A.V.V.V.V.C.m.C.n.n.b.b.b.b.c.b.z.k.k.",
", , , , , = = = = = = = , , , , = = : : : : : : : : : = = = = = , = * * * * * * * = > - - - - = = = - - > > > > > > - - - > > > - - - - 5 5 5 5 u u u u u u u u u u 0 0 0 0 0 0 u u u u u u u u u u 0 0 0 0 0 0 0 u u u u u u u u 0 0 0 0 0 0 0 0 0 0 i i u u u u u u u 0 i i i i i t t t t t t t t t t p p p t t t t t t t t t t t t t t t t t t T Q Q Q ! ! ! ! ! ! ! ! ! ! ! ! ! ! ! ! ! ! ! ! ! ! ! ! ! ! ! ~ ! ! ~ ` ~ ~ O.c.m.S.A.V.V.m.n.n.b.c.b.b.n.m.m.n.n.n.n.n.n.b.b.b.b.n.n.n.n.b.b.n.n.n.n.n.n.n.n.C.C.C.n.C.C.C.C.C.C.C.C.C.V.V.V.V.V.V.V.V.A.A.S.S.S.F.F.F.F.G.,X,X,X<X<X<X1X1X4X4X4X5X5X8X8X8X8X9X9X9X9X9X9X9X9X7X7X7X7X8X8X5X5X5X4X4X1X1X<X<X<X<X,X,XG.G.F.S.S.S.S.S.A.A.V.V.C.C.m.n.n.b.b.b.b.b.z.z.k.",
", , , , , = = = = = = = : : : : : : : > > > > : = = = = = = = = , = * * * * * , = = > - - - = = = = = = > > > > > > - - > > > > - - - - - 3 5 5 u u u u u u u u u u 0 0 0 0 0 0 u u u u u u u u u u u u u u u u u u u u u u u u u 0 0 0 0 0 0 0 0 0 0 u u u u u 0 u 0 0 0 0 i u i i i i t t t t e t t t p t p p p p t t t t t t t t t t t t t t t t T T W Q ! ! ~ ! Q ! ! ! ! ! ! ! ! ! ! ! ! ! ! ! ! ! ! ! ! ! ~ ~ ! ! ' ' ' @.%.b.Z.A.V.V.V.n.n.b.k.k.b.n.C.C.n.n.n.n.n.b.b.b.n.n.n.n.n.n.n.n.n.n.b.n.n.n.C.m.C.C.C.C.C.C.C.C.C.C.C.C.C.V.V.V.V.V.V.V.V.A.S.S.S.S.F.F.F.G.,X,X<X<X<X<X1X1X4X4X4X5X5X7X8X8X8X9X9X9X9X9X9X9X9X9X9X7X7X8X8X8X8X7X5X5X4X4X4X4X4X2X3X<X,X,X,XG.F.S.F.F.S.S.S.A.V.V.V.C.n.n.n.b.b.b.b.z.z.k.",
"* * , , , , = = = = = = - - > : : = - - - > > > > > = = > = = = = = * * = , , , = = = - - - = - - - - - > = = = > > > > > > > > > > > 3 3 3 5 5 u u u u u u u u u u u u 0 0 0 0 u u u u u u u u u u u u u u u u u u u u u u u u u u u u 0 0 0 0 0 0 0 0 u u u u u 0 0 0 u u u u i i i t t t e e e t e p p p t t p p p t t t t t t t p p t t t t T T E T T Q Q Q / / Q Q Q Q Q Q Q Q ! ! ! ! ! ! ! ! ! ! ! ! ! ! ! ! ! ) ' ! ' ` %.z.n.V.V.V.V.m.b.k.%.%.k.n.C.V.C.C.m.n.n.n.b.b.n.n.n.n.n.n.n.n.n.b.b.b.n.n.n.C.C.C.C.C.C.C.C.V.V.V.C.C.V.V.V.V.V.V.V.V.V.A.S.S.S.F.F.F.,X,X,X<X<X1X1X1X1X4X4X5X5X5X8X8X9X9X9X9XhXwXwXhXhXhXhXhXqXqXqXqX9X9X9X7X8X8X5X5X5X5X4X4X4X4X<X<X,X,X,X,XG.F.S.S.S.S.A.V.V.C.C.C.m.n.b.b.b.b.z.z.",
"* * , , , , = = = = = = - - : = = = - - - - > > > > > > > > = = : = = = = : : : = = - - - - - - - - - > > > > = > > > > > > > > > > > - - - 5 5 u u u u u u u u u u u u u u u 0 u u u u u u u u u u u u u u u u u u u u u u u u u u u u 0 0 0 0 0 0 0 u u u u u i u 0 u u u u u u u i 0 e e 0 0 0 e t e t p t t i p t t t t t t t t p p t i p p p p E E E E E E / Q Q Q Q Q Q Q Q Q Q Q ! ! ! ! ! Q Q T Q Q Q Q ! Q ! ! ! ! ! ` ` %.k.b.C.V.V.b.z.k.@.%.k.b.C.V.V.C.C.m.n.n.n.n.n.n.n.n.n.n.n.n.n.b.b.b.n.n.n.C.C.C.C.C.C.C.V.V.V.V.C.V.V.V.V.V.V.V.V.A.A.A.S.F.F.,X,X,X,X,X<X<X<X1X1X1X1X4X4X5X8X8X7X8X9XhXhXhXhXhXhXhXhXhXhXhXhXhXhXwXwX9X9X7X9X9X7X7X7X7X8X5X5X4X4X2X2X<X,X,X,XG.F.F.S.D.A.V.V.V.C.C.m.n.n.b.b.b.z.z.",
"* , , , , , * * = = = = = : = = = = - - - - > > 5 5 5 5 5 - - - > - - - - > > > - - > > > > > > - > > > > > > > : > > > > > > > > > - - - - - > 5 5 u 0 0 u u u 5 u u u u u 5 5 u u u u 5 u u u u u u u u u u u u u u u u u u u u u u u u 0 0 0 0 u u u u u u u u u u u u u u u u u 0 0 0 0 u u u 0 0 e e i i e t t t t t t t p p p p p t t i i i p p p p p p p t t T T T T T T T T T T T Q Q Q Q Q Q Q Q Q Q Q Q T T ! ! ~ ! ~ ~ ` @.k.b.C.n.b.k.%.%.k.b.m.V.Z.V.V.V.C.C.C.m.n.n.n.n.n.n.n.n.n.n.b.b.b.n.n.n.m.C.C.C.C.C.V.V.V.V.V.V.V.V.V.V.V.V.A.A.S.A.S.D.F.G.,X,X,X,X,X<X1X4X4X4X4X4X4X8X8X7X8X8X9XhXhXhXhXhXhXhXhXhXhXhXhXhXhXhXhXhXhXhXwX9X9X9X7X7X7X7X7X5X5X6X4X4X3X<X,X,X,XG.G.F.F.D.S.A.V.V.V.C.C.n.n.n.b.c.z.",
"* , , , , , * * o = = = = = = = = = - - - 3 5 5 u u u u u u 3 3 5 - - - - - - - > - > > > > > - : > > > > > : : : > > > > > > > > > - - - - - > - 5 3 u 0 u u u u u u u u u 5 5 u u u 0 3 5 u u u u 5 u u u u u u u u u u u u u u u u u u u u u u u u u u u u u u u u u u u u u 0 0 u u u u u u u 0 0 0 0 0 i i i i e t t t p p t p i i i i i i i i i i i i i i t t t t T t t t T T T T T T T T Q Q T T T T Q Q Q T T ! ! ~ ~ ! ~ ~ ~ O.k.c.c.k.%.k.k.b.V.A.S.S.S.V.V.V.V.V.C.m.n.n.n.n.n.n.n.n.n.b.b.b.n.n.n.m.C.C.C.C.V.V.V.V.V.V.V.V.V.A.A.A.A.A.S.S.S.S.F.F.G.,X,X<X,X<X<X4X4X4X4X4X5X8X8X9X8X9XwXhXhXhXhXhXhXhXjXjXjXjXjXjXjXjXhXhXhXhXhXhXhXwXwXwXwX9X7X7X7X7X5X5X6X4X2X,X<X,X,X,X,XG.S.S.S.A.V.V.V.C.m.n.n.n.b.b.",
"* * , , , = = * = = = = = = = = - - - 3 3 5 u u u u u u u u u u u u 3 3 3 3 - - - > > > > > > - > > > > > > : > > > > > > > > > > > - - - - - - > - 0 0 3 5 5 5 5 5 5 5 5 5 5 5 0 u 0 0 5 5 5 5 3 u 5 u u u u u u u u u u u u u u u u u u u u u u u u u u u u u u u u u u 0 0 0 0 u 0 u 5 5 5 5 5 u u u 0 u i i i i t e e e e i i i i i i i i i i i i i i e e e t t t t t p p p t t T T T T E E / / T T T T T Q T T T Q Q Q Q Q ! ! ~ ` @.%.k.k.%.k.b.V.S.F.D.S.S.S.A.V.V.V.V.C.n.n.n.n.n.n.n.n.n.b.b.b.n.n.n.m.V.V.V.V.V.V.V.V.V.V.V.V.V.A.A.A.A.A.S.S.S.F.F.G.,X,X<X<X<X1X4X4X4X4X5X8X8X8XwXwXwXwXhXhXhXhXjXjXjXjXjXzXzXzXzXzXzXzXzXzXzXjXjXjXhXhXhXhXwXwXwXwX7X7X7X5X5X5X4X3X2X<X,X,X,X,XF.D.S.S.A.V.V.V.C.m.n.n.b.b.",
"* * , , , * * * = = = = - - - = - > - 3 3 5 u u u u u u u u u u u u u 0 0 0 - - - - > > > > > > > > > > > > > > > > > > > > > > > > - - - - > > > - - 3 3 3 5 5 5 5 5 5 5 5 5 5 u u - - 3 3 5 5 3 3 u u u u u u u u u u u u u u u u u u u u u u u u u u u u u u u u u i 0 0 0 0 0 0 u 5 5 5 5 5 3 0 0 u u 0 0 0 0 i 0 e t t i i i i i i i i i i t t t t t e w w e e t t p p i t t t t t T E E E E E T T T T T T T T T T Q Q Q Q ! ! ! ` { @.%.k.k.z.n.A.F.,XG.F.S.S.A.A.A.A.V.V.m.n.n.b.n.n.n.n.n.b.b.b.n.n.n.m.C.V.V.V.V.V.V.V.V.V.V.A.A.A.A.A.A.S.S.S.F.F.G.,X,X,X<X<X2X4X4X5X5X5X8X8X8XwXwXhXhXhXhXhXjXjXzXzXzXzXzXzXzXzXzXzXzXzXzXzXzXzXzXzXjXjXhXhXeXwXwXwXwX9X7X7X8X5X4X4X4X1X<X,X,X,XF.F.S.S.A.A.V.V.C.m.n.n.b.b.",
"X , , , , , , = = = = = - - - > > > > 5 3 u u u 5 0 u i u u u u u u u u u u 3 3 3 5 > > > > > > > > > > > > > > > > > > > > > > > > > - - > > > > - - 3 5 5 5 5 3 3 - - - - - - u - - - - 3 3 5 3 3 u u u u u u u u u u 5 5 u u 3 3 3 3 3 3 3 3 u u u u u u u u 0 0 i i 0 0 0 e 0 0 u 5 5 5 5 0 3 0 u u u u 0 0 u u 0 0 0 i i i i i i i i i i i t e e e e e e w e e t e t t t t t t t t t t p p E E E T T T T T T T T T Q Q Q Q Q Q ! ! ` { %.k.k.b.n.V.F.,X,XG.F.S.S.S.S.S.S.A.m.n.n.b.b.n.n.n.n.b.b.b.n.n.n.m.C.C.V.V.V.V.V.V.V.V.V.A.A.A.V.A.A.S.S.F.G.G.,X,X,X<X<X2X4X4X5X5X5X7X8XwXwXwXhXhXhXhXjXjXzXzXzXzXzXxXzXxXxXxXxXxXxXxXcXcXzXzXzXzXjXjXjXhXhXhXwXwXwXwX7X7X7X7X5X4X4X4X1X<X<X,X,XF.F.F.S.S.A.V.V.C.C.n.n.b.",
"* , , , : : : = = = = - - > > > > > 5 5 3 3 3 u 3 0 a a 0 0 u u u u u u u u u 0 0 u u u 5 > 5 5 > > > > > > > > > > > > > > > > > > > - - > > > > - - 3 5 5 5 5 3 3 3 3 - - - - > - - - - - 3 3 3 3 u u u u u u u u u u u 3 3 5 3 3 3 3 5 5 5 5 3 3 3 3 u 0 0 0 0 0 0 i t e 0 e e 0 0 5 5 5 5 0 0 0 u u u u 0 0 u u 0 0 0 0 u u 0 0 i i i i i i i i 0 e e e e e w e e e i e t e t e e e e t t t p t T T T T T T T T T T T Q Q Q Q Q Q ! ~ { @.k.k.k.b.n.A.F.G.G.F.S.S.S.F.F.S.S.m.n.n.b.b.n.n.n.n.b.b.b.n.n.n.m.C.C.V.V.V.V.V.V.V.V.V.A.V.V.V.A.A.S.S.F.G.,X,X,X<X<X4X4X5X5X7X7X7X7XwXwXwXwXhXjXjXkXlXzXzXxXxXxXnXnXnXBXBXBXBXBXBXBXMXvXvXxXxXxXzXzXzXlXkXkXhXhXhXhXwX9X7X8X8X7X5X4X4X1X<X<X,XF.G.G.F.S.S.A.V.V.C.C.n.n.",
", , , : : : : : = : : > > > - - > > > > 3 0 0 0 u u u u u u u u u u u u u 0 0 0 u u u u > > 5 3 u u > > > > > > > > > > > > > > > > > > > > > > > > - 3 3 3 5 > > - - - - - - - - - - 3 3 - 0 0 3 3 u u u u u u 5 5 u 0 0 0 3 5 < - - 5 3 3 3 u 5 5 5 5 5 3 5 3 3 u i i e e e e 0 0 0 u u u 0 0 3 0 u i u u u u u u u u 0 0 0 0 0 0 i i 0 e e e i i 0 0 0 0 0 0 0 0 e e e e e 0 e e e e e e t p t t t T E T t t t t p T T T T / Q Q Q Q Q ~ O.@.%.k.k.n.V.S.F.F.D.D.D.F.F.F.S.S.V.C.n.b.n.b.b.b.b.b.n.n.n.n.m.C.V.V.V.V.V.V.V.V.V.V.A.A.A.V.V.S.A.S.S.F.G.,X,X,X2X4X5X5X4X5X7X8X7XwXwXwXwXhXhXjXzXlXlXcXvXvXBXNXCXCXZXDXSXGXJXJXSXSXSXDXCXNXBXxXxXzXlXzXzXzXjXjXhXhXhXwX9X9X9X8X8X5X4X4X1X<X,X,X,XG.F.F.S.S.V.V.V.C.n.n.",
", , , : : : : = = = = > > > - > > > > > 3 u 0 0 u u u u u u u u u u u u u 0 0 0 u u u u 5 5 5 3 5 - - - > > > > > > > > > > > > > > > > > > > > > > > - 3 - - - - - - - - - - - - - - 3 3 3 5 5 3 u u u u u 5 5 5 u u u 0 0 u u 0 0 3 3 5 u u u 3 5 5 5 5 3 3 3 3 u i i t t t e 0 0 0 i u u 0 0 3 u u u u u u u 0 u u u 0 0 0 0 0 u u u 0 0 0 0 0 i 0 0 0 0 0 0 0 0 0 0 0 0 0 0 0 e e e e i i i i t t t t t T t p p t E p t E T T t t T Q ~ ` O.@.%.k.z.n.V.A.S.S.S.S.D.G.G.S.S.V.C.n.b.n.n.n.n.b.b.n.n.n.n.C.V.C.V.V.V.V.V.V.A.V.A.A.A.A.A.S.S.S.S.F.G.,X,X<X<X4X5X5X5X5X7X9X9XwXwXwXwXhXhXhXlXzXxXvXBXNXCXDXSXLXLXLXLXLXLXLXPXIXIXIXIXLXKXSXCXBXBXvXxXxXzXjXhXjXjXjXhXhXwXhX9X7X7X5X4X4X1X,X,X,XG.F.F.S.S.V.V.V.V.m.n.",
"* , , : : = = = = = = - > > > > > > > > - 3 u 0 0 3 0 u u u u 0 u u u u u 0 0 0 u u u u u 5 0 3 5 5 3 - - - - > - - - - - - - - > 5 5 5 u u u 5 5 5 5 - - - - > - - - - - - - - - - - 3 - 3 3 u u u u u u u u u u u u u u u u u u 0 0 3 3 3 0 0 u u u 3 3 3 3 3 3 u 0 e e e t t e e 0 0 i i 0 0 u u u i u u u u u u u u u u u u u u u u u u u u u u 0 0 0 0 0 0 0 0 0 0 0 0 0 0 0 0 0 0 0 0 i i i i e e e t p p p p t p p t E E t t t T Q Q ~ ` O.O.@.%.z.n.C.V.V.V.V.S.F.F.S.A.A.V.n.n.n.C.m.n.n.n.n.n.n.n.C.V.m.C.V.V.A.A.A.A.A.S.S.S.A.A.S.S.F.G.,X,X<X<X<X<X2X4X5X5X5X7X9XwXhXwXwXhXjXhXkXzXxXBXVXCXSXKXKXLXPXPXPXPXLXLXLXLXIXPXPXLXLXLXKXHXSXDXVXBXxXzXzXzXzXjXjXhXhXhXhXhX9X7X7X5X5X4X<X,X,X,XG.G.F.S.A.V.V.V.C.m.",
"* = , : = = = = = - = > > > > > > > > > > 3 0 u 0 u 0 3 u 0 0 0 3 3 0 0 5 5 5 u u u u u u u 0 0 u u 0 0 0 0 5 5 3 3 3 3 3 3 3 3 - 5 5 u u u u u 5 5 5 5 5 5 3 3 - > - - - - - - - - - 3 3 3 u u u u u u u u u u u u u i 0 i i i i u 0 3 3 3 0 0 5 3 5 3 3 3 3 3 0 0 0 0 e e t e e t t t i 0 i 0 0 u u 0 u u u i u u u u 5 u u u u u 0 0 u u u u u u u u 0 u u u u u u 0 3 u 0 0 3 0 0 0 u u u u i i 0 e e e i p i i p p p p p p t t T Q Q Q ~ ~ ` ] O.@.%.k.c.c.b.b.n.A.D.F.S.V.S.V.V.V.V.V.V.C.n.n.n.n.n.n.m.C.C.V.V.V.A.A.A.A.S.S.S.S.S.S.D.F.G.,X,X2X2X2X2X2X2X4X4X5X5X7X7XwXhXhXhXhXjXkXcXvXNXDXSXKXKXLXLXJXJXJXLXPXPXPXPXPXPXPXLXGXGXGXKXLXLXLXKXSXNXBXvXzXzXzXjXjXhXhXhXhXwX9X7X7X5X5X4X1X,X,X,X,XF.F.S.S.A.V.V.V.",
"= = = : : = = = - - > > > > > > > > > - > - 5 5 0 0 3 3 3 0 0 0 0 0 u u u u u u u u u u u u 0 0 u 0 0 0 3 3 3 3 3 3 3 3 3 3 3 3 3 3 u u u u u u u u 5 5 5 5 5 5 5 5 5 5 - 5 5 5 3 3 3 5 5 u 0 u u u u u u u u u u u 0 0 0 i i i i i u u 0 u u u 0 0 0 3 3 3 3 3 0 0 0 0 0 0 0 e t t t t t t i i u u 0 0 0 u u i u u u u 5 u u u u u u u u u u u 5 u u u u 5 5 5 u 0 0 3 3 3 3 0 3 3 0 0 0 u u u u 0 0 0 e e i i i p i i p p p p t p T T Q Q ~ ~ ~ ~ ` O.O.@.%.%.%.k.b.V.S.D.S.V.S.A.V.A.S.S.A.V.C.m.n.n.n.C.V.V.V.V.A.A.A.A.S.S.S.S.S.S.S.S.F.G.,X,X<X4X4X4X3X2X4X4X5X5X7X7X9XwXwXhXhXhXkXxXBXCXJXKXLXLXLXLXJXLXJXLXPXPXPXPXPXPXJXKXHXGXZXZXSXGXLXLXLXKXJXDXBXxXxXzXzXzXjXhXhXhXhXwX9X7X7X5X4X1X<X<X,X,XG.F.S.S.A.V.V.V.",
"= = : : : = - = - > > > > > > > > > - - - - 5 3 0 u 3 3 u 0 0 0 0 0 0 u u u u u u u u 0 u u 0 0 u u 3 3 3 3 3 3 3 3 3 3 3 3 5 5 3 3 u u u u 0 0 u u u u u u u u u u u u u u u u u u 3 3 3 0 0 u u u u u u u u u 0 0 0 e 0 i i i i i i 0 0 0 0 0 0 0 0 3 5 3 3 3 0 0 0 0 0 0 0 0 i e t t t t i i i 0 i 0 0 u u u u u u u 5 u u u u u 0 3 0 u u u 5 5 u u 0 5 5 5 5 5 3 3 5 3 3 5 5 5 u u u u u u u u 0 0 0 0 0 i a i i i p t p t t p p t T Q Q ! ~ ~ ~ ` O.O.O.@.O.@.k.n.V.S.S.A.S.S.S.S.S.S.S.S.V.V.V.V.V.V.V.A.S.A.A.A.A.A.S.S.S.S.S.S.S.S.F.G.,X,X2X4X4X4X4X4X6X5X5X7X7X7XwXwXhXhXhXkXcXNXSXLXIXIXPXPXLXLXKXLXLXLXLXLXLXPXPXLXLXKXJXSXAXZXAXGXJXKXJXJXKXKXSXFXBXxXzXzXlXjXjXhXhXhX9X7X7X7X5X1X<X<X,X,X,XF.S.S.A.V.V.V.",
"= : : : > = - : > > > > > 5 5 5 5 5 3 3 0 0 3 u 3 u u u u 3 0 0 0 0 0 i i i u u u u u u u u u u u u 3 3 5 3 3 3 3 3 3 5 5 u 5 5 u u u u 0 0 0 0 0 0 u 0 u u u u u u u u u u u u u u u 0 0 0 0 0 0 0 0 0 0 0 0 0 0 0 0 0 t t i t i i t e e 0 0 0 0 u u u u u u u 0 0 0 0 0 0 0 i i i e t i t i i i 0 0 0 i i u u u u u u 5 u u u u 0 0 0 - - u 5 > > 3 3 3 3 3 3 3 3 5 5 5 5 3 3 3 u u u u u u u u u u 0 0 0 i i a i i i e e t t t t p t t Q Q ! ~ ~ ~ ~ ~ ` ` { O.@.k.b.n.V.V.V.A.A.A.S.S.S.S.S.S.A.V.V.A.A.V.V.V.A.A.A.A.A.S.S.A.S.S.S.S.S.F.G.,X,X2X4X4X4X4X4X5X5X5X7X7X8XwXhXhXhXlXvXNXSXLXIXPXLXLXLXLXKXJXJXLXLXLXLXPXIXIXPXPXLXJXGXAXZXZXAXGXJXKXJXJXKXKXJXCXBXvXzXzXzXzXjXhXhXwX9X7X7X5X4X4X2X<X<X,XG.F.S.S.A.V.V.",
", : : > > > > : > > > 5 5 5 5 5 5 5 3 0 0 u u u 3 3 u u u u 0 0 0 0 i i i i u u u u u u u u u u u u u u u 3 0 3 3 3 3 5 5 u 5 5 u u u 0 0 0 0 0 e 0 0 0 0 0 0 0 u u u u u u u u u 0 0 0 0 0 0 0 0 e e i i t 0 0 0 0 0 t t t t i t t t t t t e t i i u u u u u u 0 u i 0 0 0 0 a i a a i i a a i i 0 0 i i i u u 0 0 0 0 3 u u u 0 0 3 3 - < < 5 - - 3 3 3 3 3 3 3 3 u u u u 0 0 0 u u u u u u u u u u u 0 0 i i a i e e e e t t p t p p t Q Q ! ~ ~ ~ ~ ~ ` ` { O.@.%.k.z.b.C.V.V.V.V.V.V.A.S.S.D.S.S.S.A.V.V.V.V.V.V.V.V.V.V.V.A.S.S.S.S.S.F.G.,X,X<X4X4X4X6X4X5X5X8X7X7X9XwXhXhXjXxXNXSXLXLXLXPXLXLXKXLXLXKXJXLXLXLXPXIXIXPXPXLXLXLXKXGXGXUXGXKXLXLXJXGXJXKXLXKXCXBXxXxXzXzXjXhXhXwX9X9X7X7X7X5X4X4X<X<X,XG.F.S.S.A.A.",
"> > - - > > > > - 3 u u u u u u 0 3 3 3 5 5 5 5 0 0 u u u u 0 0 i i t t t e 0 0 u 0 0 0 u u u 5 5 u 5 5 3 5 5 5 - 3 3 3 u 0 0 3 u 5 5 u 0 0 0 0 0 0 0 0 0 i e e a i 0 0 0 0 0 3 0 0 0 u u u u u 0 e t p t p p p t t t t t t t E p t t t t t i i i i i e 0 0 0 i 0 0 0 0 w e e e e e e i i i i t e t t t t t e 0 0 0 0 0 3 5 5 5 u 0 3 3 3 3 5 u > > > > 5 > < u 5 5 3 3 3 3 > > 3 3 > 5 5 5 5 5 0 u u u u u u u 0 0 e e e e e t t t t p t T Q Q Q ~ ! ! ~ ` ] ] O.O.@.%.k.b.b.n.n.n.C.V.V.V.V.A.S.S.A.A.V.V.C.C.m.V.V.A.A.A.S.S.S.S.S.S.S.S.F.F.,X,X<X4X4X4X5X5X5X7X9X8X7XwXwXhXkXlXBXDXKXKXJXKXJXJXGXJXJXKXKXKXJXJXKXLXLXPXPXLXLXLXIXIXPXLXLXLXLXLXKXGXSXSXGXKXLXKXDXBXxXxXzXjXjXjXhX9X7X7X7X8X5X4X4X<X<X,XG.F.D.S.S.A.",
"- - - - - 3 3 3 3 u u i a i i i i i i i i i u u 0 0 u u u u i i i i p p p i a i u 0 0 0 0 u u 5 5 u u u 3 5 5 5 3 3 3 3 u u 3 u u 5 5 u 0 0 0 0 i 0 e e i i i i i i i 0 i 0 0 0 0 i i i i i i i 0 e t t t p p E t p t t t t T T T T t t t t i i i i t e 0 0 0 0 0 0 0 0 e e e e e e t i t t t t t t t t p t t e e 0 0 0 0 u u i i 0 0 3 3 - - - - u > > > 5 0 0 u 0 0 0 0 0 < < 0 0 3 3 5 5 5 3 3 u u u u u u 0 0 0 e e e e e t t t t p p T Q Q Q ~ ! ! ~ ` ` ] { { O.%.k.k.c.b.b.b.n.n.m.C.C.V.V.V.V.V.V.V.C.C.n.C.V.V.V.A.S.S.F.F.F.S.S.F.F.,X,X,X<X3X4X4X5X5X8X7X9X7XwXwXwXeXkXBXDXSXKXGXGXJXUXSXSXGXGXGXGXGXGXGXGXKXLXPXIXPXLXLXPXLXLXLXLXLXKXJXGXAXAXSXGXKXKXPXKXDXBXxXlXjXjXhXwX9X8X7X5X8X7X5X4X2X<X,X,XG.F.S.S.A.",
"0 3 3 3 3 0 0 3 u u i i i t i t t t i i i i i i 0 0 u u u i i i i p p p t t i i a a 0 0 u u u u u u u u 3 5 5 5 - 3 3 3 3 5 u u u 5 5 5 0 0 0 0 e e t t t i t i i i t t e i i i i i i i i i i e e t t t T E T E E T T T T T T T T T t t t p p p t i t t t e t t e e e e e e t t t t p t e t e e t T T Q Q T T t e e 0 0 0 0 i i 0 i 0 0 3 3 - - - - 0 0 3 3 3 0 < < < < 0 < 0 0 0 0 0 5 3 5 0 0 3 u u u u u 0 0 0 0 0 e 0 0 e t t t p p p T T Q Q ~ ! ! ! ~ ` ] ] ] { @.%.k.k.z.c.b.b.b.b.b.n.n.n.n.n.n.n.n.n.n.n.n.n.C.V.V.S.F.F.F.F.F.F.F.F.,X,X,X<X1X4X4X5X5X7X7X9X9XwXeXwXhXxXCXKXSXSXGXSXSXZXAXAXGXGXGXGXGXGXGXGXKXLXPXPXLXKXKXJXJXJXJXJXJXGXSXZXZXZXAXGXKXLXPXIXKXCXMXlXjXjXhXwX9X7X5X5X5X7X5X4X4X2X<X,X,XF.F.S.S.",
"i i 0 0 u 0 a a i i i p p t p T T T T E p t t t t t i i p p t p t E / / t t t p e e e 0 0 0 u u u u u 5 3 3 3 5 - 3 3 3 3 5 u u u 3 5 3 0 0 0 0 0 t t t t t t i p p p t t t t t e e t t E E p p E T T T Q Q Q ! ( Q Q Q Q Q Q Q Q Q Q Q Q t p E E p p p t t t t t t t t t p p p p p E t t t t t Q Q Q ! ~ ! Q T E T T t t t t t t t 0 0 0 0 u u 0 0 0 u u u u u 0 0 0 0 0 0 0 0 0 u 0 u u 5 5 5 u u u u u u 0 0 0 0 0 e e 0 e e t t t p p T T T Q ! ! ! ! ~ ` ` { ] { @.%.k.k.k.c.z.z.c.c.b.b.b.b.b.b.b.b.b.b.b.b.b.n.n.C.V.S.F.F.F.F.F.F.F.,X,X,X<X<X3X4X5X5X4X8X7XwXwXhXhXeXkXBXDXGXDXSXGXSXZXZXSXSXGXGXGXGXGXGXGXGXJXKXLXLXLXKXGXSXSXSXSXSXGXGXSXZXZXZXZXGXJXLXKXKXLXHXNXxXlXjXhXwXwX7X5X4X5X8X5X4X2X2X<X,X,XG.F.S.S.",
"a a a a i i i i i p E E E / Q Q Q Q / / / Q Q Q T T E E E E T T t / Q / / t t t e e e 0 0 0 0 0 u u 5 u 3 3 3 3 3 3 3 3 3 5 u u u 0 3 3 u 0 0 i i 0 e t t t t i p p p p p t t p t t T T / / / / / / T Q Q ( ) ) ) ) ( ~ ~ ~ ~ ! ~ Q Q Q Q Q Q / Q / Q Q T t t t t t t t t t p p p E E T T t T T ! ~ ! ! ~ ) ) ) ) ) ( Q Q Q Q T Q T t e e e 0 0 0 0 0 i i i i i i i i u u u 0 0 0 0 u 5 5 5 5 u u u u u 0 u 0 0 0 0 e e e 0 0 0 e e i i p E T T Q ! ! ! ! ~ ` ` { { { @.%.k.k.k.z.z.z.z.z.c.c.b.c.c.b.b.b.b.z.z.z.c.b.n.n.V.A.S.F.F.F.F.F.G.,X,X<X<X2X4X4X4X4X4X5X8X9XhXhXeXkXxXCXSXSXSXSXSXZXCXDXSXGXGXGXSXSXAXSXSXSXGXGXHXJXJXJXGXSXAXZXZXAXSXGXSXSXDXZXZXZXGXJXJXGXKXLXSXBXlXhXhXwXwX7X8X5X5X4X6X4X2X2X,X,XG.F.F.S.S.",
"i i p i p p p p p E / / / ( ( ( ( ( ) ) ) ( ( ~ ( ( / / / Q T T Q Q Q / Q Q t t t t e 0 0 0 0 0 u u 5 5 3 3 3 3 3 3 3 5 3 3 3 3 u u 3 5 u u i i i i e e t t t i t p p p p E E E T T T ! ) ) ) ) ) ( ( ( ) ) ] ] ] ] ) ) ) ) ) ~ ~ ~ ~ ~ ~ ( ( ( ( / Q Q Q t T t t t t t t t t t t T T T T T T Q ~ ~ ` ] { { { O.[ { ] ) ) ) ) ) ) ~ Q Q Q T T t t e t e t t e e t 0 0 0 0 0 0 0 0 0 u u u u u 0 0 0 0 0 0 0 0 0 0 0 e e 0 0 0 0 0 e i i p T T T Q ! ! ! ! ~ ` ` ] { O.@.%.k.k.k.k.k.k.k.k.z.z.z.z.z.z.z.z.z.z.z.k.z.b.b.n.C.V.S.F.F.F.F.F.G.,X,X<X2X4X4X4X4X4X4X5X8X9XhXhXeXlXMXZXSXSXSXZXCXCXCXZXSXGXGXGXSXSXDXDXZXZXZXZXSXGXGXSXSXDXZXZXZXAXSXSXSXSXSXZXCXZXAXSXGXGXJXKXKXZXvXhXhXwX9X7X8X5X6X4X2X2X<X2X,X,XG.F.F.D.S.",
"t E / / / E Q Q Q / ( ( ) ) ) ) ] ] ] [ [ ] ] ] ] ) ) ( ( Q Q Q Q Q Q ( ( ( Q d T t t e 0 0 0 e 0 u u u u u 0 0 0 0 5 3 5 5 3 3 3 u 5 5 u u u i a i 0 e t t t t t i p p p E T T E Q ! ~ ] { +.+.+.[ [ ) [ { [ [ @.+.{ { { { { ] ] ] ] ) ) ) ` ] ) ) ( Q Q Q Q T T T T T T Q T Q T T T T T Q Q ! ~ ) { O.@.%.%.%.$.$.%.%.O.O.O.O.O.] ) ~ ( ) ( ~ Q Q T T T T T T T T T t e t e e t t t e i 0 0 0 u u 0 0 0 0 0 0 0 0 0 e e e 0 0 0 i i i p T T T Q ! ! ! ! ~ ~ ~ ` { O.@.@.%.k.k.k.k.k.k.k.k.k.k.k.z.z.z.z.k.k.k.k.c.b.b.n.C.V.S.F.F.F.F.F.G.,X,X,X<X4X4X4X4X4X5X5X5X9XhXhXeXcXNXSXSXDXZXCXVXCXCXZXSXSXGXGXSXSXSXDXDXZXZXCXZXSXSXDXSXAXZXZXZXAXSXZXSXGXSXSXAXAXSXSXGXGXGXKXLXHXBXlXkXwX9X7X8X5X6X3X<X,X,X,X,X,XG.F.D.S.S.",
"Q Q / ( / Q Q Q / ( ) [ [ [ O.O.+.+.+.+.+.+.+.+.+.O.] ) ( ( ( ) ! ! ~ ) ] _ ( Q Q Q d t e 0 e t i 0 u u u u u 0 3 0 3 5 5 3 3 - 5 5 5 5 5 5 u i a i 0 e w t t i e i p p t E T T ( ) ) { @.$.$.$.#.+.{ [ [ [ @.@.#.@.+.{ O.@.O.O.{ O.O.O.O.O.O.O.O.] ) ( / Q Q Q Q Q Q Q Q Q Q Q Q Q T T Q Q Q Q ( ] @.$.k.k.k.k.z.z.k.$.$.%.%.@.@.O.O.] O.O.O.{ ` ~ ~ ~ ~ ~ ~ ~ ~ ~ ! ! E E E E T T T T t e e e i i 0 0 0 0 0 0 0 0 e t t t t 0 i i i p t T T Q Q ! ! ! ! ! ! ~ ` O.@.@.@.%.%.k.k.k.k.k.k.k.k.k.k.k.k.z.z.k.k.k.z.c.b.b.n.C.A.S.F.F.F.F.F.F.G.,X,X<X4X4X4X4X4X5X8X5X9XhXhXeXcXVXSXSXZXCXVXCXCXCXZXAXGXGXGXSXDXZXZXZXDXZXZXZXSXSXZXAXAXZXAXAXSXAXSXGXGXGXGXGXSXGXJXGXSXKXLXPXLXZXxXkXwX9X7X5X6X6X<X,X,X,X,X,XG.G.D.S.S.S.",
"( ( ( ( ( ( ( ( ( ) [ +.=.=.+.O.+.+.=.=.=.=.=.=.#.#.+.O.] _ _ O.( _ [ +.#.#.O.) ( ( / / t t t E t t i i i i i 0 i 0 0 0 0 0 u u u u u 5 u u u u u i 0 e 0 e t i t t i p t t T Q ( [ [ @.$.z.z.$.$.$.@.@.@.#.%.@.@.@.#.#.#.#.#.#.@.@.%.%.%.%.%.%.@.O.] _ ) ( ~ ~ Q Q Q Q T T Q Q Q Q Q Q ! ~ ( ) ) ] %.$.c.b.b.v.v.v.c.z.k.k.$.$.$.%.@.@.@.%.@.@.@.@.@.O.O.O.{ { ] ] [ ) ) ) ) ) ( ( Q T T T t t e e t t t t t t t t t t t t t t t t t t t T Q Q W Q ! ! ! ! ! ~ ` ] O.@.@.@.%.%.%.k.k.k.k.k.k.k.k.k.z.z.z.z.z.k.z.c.b.b.n.C.V.S.F.F.F.F.F.F.F.,X<X<X1X4X4X4X5X5X8X8X8XwXwXeXxXNXCXCXCXVXNXCXCXZXDXSXSXGXSXZXCXCXCXZXZXZXDXZXZXDXDXAXSXAXZXAXAXSXJXKXKXKXJXJXKXKXKXJXHXJXJXIXIXGXBXkXwXhX9X5X5X2X,XG.G.G.,X,XG.G.F.F.D.S.",
"[ [ [ [ [ [ [ [ [ [ +.#.-.-.=.#.=.=.=.-.-.-.-.-.z.z.-.=.#.+.+.+.+.+.$.z.z.z.-.+.] _ ) ( Q T E E p t p t i t e e i e 0 0 0 0 u u 0 u u u u u u u u i 0 e e e e i t t i p E T T Q ) ] #.z.z.x.v.z.z.z.z.=.$.=.$.$.$.$.-.-.-.z.z.$.$.$.$.$.k.k.k.$.%.#.+.+.O.) ( ~ ~ Q Q Q Q Q Q Q Q Q Q Q Q ~ ~ ) ) O.%.k.b.b.v.v.b.b.v.v.z.z.k.k.k.k.$.%.%.%.%.%.k.k.$.$.%.%.%.%.%.%.+.+.O.O.] ] ) ) ( ~ ~ Q Q T T t t t p t t t t t t t t t t t t t t t T T Q Q W W ! ! ! ~ ` ~ ` ] O.@.@.@.%.%.%.k.k.k.k.k.k.k.k.k.k.z.k.k.z.z.z.b.b.n.n.C.V.S.F.G.,X,X,X,X,X<X<X1X1X1X4X4X5X5X7X7X8XwXwXeXxXNXFXNXNXBXVXCXZXDXAXDXSXSXSXZXCXCXCXZXZXZXDXDXDXDXDXDXSXZXZXAXAXSXHXKXLXLXKXLXLXLXLXKXGXGXLXPXIXLXCXcXhXwX9X7X5X3X,XG.D.F.G.G.G.G.F.F.D.S.",
"+.+.+.+.+.+.+.+.=.+.#.=.z.x.x.-.-.-.-.-.-.-.v.v.n.n.v.v.v.z.-.-.-.z.v.v.m.m.v.z.#.#.O._ ( / / / E E E E p t p p E t t t p i t e 0 0 0 0 0 0 0 0 u 0 0 t e e t i t t t p T T Q Q ] +.z.x.v.m.n.v.v.v.x.x.x.x.x.z.z.z.z.z.x.z.x.x.z.z.z.z.z.z.z.k.$.$.$.+.+.O.) ~ ~ ~ ~ ~ ( ( ( ( ( ( ~ Q Q ~ ~ ~ ) O.%.k.b.b.n.v.b.b.b.b.v.z.z.z.z.z.z.k.%.%.%.k.z.z.z.z.k.z.k.k.k.k.%.%.%.%.@.@.O.O.O.~ ~ ~ ~ ! Q Q / / / / Q Q Q Q T T T T Q Q Q Q Q Q Q Q ! ! ~ ~ ~ ` ` ` ` ] ] { O.@.@.%.%.%.%.k.k.k.k.k.k.k.k.k.k.k.k.k.z.z.z.b.b.n.n.C.A.D.F.G.,X,X,X,X,X<X<X4X4X4X4X4X5X7X7X7X7X7XwXeXcXBXBXBXBXBXVXZXDXDXZXZXDXDXSXZXCXCXCXCXZXZXZXDXSXSXSXZXAXZXZXZXZXSXGXKXLXKXKXLXLXLXKXKXGXJXLXIXIXIXSXMXkXwX9X5X6X3X,XG.S.S.S.D.D.D.D.D.S.S.",
"-.-.-.-.=.=.+.+.+.+.#.-.x.v.x.-.-.-.=.=.=.-.x.v.v.B.B.N.N.m.v.v.v.n.m.m.V.Z.m.v.z.z.$.+._ ( ( ( ( ( ( ( / / / ( ( ( ( / / / E t t e 0 0 i 0 i 0 0 0 0 0 t e t t t t t t T T Q ~ ) %.z.v.v.B.B.n.v.v.v.v.v.v.v.v.x.x.x.x.x.x.x.x.x.z.z.c.v.v.v.z.k.$.$.%.+.O.] ) ) ) ) ) ) ) ) ) ) ) ) ~ ~ ~ ~ ~ O.O.$.c.b.m.n.n.b.b.b.b.v.c.z.z.z.v.v.z.$.%.$.k.z.z.z.z.z.z.z.k.k.k.k.%.%.%.%.%.@.@.@.@.O.O.~ ~ ) ) ) ) ) ( ~ ~ ( ( ~ ( Q ~ ~ ~ ~ ~ ~ ~ ~ ~ ~ ~ ~ ~ ~ ] ] { { { { O.O.@.@.%.%.%.k.k.k.k.k.k.k.k.k.k.k.k.k.k.z.z.z.b.b.n.n.C.A.F.G.,X,X,X,X,X,X<X<X4X4X4X4X4X5X5X5X7X7X5X0XeXlXMXvXMXBXBXNXVXVXCXCXCXCXZXDXZXCXCXCXCXCXZXZXSXGXSXDXZXZXAXAXAXAXSXGXGXHXJXJXJXHXGXJXKXJXLXPXIXIXIXJXNXkXhXwX7X6X3X2X,XS.S.S.S.S.S.S.S.S.S.",
"x.x.x.-.-.=.=.+.+.+.=.-.x.v.-.=.=.=.#.+.+.=.-.x.v.v.B.N.Z.Z.Z.N.Z.Z.Z.A.Z.Z.V.V.n.b.z.$.+.] _ _ ) [ [ [ ) ) ) [ ] [ O.O.[ _ ( Q E t i i i i 0 i e 0 e e t t t t t t t t T Q Q ~ ~ %.z.v.v.B.B.B.m.m.m.m.n.n.v.v.n.v.v.v.n.n.v.v.v.v.b.v.m.m.m.m.b.c.-.$.%.+.O.O.O.O.O.O.O.{ O.{ O.O.] ] ) ) O.O.%.$.c.b.m.m.m.v.v.b.b.b.v.v.v.v.v.v.v.z.k.k.k.k.z.z.z.c.c.z.z.z.z.z.k.k.k.k.k.%.@.@.@.@.O.O.O.O.O.O.O.O.{ ] ] ] ] ] ) ) ) ) ) ) ~ ~ ~ ~ ` ] { { { ] { O.O.O.@.@.O.@.@.@.@.%.%.k.k.k.k.k.k.k.k.k.k.k.k.k.k.k.z.z.b.b.b.n.C.V.A.D.G.,X,X,X,X,X<X2X4X4X5X5X5X5X5X5X5X7X5X6X0XwXkXxXxXMXBXBXBXBXBXBXVXCXCXZXZXZXCXZXCXCXCXZXZXSXGXGXSXSXSXSXSXAXSXGXGXGXGXJXJXGXGXGXGXJXKXIXPXIXIXIXKXCXkXkXwX7X4X3X,XG.S.S.A.A.A.A.A.A.A.A.",
"v.v.v.x.-.-.=.#.=.=.=.x.v.x.-.#.+.+.+.O.O.+.+.=.=.-.v.N.H.H.H.H.H.F.H.Z.Z.A.A.A.V.m.v.z.#.+.+.+.[ +.+.+.[ { @.@.#.$.-.=.=.#.[ ) / E t p i i i i e e e 0 0 t t p t t t Q Q Q ! ~ ) %.z.v.v.B.B.B.m.m.m.m.m.m.m.m.N.m.m.m.N.N.N.Z.m.m.V.V.A.S.A.Z.m.v.v.k.$.$.%.%.%.%.@.@.O.@.@.@.O.@.+.O.O.O.O.%.$.c.b.n.m.n.v.v.n.n.v.v.b.b.b.b.b.b.v.c.c.z.z.k.z.z.c.c.c.c.z.z.z.z.z.k.k.k.k.k.%.k.%.%.%.@.@.@.@.@.%.@.@.O.O.O.O.O.{ ] ] ] { { { ` { { O.O.@.O.@.@.O.@.@.%.%.%.@.@.@.%.%.%.k.k.k.k.k.k.k.k.k.k.k.k.k.k.k.k.z.z.b.b.b.n.C.V.S.F.,X,X,X<X2X4X6X5X5X5X5X5X5X5X5X5X5X7X5X6X6X0XeXlXcXxXBXBXMXBXBXBXNXVXCXCXZXZXZXAXZXCXCXZXDXSXGXGXGXGXSXGXSXSXHXKXJXGXGXKXLXJXGXGXJXJXLXLXLXIXIXIXJXSXlXkXwX7X6X3X,XG.S.S.S.V.V.V.A.A.A.A.",
"v.v.v.v.z.-.=.=.=.=.-.x.x.-.#.+.[ [ ] _ ) _ [ [ +.+.-.v.B.H.H.H.F.F.F.H.Z.Z.A.A.A.Z.Z.v.-.#.@.$.#.#.-.-.$.$.$.$.z.x.v.v.z.z.#.[ ) Q T E p p t p p p t e e t t p t t t Q Q ! Q ~ ] +.-.x.v.m.Z.Z.m.m.m.N.B.B.N.Z.Z.Z.Z.Z.Z.Z.A.A.A.A.A.S.G.G.H.Z.Z.m.b.c.c.z.k.$.k.%.%.@.@.@.%.%.$.$.$.$.$.%.%.k.c.c.b.v.v.v.v.v.v.n.m.n.n.v.b.b.v.b.b.b.b.v.c.c.z.z.c.b.b.c.z.z.z.z.k.k.k.k.k.k.k.k.k.%.@.@.%.%.%.%.%.%.@.@.@.@.@.@.O.O.O.O.O.O.@.@.@.@.@.@.%.%.%.%.%.%.%.%.%.%.@.%.%.%.%.l.k.k.z.z.z.z.z.z.c.c.z.z.k.k.k.k.k.k.z.b.b.n.C.V.S.G.<X4X5X5X7X7X7X7X7X7X7X7X7X5X5X5X6X5X6X6X6X0XwXkXlXxXvXxXvXMXMXMXBXNXVXCXCXZXZXAXAXZXZXZXSXSXSXGXHXKXGXGXGXGXLXLXLXKXLXLXPXLXLXKXLXLXLXLXLXPXIXPXJXGXvXhXwXwX6X3X,XG.S.S.S.V.V.V.A.A.A.A.",
"v.v.v.v.x.-.=.=.=.=.-.-.-.=.O.] ) ) ) ) ( ( ) ) _ [ +.=.v.N.H.H.I.I.G.H.H.S.A.S.S.S.Z.n.z.$.$.z.-.z.x.x.z.$.z.z.x.v.m.v.v.v.-.#.] ~ Q Q E t T Q p p i e e t i p t t d Q ! ! ~ ~ ] +.-.z.b.m.Z.N.m.m.m.N.N.N.Z.Z.Z.Z.Z.A.A.Z.A.A.H.S.D.G.,X,XG.H.Z.V.n.v.b.b.v.x.k.k.%.%.%.%.$.$.z.x.v.x.x.z.z.b.b.b.v.v.v.v.v.v.b.v.m.m.n.v.b.b.b.v.b.b.b.v.v.v.b.b.b.b.b.b.z.z.z.z.k.k.k.k.k.k.k.k.k.%.%.%.@.%.%.%.%.%.@.@.@.@.@.@.@.@.@.@.@.@.@.@.@.%.%.%.%.k.k.k.%.%.%.%.%.%.%.%.%.%.l.k.k.z.c.b.b.b.b.b.b.n.b.c.z.k.%.%.k.k.z.b.b.n.C.V.S.,X4X5X7XwXwXwXwX7X7X7X7X7X7X7X5X4X1X2X2X2X6X7XwXkXlXcXxXcXcXxXvXMXMXBXNXNXCXCXCXZXSXSXZXZXSXSXSXSXHXKXKXKXLXKXPXLXPXPXPXPXIXIXPXLXLXPXPXPXIXPXPXPXPXGXNXhXhXwX6X4X,XG.D.S.S.A.V.V.A.A.A.A.",
"v.v.v.x.x.-.=.=.=.=.-.-.=.+.O._ ) ) ( ( ( ( ) ) ) ] O.+.=.z.B.Z.H.H.F.H.H.Z.Z.Z.Z.A.Z.B.v.z.z.z.x.v.v.v.z.z.z.z.v.v.m.n.n.v.x.z.#.[ ) / / Q Q T t T T T T T T Q Q Q Q Q ( ~ ~ ) O.+.-.z.v.v.m.m.m.m.m.m.m.m.m.Z.Z.Z.Z.S.S.S.S.S.S.G.G.,X,X,XG.S.A.V.n.n.n.n.n.b.v.z.k.$.$.$.$.z.v.v.n.n.b.b.b.b.v.v.v.v.v.v.v.n.m.m.m.m.m.m.v.v.b.b.v.b.v.c.c.c.c.c.c.b.b.b.z.z.k.k.k.k.k.k.k.k.k.k.k.l.%.%.%.%.%.%.%.%.@.@.@.@.@.@.@.@.@.@.@.@.@.@.%.%.k.k.k.k.k.k.k.k.k.k.k.k.k.%.%.k.k.z.c.b.b.b.b.b.b.b.b.b.b.z.z.k.k.k.k.k.c.b.n.C.C.V.F.,X4X7XwXwXwXwX9X8X7X7X9X7X7X6X2X<X,X,X,X2X5X7XwXkXlXxXcXcXcXxXvXvXMXMXBXNXVXCXZXAXSXSXSXZXZXZXZXSXGXKXLXLXLXLXPXPXIXPXIXIXIXIXIXPXIXPXPXPXPXPXPXPXLXKXVXlXlXhX8X4X,X,XS.S.S.V.V.V.A.A.S.S.",
"v.v.v.v.v.x.-.-.-.=.=.=.=.+.[ ) ) ) ( ( ( ( ) ) ) ] [ [ O.+.-.v.N.A.H.H.Z.Z.Z.Z.Z.Z.Z.Z.n.v.v.v.v.n.m.v.v.v.v.v.n.n.m.n.n.v.v.z.z.#.O._ ) ( ~ ( Q Q Q Q Q Q Q Q ( ( ( _ ) ) _ ] +.#.z.v.v.m.N.N.B.N.m.B.m.B.N.Z.Z.Z.Z.S.S.S.D.G.G.G.,X,X,X,X,XG.S.A.V.V.V.V.n.n.b.v.z.z.z.c.v.v.m.m.V.V.V.n.n.n.v.v.v.v.x.v.v.n.m.m.m.m.m.m.v.v.b.v.v.b.b.c.c.c.c.c.c.b.c.z.z.z.k.k.k.k.k.k.k.k.k.k.k.l.%.%.%.%.%.%.%.%.@.@.@.@.@.@.@.@.@.@.@.@.%.%.%.%.k.k.k.k.k.k.k.k.k.k.k.k.k.k.k.k.k.z.c.b.b.b.b.b.b.b.n.b.b.c.z.k.k.k.k.k.k.z.b.n.C.V.F.,X4X7XwXwXwXwX9X7X5X7X7X7X5X4X<X<X,X,X<X6X5X9XeXkXlXcXcXlXcXxXxXvXMXMXBXNXVXCXZXDXSXSXSXZXCXCXZXSXGXKXLXLXLXLXPXPXIXPXIXIXIXIXIXIXIXIXPXPXPXPXPXPXLXKXCXcXzXkX9X8X3X,XD.S.S.V.V.V.A.S.S.S.",
"B.v.v.v.v.v.v.x.x.-.=.+.+.[ ) ( ( ( ~ ~ ( ( ( ) ) ) _ _ ) [ +.=.-.v.N.Z.m.m.m.N.N.Z.Z.Z.N.N.N.Z.Z.Z.Z.N.m.m.m.m.N.N.N.N.m.m.v.x.z.$.@.O.O.O.O.O.] ] _ ) ) ( ) ) _ ] [ +.+.+.+.#.#.z.v.n.m.Z.Z.N.Z.Z.m.m.m.m.N.Z.Z.Z.S.S.D.G.G.G.G.,X,X,X2X2X,X,XG.S.A.A.A.A.V.n.b.b.z.c.v.b.n.m.V.Z.Z.A.V.V.m.n.n.m.v.v.v.v.n.m.N.m.V.m.m.n.n.v.v.v.v.b.b.b.c.c.c.c.c.b.c.z.z.z.k.k.k.k.k.k.k.k.k.k.k.l.%.%.%.%.%.%.%.%.@.@.@.@.@.@.@.@.@.@.@.@.%.%.%.k.k.k.k.k.k.k.k.k.k.k.k.k.k.k.k.k.k.z.c.b.b.b.b.c.z.b.n.n.n.b.z.k.k.k.k.z.z.z.c.n.C.V.D.,X<X6X7X9X9X7X7X5X5X5X8X5X6X4X<X<X2X<X4X5X7XwXeXkXkXlXlXlXlXcXxXvXMXMXBXBXNXVXCXDXSXSXDXZXCXZXSXGXHXKXPXLXLXLXLXPXPXPXPXIXIXIXIXIXIXIXPXPXPXPXPXPXPXKXCXvXzXlXhXwX8X3XG.G.S.A.A.A.S.S.S.S.",
"B.B.B.B.B.B.v.v.v.x.-.+.O.[ _ ) ) ( ( ( ( ( ( ) ( ) ) ) ) ) [ O.O.=.x.v.v.v.n.m.n.N.Z.Z.Z.Z.Z.Z.Z.Z.Z.Z.Z.Z.Z.Z.Z.Z.Z.Z.Z.N.n.x.k.k.%.%.%.%.$.$.$.$.$.+.+.+.+.+.+.+.#.=.-.-.-.z.z.v.n.N.Z.Z.Z.N.m.m.m.m.m.m.N.Z.N.Z.S.S.D.D.G.G.G.G.,X,X2X2X2X,X,XG.S.S.S.A.V.m.b.b.c.v.b.v.m.V.Z.Z.Z.A.A.V.V.n.C.m.n.v.v.n.m.m.Z.Z.V.m.m.m.n.n.v.v.v.v.b.b.c.c.z.c.c.b.z.z.z.k.z.z.k.k.k.k.k.k.k.k.l.l.l.l.%.%.%.%.%.%.@.@.@.@.@.@.@.@.@.@.@.@.%.%.%.k.k.k.k.k.z.k.k.k.k.k.k.k.k.k.k.k.k.z.z.z.b.c.c.z.z.b.b.n.n.b.z.z.z.z.c.c.b.b.b.n.V.V.S.F.,X<X6X5X5X5X5X4X5X5X5X5X6X6X6X4X5X6X5X7XwXeXeXkXkXkXkXkXlXcXxXvXMXMXBXBXNXVXVXCXDXSXDXCXZXSXGXGXJXLXLXLXLXLXLXLXPXLXPXPXPXPXPXPXIXIXPXPXPXPXPXPXPXKXDXvXxXzXhXhX9X8X2X,XG.S.S.S.S.D.D.D.",
"v.v.n.B.B.B.B.B.v.v.-.=.O.[ _ [ ] ) ) ( ( ( ( ) ( ) ) ) ) ) ) [ _ +.=.z.x.v.n.n.n.n.B.Z.Z.H.Z.Z.Z.Z.Z.Z.Z.Z.Z.Z.A.A.Z.Z.Z.Z.m.v.x.z.k.z.z.z.z.x.z.z.x.x.-.-.-.-.z.z.z.v.v.v.v.n.n.N.N.N.N.Z.N.m.m.m.m.m.m.m.m.N.Z.Z.A.S.S.S.S.H.D.G.,X,X,X2X2X2X,X,XG.G.S.S.A.V.m.n.b.n.m.V.V.Z.A.A.S.S.S.A.A.V.V.V.m.m.n.m.m.m.Z.Z.m.m.m.m.n.m.v.n.n.v.b.v.c.c.z.z.c.c.z.z.k.k.k.k.k.k.k.k.k.k.k.k.%.%.k.k.%.%.%.%.%.%.@.@.@.@.@.@.@.@.@.@.%.%.%.%.%.k.k.k.k.k.z.k.k.%.k.k.k.k.k.k.k.k.k.k.z.z.z.b.c.z.z.b.n.n.b.b.z.c.b.b.n.n.n.n.m.V.A.S.S.S.F.,X,X<X4X4X4X4X4X4X4X6X6X5X5X5X7X7X7X7XwXeXhXkXkXkXkXkXlXlXcXxXvXMXBXBXNXNXVXCXZXZXCXCXSXGXGXGXHXKXLXLXLXPXPXLXLXLXLXPXPXLXLXPXPXPXPXLXLXPXPXPXPXKXDXvXxXzXjXjXeX9X5X2X,XF.S.S.G.F.D.D.",
"v.v.v.B.B.B.B.B.B.v.-.=.+.O.O.O.[ ] ) ) ( ( ( ( ( ) ) ) ) ( ) ) ] [ #.$.x.n.m.m.n.n.n.N.Z.H.H.Z.Z.A.Z.Z.Z.Z.Z.Z.A.A.H.Z.Z.Z.Z.n.v.x.x.x.x.x.v.v.v.v.B.B.v.v.v.v.v.v.v.m.Z.Z.Z.Z.Z.Z.Z.m.m.m.m.m.v.v.m.m.m.m.m.m.Z.Z.Z.Z.S.S.S.H.S.G.G.,X,X2X2X2X2X,X,XG.G.G.S.A.V.V.C.V.V.Z.S.S.S.S.S.S.S.S.A.A.V.V.V.C.m.m.m.m.V.V.V.V.V.m.m.n.v.v.v.b.b.c.c.c.c.c.c.z.z.z.k.k.k.k.k.k.k.k.k.k.k.k.%.k.k.k.k.%.%.%.%.%.@.@.@.@.@.@.@.@.@.%.%.%.%.%.%.k.k.k.k.k.k.k.k.k.k.k.k.k.k.k.k.k.z.z.z.z.z.b.b.b.c.b.b.n.n.b.b.b.n.C.V.V.V.V.A.S.F.D.S.F.G.F.G.,X,X<X1X3X4X4X4X4X5X5X5X7X5X5X7X7XwXeXhXhXkXkXkXkXkXkXlXcXvXMXBXBXNXNXNXCXCXCXCXCXSXGXSXGXGXHXKXKXLXPXPXLXLXLXLXLXLXLXLXLXPXPXPXLXLXPXPXPXPXKXDXvXxXzXzXjXhXwX7X6X2X,XF.F.G.G.D.D.",
"v.v.v.n.B.B.B.B.v.v.-.=.=.=.+.+.O.[ ) ) ) ( ( ( ) ) ) ) ) ) ) ) [ [ [ @.z.v.N.N.m.m.B.Z.Z.Z.Z.Z.Z.Z.H.H.A.Z.Z.Z.Z.H.A.Z.Z.Z.Z.N.m.v.v.v.v.v.v.v.n.B.Z.Z.N.n.n.n.N.m.N.Z.Z.Z.V.V.Z.Z.Z.m.v.v.v.v.v.v.m.m.m.m.m.m.N.Z.Z.A.A.A.S.S.S.D.G.G.G.,X,X,X2X,X,X,X,XG.G.D.S.A.A.S.S.S.S.D.S.S.D.S.S.S.S.S.A.A.A.Z.Z.V.m.m.m.m.V.V.V.m.m.n.n.n.v.b.b.c.c.c.v.v.c.z.z.z.k.k.k.k.k.k.k.k.k.k.k.k.k.k.k.k.k.%.%.%.%.%.%.@.@.@.@.@.@.@.%.%.%.%.%.%.%.%.k.k.k.k.k.k.k.k.k.k.k.k.k.k.k.z.z.z.b.c.z.b.b.b.c.b.b.b.b.b.b.n.V.V.V.A.A.S.S.F.F.D.F.F.F.F.F.G.,X,X,X1X1X1X4X4X6X5X5X5X5X5X7X7XwXwXhXhXkXkXkXkXkXkXkXcXxXvXBXBXBXNXNXCXCXCXCXCXZXDXAXSXSXGXJXJXKXLXLXLXLXLXLXLXLXPXLXPXLXPXPXLXPXPXIXIXIXKXDXnXxXzXzXzXhXwX7X7X5X<X,X,X,XG.F.F.",
"v.v.v.v.B.B.B.B.v.-.=.=.-.-.=.=.+.+.[ ] _ ) ) ) ) _ [ [ ) _ _ [ [ [ [ @.-.v.m.N.Z.Z.Z.Z.Z.Z.Z.Z.Z.Z.H.H.A.Z.Z.A.Z.H.H.Z.Z.Z.Z.Z.m.m.n.v.v.v.m.m.N.Z.Z.Z.Z.m.N.N.Z.Z.Z.Z.A.V.V.V.V.V.m.n.v.v.b.v.b.v.v.m.m.m.m.V.m.m.V.Z.V.A.Z.S.S.S.G.D.G.G.G.,X,X,X,X,X,X,XG.G.G.S.S.D.G.G.G.G.H.H.H.G.G.D.D.D.S.S.S.A.A.A.V.m.m.n.V.V.V.m.n.v.b.n.v.b.b.c.c.c.v.v.c.z.z.z.k.k.k.k.k.z.k.k.k.k.k.k.k.k.k.k.k.k.%.%.%.%.%.@.@.@.@.@.@.@.%.%.%.%.$.%.%.k.k.k.k.k.k.k.k.k.%.%.%.%.k.k.k.z.z.z.b.b.z.b.b.c.z.z.z.z.b.b.n.m.V.V.A.S.S.S.S.D.S.S.S.D.D.S.S.F.,X,X,X<X<X<X1X<X2X4X6X6X5X7X7X7XwXwXhXhXhXhXhXkXkXkXkXcXxXvXBXBXBXNXNXCXCXCXCXCXCXCXCXAXSXGXJXJXJXKXKXLXLXLXLXLXPXPXPXLXLXPXPXPXPXPXIXIXPXKXDXBXxXxXzXzXjXhXwX9X7X4X<X,X,X,XG.G.",
"x.x.x.v.v.B.B.B.v.-.-.-.x.v.x.-.-.=.=.+.+.+.+.+.+.+.+.+.O.[ [ +.[ +.#.z.z.x.n.Z.N.Z.Z.A.Z.Z.Z.Z.Z.Z.H.H.A.Z.A.H.H.H.Z.H.H.Z.Z.Z.Z.N.m.m.n.m.m.m.m.N.Z.Z.Z.Z.Z.Z.Z.Z.Z.V.V.V.V.m.m.m.m.m.v.v.b.v.v.v.v.n.m.m.m.m.m.m.m.m.m.m.V.Z.Z.Z.S.H.H.H.G.,X,XG.G.G.G.G.G.,XG.G.G.G.G.G.G.G.,XG.G.G.G.H.D.S.S.S.S.S.S.S.S.S.A.V.V.V.V.V.n.n.v.b.b.b.b.c.c.z.z.c.v.c.z.z.k.k.k.k.z.z.z.z.k.k.k.k.k.k.k.k.k.%.%.%.@.@.@.@.@.@.%.@.@.@.%.k.k.k.k.k.k.k.k.k.k.z.z.k.k.k.k.k.k.k.k.k.k.k.z.z.c.b.b.b.b.b.z.z.z.z.b.b.b.n.C.V.V.A.S.S.S.S.S.S.S.S.S.S.F.F.G.,X,X<X,X,X,X,X<X3X6X5X5X7X7XwXwXwXhXhXhXkXkXkXkXkXlXlXxXxXvXBXBXBXNXCXCXCXVXVXVXCXCXZXSXGXKXKXGXGXJXJXJXLXLXLXLXLXLXLXLXPXPXPXPXPXPXPXLXLXFXBXxXxXzXzXkXhXhXwX7X5X4X<X<X<X<X,X",
"x.x.x.x.v.v.B.B.v.v.v.v.v.v.v.v.v.v.z.z.z.z.-.-.z.z.z.-.-.-.-.-.-.z.x.v.v.n.m.Z.Z.A.A.H.Z.Z.Z.Z.Z.Z.A.A.Z.Z.Z.Z.A.Z.Z.Z.A.H.Z.Z.Z.Z.m.m.m.m.m.m.m.m.Z.Z.Z.Z.Z.Z.Z.Z.Z.V.V.m.m.m.n.n.v.v.b.v.v.v.v.b.b.v.n.m.n.n.v.v.v.v.n.m.m.m.V.A.A.S.S.S.D.G.G.G.F.S.S.G.G.,X,X,X,X,X,X,X,XG.,XG.G.G.G.G.D.S.S.S.S.S.S.S.S.S.S.A.A.V.V.V.m.n.v.b.b.v.v.c.z.z.z.z.c.z.z.z.k.k.z.z.z.z.z.k.k.k.k.k.k.k.k.k.%.%.%.%.@.@.@.@.@.@.%.@.O.O.@.%.k.k.k.z.z.k.k.z.z.x.z.z.z.k.k.k.k.k.k.k.z.z.z.z.b.b.b.b.b.b.b.b.b.b.b.b.b.n.m.V.V.A.S.S.S.S.S.S.S.S.S.S.F.F.G.G.,X,X,X,X,X,X,X2X4X6X5X7X7XwXwXwXhXhXhXhXkXkXkXkXlXlXcXxXvXMXMXBXNXCXFXVXNXNXNXVXCXZXSXGXKXJXGXGXJXJXJXKXLXLXLXLXLXLXLXPXPXPXPXLXPXPXLXKXVXnXxXxXzXzXzXhXhXwX9X7X5X4X1X1X<X<X",
"x.x.v.v.v.B.B.N.B.B.v.v.m.B.B.N.N.N.N.m.m.m.m.n.m.m.m.m.m.n.m.m.m.m.Z.Z.Z.Z.Z.A.H.H.Z.Z.Z.Z.Z.Z.N.Z.Z.Z.Z.Z.Z.Z.Z.Z.Z.Z.Z.Z.Z.Z.N.m.m.m.n.v.v.v.v.n.B.Z.Z.Z.Z.Z.Z.Z.Z.V.V.m.v.v.v.v.b.v.v.c.c.c.c.v.b.b.b.b.v.v.b.b.b.b.b.v.n.n.m.V.V.A.S.S.S.G.S.S.S.S.S.S.G.G.,X,X,X,X,X,X,X,XG.G.G.G.G.G.G.D.S.S.S.S.S.S.S.S.S.S.A.A.A.V.V.n.n.n.b.b.c.c.z.z.z.z.z.z.k.k.z.k.k.k.z.z.k.k.k.k.k.k.k.k.k.k.k.%.%.%.%.%.%.@.@.@.%.@.@.@.%.k.z.c.c.c.z.z.c.c.b.b.b.b.b.z.z.z.z.z.z.z.c.c.c.b.b.v.b.b.b.b.b.b.b.b.b.b.n.n.C.V.V.A.A.S.S.S.S.A.A.A.S.S.S.S.F.,X,X,X,X,X,X,X<X2X4X6X5X7X7X9XwXwXwXeXhXhXkXkXkXkXlXlXcXxXvXMXMXBXNXCXCXNXNXNXNXNXCXDXSXGXGXGXGXGXJXJXJXJXKXLXLXPXPXPXPXPXPXPXLXLXLXLXLXKXNXnXxXxXzXzXzXjXhXhXwX7X7X5X4X4X4X4X",
"v.v.v.v.v.B.N.N.N.N.N.m.m.N.Z.Z.Z.Z.Z.S.A.A.A.A.H.S.S.S.Z.Z.Z.S.S.H.H.H.H.H.A.A.H.Z.Z.Z.N.B.B.B.n.m.B.B.m.m.m.m.m.m.m.m.N.N.m.m.n.v.v.v.v.v.x.x.x.v.v.n.m.m.Z.Z.N.N.V.V.m.m.v.v.b.b.v.z.z.z.z.z.c.c.v.b.b.b.b.b.c.v.v.v.b.b.b.b.n.n.V.Z.A.A.S.S.A.A.A.A.Z.A.A.S.D.G.G.G.,XG.G.G.G.G.G.G.G.G.D.S.A.S.A.S.S.S.S.S.S.S.S.S.A.V.V.n.n.n.b.b.v.c.c.z.z.z.k.k.k.k.k.k.k.k.z.z.z.k.z.z.z.z.z.z.z.k.k.k.k.k.$.$.%.%.%.%.%.%.k.k.z.z.c.v.v.v.v.b.b.b.b.v.v.b.v.b.b.x.b.b.b.b.v.v.v.v.v.v.n.b.b.b.n.n.b.b.b.n.n.C.V.V.V.V.A.A.A.A.A.V.V.V.A.A.S.S.F.,X,X,X,X,X<X<X2X4X6X6X4X5X7X7X7X9X9XwXwXeXeXeXkXkXlXlXlXcXvXvXMXBXNXFXFXNXBXBXNXNXVXDXSXSXSXSXSXGXGXJXJXJXKXLXPXPXPXPXPXPXLXPXLXKXLXLXLXSXBXnXxXxXzXzXjXhXhXhXwXwX7X7X5X5X6X6X",
"v.v.v.v.v.B.N.N.N.N.N.N.N.N.Z.H.H.H.H.G.F.F.G.F.G.G.G.G.G.G.G.G.,X,X,XG.I.G.H.H.Z.Z.N.n.n.v.v.x.x.v.v.v.v.v.v.v.v.v.v.v.v.v.v.v.x.x.x.x.x.x.z.z.x.x.x.x.v.v.m.m.m.m.m.m.m.n.v.b.b.v.c.z.k.k.k.k.z.z.c.c.c.c.c.z.z.z.z.c.c.v.v.v.v.b.n.m.V.V.A.A.A.A.V.V.V.V.A.A.S.S.G.G.G.G.G.G.D.S.S.S.D.G.D.S.S.A.A.A.S.S.S.D.S.S.S.S.S.A.V.m.n.b.b.b.b.b.v.c.z.z.k.k.$.$.$.$.$.k.k.z.z.z.z.b.n.n.b.b.b.x.z.z.c.z.z.k.k.k.z.z.c.v.v.v.c.z.z.z.v.b.v.b.b.b.n.n.v.n.v.v.b.b.b.v.n.n.n.n.n.n.n.n.n.n.n.n.m.V.n.n.n.n.V.V.A.A.A.V.V.A.A.A.V.V.V.V.A.A.S.S.G.,X,X<X<X<X2X4X4X6X6X5X5X5X0X0X5X5X7X7X9X9X9X9XeXkXkXkXlXlXcXvXvXBXBXNXNXBXBXBXBXNXNXCXCXCXCXCXZXDXSXGXHXJXKXLXPXPXPXPXPXPXLXLXLXKXPXPXJXCXBXvXxXxXkXzXjXhXhXhXwXwXwX7X7X7X5X5X",
"v.B.B.B.B.B.N.N.Z.Z.Z.Z.N.Z.H.H.H.H.G.G.G.G.,X,X,X,X,X,X,X,X,X,X,X,X,X2X2XI.F.H.Z.N.n.v.v.x.z.z.-.z.z.z.z.z.z.z.z.z.z.z.z.z.x.z.z.z.z.z.z.z.z.z.z.z.z.z.z.z.v.v.n.m.m.m.n.b.b.b.c.c.z.k.k.k.k.k.z.z.z.z.z.z.z.k.k.k.k.k.z.z.z.z.z.z.v.b.v.n.C.V.n.n.n.n.n.C.V.A.S.S.D.H.H.D.S.S.S.S.A.S.S.D.D.S.S.S.A.A.S.S.D.F.D.D.S.S.S.A.V.V.n.n.b.b.b.b.b.c.z.z.k.%.%.%.%.$.$.k.k.z.z.z.b.b.n.n.n.v.v.v.v.v.b.b.b.b.v.b.m.V.A.Z.V.n.b.c.c.c.b.b.b.n.n.n.n.m.n.n.n.v.b.b.v.n.n.n.m.n.n.m.m.V.n.C.V.V.A.A.A.A.V.V.A.S.S.S.A.A.V.V.V.V.V.V.V.V.V.V.S.S.G.,X,X<X2X3X6X6X6X4X5X5X5X5X5X5X6X6X6X5X5X5X7X0X9XeXeXkXkXkXkXlXxXvXMXBXMXBXBXBXNXNXNXNXNXNXVXCXCXCXDXSXGXGXJXLXLXLXLXPXPXLXLXPXLXLXIXPXSXNXnXvXxXzXkXkXjXhXhXhXwXwXwX9X7X7X5X5X",
"x.v.v.v.v.B.B.N.N.N.N.N.N.Z.Z.Z.H.S.H.F.F.F.G.I.G.2X,X,X,XG.G.,X,X,X,X,X2X2XF.S.Z.m.v.v.z.z.-.=.#.=.=.=.=.=.=.=.=.=.=.=.=.=.=.=.=.=.#.#.#.#.#.#.#.#.#.$.#.-.-.z.v.v.v.v.b.v.v.c.z.z.-.-.-.-.$.$.-.-.-.-.-.-.$.$.$.$.$.$.$.$.$.$.-.-.z.z.c.v.v.v.v.v.v.v.v.n.m.Z.Z.S.S.S.S.S.S.S.S.A.A.S.S.G.G.D.S.S.S.A.S.S.S.S.D.S.S.S.S.A.V.V.m.n.b.b.n.n.b.c.z.z.k.%.%.%.$.$.$.k.k.z.z.z.z.b.b.n.n.n.v.v.v.v.v.m.V.V.Z.S.D.G.,XG.D.S.A.V.V.V.V.V.V.V.V.V.C.C.n.n.n.n.v.v.v.v.b.n.n.C.V.V.V.V.V.A.S.S.S.S.S.S.S.S.S.S.S.S.A.A.V.V.V.V.V.C.m.C.V.V.V.S.S.G.,X,X,X2X2X6X6X6X6X5X6X6X6X2X2X2X2X2X2X2X6X6X5X0XwXeXeXeXeXkXkXlXcXxXvXMXBXBXBXBXNXNXNXNXNXNXNXNXCXCXDXSXGXLXPXLXLXPXPXLXLXPXKXLXPXKXDXBXvXxXzXzXkXjXhXhXwXwXwXwX9X7X7X7X5X6X",
"-.-.x.x.x.v.v.B.B.n.m.m.B.B.B.B.N.Z.Z.Z.Z.A.H.H.G.G.G.G.G.G.G.G.,X,X,X,X2XI.H.Z.m.n.v.z.-.-.=.=.+.+.+.#.+.+.+.+.+.+.+.+.+.+.+.+.+.+.+.+.+.+.+.+.+.+.+.+.+.#.#.$.-.-.c.c.c.c.c.c.-.-.-.-.=.-.-.-.-.-.-.=.$.$.#.#.#.#.+.+.+.%.#.#.$.#.#.$.-.z.z.z.v.v.v.v.v.v.m.m.m.V.Z.A.A.A.S.S.S.A.A.S.S.G.G.G.S.S.S.A.A.S.S.S.S.S.S.A.A.V.V.m.V.n.b.b.n.b.v.c.z.k.$.%.%.%.$.$.$.k.k.k.k.k.z.b.c.b.b.v.v.n.m.Z.m.Z.S.D.G.,X,X2X,X,X,X,X,X,XG.G.D.S.S.A.A.V.V.C.n.n.b.b.b.v.v.b.b.b.n.n.C.V.V.A.A.S.D.G.G.G.G.G.G.G.G.S.S.S.A.A.V.V.V.V.m.n.n.n.m.C.V.V.S.S.F.G.G.G.,X2X2X2X2X6X6X2X2X,X,XG.G.G.G.,X2X2X6X5X7X9X9X9XwXeXeXeXkXlXcXxXvXxXxXMXBXBXNXNXNXNXBXBXNXVXCXZXGXLXIXPXLXLXPXPXPXLXKXKXLXJXFXvXxXzXkXkXhXhXhXwX9XwX7X7X7X8X7X5X6X2X",
"=.-.-.-.x.x.x.v.v.v.v.v.v.v.v.v.n.n.m.N.N.Z.Z.Z.Z.H.H.G.H.S.S.H.S.S.G.G.G.S.S.V.v.v.z.z.-.=.=.+.+.+.+.+.+.+.O.O.[ [ [ +.+.+.+.O.+.+.+.+.O.O.O.+.+.+.+.O.O.+.+.+.$.-.z.z.c.c.c.z.-.-.$.$.$.$.$.=.#.#.#.#.#.#.#.+.+.+.+.+.+.+.+.+.+.+.+.+.#.$.-.-.z.z.z.x.x.x.v.v.m.m.m.V.V.V.Z.Z.Z.V.Z.A.S.G.G.G.G.S.A.A.Z.Z.Z.Z.S.S.A.V.V.V.C.C.V.n.b.b.b.b.b.b.x.z.k.$.$.%.%.%.$.$.$.$.k.k.k.z.z.v.v.n.m.m.V.Z.Z.S.S.F.G.,X,X,X<X<X<X<X,X,X,X,X,X,XD.S.S.A.A.Z.V.V.n.b.b.b.b.b.n.n.m.C.V.V.V.S.A.S.S.D.D.D.G.G.G.G.G.F.S.S.S.S.V.V.V.m.n.n.n.n.m.C.V.V.A.A.S.S.S.S.G.G.G.,X,X2X,X,X,XG.G.G.G.G.G.G.G.G.,X2X6X6X5X0X9XwXeXeXeXkXkXlXcXcXcXcXxXxXMXMXBXBXBXBXBXBXNXCXGXLXPXPXLXLXPXPXLXKXJXLXKXCXvXxXlXkXkXhXwXwX9X7X8X8X5X5X5X5X6X6X2X,X",
"=.=.-.-.-.-.z.x.z.z.z.z.z.v.v.v.x.v.v.v.n.B.B.B.N.Z.Z.Z.Z.Z.Z.A.A.Z.A.A.A.Z.m.v.v.x.z.-.=.=.+.+.O.O.[ [ [ [ [ [ ) ] [ [ [ [ [ [ [ [ [ [ [ [ [ [ ] ] ] ] ] ] O.O.#.#.$.-.-.-.-.-.-.-.=.$.$.#.#.#.+.+.+.+.+.+.+.+.+.+.O.O.O.O.O.O.+.O.+.+.+.+.#.$.-.-.-.z.z.z.x.v.v.v.m.m.m.m.m.V.V.V.A.S.S.G.G.G.S.S.A.A.A.A.V.Z.A.A.A.V.V.V.C.C.V.n.b.n.n.b.b.b.b.z.k.$.$.%.%.%.$.$.$.$.%.$.k.k.z.c.b.v.n.m.V.Z.A.S.S.F.G.,X,X,X,X,X,X,X,X,X,X,X,X,XG.D.S.S.Z.A.A.A.V.m.n.n.n.n.C.C.V.V.V.A.V.S.A.A.S.S.S.S.S.D.F.F.F.D.S.S.S.S.S.A.V.C.m.n.n.n.C.V.V.V.V.V.A.A.A.A.S.S.S.G.G.,XG.,XG.G.G.G.G.G.D.D.G.G.G.,X2X6X6X6X0X9XwXeXeXeXeXkXkXkXlXlXlXcXxXvXMXMXMXMXMXBXNXCXSXKXLXLXKXKXLXLXKXJXKXLXSXNXxXcXkXhXhXwX9X9X7X5X4X4X4X4X2X2X<X,X,XG.",
"+.=.=.=.=.=.=.-.-.-.-.-.-.-.-.-.-.-.x.x.x.v.v.v.v.n.B.n.m.N.m.m.m.m.m.m.m.v.v.x.z.-.$.#.+.+.O.O.[ ] ] _ [ _ _ ) ) ) ) ) ) ) ) ) ) ) ) ) ) ) ) ) ) ) ) ) ) ) ] O.+.+.+.#.#.#.=.-.-.-.=.$.#.#.+.+.+.+.+.+.+.+.O.O.O.O.] ] ] _ _ ] ] ] ] ] O.+.+.#.#.#.$.-.z.z.z.z.v.v.b.v.b.v.v.n.V.V.V.A.S.D.D.D.S.A.V.A.A.A.A.A.V.A.A.V.V.V.V.V.V.m.n.m.m.n.n.n.n.b.z.k.k.$.%.$.$.$.$.$.$.$.k.k.z.z.v.b.v.n.m.Z.Z.A.S.D.G.G.,X,XG.G.G.,X,X,X,X,X,X,X,X,XG.G.D.S.S.S.S.A.V.V.V.V.V.V.A.A.A.A.A.S.V.V.V.V.V.A.A.S.S.S.S.S.S.S.S.S.S.S.A.V.C.C.C.V.V.V.V.V.V.V.V.V.V.V.V.V.A.S.D.G.G.G.G.G.G.G.G.G.D.D.G.G.G.,X2X2X2X6X6X0X9X9X9X9X9XeXeXkXkXkXkXlXcXxXvXvXvXvXMXMXNXCXDXGXKXKXJXKXKXJXJXKXKXHXFXxXlXkXkXhXwX7X7X5X5X4X2X2X2X<X,X,X,XG.D.S.",
"+.+.+.+.+.#.=.=.=.=.=.=.-.-.-.-.-.-.-.-.x.x.x.x.x.x.x.v.v.v.v.v.v.v.v.v.v.z.z.-.-.$.#.+.+.O.[ [ [ _ ) ) ) ) ) ) ) ) ) ) ) ) ) ) ) ) ) ) ) ) ) ) ) ) ) ) ) ] ] ] _ ] O.+.+.+.#.=.=.=.=.#.#.+.+.+.+.+.+.+.+.O.O.O.O.O.] ] _ _ _ ) ] ] ] ] ] O.+.+.%.#.$.l.l.z.z.z.z.x.c.v.v.b.b.v.n.n.m.V.A.S.S.S.A.A.V.A.A.A.A.A.A.A.A.V.V.V.V.V.V.V.V.V.V.V.m.n.n.b.b.z.z.k.k.k.k.k.k.k.k.k.k.z.z.z.c.v.b.v.m.V.V.V.Z.S.S.F.G.G.F.F.G.G.,X,X,X,X,X,X<X,X,XG.G.G.G.G.G.H.S.A.A.A.A.A.V.A.A.A.A.V.V.V.V.V.V.V.V.A.A.A.A.A.S.S.S.S.A.S.A.V.V.V.V.A.A.S.S.S.S.S.A.A.V.V.V.V.A.S.S.D.G.G.G.G.G.G.G.G.H.G.G.G.,X,X,X2X2X2X2X6X5X5X5X0X0X9XwXeXkXkXkXkXcXxXvXvXvXvXMXBXFXCXDXSXGXJXGXJXKXGXGXKXHXCXBXlXkXhXeXwX7X5X5X6X6X2X2X2X<X,X,X,XG.D.S.S.",
"+.+.+.+.+.+.+.+.=.=.=.=.=.=.=.=.=.-.-.-.-.-.-.-.-.-.-.-.-.z.-.-.-.-.-.-.-.=.=.=.#.+.+.O.O.[ ] ) ) ) ) ) ) ) ( ( ( ( ( ( Q / / ( ~ ~ ~ ~ ( ( ( ~ ~ ( ~ ~ ~ ~ ~ ( ) ) _ [ [ O.+.+.+.+.+.+.+.+.+.+.+.+.+.+.+.O.O.O.O.O.O.] ] ] _ _ ] ] ] ] ] O.O.+.+.+.#.$.$.$.$.$.$.z.z.z.z.z.v.v.b.b.n.V.V.A.A.A.V.V.V.V.A.V.V.A.A.A.A.V.A.V.V.V.V.A.A.A.A.V.V.n.n.n.b.b.v.z.z.z.z.z.z.k.z.z.z.c.c.c.c.v.v.b.n.m.m.m.V.A.S.D.G.G.G.G.G.G.,X,X,X,X,X,X<X<X,X,X,X,XG.G.,XG.G.S.A.A.V.V.V.V.V.V.V.V.V.V.V.V.V.V.V.V.C.C.V.V.V.V.V.V.V.A.A.A.V.V.A.A.S.S.D.F.F.D.S.S.S.S.A.S.S.D.G.G.G.G.G.,X,X,X,X,XG.,X,X,X,X,X2X2X2X2X2X2X2X6X6X6X5X0X0X9XeXeXeXkXkXcXxXvXvXvXBXBXFXCXDXDXSXSXSXSXGXSXSXSXCXBXcXkXhXwX9X7X5X6X6X6X2X2X2X<X,X,XF.D.S.S.A.V.",
"+.+.[ O.O.+.+.+.+.+.+.+.+.+.+.+.+.=.=.=.=.=.=.=.=.=.=.=.=.=.=.=.=.=.=.=.=.#.#.+.+.+.[ ] ] ] ) ) ( ( ( ( ( ( Q Q Q Q Q Q Q Q Q Q Q Q Q Q Q Q Q Q Q Q ~ ~ Q Q Q ~ ( ( ) ) _ ] [ [ [ O.+.+.+.+.+.+.+.+.+.+.+.+.O.O.O.O.O.O.[ [ [ [ ] ] _ _ _ ] ] O.] +.+.@.@.@.%.%.$.$.$.$.$.k.z.z.c.v.b.v.n.m.V.V.m.m.m.V.V.V.V.V.A.V.A.A.A.A.V.V.V.A.A.A.A.V.m.n.n.b.b.b.b.x.x.x.z.z.z.z.z.z.v.b.b.b.b.b.b.b.n.n.n.m.V.S.S.G.G.,X,X,XG.G.G.,X,X,X,X,X<X<X<X,X,X,X,X,XG.,XG.S.A.V.V.C.V.V.V.V.V.V.V.V.V.V.V.V.n.n.v.v.n.m.m.m.m.m.V.Z.A.V.V.V.V.A.S.S.F.G.,X,XG.G.G.G.G.G.G.,X,X,X,X,X<X2X2X2X2X2X,X,X2X2X<X2X2X2X6X2X2X2X2X2X2X2X6X5X5X0X0X9XwXeXkXlXcXxXxXvXMXBXNXFXFXCXCXCXDXAXDXDXDXVXBXcXkXeXwX9X7X5X6X2X2X2X2X2X2X2X,XG.D.A.A.A.V.V.",
"+.[ [ [ O.[ [ [ O.O.O.O.O.O.O.O.+.+.+.+.+.+.+.+.+.+.+.+.+.+.+.+.+.+.+.+.+.+.+.+.+.[ ] _ ) ) ) ( ( ( / Q Q Q Q Q Q Q Q Q Q Q Q Q Q Q Q Q / / / Q Q Q Q Q Q Q Q Q Q ~ ( ( ) ) [ ] _ ] ] [ [ [ [ O.O.O.O.O.O.O.O.O.[ O.O.O.[ [ [ [ ] ] _ _ _ _ ] ] ] ] O.O.O.O.O.+.+.+.%.%.#.$.$.-.$.k.z.z.v.v.b.v.v.b.b.v.v.v.m.V.V.V.V.V.A.A.A.A.A.A.S.A.V.V.V.n.n.n.v.v.b.v.v.v.v.v.c.c.c.v.b.b.n.b.b.b.b.n.n.n.v.m.Z.S.G.G.G.G.,X,X,XG.G.G.,X,X,X,X,X<X<X<X,X,X,X,X,X,XG.G.S.A.V.V.m.V.V.V.V.V.V.V.C.V.V.C.n.n.b.b.v.v.v.m.m.m.m.V.V.V.V.V.V.A.S.S.G.,X,X,X,X,X,X<X2X4X6X6X6X6X5X5X5X5X5X5X5X5X6X6X6X6X4X4X6X6X5X6X6X6X2X2X2X2X6X6X5X5X0X9XwXeXkXkXlXlXcXxXxXvXBXNXNXNXFXFXCXFXNXNXBXxXkXeXwX9X9X7X5X6X6X2X2X2X2X2X2X<X,X,XD.S.V.V.V.m.",
"+.[ [ [ O.[ [ [ O.O.O.O.O.O.O.O.O.O.O.O.O.O.O.O.O.O.O.O.O.O.O.O.O.O.+.O.O.[ [ [ [ [ _ ) ) ) ( ( ( ( / Q Q Q Q Q Q Q Q / / Q Q Q Q Q Q / / / / / Q Q Q Q Q Q Q Q Q Q ~ ( ~ ~ ) ) ) ) _ ] _ ] [ [ ] ] O.O.O.O.O.O.[ [ [ O.[ [ [ [ ] ] ] _ _ _ ] ] _ O.] ] ] { O.O.O.+.+.+.+.+.#.$.$.%.$.$.$.z.z.c.c.c.v.v.b.b.v.m.V.V.V.A.A.A.A.S.A.S.S.A.A.A.V.m.m.n.n.v.v.v.v.v.b.b.b.b.v.v.b.b.n.n.b.b.n.n.n.n.v.m.S.G.,X,XG.G.G.,XG.G.G.G.G.,X,X,X,X<X2X2X2X2X,X,X,X,X,X,XD.A.V.V.V.V.V.V.V.V.V.V.C.m.n.n.n.b.b.b.b.v.v.v.n.n.n.n.V.V.V.V.V.A.S.D.G.,X2X2X2X2X2X4X5X7X7X7X7X7X9X7X9X9X7X7X7X7X5X5X5X5X5X5X5X5X7X5X5X5X6X6X6X6X6X5X5X7X9X9XwXeXeXkXkXlXcXxXxXvXBXBXBXBXBXBXBXBXMXvXlXhXwXwXwXwX7X7X5X6X2X,X,X,X,X2X2X,X,XG.S.S.V.V.n.n.",
"+.+.+.O.O.] _ ] _ _ _ ) ) O.O.) ) _ _ _ ] ] ] ] [ [ [ [ [ [ [ [ _ _ [ [ [ ] _ _ _ ) ) ) ( ~ ~ ~ Q Q Q Q Q Q Q Q Q Q Q Q Q Q Q Q Q Q Q Q Q Q Q Q Q Q Q Q Q Q Q Q T Q Q Q ( ( ( ) ( ) ) ) ) ) ) ) _ ] [ O.O.O.O.[ [ [ [ ] ] ] ] ] ] ] _ _ ] ] ] ) ] ] _ ) ] ] ] ] ] O.+.+.+.+.+.#.+.#.$.$.$.$.$.-.$.-.z.c.v.b.b.n.v.m.m.V.A.S.S.S.S.S.S.S.A.V.V.C.n.m.m.m.m.n.n.n.v.v.v.b.v.b.b.b.m.v.v.n.v.v.m.Z.V.A.S.G.,X,X,X,X,X,X,XG.G.G.G.,X,X,X2X2X2X<X<X<X,X,XG.,X,XG.H.H.Z.A.Z.Z.Z.Z.Z.A.Z.Z.m.m.m.n.v.v.v.b.b.b.v.v.v.b.b.v.v.n.n.m.V.V.A.S.G.,X<X4X4X4X5X7X7X9X9X7X7X9XwXwXwXwXwXwXwX9X7X7X7X7X7X7X7X7X7X7X7X0X5X5X5X5X5X5X5X7X7X9XwXwXeXeXhXkXlXcXxXxXvXnXBXMXvXvXxXcXlXkXeX9X7X7X9XwX9X7X5X6X2X2X,X,X,X,X,XG.G.G.S.S.V.m.b.v.",
"+.+.+.O.O.[ [ _ ) ) ) ) ) ) ) ) ( ( ( ) ) ) ) ) ( ( ( ( ( ) ) ) ( ) ) ) ) ) ) ) ) ) ) ( ( ( ~ Q Q Q Q Q Q Q Q Q Q Q Q Q Q Q Q Q Q Q T Q Q Q Q d Q Q Q d t t t Q T T Q Q Q Q Q ~ ( ( ( ~ ( ( ) ) ) ) ) _ ] _ _ _ _ _ ] ] _ _ _ _ ] _ _ _ _ ] ] ] O.] ] ] _ ] ] ] ] ] O.O.+.+.+.+.+.+.#.%.%.%.$.$.$.$.$.z.c.v.b.v.n.m.m.V.A.A.S.S.S.S.S.S.S.A.V.V.m.m.m.m.m.m.v.v.m.v.v.v.v.v.m.n.n.n.n.m.n.n.n.m.V.A.S.G.G.,X,X,X,X,X,X,XG.,X,X,X,X2X2X2X2X<X<X,X,X,XG.,XG.G.G.F.S.S.A.A.A.V.V.V.Z.V.m.m.n.n.v.b.b.b.b.b.b.b.b.b.v.b.b.b.b.n.m.V.A.S.G.,X2X4X6X5X7X7XwXwX9X7X7X9XwXwXeXwXwXwXwXwX9X9X9X9X9X9X9X9X7X9X9X7X7X7X7X7X7X7X7X9X9XwXwXwXeXeXhXkXlXlXcXxXvXvXxXcXcXlXkXeXeXeX9X9X7X7X9X9X7X7X5X6X2X2X2X,X,X,X,XG.G.S.S.A.V.n.b.v.",
"+.O.O.O.[ _ _ _ ( ( ( ~ ~ ~ ~ ~ ~ ~ ( ( ( ( ( ( ( ( ( ( ( ( ( ( ( ( ( ( ) ) ( ( ( ( ( ( ( Q Q Q Q Q Q Q Q Q Q Q T T Q Q Q Q Q Q Q Q T t t d d d Q t t t t t t t t t t Q Q Q Q Q / Q Q Q ~ ~ ~ ~ ( ( ( ) ) ) ( ( ) ) ) ) ) ) ) ) _ ] ) _ ] ] ] ] ] ] _ _ _ _ ] ] ] ] O.O.O.+.+.+.+.+.#.%.%.%.%.$.%.$.$.k.z.c.b.b.n.m.m.V.V.A.A.S.S.S.S.S.S.S.A.V.V.V.V.V.m.m.m.n.n.b.b.b.v.n.v.n.n.v.n.m.n.n.m.V.S.S.G.G.F.G.G.,X,X,X,X,X,X,X,X,X,X<X2X2X<X,X,X,X,X,XG.G.G.G.G.G.G.H.S.S.S.A.V.V.V.V.m.n.m.v.v.b.b.b.b.v.b.b.v.v.v.v.v.b.b.b.n.C.V.A.D.,X<X4X5X5X7X9XwXwXwX9X7X9XwXeXeXeXwXwXwXwXwXwXwXwXwXwXwXwX7XwXwXwXwXwXwXwXwXwXwXwXwXwXwXwXeXeXhXhXkXkXlXlXzXlXkXkXhXeXeXwX9X9X0X7X7X7X7X7X5X5X5X6X6X2X2X,X,X,X,XG.D.S.S.A.V.n.b.b.",
"O.O.O.[ [ _ ) ) ( ( ( ( Q Q Q ~ ~ ( ( / / / ( ( ( ( ( ( ( ( ( ( / ( ( ( ( ) ( ) ( ( ( ( ~ Q ~ Q Q Q Q Q Q Q Q Q T T Q Q Q Q Q Q Q Q T T d d d d Q t t t t t t t t t t t Q Q Q Q / Q Q Q ! ! ! ~ ( ( ~ ~ ~ ~ ~ ~ ( ( ( ( ( ) ) ) ] ] _ _ ) ] ] ] ] ] _ _ _ _ _ ] ] ] O.O.O.+.+.+.+.#.$.$.$.%.$.$.$.$.$.k.z.v.b.v.m.m.m.V.V.A.A.S.S.S.S.S.S.S.A.V.V.V.V.V.V.m.m.m.m.b.b.b.v.v.v.n.n.n.n.n.m.V.S.D.,X,X,XG.D.S.F.G.G.G.G.,XG.G.G.,X,X,X,X,X,X,X,X,X,X,XG.G.G.,X,X,X,XG.G.G.G.S.A.A.V.V.V.m.m.m.n.v.b.v.v.v.v.b.b.b.c.v.v.c.c.b.n.m.V.A.S.G.,X2X6X5X7X9XwXwXwX9X9X9XwXeXhXeXeXwXwXwX9XwXwXwXwXwXwXwXwXwXwXwXwXwXwXwXwXwXwXwXeXeXeXeXeXeXhXhXhXhXkXkXhXhXhXhXhXhXwXwXwX9X7X0X0X7X7X7X5X5X6X6X6X2X2X,X,X,XG.G.S.S.S.A.V.V.n.v.",
"O.O.O.O.[ _ ) ( ( ( ( / / Q Q Q Q / ( / / / / / / / / / / / / / / / ( ( ~ ~ ( ( ( ( ( ( ( ( ( ~ Q Q / / Q Q Q Q Q Q Q Q Q Q Q Q / Q Q Q Q Q Q T Q Q t t t t t t t t t t d Q Q / Q Q Q Q Q ! ! ! Q Q ~ ~ ~ ~ ~ ~ ~ ~ ~ ( ( ( ) ) ) _ _ _ _ _ _ ] ] ] ] _ _ ] ] ] O.O.O.O.O.+.+.+.+.+.$.$.$.$.$.$.$.$.z.k.c.v.v.m.m.V.V.A.S.S.S.S.S.S.S.S.S.S.A.A.V.V.V.V.V.V.V.V.V.m.m.m.v.v.v.m.V.V.V.V.A.G.,X2X6X6X2XG.S.S.S.F.S.D.F.G.F.F.G.G.G.G.G.G.G.G.G.G.,X,X,X,X,X,X,X2X,X,X,X,X,X,XG.S.A.A.V.V.m.m.m.n.n.n.n.n.n.v.b.b.v.v.v.c.c.b.b.n.m.V.S.D.G.,X2X6X7X7XwXwXwXwXwXwXeXeXhXeXeXeXwXwXwXwXwXwXwXwXwXwXwXwXwXwXwXwXwXwXwXeXeXhXhXhXeXeXeXeXhXhXhXhXhXhXhXhXhXhXhXwXwX9X9X9X0X5X5X7X7X7X7X5X6X6X2X2X2X2X,X,XG.G.D.S.S.A.V.V.C.m.",
"[ _ _ _ _ ) ( ( ( ( / / / / Q Q Q Q Q / E E / / / / / / / / / / / Q Q ~ ~ ~ ( ( ( ( ( ( ( ( / / Q Q ( / / Q Q Q Q Q Q Q Q Q Q Q Q Q Q Q Q Q Q T Q T T T T T T Q t t t t t / / / / Q Q Q Q Q Q Q Q Q Q Q ~ Q Q Q Q Q ~ ~ ( ( ( ) ) ) ] ] _ _ _ ] ] ] ] ] ] ] O.O.O.O.O.O.O.+.+.+.+.#.$.$.$.$.-.z.c.c.z.z.v.v.m.m.V.Z.A.S.S.D.D.D.S.S.S.S.S.S.S.A.V.V.V.A.A.S.V.V.S.A.V.V.n.n.n.V.A.S.H.,X,X2X6X5X7X5X2XG.S.A.A.S.S.S.S.S.S.S.S.S.D.G.G.D.D.G.G.G.,X,X,X,X,X,X,X2X,X,X2X2X2X6X2X,XD.S.A.A.V.V.V.m.V.m.m.n.n.n.n.n.b.b.b.b.c.b.b.n.m.V.A.S.D.,X<X2X5X7X7X9XwXwXwXwXwXeXeXhXeXeXwXwXwXwXwXwXwXwXwXwXwXwXwXwXwXwXeXhXeXeXeXeXeXeXwXwXwXeXhXeXeXeXhXeXhXhXhXhXwXwXwXwX9X7X7X0X7X7X5X5X7X5X5X6X6X2X2X2X,X,XG.G.D.D.S.S.A.V.V.m.",
"_ _ _ _ ) ( ( ( ( ( / / / / / / Q Q Q T T T T T / / E E p p p p p / Q Q Q Q Q / Q ( ( ( ( ( Q Q Q Q ( / / Q Q Q Q Q Q Q Q Q Q Q Q Q Q Q Q Q Q Q Q Q T T T T Q Q Q Q T Q t / / / / Q Q Q Q Q Q Q Q Q Q Q Q Q Q Q Q Q Q ~ ( ( ( ( ) ) ) ) ) ] _ ] ] O.O.O.O.+.+.+.+.+.+.+.+.+.+.#.#.#.$.$.$.-.-.c.v.c.v.v.b.n.m.m.Z.Z.A.S.S.S.D.D.S.S.S.S.D.D.S.S.S.S.S.S.S.S.S.S.S.S.A.V.C.n.V.S.G.,X6X6X5X5X5X5X5X5X2X,XS.A.V.V.V.A.A.A.A.A.A.S.S.S.S.S.S.S.D.G.G.G.G.,XG.G.G.G.,X,X,X2X6X6X6X6X,X,XD.S.S.S.A.Z.V.V.m.m.C.C.m.n.v.b.b.b.b.b.b.n.m.V.A.S.S.G.,X2X6X5X7X7X7X9X9XwXwXwXwXwXwXwXwXwXwXwXwX9X7X7X9XwXwXwXwXwXwXwXeXhXeXeXwXwXwXwXeXeXwXhXhXhXeXeXeXeXhXhXhXhXwXwXwXwX9X9X7X7X7X7X5X5X7X5X5X5X6X6X2X2X,X,XG.G.D.D.S.A.A.V.V.m.",
"( ( ( ( ( ( / / / / / / / E / / Q Q t t t t t t T T t t t p p p t / Q Q Q Q Q Q Q Q Q ( Q Q Q Q Q ~ / / / Q Q T Q Q Q Q Q Q Q Q Q Q Q Q ( Q Q Q Q Q Q T T T Q Q Q Q Q Q / / / E T Q Q Q Q d / / Q Q Q Q Q Q Q Q Q Q Q ~ ~ ( ( ( ~ ( ) ) ) _ ] ] ] O.+.+.+.+.+.#.#.+.+.+.#.#.$.$.=.=.=.=.=.-.-.c.b.b.v.b.v.m.m.V.Z.Z.Z.A.S.S.S.S.S.S.S.F.G.G.F.F.G.D.S.S.D.D.D.S.A.S.S.S.V.V.S.G.2X6X5X7X7X7X5X5X5X6X2X,XS.A.V.V.V.V.V.V.V.V.A.A.A.A.A.A.A.A.S.S.F.G.G.G.G.H.G.G.G.,X,X,X2X5X5X6X6X2X,XG.D.S.S.S.A.V.V.V.V.V.V.m.v.n.v.n.b.b.b.n.m.V.A.S.S.G.,X2X6X6X5X7X7X7X7X7X7X9XwXwXwXwX9X7X9X9X7X7X7X7X7X7X9XwXwXwXwXwXeXeXeXeXeXwXeXhXhXhXhXhXhXhXeXeXeXwXeXeXeXhXhXeXwX9X9X9X7X7X7X5X5X5X7X5X5X5X5X6X2X2X,X,XG.G.D.D.S.A.A.V.V.m.",
"/ ( ( ( ( / / / / / / Q Q Q Q Q Q Q T t t t t T T Q / Q p p p t Q Q Q Q Q Q Q Q / / / Q Q Q Q Q Q Q Q Q Q Q Q Q T T Q Q Q Q Q Q Q Q Q Q ( ( ~ Q Q Q Q Q Q Q / / Q / / / Q Q / / Q Q Q Q Q Q Q Q Q Q Q Q Q Q Q Q Q Q ~ ~ ~ ~ ~ ~ ~ ~ ) ) ) ) _ [ [ [ O.+.+.+.+.#.#.+.+.+.#.#.#.#.-.=.=.=.=.=.-.z.c.b.v.v.v.n.V.V.V.V.V.A.A.S.S.D.G.G.G.G.G.G.,X,XG.G.G.G.G.G.G.D.S.D.F.S.S.D.,X<X6X5X5X5X5X5X6X4X2X2X,XG.D.S.V.C.V.V.V.m.m.m.m.m.m.m.V.V.V.A.A.S.H.H.H.H.H.H.H.H.G.G.G.<X4X5X5X5X6X4X<X,X,XG.G.G.S.A.V.V.A.A.A.A.V.V.n.n.n.n.n.n.V.V.V.A.S.D.,X,X2X4X5X5X5X5X7X7X7X7X7X7X7X7X7X7X7X7X7X7X7X5X5X5X7X7X7X9XwXwXwXwXeXwXwXwXwXhXhXhXhXhXhXhXhXeXeXwXhXeXwXwXwXwXwX9X9X7X7X7X7X5X5X5X5X5X5X5X6X6X2X,X,XG.G.G.S.S.S.A.A.V.m.m.",
"/ / ( / / / Q / Q Q Q Q Q Q Q Q Q Q Q E t t t t E E T Q Q p p p T T t T Q Q Q Q / Q / Q Q Q Q Q T Q Q T Q Q T Q T Q Q Q ~ Q ( ( Q Q Q Q ~ ~ Q Q Q Q Q Q Q / / Q Q Q / Q Q Q Q Q Q Q Q Q Q Q Q Q Q Q Q Q Q Q Q Q Q Q ~ ~ Q ~ Q Q ~ ~ ( ) ( ) ) _ [ [ [ O.O.+.+.+.+.+.+.+.#.#.$.=.-.-.=.=.=.$.-.-.c.b.v.v.v.n.m.m.m.m.m.V.V.A.S.D.G.G.G.G.G.,X,X,X,XG.G.G.G.,XG.G.G.G.F.F.G.,X<X2X6X6X5X6X6X6X2X<X,X,XG.G.D.S.V.V.V.V.C.n.n.v.n.m.m.m.m.m.m.V.A.A.S.S.S.A.A.A.S.S.S.D.G.,X2X6X5X5X5X6X6X2X2X,X,X,XG.S.S.A.S.S.S.A.A.V.V.V.m.n.m.m.V.V.V.V.A.S.F.G.,X2X6X6X6X6X5X5X5X5X5X6X6X6X5X5X5X5X5X5X5X5X5X5X5X5X5X7X7X9XwXwXeXeXeXeXeXhXhXhXkXkXkXhXhXhXeXeXwXwXwXwXwXwX9X9X9X9X7X7X7X7X0X0X5X5X5X6X6X2X2X,X,XG.G.D.S.S.A.A.V.V.m.n.",
"/ / / / / Q Q Q Q Q Q Q Q Q d Q Q Q Q E t t t t / E T Q Q Q Q E T t t T T Q / / Q Q Q Q Q Q Q Q T T T Q Q Q Q Q Q Q / Q Q Q Q Q ~ ~ Q ( ~ ~ ( Q Q Q Q Q Q / Q Q / / / / Q Q Q Q Q Q Q Q Q Q Q Q Q Q Q Q Q ~ Q Q ~ ~ ~ ~ ~ Q Q ~ ~ ~ ~ ( ( ( ) ) _ ] ] ] ] O.O.+.+.+.+.+.#.$.=.=.-.-.=.=.#.#.$.-.-.c.b.v.v.v.v.v.v.n.v.n.V.V.S.S.D.G.G.G.,X,X,X,X,X,X,X,X,X,X,X,X,XG.D.F.,X<X2X2X2X4X4X2X2X,X,XG.G.F.D.S.S.S.S.A.V.V.n.n.v.v.v.v.n.v.v.b.b.n.V.V.A.A.A.V.V.V.A.A.S.S.S.G.,X4X6X5X5X5X5X6X6X2X2X2X,XG.D.S.S.S.S.S.S.A.A.V.V.V.V.V.V.V.V.V.A.S.S.D.G.,X<X2X2X2X6X6X6X4X2X2X2X2X6X6X5X5X5X5X5X6X6X6X4X6X5X5X7X7XwXwXwXwXeXeXeXeXhXhXhXhXhXhXhXwXwXwXwXwX9X9X7X7X7X7X7X7X7X9X7X7X7X7X5X5X6X6X6X2X,X,XG.G.G.S.S.S.A.A.V.V.m.n.",
"/ / / / / Q Q Q Q Q Q Q Q Q Q T Q Q Q T t p T E E / / Q / / / / / / Q Q T Q Q Q Q Q Q Q Q Q Q Q T Q Q Q Q / / / Q Q Q Q Q Q Q Q ~ Q ( ( ( ( ( ( ( ( ( ( Q / / / ( ( ( ( ( ( ( ( Q ~ Q Q Q Q Q Q Q Q Q Q ~ ( ( ( ( ( ( ~ ~ ~ Q Q ~ ~ ~ ( ( ( ) ) ) ) _ ] ] ] O.+.O.+.+.+.+.#.$.$.=.=.=.=.#.#.$.-.$.c.v.b.b.b.b.b.b.b.b.b.n.V.A.S.S.S.G.G.,X,X,X,X,X,X,X,X,X2X2X2X,X,XG.G.,X2X2X2X2X2X,X,XG.G.D.S.S.S.S.S.S.S.S.A.V.V.V.n.n.v.v.v.v.v.b.b.b.b.n.m.V.V.V.V.V.V.V.A.A.A.A.S.G.<X4X6X6X6X6X6X2X2X2X2X,X,XG.D.S.S.S.S.S.S.S.A.A.A.V.V.V.V.V.V.A.A.S.S.S.F.G.,X,X,X,X2X<X<X,X,X,X,X2X2X6X6X6X6X6X6X6X2X2X2X6X5X7X7X9XwXwXwXwXwXwXwXwXeXhXhXhXeXwX9X9X7X7X7X7X7X5X5X5X7X7X7X7X7X7X7X7X7X5X5X6X6X6X2X,X,X,XG.G.D.S.S.A.A.A.V.V.n.",
"E E E T T Q T T Q Q Q Q Q d t t Q Q t t t T E / / / ( ( ) [ ) ( ( ( / Q Q Q Q Q Q Q Q Q Q Q Q Q T Q Q Q Q Q / / Q / Q Q Q Q Q / ~ ( ( ( ) ) ) ) ( ( ( ( ( ( ( ( ( ) _ [ [ _ ) ) ( ( ( ( ( ( ~ ~ Q ( ( ( ( ( ( ( ) ( ( ( ( ~ ~ ~ ~ ~ ~ ( ( ( ) ) ) ) ) _ _ ] ] O.O.O.+.+.+.+.+.#.=.=.=.=.+.#.$.$.$.-.c.c.v.v.c.v.v.v.v.b.b.n.V.A.A.S.S.G.G.G.,X,X,X,X,X,X,X2X2X2X2X,X,X,X2X2X2X2X<X,XG.D.S.S.A.A.S.S.S.S.A.A.V.A.A.A.V.m.n.n.v.v.v.v.b.b.b.b.b.n.n.n.C.V.V.V.V.V.Z.V.V.S.D.,X<X2X2X2X2X2X,X,X2X2X,X,XG.G.D.S.S.S.D.D.S.S.S.A.A.A.V.V.A.A.A.A.S.S.S.S.D.G.G.G.,X,X,X,X,X,X,X,X,X,X2X2X2X6X6X2X2X2X,X,X2X2X6X5X7X7X7X9X9XwX9X9XwXwX9XwXwX9X7X7X8X5X5X5X7X5X6X4X6X6X5X5X5X7X7X7X7X7X5X5X5X6X6X2X2X,X,XG.G.G.D.S.S.A.A.V.V.m.",
"p p t t t p p t t T T Q t t t t t t t t t T / / / ( _ [ +.+.+.[ ] ] _ ) ( ( ~ ~ Q Q Q Q Q Q Q Q Q Q Q Q Q / / ( Q / ~ ~ Q Q Q / Q ( ( ) ) ) _ ] ) ) ) _ ) ) ) ) _ [ O.+.O.O.[ _ ) ) ) ) ) ) ( ( ( ( ( ( ) ) ) ) ) ) ) ) ) ( ( ~ ~ ~ ~ ( ( ( ) ) ) ) ) _ ) _ ] ] [ [ +.+.+.+.+.+.+.=.=.+.+.+.$.$.$.$.$.z.z.z.z.c.v.v.v.c.b.b.n.V.V.A.S.S.G.G.G.,XG.,X,X2X2X2X2X2X2X2X2X2X2X2X2X,X,XG.D.S.A.V.V.A.A.A.S.A.A.A.A.A.S.A.V.m.m.m.n.m.v.v.n.b.b.b.b.b.v.v.m.m.m.m.m.m.Z.V.V.A.S.F.,X,X<X<X,X,X,X,X2X2X,X,XG.G.G.D.D.D.G.G.G.D.S.S.S.A.V.V.A.A.A.V.A.S.A.S.S.S.S.D.H.G.G.G.G.G.G.G.G.G.,X,X,X2X2X2X,X2X,X,X,X2X2X4X5X5X7X7X7X7X7X7X7X7X7X9X7X7X5X5X4X4X6X4X5X4X6X2X2X2X4X4X6X5X5X5X5X0X5X5X5X6X6X2X2X,XG.G.G.G.D.S.S.A.A.A.V.m.",
"E p t t p p p p p p p t t t t t t t t t t Q / / / ( [ +.+.+.+.+.+.+.O.O.O.O._ ) ( ( ( ( ( / / / Q Q Q Q ( ( ( ( ( ( ( ( ( ( ( ( ( ( ) ) ) _ [ [ [ [ [ O.O.O.O.O.O.O.O.O.O.O.[ [ [ [ ] [ _ _ ) ) ] ] ] ) ) ) _ _ _ ] _ _ _ ) ) ) ) ) ( ( ( ) ) ( ) ) ) ) ) ) ] ] [ [ +.+.+.+.+.#.+.+.+.+.+.+.+.#.$.$.$.k.k.k.z.z.c.c.v.c.b.b.n.m.V.A.S.S.S.G.G.,XG.,X2X6X6X6X2X2X2X,X,X,X2X<X,X,XG.F.S.S.A.V.V.V.A.A.A.A.A.A.A.A.S.A.V.m.V.m.m.m.m.m.v.b.b.b.b.b.v.m.m.m.m.m.m.m.Z.V.V.V.A.S.G.G.,X,X,X,X,X,X,X,X,X,XG.G.G.G.D.D.G.G.G.D.S.S.S.A.V.V.V.V.V.V.V.A.Z.A.S.S.S.S.S.D.G.G.G.D.D.S.D.G.G.G.G.,X,X,X,X,XG.,X,X,X2X2X4X6X5X5X5X5X5X5X5X5X5X5X5X5X6X4X4X4X6X6X6X6X6X2X,X,X<X<X2X2X6X6X6X6X6X6X6X6X6X2X2X,XG.G.G.G.G.S.S.A.A.A.V.m.",
"E E p p p p p p p p p t t t t t t t t T T / Q ( / ( [ O.+.+.+.+.=.+.+.+.+.+.O.[ _ _ _ ) ( ( ( ( ( ( ( ( ( ) ) ) ) ) ) ) ) ( ( ( ( ) ) ] ] ] [ [ +.+.O.O.O.+.+.+.+.+.O.O.O.[ [ [ [ [ [ [ [ [ ] ] ] ] ] ] [ [ [ [ [ [ [ O.] ] ] _ ] _ ) ) ) ) ) ( ) ) ) ) ) ) ] ] [ O.+.+.+.+.+.=.=.=.#.+.+.+.+.+.$.%.%.k.k.k.k.k.c.c.v.b.b.b.n.m.V.A.S.S.S.D.G.,X,X2X6X6X5X6X6X2X2X,XG.,X,X<X,XG.G.D.S.S.A.V.V.V.V.A.A.A.A.A.A.S.S.A.V.m.V.V.m.m.m.m.v.b.c.z.b.b.m.m.m.n.n.v.m.m.V.V.V.V.A.S.G.G.,XG.G.G.G.G.G.G.G.G.G.G.G.G.D.D.S.S.S.S.S.S.A.A.V.V.V.V.V.V.V.V.Z.Z.A.A.Z.S.S.S.G.G.D.S.S.S.S.D.D.G.G.G.,X,X,X,XG.G.,X,X,X<X2X4X6X6X6X6X5X5X5X5X6X6X6X6X2X2X2X2X6X6X6X6X6X2X,X,X,X,X,X,X2X2X2X6X6X6X6X6X6X2X2X,X,XG.G.G.G.G.S.S.S.A.V.m.",
"Q Q T t t p t Q d t t p p p p t t t p T T / / / ( ) [ [ +.[ +.+.+.+.=.=.+.+.O.O.O.O.O.O.[ [ [ _ ) ) _ [ [ [ [ [ [ O.O.O.O.[ [ [ O.O.O.O.O.+.+.+.+.+.+.+.+.+.+.=.+.+.+.+.+.O.[ [ [ [ [ [ [ [ [ [ [ [ [ [ [ [ [ [ [ [ O.O.O.] ] O.] ] _ ) ) ) ) ) ) ) ) ) ) ) ] O.+.#.#.=.=.=.=.=.=.=.=.-.$.#.$.$.$.$.$.z.z.z.z.z.z.c.b.b.b.n.m.V.Z.Z.Z.S.S.G.G.,X2X2X6X6X6X6X2X2X,XG.G.G.G.,X,X,XG.G.D.S.S.V.V.V.V.A.S.S.S.S.S.S.S.A.A.V.V.V.m.n.m.n.b.c.z.z.c.v.b.b.v.v.v.v.n.m.m.m.m.V.V.A.S.D.D.G.G.G.F.S.S.S.S.D.G.G.G.G.D.D.S.S.S.S.S.S.A.V.V.V.V.m.m.m.m.V.Z.Z.Z.V.V.V.Z.S.S.S.S.S.S.S.S.S.D.D.D.G.G.G.G.G.G.G.G.G.,X,X2X2X2X2X2X4X6X6X6X6X6X6X4X2X2X<X,X,X2X2X6X6X6X2X,X2XG.G.G.G.G.,X,X2X,X2X2X2X2X2X2X,X,X,X,X,XG.G.D.S.S.A.A.V.",
"Q Q Q Q Q Q Q Q Q Q t p p p t t p p t T T Q / ( ( ) _ [ [ [ O.O.+.+.+.+.+.+.O.O.O.O.+.O.+.+.+.O.[ O.+.+.+.+.#.#.+.+.+.+.+.+.+.+.+.+.+.+.+.+.=.=.=.=.=.+.+.+.=.=.=.=.+.+.+.+.O.[ _ [ [ [ [ [ [ [ O.O.[ [ [ [ [ [ [ [ O.O.O.O.O.O.O.O.] [ _ _ ) ) ) ) ) ) ) ] O.+.#.#.=.=.=.-.=.-.-.-.z.z.z.-.-.-.-.-.z.c.c.z.z.x.c.v.b.b.m.V.A.S.S.S.S.S.D.G.,X,X2X2X6X6X6X2X<X,XG.G.D.G.G.,X,XG.G.G.G.F.S.S.A.V.A.S.S.S.S.S.S.S.S.S.A.Z.Z.V.m.v.v.b.v.z.k.k.z.z.c.v.v.v.v.b.v.n.n.n.n.m.C.V.A.S.S.S.D.S.S.S.S.S.A.S.S.D.D.D.S.S.S.A.A.A.A.A.V.V.m.V.C.m.m.n.m.m.m.m.m.m.m.m.V.Z.Z.A.S.A.A.A.S.S.S.S.S.D.G.G.G.G.S.D.G.G.G.,X,X,X2X2X2X2X6X6X6X6X6X6X2X2X2X<X<X<X2X2X6X6X2X2X,X,X,XG.G.G.G.G.G.G.G.,X,X2X2X2X2X2X2X,X,X,X,XG.G.S.S.S.A.Z.",
"Q Q Q Q Q Q Q Q Q Q / E / / Q Q / E t T T Q ( ( ( ) _ _ _ _ _ _ _ O.O.+.+.+.O.O.+.+.+.+.+.+.+.+.+.+.#.=.=.=.=.-.=.=.=.=.=.=.=.=.=.=.=.=.=.=.=.=.-.-.=.=.=.=.=.=.-.=.=.=.=.+.+.O.[ [ O.O.O.O.O.+.+.+.+.O.O.O.O.O.[ [ O.O.O.O.O.+.O.O.] [ [ _ ) ) _ _ _ ] ] O.+.#.=.-.-.-.-.-.x.c.c.v.v.v.v.v.v.x.x.x.v.b.b.v.z.z.z.c.b.n.V.S.D.H.H.H.H.G.G.G.,X,X2X2X2X2X2X,X,XG.G.G.D.D.G.,X,XG.,X,X,X,XG.D.S.S.S.S.S.S.D.S.S.S.S.S.S.Z.V.m.v.b.v.b.c.z.k.k.k.k.c.c.c.c.x.c.b.b.b.n.n.n.n.C.V.A.A.S.S.S.S.A.A.V.V.A.S.S.S.S.A.A.A.A.A.A.A.A.V.V.m.m.n.n.n.b.v.v.v.n.n.m.m.m.m.m.V.Z.Z.Z.A.A.A.S.S.S.S.S.S.D.D.S.S.S.D.G.G.G.,X,X,X,X,X2X2X6X6X4X4X2X2X2X2X2X2X2X2X2X6X2X2X,X,X,X,XG.G.D.S.S.S.S.D.G.G.,X,X,X2X2X2X2X,X,X,X,XG.S.S.S.S.S.",
"Q Q Q Q Q Q Q Q Q Q Q / / / / / / / Q T Q Q ~ ( ~ ) ) ) ) ( ) ) ) _ _ O.[ O.O.O.O.+.+.+.+.+.+.+.+.+.#.=.=.=.=.=.=.=.#.+.+.+.=.=.=.=.=.=.=.-.-.-.-.-.-.-.-.-.-.-.-.-.-.=.=.=.+.+.+.+.+.+.+.+.+.+.+.+.+.+.+.+.+.+.+.+.+.+.+.+.+.+.O.O.O.[ [ [ ] _ _ ] [ O.O.+.#.=.-.-.-.-.x.c.v.v.v.v.m.m.C.m.m.m.n.n.n.m.n.v.c.c.c.b.b.n.V.S.H.G.G.,XG.,XG.G.G.G.,X,X,X,X,X,XG.G.G.G.D.G.G.,X,X,X,X,X,X,XG.G.D.S.S.S.S.S.S.S.S.S.A.S.A.Z.m.v.b.v.v.c.z.k.k.z.k.z.k.k.c.z.z.z.c.c.b.b.n.n.n.C.V.V.V.A.A.A.V.V.V.V.V.V.V.A.A.A.V.V.A.V.V.V.V.V.V.m.n.n.n.b.b.b.v.v.b.b.v.v.v.n.M.m.m.m.V.V.V.V.A.A.S.S.S.S.S.S.S.S.S.S.S.S.S.D.G.G.G.G.,X,X2X2X2X2X2X2X2X2X2X2X2X2X2X2X2X2X2X,X,X,X,XG.G.S.S.S.S.S.S.S.D.G.G.,X,X,X,X,X,X,XG.G.G.S.S.S.S.S.",
"Q Q Q Q Q Q Q Q / / / / / / / / / / / Q Q ~ ! ~ ~ ~ ~ ~ ~ ( ( ( ( ( ( ( ) _ _ O.O.O.O.O.O.+.+.+.+.+.+.#.+.#.#.=.=.=.+.+.+.+.+.+.=.=.=.=.=.-.-.-.-.-.-.-.-.x.x.x.x.x.-.-.-.-.=.=.=.=.=.=.=.#.+.+.+.+.+.+.+.+.+.+.+.+.+.+.+.+.+.+.+.+.+.+.+.+.O.O.[ [ O.O.+.+.$.-.-.-.-.c.c.c.b.v.v.n.m.Z.A.Z.Z.Z.Z.Z.V.V.m.v.v.v.b.v.m.m.V.A.H.G.,X,X,X,XG.G.G.G.G.G.G.G.G.G.G.G.G.G.D.F.G.G.G.G.,X,X,X,X,XG.G.D.D.S.S.S.S.S.S.A.A.V.V.V.n.b.c.c.v.c.z.z.z.z.k.z.k.k.k.k.k.k.c.c.c.v.b.n.n.n.m.C.m.V.V.V.V.C.m.m.m.m.m.V.C.C.C.C.m.m.m.m.V.V.m.n.n.n.b.b.v.v.c.c.v.v.b.b.b.b.b.v.M.m.V.m.V.V.V.A.S.S.S.S.S.S.S.S.S.A.A.A.A.A.S.S.S.S.G.G.,X<X2X2X2X<X2X2X2X2X2X2X2X2X2X2X2X,X,X2X,X,XG.D.S.S.S.S.S.S.S.D.G.G.G.,X,XG.G.G.G.G.D.S.S.S.D.H.",
"p E / Q Q Q / / Q / / / / / / ( / / / / Q ~ Q Q Q ~ ~ ~ ~ ~ ( ~ ~ ! ( ( ( ( _ _ _ _ _ [ O.O.O.O.O.O.O.+.+.+.+.+.+.+.+.+.+.+.+.+.=.=.=.=.=.-.-.-.-.-.-.z.x.x.x.x.v.-.-.-.-.-.-.-.-.-.-.-.-.=.=.#.+.+.+.+.+.+.+.+.+.+.+.+.+.+.+.+.#.#.+.+.+.+.+.+.+.+.+.+.+.$.=.-.-.z.c.c.c.c.b.b.v.m.V.A.Z.S.H.H.A.Z.S.S.Z.m.v.v.v.m.m.m.m.V.S.H.G.G.G.,XG.G.G.G.G.G.G.G.G.G.G.D.G.H.S.S.F.F.G.G.G.G.G.G.G.G.H.D.D.S.S.A.A.Z.Z.Z.V.V.C.m.b.c.c.c.v.c.z.z.z.z.z.z.$.$.$.$.k.k.k.z.c.c.c.v.b.b.b.n.b.v.v.n.v.v.v.v.v.b.b.b.b.b.b.b.b.b.v.v.v.v.v.v.b.b.v.v.c.c.c.c.c.c.c.c.c.c.b.b.v.n.n.n.C.V.V.V.A.A.S.S.S.S.S.S.S.A.V.V.V.V.V.A.A.A.S.D.G.,X,X,X,X,X,X,X2X2X2X2X2X2X2X,X,X,X,X,X,X,XG.D.S.S.A.A.S.S.S.S.S.H.H.G.G.G.D.D.G.G.D.S.S.S.D.H.",
"p p t Q Q Q / / Q Q Q Q Q Q Q Q Q Q Q Q Q Q Q Q Q Q Q Q / / Q Q Q / ( ( ( ( ( ( ( ) ) ) _ _ _ _ [ [ [ O.O.O.+.+.+.+.+.+.O.O.+.+.+.+.+.=.=.=.=.=.-.-.-.-.-.-.-.x.-.-.-.-.-.-.-.-.-.-.-.-.-.=.=.=.=.=.=.=.+.+.+.+.+.+.+.+.+.+.#.#.#.#.#.=.=.=.=.=.$.$.$.$.$.$.-.-.c.c.c.v.v.b.b.b.M.m.V.A.S.S.H.H.H.H.S.S.S.A.V.V.m.m.m.m.m.V.Z.S.S.H.H.G.G.G.G.G.G.G.G.G.H.H.D.D.G.G.G.S.S.S.S.S.H.H.D.D.D.D.D.S.S.S.V.V.m.m.m.m.n.n.n.b.b.c.c.c.c.z.$.-.-.-.-.-.$.$.$.$.$.$.k.k.$.z.c.c.c.c.c.c.c.v.v.v.v.v.v.v.b.v.c.c.v.v.c.c.v.v.v.v.b.b.b.b.v.c.z.z.c.z.c.c.k.k.z.z.k.c.c.b.b.v.v.n.n.C.m.m.V.Z.A.S.S.S.S.S.A.Z.V.V.V.V.V.V.V.V.A.S.S.G.G.G.G.G.,X,X,X,X2X2X2X,X,X,X,X,XG.G.G.G.D.S.S.A.A.A.A.A.A.S.S.S.S.D.D.S.S.S.S.S.S.S.S.S.S.S.",
"t t t t t t T T T / Q Q Q Q Q Q Q Q Q Q Q Q Q / Q Q Q Q / Q Q Q Q ( ( ( ( ( ( ( ~ ~ ( ( ( ) ) ) _ _ _ _ _ [ [ [ [ [ [ O.O.O.O.O.+.+.+.+.=.=.=.=.=.=.=.=.-.-.-.-.-.-.-.-.-.-.-.-.-.-.z.-.-.=.=.=.=.=.=.=.$.+.+.+.+.+.+.+.+.#.$.=.-.-.-.-.-.-.-.-.-.-.-.$.$.$.-.-.v.v.v.b.b.v.v.v.m.m.V.A.Z.S.H.H.F.H.D.H.D.S.A.A.V.V.m.V.Z.Z.A.Z.A.S.D.G.G.G.G.G.G.G.G.G.D.F.D.D.G.G.H.S.S.S.S.S.D.S.S.S.S.S.S.S.S.V.m.m.n.v.v.b.b.b.b.c.c.c.z.z.c.-.$.$.$.=.=.=.-.-.$.$.$.$.$.$.$.-.c.c.c.c.c.c.z.z.z.z.z.z.v.v.v.c.c.c.c.c.c.c.z.z.c.c.c.c.v.v.c.z.z.$.-.-.c.-.c.-.-.$.$.c.c.b.v.b.v.n.n.n.m.m.m.V.Z.Z.S.S.S.S.A.Z.V.V.V.V.V.V.V.V.V.A.S.D.G.G.G.G.G.,X,X,X,X,X<X,X,XG.G.G.G.G.S.S.S.S.A.A.A.A.A.Z.Z.Z.Z.Z.S.S.S.S.S.S.S.S.S.S.A.A.A.A.",
"t t t t t t t t t T Q Q Q Q / Q Q Q Q Q Q Q / / / Q / Q / / / / Q Q / / ( ( / / Q Q / Q Q Q ~ ~ ~ ~ ~ ( ~ ~ ) ~ ) _ _ [ [ [ [ [ O.O.+.+.+.+.+.+.=.=.=.=.=.=.=.=.=.=.=.=.-.-.-.-.-.-.-.-.$.$.$.$.=.=.=.-.-.=.=.=.$.$.+.#.$.-.-.-.z.z.-.-.-.z.z.z.-.-.x.c.c.-.z.c.c.b.b.v.b.b.v.m.m.m.V.Z.S.S.D.D.H.G.G.,XG.G.S.S.S.A.A.Z.Z.Z.Z.A.S.S.D.G.G.G.G.G.G.G.G.G.G.G.G.G.H.H.D.S.S.S.S.S.S.S.A.Z.V.V.V.V.V.m.n.v.b.b.v.c.c.c.c.c.z.z.k.k.$.$.$.$.$.$.=.=.=.$.-.-.-.-.-.-.-.-.$.$.c.c.c.c.c.z.z.z.-.-.-.-.c.c.-.-.-.-.-.-.-.-.z.-.-.-.-.-.-.-.-.$.$.-.-.-.-.-.$.$.$.c.c.c.c.b.b.b.b.b.M.M.m.m.V.Z.Z.A.Z.Z.V.Z.V.V.A.A.A.V.V.m.m.m.Z.Z.Z.Z.S.D.G.,X,X,X,X,X,X,X,XG.G.G.G.S.S.Z.A.Z.Z.Z.N.Z.Z.Z.Z.Z.A.A.S.S.S.S.A.Z.Z.Z.Z.Z.Z.Z.V.V.",
"a a t t t t t t t t d t p d t t d Q t T Q Q / / Q Q Q / / / Q Q Q Q Q Q Q Q Q Q Q Q Q Q ! ! Q Q ~ ~ ~ ~ ~ ~ ~ ~ ( ) _ _ ) _ _ _ [ [ O.O.O.+.+.+.+.+.+.+.+.+.=.=.=.=.=.=.=.=.-.=.=.=.$.#.#.#.$.$.$.=.=.=.-.-.-.-.-.-.$.$.=.-.z.z.v.v.v.v.v.v.v.v.v.v.v.v.b.c.c.c.c.b.v.v.v.v.m.m.m.m.V.Z.S.S.D.H.H.G.,X,X,XG.G.G.S.S.S.S.S.S.S.S.S.S.D.G.G.G.G.G.,XG.G.G.G.G.G.D.D.D.S.S.A.Z.A.S.A.Z.V.V.V.m.m.m.m.n.v.b.v.v.c.z.z.z.z.k.k.k.k.k.$.$.#.#.#.#.$.=.-.-.-.-.-.-.-.-.-.$.$.$.z.z.z.-.-.-.-.-.-.-.-.-.-.-.-.-.-.-.-.$.$.$.$.-.-.-.-.-.-.-.-.-.-.-.-.-.-.$.$.$.-.-.c.c.c.v.v.b.b.b.b.v.b.m.m.V.Z.Z.Z.Z.Z.Z.A.A.S.D.S.A.V.m.n.m.m.m.m.V.A.S.G.G.G.,XG.,XG.G.G.G.G.G.D.S.A.A.V.m.m.m.m.m.Z.Z.Z.Z.A.A.A.Z.A.Z.Z.Z.V.V.Z.Z.V.V.m.m.",
"i i e t t t t t t t p p p p p p t t t t t T E p Q Q t t t t t t d t t t t t p p t Q Q Q Q Q Q Q Q Q Q Q Q Q Q Q ~ ~ ( ( ( ( _ ) _ _ _ [ [ O.O.O.O.O.+.+.+.+.+.=.=.=.=.+.=.=.=.=.=.+.+.+.+.#.$.$.$.$.$.=.=.-.-.-.-.-.=.=.-.-.c.v.v.v.v.v.v.v.v.v.v.v.v.M.M.v.b.v.b.b.v.v.v.n.n.m.m.m.Z.Z.S.S.S.D.D.H.G.,X,XG.G.G.G.G.G.H.D.S.S.S.S.S.S.S.G.G.G.,X,X,XG.G.G.G.H.S.S.S.S.A.Z.V.V.V.V.m.m.m.m.m.m.m.m.v.b.v.v.c.z.z.k.k.k.z.z.z.k.k.z.$.#.+.+.#.$.=.-.-.-.-.-.-.-.-.-.-.$.-.-.-.-.$.$.$.=.=.=.=.=.$.$.$.$.$.-.-.-.$.$.$.-.-.-.=.$.$.=.=.#.#.$.$.$.=.-.$.$.$.-.-.-.-.z.z.z.c.b.c.b.b.b.v.v.m.V.Z.Z.S.Z.Z.A.S.G.,XD.S.V.m.n.v.v.v.v.m.Z.S.D.G.G.G.G.G.G.G.G.G.G.G.D.S.A.V.V.m.m.m.m.m.m.V.Z.Z.Z.Z.Z.Z.Z.Z.V.V.m.m.m.m.V.m.m.m.",
"u i 0 0 0 0 0 i e e a a a e a a a t t t t t t p d t t t t t t t t t t t t p p p p t Q Q Q Q Q ( Q Q Q Q Q Q Q ! Q Q ~ ( ( ( ( ( ( ( ( ) _ _ _ _ O.O.O.O.+.+.+.+.+.+.+.+.+.+.=.=.=.+.+.+.+.#.#.$.$.$.+.#.#.$.=.-.-.=.$.$.-.-.z.z.z.v.v.v.v.v.v.v.n.B.B.m.m.M.M.M.b.b.v.v.v.n.n.m.m.m.Z.Z.A.S.S.S.S.S.H.G.G.G.G.G.G.G.G.H.D.S.S.S.S.S.S.S.H.G.G.,X,X,XG.G.G.H.S.S.S.S.A.Z.Z.V.m.m.m.m.n.m.n.n.v.v.v.b.v.v.v.c.z.z.k.z.z.z.z.z.z.z.z.z.$.#.#.#.$.$.=.=.=.=.=.=.=.=.=.=.$.$.-.-.-.-.$.$.$.=.=.=.#.#.#.#.#.$.$.$.$.$.$.$.-.-.=.=.=.=.+.+.+.=.#.=.=.=.$.$.$.$.$.$.$.-.-.-.k.z.z.c.v.v.b.b.v.v.m.m.Z.Z.Z.S.S.S.G.G.S.A.C.n.n.b.b.v.b.n.m.Z.S.S.S.D.G.G.G.G.G.G.,X,XG.S.A.A.V.m.m.m.m.m.m.m.V.Z.Z.V.V.m.V.V.V.V.m.m.m.V.V.V.V.V.",
"u u u 0 0 0 i i i 0 a a i i i a a a e e t t i i p p t t t t t t e e t p p p p p p p p T Q Q / / / Q Q Q Q Q Q Q Q Q Q / Q / ( ( ( ( ( ( ) ) _ _ _ _ [ O.[ [ O.O.O.O.+.+.+.+.+.+.+.+.+.+.#.=.$.$.#.#.+.+.+.+.#.$.+.+.$.$.$.=.-.-.-.-.-.z.v.v.v.n.m.m.m.m.m.m.M.v.b.b.b.b.b.v.v.n.m.m.V.V.A.A.S.S.S.S.S.S.S.S.D.S.S.D.D.H.H.D.D.S.D.S.S.S.D.G.G.,X,XG.G.G.D.D.S.S.A.A.A.Z.m.m.m.n.n.v.v.v.v.v.b.v.b.b.v.c.c.c.z.z.z.z.z.z.z.z.z.z.z.z.-.-.=.=.$.$.=.=.=.=.=.=.=.=.=.=.=.=.=.=.=.=.$.$.=.=.=.=.#.#.+.+.#.#.#.#.#.#.#.#.=.=.=.=.#.+.+.+.+.+.+.+.#.#.#.#.#.#.#.$.$.=.$.$.z.z.z.z.z.c.v.v.b.b.v.m.m.m.N.S.S.D.D.S.S.Z.n.n.b.v.c.c.v.b.v.m.V.A.A.S.S.S.S.G.G.G.,X,XG.D.S.A.V.m.m.m.n.n.v.m.V.Z.Z.m.m.m.m.m.m.m.m.V.V.V.V.Z.Z.Z.",
"5 5 u 0 0 u 0 u 0 u u a u 0 0 a u a i t t t t a i e e e e e e e 0 e i i i i p p i i t p t t t E E E t t t Q Q Q Q Q Q Q Q Q / / Q ( ( ( ( ( ) ( ( ) _ ] _ _ [ O.[ O.O.+.+.+.+.+.+.+.+.=.=.=.=.$.+.=.+.+.+.+.+.+.+.+.+.#.#.#.#.#.#.$.-.-.-.v.v.n.n.m.m.m.m.m.m.v.b.b.b.b.b.b.v.v.m.m.m.V.V.Z.A.A.Z.A.S.S.S.S.S.S.S.S.D.D.D.H.H.H.D.S.S.S.S.G.G.G.H.H.H.D.D.S.S.Z.A.A.V.V.m.m.v.v.b.b.b.v.b.b.c.c.v.v.c.c.c.z.k.k.k.k.z.z.z.z.z.z.z.z.-.-.-.=.=.$.=.=.=.#.#.=.=.=.=.=.=.=.=.=.$.#.$.$.=.=.=.#.#.#.+.+.+.+.+.+.+.+.+.+.+.+.+.+.+.+.+.+.+.+.+.+.+.+.+.+.#.#.#.$.$.$.$.$.$.$.z.z.z.z.z.z.c.c.v.b.v.m.m.Z.S.D.S.S.S.Z.n.b.z.z.z.z.z.z.v.b.v.m.V.V.A.Z.S.S.G.G.,X,XG.G.S.S.A.Z.V.m.m.m.v.m.m.Z.V.m.m.m.m.m.m.m.m.V.V.V.V.Z.Z.Z.",
"5 5 5 0 0 0 0 0 u u u u u u i i u a i e i i i i i a e e e e e e e t t t t t i i i i i p t p t p p p t t t t Q Q Q Q Q Q Q Q Q / Q Q Q ~ ~ ~ ~ ~ ( ) ) ) ) ) ] ] _ ] ] O.O.O.O.O.O.+.+.+.+.+.#.#.+.+.=.=.=.+.+.+.+.+.+.+.+.+.+.+.#.=.=.-.-.z.v.v.v.v.m.M.M.m.M.v.v.b.b.b.b.b.b.v.v.v.n.m.m.m.m.V.V.V.Z.A.A.A.A.S.S.S.S.S.S.S.S.D.S.S.S.S.S.S.D.D.S.D.D.D.D.S.Z.V.V.V.V.m.v.v.b.b.c.c.c.c.c.c.c.c.c.c.c.c.z.z.k.$.$.$.-.-.-.-.-.-.-.-.=.-.=.-.=.=.$.#.#.#.+.+.+.#.#.#.+.#.#.#.#.#.#.#.#.+.#.+.+.+.+.+.+.+.+.+.+.+.+.+.+.+.+.O.O.[ O.O.O.O.O.O.O.+.+.+.+.+.+.#.#.#.+.#.#.$.$.$.$.$.z.z.z.z.z.c.b.n.M.V.A.S.S.A.V.m.v.z.$.$.-.-.-.-.$.z.v.b.n.m.m.m.A.A.S.S.G.,XG.G.H.S.Z.Z.Z.Z.m.m.v.m.V.Z.Z.V.V.V.m.m.m.m.V.V.V.V.V.Z.Z.Z.",
"5 5 3 0 0 0 3 3 u u u u u u i i i a i a i i i i i a a a e e t t t t t t t t t t i i t t t t t p p p p t p t T E t d Q Q Q Q / / Q Q Q ! ! Q ~ ~ ~ ~ ~ ~ ~ ~ ) ) ) ) ] ] ] ] ] ] [ [ O.+.O.O.+.+.+.+.=.=.=.=.+.+.+.+.+.+.+.+.+.+.#.$.-.-.-.-.z.v.v.v.v.v.M.M.M.v.M.v.b.b.b.b.b.b.b.b.v.v.v.n.n.n.n.m.m.V.V.V.V.A.A.A.A.Z.Z.S.S.S.S.S.A.A.A.A.S.S.S.S.S.S.S.S.Z.V.V.V.n.v.v.b.b.v.c.c.c.c.c.c.c.c.c.c.c.c.c.-.$.$.$.$.-.-.-.=.=.$.=.=.=.#.=.-.-.-.$.#.#.+.+.+.+.+.+.+.+.+.+.#.+.+.+.+.+.+.+.+.+.+.+.+.+.+.O.+.+.+.+.+.O.O.O.O.O.[ ] ] O.O.O.O.O.O.O.O.O.+.+.+.+.+.+.+.#.#.#.$.$.$.-.-.-.-.z.c.b.M.v.m.m.V.A.V.m.v.z.-.#.#.-.-.-.z.$.k.z.z.b.n.n.m.V.V.V.A.S.D.D.S.H.Z.Z.Z.Z.N.m.m.n.m.V.Z.Z.V.Z.Z.Z.Z.Z.V.V.V.V.Z.Z.Z.Z.Z.",
"5 5 5 5 u 5 5 5 5 5 5 u u u u u u u u i a a i i i i i i i i i i u 0 0 0 0 0 0 i e e e e e e e e p p p p p p t t t Q Q / / Q Q / / / / Q Q Q / / Q Q ( ( ) ) ) ) ( ( ( ( ( ) ) ) ) ) _ _ O.O.O.+.+.+.+.+.#.#.#.#.=.+.+.+.+.+.+.#.#.=.-.-.-.-.-.z.c.c.c.v.b.v.v.v.v.b.v.v.v.b.b.b.b.b.b.b.v.v.v.v.b.v.v.m.m.m.m.m.V.V.Z.Z.Z.S.S.V.Z.Z.Z.Z.Z.Z.S.S.Z.S.S.S.Z.Z.Z.Z.m.m.m.m.m.n.v.v.b.c.c.c.z.z.z.z.c.c.c.c.c.-.-.-.-.-.-.-.-.-.=.=.$.$.#.#.=.=.-.-.=.$.+.+.+.+.+.+.+.+.+.+.+.+.+.+.+.+.+.+.+.+.+.+.+.+.O.O.O.O.O.O.O.O.O.] ] ] ] ] O.O.O.O.O.O.O.O.O.O.O.+.+.+.+.+.+.+.+.+.+.+.#.=.$.-.-.c.c.c.v.b.b.b.M.m.m.v.v.c.k.-.-.-.-.-.-.z.-.-.$.z.c.b.b.n.n.n.n.V.V.A.A.Z.A.A.Z.Z.N.m.N.N.Z.Z.V.V.V.V.V.Z.V.Z.Z.V.m.m.V.Z.V.Z.Z.Z.",
"5 3 5 5 5 5 3 5 5 5 5 u u u u u u u u u i i u u u u u u u u u u u u 0 0 0 0 0 0 0 0 e e e e e e p i i i p p p t t t T T Q Q Q / / Q Q Q Q Q Q Q Q Q Q Q Q ! ! ! / / / Q Q Q ( / ( ( ( ) ) _ O.O.O.+.+.+.+.+.=.#.+.+.+.+.+.+.+.#.#.=.-.-.-.-.-.-.-.z.c.c.v.v.v.v.v.v.v.v.v.v.v.v.v.v.v.v.v.v.v.v.v.b.b.b.b.v.n.m.m.m.m.Z.V.V.V.V.Z.V.V.V.V.V.V.V.Z.Z.S.S.Z.V.m.m.n.m.m.m.m.n.v.b.b.v.c.c.c.c.z.z.c.c.-.-.-.-.-.-.-.$.=.-.=.=.$.$.$.$.#.$.=.=.-.-.=.$.$.+.+.+.+.+.+.+.+.+.+.+.+.+.+.+.O.O.O.+.+.+.O.O.O.O.] ] O.O.O.] ] ] _ _ _ ] ] ] ) O.) ) O.O.) O.O.O.O.O.+.+.+.+.+.+.+.+.+.#.#.$.$.-.c.c.b.b.v.v.v.v.b.b.c.z.k.z.z.z.z.z.z.z.-.-.-.$.z.c.v.v.v.v.b.b.n.m.m.m.n.m.m.m.m.m.Z.Z.N.m.m.m.V.V.V.Z.m.V.Z.V.m.m.V.V.m.V.V.V.",
"- - 5 5 5 3 3 3 3 3 5 u u u u u 3 5 u u u u u u u u u u u u u u u u 0 0 0 0 u i 0 0 0 0 0 0 e i e t i i p p p t t t t t t t T T Q / Q Q Q Q T Q Q Q T T T T T Q / Q Q Q Q Q Q Q / Q Q ~ ( ( _ _ [ [ O.O.+.+.+.#.+.+.+.+.+.+.+.#.#.=.-.-.$.$.=.-.-.-.-.z.v.v.v.v.c.v.v.v.v.v.v.v.v.v.b.b.b.b.b.b.v.v.v.v.c.b.b.v.v.v.v.m.m.m.m.m.m.m.n.n.v.m.m.m.m.m.V.V.m.m.n.v.v.v.v.n.n.v.b.v.b.v.z.-.-.-.-.-.-.-.-.-.-.-.-.=.$.$.#.$.#.#.#.#.$.#.$.$.=.=.=.-.=.$.$.+.+.+.+.+.+.O.O.O.O.O.O.O.+.O.] ] ] O.O.] ] ] ] ] ] ] ] ] ] ] _ ) ) ) ) ) ) ) ) ) ) ) ) ) ) ) ] ] ] ] O.O.O.O.O.O.O.O.+.+.#.#.-.-.-.c.v.b.v.v.b.b.b.c.k.k.k.z.v.v.v.v.z.z.-.-.=.-.z.z.z.z.z.c.c.c.v.v.v.v.v.v.v.v.n.m.m.m.m.m.m.m.m.m.m.m.m.m.m.V.V.Z.V.m.m.m.m.m.",
"- - - - - - - - 3 3 3 5 u u u u 3 u u u u u 0 0 5 5 5 5 5 5 5 5 u u 3 3 0 u u u u 0 0 0 0 0 i i a a i i i i i t p p t t t t t t T E E Q T T T T T T T t t t t T E E Q Q Q Q / / Q Q Q ! Q ! ( ( ( ) _ [ [ +.+.+.+.+.+.+.+.+.+.+.+.#.$.#.#.#.#.=.=.-.-.-.z.x.x.x.-.x.x.v.v.v.b.v.b.b.b.b.b.b.x.x.x.x.x.z.z.c.v.b.b.v.b.v.v.v.v.v.b.b.b.b.b.b.v.v.n.v.v.v.v.b.b.v.v.v.v.b.b.b.v.c.z.z.$.$.$.$.$.$.-.=.#.#.#.=.=.=.#.+.+.+.+.+.+.+.#.#.#.$.=.=.-.-.=.$.$.+.+.+.+.O.O.O.O.] ] ] ] ] O.] _ _ _ ] ] _ ] ] _ _ _ _ ) ) _ _ ) ) ) ) ) ) ) ) ) ~ ~ ~ ~ ~ ~ ) ) _ _ ] ] ] ] ] O.O.] O.O.+.+.#.$.=.-.-.-.c.z.v.v.b.c.z.k.k.k.z.v.v.v.c.z.z.-.-.-.-.-.-.z.z.-.-.-.c.z.c.z.z.z.z.v.v.v.v.n.n.m.n.n.n.n.n.n.n.n.v.m.m.Z.Z.V.V.m.m.m.m.",
"- - - - - - - > - - > > - > > > 5 5 5 u u 5 3 3 3 3 3 5 5 5 3 3 5 3 3 3 3 3 u u 0 u 0 0 0 u u i u i i i i i t i i i t t t t t t T T E T T T T T T t t t t t t t p t t d d d / / Q Q Q Q ! Q Q Q / ( ( ) _ [ O.+.+.+.+.O.O.O.O.+.+.+.+.+.+.+.#.=.=.=.-.-.-.x.x.x.x.x.x.x.v.v.b.b.v.v.x.x.x.x.x.x.x.x.z.z.z.c.v.b.b.b.b.b.b.b.b.v.v.v.v.c.v.v.b.b.b.b.v.v.v.c.z.z.z.z.z.z.z.z.z.k.k.$.$.#.#.#.#.#.#.#.+.+.+.+.+.+.+.+.+.O.+.+.+.+.+.+.#.=.=.=.=.=.=.$.$.#.+.+.O.O.O.O.] ] ] ] ] ] ] ) ) ) ) ) ) ) ) _ _ ) ) ) ) ) ] ) ) ) ) ) ) ) ) ) ) ) ~ ~ ) ) ~ ) ) ) ) ] _ ] ] ] ] O.O.O.O.+.+.+.#.$.$.=.-.-.z.z.x.x.z.z.z.c.z.z.z.z.z.z.-.z.-.-.-.=.=.-.-.-.=.=.=.-.$.$.$.$.$.-.z.z.x.x.v.v.v.v.b.b.v.v.v.v.v.v.v.m.Z.Z.Z.m.m.m.m.m.",
"- - - - - - > > - - > > > > > > > > > > - - - - - - - - - - - - > - 3 3 3 3 u u u 0 0 0 0 u u u 0 0 i i i i i e t t t t t t p p t t p t T E T T p t p p t p p p t t t t t t t t T T Q Q Q Q Q Q Q Q Q ( ) _ O.O.O.O.O.] ] ] O.O.O.+.+.+.+.+.=.=.=.=.=.-.-.-.-.x.x.x.x.x.v.v.b.b.x.x.x.x.x.x.z.z.x.x.z.z.x.x.v.v.v.b.b.c.v.v.c.v.c.c.c.c.z.c.v.c.v.c.z.z.z.z.k.k.k.$.$.%.$.$.%.%.$.%.%.+.+.+.+.%.+.+.O.O.O.O.+.+.+.O.] ] ] O.O.O.O.+.#.=.=.=.=.=.=.$.$.#.+.+.O.] O.] ] ] ] ] ] ] ] _ ) ) ) ) ) ) ) ) ) ) ) ) ) ) ) ) ) ) ) ] ] _ ) ) ) ) ~ ~ ~ ) ~ ) ) ) ) ) ) _ _ ] ] O.O.O.+.+.+.+.#.=.=.#.$.$.=.-.-.z.z.z.z.z.z.z.z.-.-.-.-.-.=.=.=.=.=.=.=.=.+.+.$.$.#.#.#.#.%.$.-.-.z.z.x.v.b.b.b.b.b.b.b.v.b.v.n.m.V.Z.Z.m.m.m.m.m.",
"3 3 - - - - - - - - > > > > > > > > > > > > > - - - - - - - - - 5 5 3 3 3 3 5 5 3 u 0 0 0 0 0 0 0 0 0 0 i i t e t t t t i t t t p p p p p p p p p p p p p p p p t t t t t t t t t t t Q Q Q Q T Q Q Q Q ~ ) ) ) ] ] ] ] ] ] O.O.O.O.O.+.+.+.=.=.=.=.=.-.-.-.-.-.-.-.x.x.x.x.x.x.x.x.x.x.z.z.-.-.z.z.z.z.z.z.z.c.c.v.c.c.c.c.c.c.c.c.z.z.z.z.c.c.v.z.z.-.-.-.$.$.$.$.#.%.%.%.%.%.%.+.+.+.+.+.+.+.+.O.] ] [ [ [ [ O.] ] _ ] ] O.O.O.+.#.$.=.=.=.$.$.#.$.#.+.+.+.O.O.] ] ] ] ] _ _ _ ) ) ) ) ) ) ) ) ) ( ( ( ) ) ) ) ) ) ) ) ] _ _ ) ) ) O.~ ~ ~ ) ) ) ) ) ) ) ) _ _ ] O.O.O.O.O.O.+.+.+.+.+.+.#.%.+.#.%.#.$.$.-.-.k.-.-.=.=.=.=.$.$.#.+.+.+.=.+.+.#.$.$.$.#.+.#.#.%.#.$.$.-.-.z.z.x.x.v.v.v.b.b.v.v.b.v.m.m.m.m.m.m.m.m.v.",
"3 3 3 3 > > > - - - > > > > > > > > > > > > > > - - - - - - - - - 3 3 3 3 3 5 5 3 3 3 0 0 0 0 0 0 0 0 0 0 0 0 0 0 t t t i i i t t t t t t t p p t t p p t t t t p t t t t t t t t t T Q Q Q Q Q Q Q Q ! Q ~ ~ ~ ) ) ) ] ] ] O.+.O.O.O.+.+.+.=.=.=.=.-.-.-.-.-.-.-.-.-.z.z.z.z.z.z.z.x.x.x.-.-.-.-.-.-.-.-.-.z.z.-.-.$.k.k.k.k.k.$.$.-.-.-.-.z.c.c.z.-.-.-.=.$.$.#.#.#.#.+.+.+.O.O.O.O.+.+.+.+.O.O.O.] ] ] ] ] _ [ ] _ ) _ ] O.O.O.+.#.$.$.$.#.#.$.$.$.$.#.+.+.+.O.] ] ] _ _ _ _ ) ) ) ( ( ) ( ( ) ( ~ ~ ~ ) ) ) ( ) ) ) ) _ _ _ ) ) ) O.~ ~ ) ) ) ) ) ) ) ) ) ) _ ] O.O.O.] O.O.O.O.O.+.+.+.+.+.+.+.O.+.#.#.$.$.$.$.$.#.#.#.+.%.#.+.+.+.+.+.+.+.#.#.$.$.#.+.+.+.%.%.#.#.#.#.=.-.x.x.z.c.v.v.b.v.c.b.M.M.m.m.m.m.m.m.n.v.",
"> > > - 3 3 > > - - > > > > > > > > > > > > > > > > - - - - - > - - 3 3 3 3 3 3 5 5 3 0 0 0 u 0 0 0 0 0 0 0 0 0 0 0 0 0 e e e e t t t t i i i i t t i i p t t t p p p t t t t t i p p t T Q d d d Q Q Q Q ! Q ! ~ ~ ) ] ] ] O.O.O.O.O.O.+.+.+.+.+.+.=.=.=.=.;.;.=.=.=.-.-.-.-.-.-.-.-.-.-.-.-.-.-.-.-.-.-.-.-.-.-.-.-.-.-.-.-.-.-.-.z.z.z.c.c.c.c.c.-.-.=.=.$.#.+.+.+.+.+.+.+.O.] ] O.O.O.O.O.O.+.O.] ] _ ] _ _ ] ] _ _ ] ] O.O.+.+.#.$.=.$.$.#.$.#.#.#.#.+.+.+.O.O.] _ _ _ ) ) ) ) ) ~ ) ) ) ( ) ) ( ~ ~ ~ ~ ~ ~ ~ ~ ) ) ) ) ) ) ) ) ) ) ) ) ] ~ ) ) ) ) ) ) ) O.O.] O.] ] ] ] ] O.O.O.O.O.O.+.+.+.+.+.+.+.+.#.+.+.+.#.+.+.+.+.+.+.+.+.+.+.+.+.#.#.#.#.+.+.+.+.+.+.+.+.+.+.$.-.-.z.z.z.c.c.v.v.c.v.b.v.M.M.m.m.M.M.v.v.",
"> > > - 3 - > > - - > > > > > > > > > > > > > > > > - - - - - > - - > > - - - - > 5 3 3 0 u u u u u u 0 0 0 0 0 0 0 0 0 i i i 0 0 0 i a i i i i e e t i i t t t i t p t t t t t t t t t t t Q d Q Q Q Q Q ! Q ~ ~ ~ ) _ ] ] ] O.O.O.[ O.O.+.+.+.O.+.+.$.$.$.#.#.$.$.=.=.=.=.-.-.-.-.-.-.-.-.-.-.-.-.-.-.-.-.-.-.-.-.-.-.-.-.-.-.-.-.z.z.-.-.-.-.z.c.-.-.-.=.$.#.+.+.#.#.+.+.O.] _ _ ] ] ] O.O.O.O.] ] _ ) ) _ _ ] ] ] ] ] ] O.O.+.+.+.#.=.$.$.#.#.#.#.#.#.#.+.+.O.] _ ) ) ) ) ) ) ) ) ) ) ) ) ) ) ) ) ) ( ( ~ ~ ~ ~ ~ ) ) ) ) ) ) ) ) ~ ~ ~ ) ) O.) ) ) ) ) ) ) _ ] ] ] ] ] ] ] ] ] O.O.O.O.O.O.O.O.+.+.O.O.+.+.+.+.+.+.+.+.+.+.%.+.+.+.+.+.+.+.+.+.+.+.+.+.+.+.O.+.+.+.+.#.=.-.z.z.x.c.b.c.v.b.v.v.b.v.M.M.M.M.M.v.v.v.",
"> > 3 - 3 3 > > - > > > > > > > > > > > > > > > > > - - - - - > - - - - - - - - > > - 3 0 0 0 0 5 3 3 3 3 u 0 u u u 0 0 0 0 0 0 0 0 0 0 0 0 u u 0 i i i 0 0 e e i t i t t t t t e t t t T T T Q t Q Q Q Q ! Q Q ~ ~ ) ) ] _ ] ] [ [ [ [ [ O.O.+.+.+.+.#.#.#.+.+.+.+.+.=.#.=.=.=.=.=.=.=.=.=.-.-.-.-.-.-.-.-.-.-.-.-.-.-.-.-.-.-.-.-.-.-.-.-.z.z.-.-.-.z.-.-.-.$.$.$.$.#.#.+.O.] _ _ _ ] ] ] O.O.] ] _ _ ) ) ) ) ) ] ] ] ] O.O.O.O.+.+.+.#.#.#.#.#.#.#.#.#.+.+.O.] ] ) ) ) ) ) ) ) ) ) ) ) ) ) ) ) ) ) ) ) ) ) ( ) ( ( ) ) ) ) ) ~ ) ~ ~ ~ ~ ~ O.O.) ) ) ) ) _ ) ) _ ] ] ] ] ] ] ] ] O.O.O.O.O.O.] O.O.O.O.O.O.O.+.+.+.+.+.+.+.+.+.+.+.+.#.$.$.$.+.#.#.#.+.+.+.O.O.+.+.+.#.$.-.z.v.v.v.b.b.b.b.b.b.b.b.v.v.v.v.v.v.b.c.z.",
"> > 3 3 3 3 > > > > > > > > > > > > > > > > > > > > - - - - - > - > > > > > > > > > - - 3 3 u > 5 3 3 3 3 5 3 3 u u u u u u 0 0 0 u u u u u u u 0 0 u 0 0 0 0 i i 0 0 e e e e i 0 t t t t t T T t T Q Q Q Q Q ! Q ~ ~ ( ) ) ) ) [ [ [ [ [ [ O.+.+.+.+.+.+.+.+.+.+.+.+.+.+.+.+.+.=.=.=.=.=.=.=.=.=.=.=.=.=.-.-.-.-.-.-.-.-.-.-.-.-.-.-.-.-.x.x.x.z.c.c.v.z.-.-.-.-.-.-.=.#.+.+.+.O.O.] ] ] ] ] ] ] ] _ ) ) ) ) ) ) ) ] ] ] ] O.O.O.O.O.+.+.+.+.#.+.+.+.+.#.+.+.O.] ) ) ) ) ) ) ( ( ( ) ) ) ) ) _ _ ) ) ) _ _ ) ) ) ) ) ) _ _ ) ) ) ) ) ~ ~ ) O.O.O.O.O.] ] ] _ ) _ ] ] O.O.O.O.O.] O.O.O.O.O.O.O.] O.O.O.O.O.O.+.+.+.+.+.+.+.+.#.#.+.+.$.=.-.-.-.=.=.$.$.#.+.+.+.O.+.+.#.#.-.z.c.v.v.b.b.b.b.b.b.v.v.b.b.v.v.v.v.b.v.z.z.",
"> 3 3 3 - > - > > > > > > > > > > > > > > > > > > > - - - - - > - - - > > > > > > > > - - - - > > - - - 3 3 3 3 3 5 5 5 3 3 3 3 0 u u u 0 0 0 0 0 0 0 0 u 0 0 i 0 0 0 0 e i i 0 0 0 t t t t t t t t T Q Q Q Q Q Q Q ~ ~ ~ ~ ( ) ) ) ) _ ] [ [ O.O.O.+.+.O.O.O.O.+.+.+.+.+.+.+.+.+.+.=.+.+.=.=.=.=.=.=.#.#.=.-.-.-.-.-.-.-.-.-.-.-.-.-.-.-.-.x.v.c.z.z.-.-.z.z.-.-.-.-.-.=.$.#.#.+.+.+.O.O.] _ _ _ _ ) ) ) ( ( ( ) ) ) ) _ ] ] ] ] ] O.O.O.+.+.+.+.+.+.+.+.+.O.] _ ) ) ) ) ( ~ ~ ~ ( ) ) ) ) _ _ ] ] _ ) ) ) ] _ ] _ _ ] ] ] _ _ ) ) ) O.O.O.O.O.O.O.O.O.+.+.O.O.O.O.O.O.O.O.O.O.O.O.O.O.O.O.O.] ] ] O.O.O.+.+.+.+.#.#.$.$.$.=.=.$.$.=.-.z.z.z.z.z.-.$.$.#.+.+.+.O.+.+.#.#.-.-.c.v.v.v.b.v.v.v.v.n.v.v.M.v.v.v.v.v.v.-.-.",
"> - 3 3 - 3 > > - > > > > > > > > > > > > > > > > > - - - - - > > > - - - > > > > > > - - - - > > - - - - - 3 3 3 3 3 3 3 3 3 3 3 5 5 5 3 5 5 5 0 3 u u u u 0 0 0 0 0 0 0 0 0 0 0 0 t t t t t t t t T T T T Q Q Q Q Q Q ~ ~ ( ( ( ( ( ) ) _ ] [ O.O.+.+.O.O.O.O.+.O.O.O.O.O.+.+.+.+.+.+.+.#.=.=.=.=.=.#.#.$.=.-.-.-.-.-.z.z.-.-.-.-.-.-.-.-.-.x.z.z.-.-.-.-.c.c.-.z.-.-.-.-.-.-.$.#.+.+.+.O.] _ ) ) ) ( ~ ( ( ( ) ) ) ) ) _ _ ] ] ] ] ] O.O.+.+.+.+.O.O.O.O.] _ ) ) ) ( ( ( ~ ~ ~ ~ ( ) ) ) _ ] ] ] ) ) ) ) ] ] ] ] ] ] ] ] ] ] ) ) ) O.O.O.+.+.O.+.#.$.#.#.#.+.+.+.+.+.O.O.O.+.+.+.+.+.+.+.O.O.O.O.O.O.+.+.+.+.$.$.$.=.=.=.-.-.-.-.-.z.c.v.v.v.c.-.-.$.$.#.+.+.+.+.+.+.=.=.-.-.v.v.v.v.v.v.v.v.v.v.v.v.v.v.v.v.c.c.-.-.",
"- - 3 - - 3 - - - - > > > > - - > > > > > > > > > > - - - - - > > > > - - > > > - > - - - - - - - - - - - - - - 3 3 3 - - - 3 3 3 3 3 3 3 3 5 5 5 5 u u u u u u 0 0 0 0 0 0 0 0 0 0 e t t t t a t t t p T t T T T Q Q ! ! ! Q Q ~ ~ ( ( ( ) ) ) _ ] ] O.O.[ O.O.O.O.O.[ [ O.O.O.+.+.+.+.+.+.=.=.=.=.=.#.$.=.-.-.-.-.c.c.v.v.v.v.c.c.c.c.-.-.-.-.z.-.-.-.-.z.c.c.c.c.c.c.z.-.-.-.-.=.#.#.+.+.+.O.] ] ) ) ( ( ( ( ) ) ( ( ) ) ) _ ] ] ] ] ] O.O.O.O.O.O.] ] ] _ ) ) ) ) ) ( ( ~ ~ ~ ~ ~ ) ) ) _ ] ] ] _ ) ) _ ] ] ] ] ] ] ] ] ] _ ) ) ] O.O.+.+.+.%.#.$.$.=.=.=.=.=.=.$.+.+.+.$.=.=.$.#.#.#.+.+.+.O.+.+.+.+.#.$.=.$.$.=.=.-.-.-.-.-.-.c.v.v.b.b.v.c.c.-.-.-.=.$.#.+.+.+.=.=.=.-.-.x.v.c.v.z.z.v.v.v.v.v.v.v.v.v.v.c.c.-.-.",
"- - - - - - - - 5 5 - > > - 3 3 - - - - - - - - > > - - - - - > - - - - - - - - > > - 3 - - - - - - - - - - 3 3 - - - - - - - - - - - - 3 3 0 u 5 5 5 u u u u u 0 0 0 0 0 0 0 0 0 0 e e e e e a i p p p p t T t T Q Q Q Q ! Q Q Q Q ( ( ( ( ( ( ~ ( ) ) ) ) _ _ O.O.O.[ O.O.O.O.O.+.+.+.+.+.#.$.=.=.=.=.-.-.-.-.z.c.c.v.v.v.v.v.v.b.b.c.c.-.-.-.z.-.-.-.z.c.c.c.c.c.b.b.b.c.c.-.-.-.=.=.=.$.#.+.+.+.O._ ) ( ( ~ ) ) ( ~ ( ) ) _ ] ] ] ] ] O.O.O.O.O.] ] _ _ ) ) ) ) ) ) ( ( ~ ~ ~ ~ ( ) ) ) _ ] ] ] ] ] ] ] ] ] ] ] ] ] ] ] ] ] ) _ ] O.+.+.+.#.%.$.$.$.=.=.-.-.-.-.-.=.=.=.-.-.z.-.-.-.-.=.#.+.+.+.=.=.=.=.=.=.$.$.=.=.-.-.-.-.z.c.v.v.b.b.b.v.c.c.c.c.z.-.-.=.+.+.=.=.=.=.-.-.-.-.x.z.-.-.x.v.v.v.v.v.v.v.c.c.v.v.x.-.",
"> > > > > > > > > > > > > > > > > > > > > > > > - - > - - - 5 - - - - - - - - - - - - 3 3 < - - 3 3 - - - - - - - - - 3 3 - - - - - - - - 3 3 3 3 3 3 5 5 5 5 5 5 u 0 0 0 0 0 0 0 0 0 0 e e a a t t t t p p p E d Q Q Q Q Q Q Q Q / ( ~ ~ ~ ( ( ( ( ) ) [ [ [ [ ] ] ] ] ] ] O.O.+.+.+.+.+.+.#.#.+.$.-.-.=.=.-.-.-.v.v.v.M.M.m.m.m.M.v.v.c.x.x.c.c.c.c.z.c.v.b.b.v.b.v.v.b.v.v.c.c.z.c.c.z.-.-.-.$.#.+.O.] ) ( ~ ) ) ) ) ) ) ) _ ] ] O.] ] ] ] ] ] ] ] ] ] ] _ _ ) ) ) ) ( ( ~ ~ ~ ~ ~ ~ ( ) ) ) ) ] O.] ] ] ] [ ] ] ] ] ] ] ] ] ] ] ] O.+.+.+.#.#.#.#.$.=.=.=.=.-.-.-.=.-.-.-.-.-.-.-.-.-.-.-.-.-.-.-.-.-.-.-.=.-.=.$.=.-.-.-.-.-.c.v.b.b.b.v.v.c.c.c.c.c.-.-.=.=.=.=.=.=.-.-.-.-.-.-.-.-.-.-.v.v.v.v.-.v.v.v.v.v.v.v.v.",
"- - - - - - - - - - - - - - - - - - - - - - - - - - - > - - 5 - - - - - - - - - - - - 3 0 u u u 3 3 3 3 3 3 - - - 3 3 3 3 3 3 3 3 3 - - - 3 3 3 3 3 3 3 3 3 3 3 5 3 0 0 0 0 0 u 0 0 0 0 0 0 0 0 e t a t i i t t t t t t Q Q Q Q Q Q Q Q Q Q Q / ( ~ ( ( ) ) ) [ ] ] _ _ _ ] ] O.O.O.O.+.+.+.+.#.#.$.-.-.=.=.-.-.c.v.v.M.M.M.m.m.M.M.M.v.v.c.c.v.v.c.c.c.c.b.b.v.v.v.M.M.M.M.M.v.b.b.v.v.c.c.z.-.-.-.-.#.+.O.) ) ) ) ) ) ) ) ) ) ] ] ] ] ] ] ] ] ] ] ] ] ] ] _ _ ) ) ) ) ) ( ( ( ~ ~ ~ ~ ( ) ) ) ) ) ] ] _ ] ] _ ] ] _ _ _ ] ] ] ] ] ] O.+.+.+.+.#.+.+.+.$.$.#.#.$.=.=.=.=.=.-.-.x.x.x.z.z.c.z.z.c.c.c.v.v.c.x.-.-.-.-.-.-.-.-.-.z.c.v.v.v.v.b.v.c.c.c.c.c.x.-.-.=.=.=.=.=.-.-.-.-.-.-.-.-.-.-.-.-.-.-.-.-.-.-.v.x.x.-.-.",
"- - - - - - - - - - - - - - - - - - - - - - - - - - - - - - - 3 - - - - - - > > - - - 3 u u u u 3 0 0 0 0 0 5 3 3 3 3 3 3 3 3 3 3 3 3 3 - - > 3 3 3 3 3 3 3 3 3 3 3 3 u 0 u u 0 0 0 0 0 0 0 0 0 i i i e t t t t t t t t t t t t t T Q Q Q Q Q Q Q Q Q ~ ~ ( ( ( ) ) ) ) ) ) _ ] ] O.O.O.+.+.+.+.+.$.=.-.-.-.-.-.z.c.v.v.v.v.M.M.M.M.M.v.b.b.b.b.b.v.v.v.b.v.v.v.M.m.m.m.m.m.M.M.M.M.v.v.v.v.v.v.v.v.c.z.-.#.+.] ) ) ) ] ] ] _ _ _ ] ] ] ] _ _ _ ) ) ] ] _ ) ) ) ) ) ) ) ) ) ( ( ~ ~ ~ ~ ( ( ) ( ~ ) ) _ _ ) ) ) ) ) ) ) _ _ ] ] ] ] ] ] O.O.+.+.+.+.+.+.+.+.#.+.#.$.$.$.$.=.=.-.-.-.-.-.z.c.v.v.v.v.v.v.v.v.c.x.-.-.-.-.-.-.-.x.c.v.b.v.n.n.b.b.v.v.v.c.c.c.z.-.-.-.-.-.-.-.-.-.-.-.-.-.-.-.-.-.-.-.-.-.-.-.-.-.-.-.-.-.",
"- - - - - - - - - - - - - - - - - - - - - - - - - - - - - - - - - - - - - - - - - - 5 3 u u u u u u u u u u u u u u 0 0 0 0 0 0 0 0 3 3 u u u - 3 3 3 3 3 3 3 3 3 3 5 5 0 u 5 3 0 0 u u u 0 0 0 i i i 0 0 e w e e e e t t t t t t t t t t T Q Q Q Q Q ! Q ~ ( ( ( ( ( ( ) ) ) _ ] O.O.O.+.+.+.+.+.#.$.$.$.$.=.-.-.-.c.c.c.b.b.b.b.b.b.b.c.c.c.c.b.v.v.b.v.M.M.M.M.m.m.m.m.m.m.m.m.m.m.m.n.v.v.v.v.v.v.x.z.-.=.+.O.O.O.O.] ] ] _ _ ] ] ] ] _ ) ) ) ) ) ) ) ) ( ( ( ( ( ) ( ( ( ( ~ ~ ~ ~ ~ ~ ~ ~ ~ ~ ( ) ) ) ~ ~ ( ) ) ) ) ) _ _ _ _ _ _ _ ] ] ] O.O.O.O.O.+.+.+.+.+.#.#.+.$.$.=.-.-.-.-.-.-.z.z.c.c.c.c.v.c.x.-.-.-.-.-.-.-.-.x.c.c.v.b.n.n.b.b.b.v.v.c.v.v.v.x.-.-.-.-.-.-.-.-.-.-.-.-.-.=.-.-.-.-.-.-.-.-.-.-.-.-.-.-.",
"- - - - - - - - - - - - - - - - - - - - - - - - - - - - - - - - 5 5 5 5 5 5 5 5 - 5 5 u u u 5 5 u u u u u u u u u u 0 0 0 0 0 0 0 0 u u u u u 3 3 5 5 5 5 5 5 5 3 3 3 3 5 3 3 3 u u u u u u u u u u 0 0 0 0 0 w e e e e t e t t t t t t t t t Q T Q Q Q Q Q Q Q ~ ( ( ~ ( ) ) _ ] O.O.+.+.+.+.+.+.#.#.#.$.$.$.=.-.-.-.c.c.c.c.c.c.c.c.c.c.z.z.c.v.c.v.b.b.M.M.M.m.m.m.N.N.m.m.N.N.m.N.B.m.m.m.m.n.v.v.v.c.-.-.=.#.+.+.O.] ] ] ] ] ] ] ] _ ) ) ) ( ( ( ( ~ ~ ~ ~ ~ ~ ~ ~ ~ ~ ~ ~ ~ ~ ~ ~ ~ ~ ~ ~ Q ~ ~ ~ ~ ~ ~ Q ~ ~ ~ ~ ( ) ) ) ) ) ) ) ) ) ) ] _ ] ] _ O.O.O.+.+.+.+.+.+.+.+.$.$.$.#.#.$.=.-.-.-.-.-.-.c.c.-.-.-.-.-.-.-.-.x.c.c.v.v.b.n.n.b.b.v.v.v.b.v.v.v.x.z.-.-.-.-.-.-.-.-.-.-.-.-.-.-.-.-.-.-.=.=.=.=.=.=.=.=.=.",
"- = = = - - - - - - - - - - - - - - - - - - - - - - - - - - - - 5 5 5 5 5 5 5 5 5 5 5 5 u 5 5 5 u u u u u u u u u u u 0 0 0 0 0 0 u u u u u u u 0 0 5 u 5 u u u 0 0 3 5 5 3 3 3 3 3 u u 0 0 u u u u 0 0 0 0 0 0 0 0 0 e t 0 e e t t t t t t t t t t t T Q Q Q Q Q Q ~ ( ~ ( ) ] ) ] O.O.O.+.+.+.+.+.+.+.#.#.$.$.=.-.-.-.c.z.c.c.z.z.z.z.-.-.z.z.c.c.c.b.b.M.M.m.m.m.m.N.N.N.N.N.N.N.N.N.N.N.B.B.N.B.v.v.v.c.-.-.-.$.+.O.O.] ] ] ] ] _ _ ) ) ) ( ~ ~ ~ ~ ~ ~ ~ Q Q Q ~ ~ ~ ~ Q Q Q Q Q Q Q Q Q / Q Q Q Q Q Q ! ! Q ~ ~ ~ ~ ~ ( ( ) ) ) ) ) ) ) ) ) ) ) _ ] O.O.O.O.+.O.+.+.+.+.+.$.#.#.#.#.$.=.=.=.=.=.-.-.-.-.=.-.-.-.-.-.-.v.v.c.c.v.b.v.v.n.v.v.v.v.v.v.v.v.x.x.-.-.-.-.-.-.-.-.-.-.-.-.-.-.-.-.-.=.=.=.=.=.=.=.=.=.=.",
"- - = - - - - - - - = = - - - - - - - - - - > - - - - > - - - - > > - - - - - - - 5 5 5 5 u 5 5 u u u u u u u u u u u 0 0 0 0 0 0 u 0 u u 0 0 0 0 0 0 0 0 0 0 0 0 0 u u u u u u u u u u 0 u u u u u 0 0 0 0 0 0 0 0 0 0 0 t e e 0 e t t e t t t t t t t T T Q Q Q Q Q ~ ~ ~ ) ) ) ) _ ] ] [ [ O.+.+.+.+.+.+.+.+.+.$.$.-.-.-.-.-.-.-.-.-.-.-.x.c.c.v.v.b.b.M.M.M.m.m.m.N.N.N.N.N.N.N.N.N.N.N.N.N.N.m.v.v.v.v.c.c.z.-.$.+.+.+.+.] [ ] _ ) ) ) ) ( ~ ~ ~ ~ ~ ~ ~ ~ Q Q ~ ~ ~ ~ Q Q Q Q Q Q Q Q Q / Q Q ! ! ! Q ! ! Q Q Q Q Q ~ ~ ~ ~ ~ ~ ~ ~ ~ ( ( ( ) ) _ _ ] _ O.O.O.O.O.O.O.+.+.+.+.+.#.$.$.=.=.=.#.#.$.$.$.=.$.=.=.=.=.-.-.-.v.v.c.c.v.v.v.v.n.n.m.m.v.v.v.v.v.x.-.-.-.-.-.-.-.-.-.-.-.-.-.=.=.-.=.=.=.=.=.+.+.+.+.+.+.",
"> > : : > > > > > > : : : > > > = = > > > > > > - - - > - - - - - - - - - - > > - 5 5 5 5 u 5 5 u u u u u u u u u u u u 0 0 0 0 0 0 0 0 0 0 0 0 0 0 0 0 0 0 0 0 0 0 u u u u u u u u u u u u u u u u 0 0 0 0 0 0 0 0 0 0 0 e 0 e 0 e t e t t t p t t t t t T T T Q Q Q Q Q ~ ~ ) ~ ) ) _ _ _ ] [ O.O.O.O.O.+.+.+.+.+.+.$.$.$.=.-.-.-.-.-.-.-.x.c.v.v.v.b.M.n.M.m.M.m.m.m.N.N.m.m.m.m.N.N.N.N.N.B.B.m.v.v.v.v.v.c.v.z.-.-.$.#.+.O.[ [ _ ) ) ) ) ( ~ ~ ~ ~ ( ( ~ ~ ~ ~ ~ ~ Q Q Q Q Q Q Q Q Q Q Q Q ( Q ! ! ! ! ! ! ! ! ! ! ! ~ ! ! Q Q Q Q Q ~ ~ ~ ~ ) ) ) _ _ _ _ _ ] ] O.O.O.+.+.+.+.+.#.#.$.=.=.=.#.#.#.$.$.$.#.+.=.=.=.=.-.-.-.x.x.z.c.v.v.v.n.n.m.m.M.v.x.x.v.x.-.-.-.-.-.-.-.=.-.-.-.-.=.=.=.=.=.=.=.+.+.+.+.+.+.+.+.",
"> > > > > : : = : : > > > : : : : : : : > > > : - > > - - - > > > > > > > > > > - - - 3 3 5 3 3 u u u u u u u u u u u 0 0 0 0 0 0 0 0 0 0 0 0 0 0 0 0 0 0 0 0 0 u u u u u u u u u u u u u u u u 0 0 0 0 0 u 0 0 i i 0 e e e t t t i a a a i t t t t t t t t T Q Q Q Q Q Q Q ~ ~ ~ ~ ( ) ) ) ) ) ] ] [ [ [ ] O.O.+.+.+.+.#.#.#.$.$.=.=.=.-.-.x.x.c.c.v.b.b.b.n.b.M.M.m.m.m.m.m.m.m.m.N.N.B.N.B.m.B.n.v.M.v.v.v.v.c.c.-.-.-.=.$.$.#.+.+.[ ] _ ) ) ) ( ( ) ) ) ( ~ ~ ~ ~ ~ ~ ~ Q Q Q Q Q Q Q Q Q Q ! Q Q Q Q Q Q Q Q Q Q Q Q Q Q ! Q ! Q Q ! ! ~ ~ ! ~ ~ ( ) ) ) ) ) ) _ ] O.O.O.O.+.+.+.+.$.=.-.=.-.-.=.$.$.#.#.+.#.=.=.=.=.=.-.-.-.-.-.z.v.v.v.v.v.v.v.v.v.v.x.-.c.-.-.-.-.-.-.-.-.-.-.-.-.=.=.=.=.=.=.+.+.+.+.+.+.+.+.+.",
"> > > > > > : = : : > > > > : : : : : : > > > > - - - - - - - > - - - - - - - - - - - - 5 3 3 3 5 5 u u u u u u 0 0 u u 0 0 0 0 0 0 0 0 0 0 0 0 3 0 0 0 0 0 0 0 u u u u u u u u u u u u u u u u 0 0 0 0 0 0 0 0 i i 0 e e 0 t t t t a a a i t t t t t t t t T T T T Q Q Q Q Q ~ ~ ~ ~ ( ) ) ) ) ) ) _ _ _ _ ] ] ] O.+.+.+.+.#.#.$.$.=.=.=.-.-.x.c.c.v.b.b.b.b.v.v.M.M.m.m.M.M.M.m.m.m.B.B.B.B.m.m.m.v.v.v.v.v.v.v.v.c.v.c.-.-.-.-.=.#.+.+.[ ] _ ) ) ) ) _ _ ) ) ) ( ( ~ ~ ~ Q ! Q Q Q Q Q Q Q Q Q Q Q Q Q Q Q Q T Q Q Q Q Q Q Q Q Q Q ! Q Q ! ! ! ! ~ ~ ~ ~ ~ ( ~ ) ) _ ] ] ] ] O.O.+.+.+.#.=.-.-.=.$.$.$.#.+.+.#.+.+.+.=.=.=.-.=.=.-.-.-.z.c.c.v.v.v.v.v.c.x.-.-.-.-.-.-.-.-.=.-.-.-.-.=.=.=.=.=.=.+.+.+.+.+.+.+.+.+.O.",
"= = > : > > > > > > > > > > : : > : > > > > > > = = - - - - - - - - - - - - - - - - - - > > > > > > 5 3 3 3 3 0 5 3 3 0 0 0 u 0 u u 0 u u u u u 0 u u u u u u u u u u u u u u u u u u u u u u u u u 0 0 0 0 0 u i 0 0 e e e e t t e t e a t t t t t t t t t t t t t T Q Q Q Q Q Q Q ( ( ~ ( ( ) ( ) ) ) ) ) _ _ ] ] O.O.+.+.+.+.+.#.$.$.=.-.-.x.x.x.c.c.c.c.v.b.v.v.v.v.v.v.v.v.v.v.v.v.v.v.n.n.m.m.M.v.b.v.v.b.b.b.v.v.v.v.v.v.z.z.-.=.#.+.+.O.] ] _ _ O.O.O.] _ ) ) ) ( ~ ~ ! ! Q Q Q Q Q Q Q Q Q T T Q Q Q Q T Q Q Q Q Q Q Q Q Q Q ! Q Q Q Q Q Q ~ ~ ~ ~ ~ ~ ~ ~ ) ) ) ) _ ] _ ] O.O.+.+.#.$.=.=.=.$.#.#.+.+.+.+.+.+.+.+.+.=.+.+.+.#.=.-.-.-.z.c.v.v.v.c.-.-.-.-.-.-.-.-.=.=.=.=.-.-.=.=.=.=.=.=.+.+.+.+.O.+.+.+.O.O.",
"= = = : > > > > > > > > > > > : > > > > > > > > = = = - - - - - - - - - - - - - - - - > > > > > > - - 3 3 3 3 3 - - 3 3 0 0 0 u u u u u u u u u u u u u u u u u u u u u u u u u u u u u u u u u u u u 0 u 0 0 u i 0 e e e e e t t t t e i t t t t t t t t t t t t t t t t Q Q Q Q Q Q Q Q Q ~ ( ( ( ) _ ) ) ) ) _ ] O.O.O.+.+.+.+.+.+.+.$.$.-.-.-.-.-.x.-.z.z.c.z.c.c.v.c.c.c.c.c.c.v.v.v.v.v.v.v.v.b.b.b.b.b.b.b.v.v.v.v.v.v.v.v.c.-.-.=.=.#.+.+.+.+.+.+.+.+.+.O.] _ _ ) ( ~ ~ ~ Q Q Q Q Q Q Q Q Q Q Q Q Q Q Q T Q Q Q ! ! ! ! ! ! Q ! ! ! Q Q Q Q ! Q ~ ~ ~ ~ ~ ~ ( ( ) ) ) _ _ _ O.O.O.O.+.#.=.$.$.#.#.#.+.+.+.+.+.+.+.+.+.+.+.+.+.+.#.#.=.-.-.-.-.c.c.-.-.-.=.=.-.-.-.=.=.=.=.=.=.=.=.=.=.=.=.=.+.+.+.+.+.+.+.+.+.O.",
"= = = > > > > > > > > > > > > > > > > > > > > > = - - - - - - - - - - - - - - - - - - - > > > > - - - - - - - - - - 3 3 3 3 5 u 3 3 3 3 3 3 3 3 u u u u u u u u u u u u u u u u u u u u u u u u u u u u 0 0 0 u 0 0 e e e e t t t t t t t t t t t t t t t t t t t t t t t d d d Q Q Q Q Q Q Q Q ( ( ( ) ) ) ) ) ) _ ] ] ] O.O.+.O.+.+.+.+.+.$.=.=.=.-.-.-.-.-.-.$.z.z.c.c.-.-.c.-.-.x.-.z.z.c.c.c.c.v.v.v.v.v.v.b.v.v.v.v.v.v.v.v.v.z.-.-.-.-.=.$.$.#.#.=.=.$.$.+.+.+.O.O.] ) ) ( ~ ~ Q Q Q Q Q Q Q Q Q Q ! Q Q Q Q Q ~ ~ ~ ~ ~ ~ Q Q Q Q Q Q Q Q Q ! ! ! ~ Q ~ ~ ~ ~ ( ( ) ) _ _ ] ] _ O.O.+.+.$.$.+.#.+.+.+.#.+.+.+.+.+.+.+.+.O.O.O.+.+.+.#.#.$.=.-.-.c.x.-.-.=.=.-.-.-.=.=.=.=.=.=.=.=.=.=.=.=.=.=.=.+.+.=.+.+.+.+.+.",
"= = > > > > > > > > > > > > > > > > > > > > > > = = - - - - - - - - - - - - - - - - - - > > - > - - - - - - - - - - - - - 3 3 3 3 5 3 3 5 5 5 5 5 5 u u 5 5 u 5 u u u u u u u u u u u u u u u u u u u u u 0 0 0 0 0 0 e e e e t e e e t t t t t t t t t t t t t t t t e t t d d Q Q Q Q Q Q Q Q Q Q ~ ~ ~ ~ ~ ~ ( ) ) ) ) _ ] ] ] O.O.+.+.+.+.+.#.$.=.=.=.=.=.-.-.-.-.-.-.-.-.-.$.-.-.-.-.-.z.z.c.c.c.c.c.c.c.c.v.c.c.x.c.c.c.c.v.v.c.-.-.-.-.-.-.-.-.-.-.-.-.=.$.$.+.+.+.+.O.O._ ) ) ( ( ( ( ( ~ Q ! ! ! ! ! ! ~ ~ ( ( ( ~ ~ ~ ( ( Q Q Q Q Q Q Q ! ! ! Q Q Q ~ ~ ~ ( ) ) ) ) _ ] ] ] O.O.O.+.+.=.=.=.+.+.+.#.#.+.+.+.+.+.+.+.+.O.O.O.[ O.+.+.+.=.=.-.-.-.-.-.-.=.=.=.=.=.=.=.=.=.=.=.=.=.=.=.=.=.=.=.=.=.=.=.=.+.+.+.+.",
"= = = > = = = = = = = = = = = = = = = = = = > > : = = = = = - - = = = = - = = = - - - - - - - - - - - > > > > > > > - > - - > > 3 3 3 3 3 3 3 3 3 3 3 3 3 3 3 3 3 3 3 3 3 5 3 3 3 3 3 3 u u u 0 3 3 0 0 u u 0 0 3 0 0 e e e 0 0 e 0 0 0 e t t t t t t t p t t t t t t t t t t t t t T Q Q Q Q Q ! ! ! ! Q ! ~ ~ ~ ~ ( ( ) ) ) _ ] O.O.O.O.+.+.+.+.+.+.$.$.$.$.$.$.$.$.$.=.=.-.-.$.-.-.-.-.-.-.-.-.-.x.c.c.x.c.c.x.x.-.-.x.x.c.c.c.-.-.-.-.-.-.-.-.-.x.c.x.x.-.-.=.=.=.$.$.+.+.+.O.] ] _ ) _ ) ( ( ( ~ Q Q ~ ~ ! ~ ( ) ) ) ) ) ) _ _ ) ( ( ( ( Q Q ~ ~ ~ ~ Q Q ~ ~ ( ) ) _ ] ] O.+.O.O.O.+.+.+.#.=.=.+.+.+.+.+.+.+.+.+.+.+.+.+.+.O.O.O.[ O.+.+.+.=.=.=.=.=.=.=.;.$.$.$.=.=.=.=.=.=.=.=.=.=.=.=.=.=.=.=.=.=.=.+.+.+.+.+.+.",
"= = = = = = = = = = = = = = = = = = = = = = = = : : = = = = - - = = = = = = = = - - - - - - - - - - - > > > > > > > > > - - > > 3 3 3 3 3 3 3 3 3 3 3 3 3 3 3 - 3 3 3 5 5 5 3 3 3 3 3 3 u u 0 0 3 3 3 3 3 3 3 3 3 3 0 0 0 e e 0 0 0 0 0 0 e e t e t t t p p p t T t t t t t t t t t T T Q Q Q Q ! ! Q Q Q ! ! ~ ~ ~ ~ ( ( ) ) ) _ ] O.O.O.O.O.+.+.+.+.+.+.+.+.+.+.+.+.#.#.$.$.$.$.$.$.=.=.-.-.-.-.-.-.-.-.-.-.-.-.-.-.-.x.x.-.-.-.-.-.-.-.-.-.-.-.-.c.v.v.c.-.-.=.=.=.=.$.$.+.+.+.O.O.O._ _ _ _ _ ) ) ( ( ) ) ) ) ) _ ) _ _ ] O.O.O.[ [ _ _ ) ( ~ ~ ( ~ ~ ~ ~ ~ ( ) ] ] O.O.+.+.+.+.+.+.$.=.=.-.=.=.+.+.+.+.+.+.O.+.O.+.+.+.O.+.+.+.O.O.+.+.+.#.=.=.=.+.+.+.+.+.$.$.#.+.=.=.=.=.=.=.=.-.=.=.=.=.=.=.=.=.=.+.+.+.+.+.+.+.",
"= = = = = = = = = = = = = = = = = = = = = = = = = = = = = = = = = = = = = = = = - - - - - - - - - > > > > > > > > > > - 5 5 5 5 > > > 3 3 3 3 3 3 3 - 3 3 - - - 3 3 3 3 3 5 0 0 5 5 5 5 3 3 5 5 0 0 3 3 3 3 0 3 0 3 0 0 0 0 0 0 0 0 0 0 e e 0 i i t p E E T t t t t t t t t Q Q Q Q T T T Q Q Q ! ! ! Q Q ! ! ! ~ ( ~ ~ ~ ( ) ) ) _ ] O.] ] O.+.O.O.O.O.+.+.+.+.+.+.+.+.+.+.+.+.+.+.#.#.#.$.=.=.$.=.-.-.-.-.-.-.-.-.-.-.-.-.-.-.=.=.=.=.=.-.-.-.-.x.x.x.-.-.-.-.=.=.=.=.=.$.+.+.O.O.O.] ] O.] ] ) ) ) ) ) ) ) ) ) ) ) _ _ [ O.+.+.+.+.+.O.[ [ _ _ _ _ ) ) ) ) ) ] ] O.+.+.+.+.+.$.$.+.$.$.=.;.=.=.=.=.=.+.#.+.+.+.+.+.+.+.+.+.+.+.+.+.+.+.=.=.=.=.=.+.+.+.+.+.+.+.+.=.=.=.=.=.=.=.=.=.=.=.=.=.=.=.=.+.+.+.+.+.+.+.+.+.+.",
"= = = = = = = = = = = = = = = = = = = = = = = = = = = = = = = = = = = = = = = = = - - - - - - - - - > > > > > > > > > - > > - > > 3 3 3 3 3 3 3 3 3 3 - 3 3 - - 3 3 3 3 5 5 u u 5 5 5 5 3 3 3 5 0 3 3 3 3 0 0 3 3 3 0 0 0 0 0 0 0 0 0 e 0 0 e i t e p p E T t t t t t t Q Q Q Q Q Q Q Q Q Q Q Q ! ! ! Q Q Q ! Q Q ~ ~ ~ ~ ~ ( ( ) ) ] ] ] _ ] ] ] ] ] ] ] O.O.O.O.O.O.O.O.+.+.+.+.+.+.+.+.+.#.#.+.$.=.=.=.=.=.=.=.=.=.=.=.$.=.=.=.=.$.=.=.=.-.-.-.-.v.v.x.-.-.-.=.=.=.=.=.=.$.+.+.+.O.O.O.O.] ] ] ] ] ] ] ] _ _ _ _ ] _ [ O.+.+.+.+.+.+.+.O.O.O.[ [ [ ] ] ] ] O.O.+.+.+.+.#.#.$.=.$.$.$.$.=.;.=.=.=.=.=.=.+.+.+.+.+.+.+.+.+.+.+.+.+.+.+.+.=.=.=.=.=.=.+.=.=.+.+.=.=.=.=.=.=.=.=.=.=.=.=.+.+.+.+.+.+.+.+.+.+.+.+.+.+.+.+.",
"= = = = = = = = = = = = = = = = = = = = = = = = = = = = = = = = = = = = = = = = = = - - - - - - - - > > > > > > > > - - 3 - - - 3 3 3 3 3 3 3 3 3 3 3 3 3 3 3 < 3 3 5 5 5 5 5 u 5 5 3 3 3 3 5 5 0 0 3 3 3 3 3 3 3 3 3 0 0 0 0 0 0 0 0 0 0 0 t i t t t p T t t t t t t T t T Q Q Q Q T Q Q Q Q Q ! ! ! Q Q Q Q Q Q Q ~ ~ ~ ~ ~ ~ ~ ) ) ) ) ) ) ) ] _ _ _ _ ] ] ] ] ] ] ] ] ] O.O.O.O.+.+.+.+.+.+.+.+.#.#.#.#.#.#.#.#.#.+.+.+.+.+.#.#.+.+.#.$.=.-.-.-.-.-.-.-.-.-.=.=.=.=.-.-.=.$.#.+.+.+.+.O.O.O.O.O.+.+.O.O.] ] ] ] ] [ O.O.+.+.=.=.=.=.+.+.+.+.O.O.O.+.+.+.+.+.+.+.#.#.#.#.$.=.-.$.$.+.+.#.$.=.=.=.=.=.=.+.+.+.+.+.+.+.+.+.+.+.+.+.+.+.=.=.=.=.=.=.=.+.=.=.+.+.=.=.=.=.+.+.+.+.=.=.+.+.+.+.+.+.+.+.+.+.+.+.O.O.+.+.+.+.",
"* = = = = = = = = = = = > > = = = = = = = = = = = = = = = = = = = = = = = = = = = = = - - - - - - > > > > > > > > > > 3 3 3 - - 3 3 3 3 3 3 3 3 3 3 3 3 3 3 3 3 3 3 5 5 5 5 5 5 5 5 0 0 0 3 5 5 3 0 3 3 3 3 3 3 3 3 3 3 0 0 0 0 0 0 0 0 e e t i e t t p t t t t t t t t t Q Q Q Q Q T Q T Q Q Q ! ! ! Q Q Q Q Q Q ! Q ~ ~ ! Q Q ~ ~ ~ ~ ( ( ) ) ) ) ) ) ) _ ] ] ] _ _ _ _ ] ] ] ] [ [ O.O.O.+.+.+.+.+.+.+.+.+.+.+.+.+.+.+.+.+.+.+.+.+.+.+.+.=.=.=.=.=.-.-.-.-.-.-.-.-.-.-.-.-.=.$.+.+.+.+.+.+.+.+.+.+.+.+.+.+.O.O.O.O.O.O.+.+.+.+.=.=.+.+.+.+.+.O.+.+.+.+.+.+.+.+.+.#.#.#.#.$.=.-.=.#.+.+.+.+.#.$.$.$.=.=.+.+.+.+.+.+.+.+.+.+.+.+.+.+.=.=.+.=.+.=.+.+.+.+.+.+.+.+.+.+.+.+.+.+.+.+.+.+.+.+.O.+.[ O.O.O.O.+.O.O.O.+.+.+.+.",
"* * = = * * * = = = = = > > = = = = = = = = = = = = = = = = = = = = = = = = = = = = = - - - - - - > > > > > > > > > - - - - - - > > 3 3 3 3 3 3 3 3 3 3 3 3 3 3 3 3 5 5 5 5 5 5 5 0 0 0 5 5 5 5 5 5 5 5 3 3 3 3 3 3 3 3 0 0 0 0 0 0 0 0 0 0 e t 0 t t t p p t t T t t t t t t t d Q T T T Q Q Q ! ! Q Q Q Q Q Q Q Q Q Q ! ! ! ! Q ! ~ ~ ~ ~ ~ ( ) ) ) ) ) ) ) _ ) ) ) ) ) ) ) ) ) _ ] ] ] ] O.O.O.O.O.O.O.O.O.O.O.O.O.O.O.O.O.O.O.O.+.+.+.+.+.+.+.+.$.=.=.=.-.-.=.=.=.=.-.-.=.$.$.$.+.+.+.+.+.+.+.+.+.+.+.+.+.+.+.+.+.+.+.+.=.=.=.=.+.+.+.O.O.O.O.+.+.+.+.+.+.+.+.#.#.#.#.#.$.=.-.=.#.+.+.+.#.$.=.=.=.$.=.#.+.+.+.+.+.+.+.+.+.+.+.+.+.+.=.=.+.+.+.+.+.+.+.+.+.+.+.+.+.+.O.+.O.O.O.O.O.O.O.O.O.O.[ [ [ [ O.O.O.O.+.O.O.O.",
"* * = = = = = = = = = = = = = = = = = = = = = = : : : : : : : : = = = = = = = = = = = = = - - - - - - > > > > - > > > - - - > > - - - - - - - - - - - - > > > > 3 3 5 5 3 5 5 5 3 3 3 3 3 3 5 5 5 5 5 5 3 3 3 3 3 - - - 3 - 0 0 0 0 0 0 0 0 e e i e t t p t p t t t t t t t t t t T T Q T Q Q Q Q Q Q Q Q T T T Q Q Q ! ! ! Q Q Q Q ! ! ~ ~ ~ ~ ~ ~ ~ ~ ~ ~ ( ( ( ~ ~ ~ ~ ~ ~ ( ( ) ) ) ) ) ) _ _ ] ] ] ] ] ] ] O.O.] ] ] O.O.O.O.O.+.+.+.+.O.O.O.O.+.+.+.#.$.$.$.$.#.#.$.$.$.#.+.+.+.+.+.+.+.+.+.+.+.+.+.#.#.#.#.#.#.+.=.=.=.=.=.+.+.+.+.O.O.O.O.+.+.+.+.+.+.+.#.#.$.$.$.$.=.-.-.-.$.#.#.+.$.$.=.=.=.$.$.#.#.+.+.+.+.+.+.+.+.+.+.+.+.+.+.+.+.+.+.+.+.+.O.+.O.O.+.+.O.O.O.O.O.O.O.O.O.O.O.O.O.O._ _ _ _ _ _ O.O.O.O.O.O.",
"= = = = = = = = = = = = = = = = = = = = = = = = = = : : = = : : = = = = = - = - : = = = = = - - - - - > > > - - > > > > > > > > > > > > > - - - - - - - > > 5 5 3 3 3 3 3 3 5 5 5 3 3 3 3 3 3 3 3 3 5 5 5 3 u u 5 5 - - 3 3 0 < u u 0 0 0 0 0 0 i i i e t t t t t t t t t t t t t t t T T Q Q Q Q Q T Q Q Q Q Q T Q Q Q Q Q Q Q Q Q Q Q ! ! ! ! ! ! ! ! ! ~ ~ ~ ~ ~ ~ Q Q ~ ~ ~ ~ ~ ~ ~ ~ ~ ) ) ) ) ) ) ) ) ) _ _ _ _ _ ] ] _ _ O.O.O.O.O.O.O.O.O.O.O.O.O.+.+.+.+.+.+.+.+.+.+.+.+.+.+.+.+.+.+.+.+.+.+.+.+.+.+.+.#.#.+.+.+.+.+.+.+.+.+.+.+.+.O.+.+.+.+.+.+.+.+.+.+.+.#.$.=.=.$.$.$.=.=.$.#.#.+.$.$.$.$.#.+.+.+.+.+.+.+.+.+.+.+.+.+.+.+.+.+.+.+.+.+.+.O.O.O.O.O.O.O.O.O.O.O.O.O.O._ _ _ _ O.) ) ) ) ) ) ) ) ) ) ) _ ) _ _ ",
"= = = = = = = = = = = = * = = = * * * * * * * * = = = = = = = = = = = = = = = - : : = = = = = = = = = = = = = = > > > - > > > > > > > > > > > > - - - - > u u u 3 3 3 3 3 3 5 5 5 3 3 3 3 3 3 3 u u u u u u u u 5 u u u u u u u 5 u 0 0 0 0 0 0 0 i i e e t t t p p t t t t t p t t t T T T t t Q Q Q Q Q Q Q Q T Q Q Q Q Q Q Q ! Q Q Q Q Q Q Q ! ! ! ! ! ! ! ! ~ ~ Q Q ! Q Q ~ ! ~ ~ ~ ~ ~ ~ ~ ( ( ) ) ) ) ) ) _ _ _ _ ] ] _ _ ) ) _ ] O.O.O.O.O.O.O.O.O.O.O.O.O.O.O.O.+.+.+.+.O.O.O.+.+.+.+.+.O.O.O.O.O.O.+.+.+.+.+.O.+.+.+.+.+.O.O.O.O.+.+.+.+.+.+.+.+.O.+.+.O.+.+.#.#.#.#.#.#.#.$.$.$.#.+.+.+.+.+.+.+.+.+.+.+.+.O.O.O.O.O.O.O.O.O.O.O.O.O.O.O.O.O.O.O.O.O.O.O.O.O.O._ O.O._ _ _ ) ) ) ) ) ) ( ( ~ ~ ( ( ( ) ) ) ) ) ",
"= o = = = = = = = * * * * * * = * * * * * * * * = = = = = = = = = = = = = = = = = = = = = = = = = = = = = > = = = = > > > > > > > > > > > > > > > > > - - - > > - - - - - - - - - - 5 5 3 5 5 > 3 0 u u u u u u u u u u u u u u u u u u u 0 0 0 i 0 0 0 0 0 t t i t t t p p t t t t t t t t t t t t d T Q Q Q Q T T Q Q Q Q Q Q Q Q Q Q Q Q Q Q Q Q Q ! ! ! ! ! Q ! ! ! ! ! Q Q Q ! ! ^ ~ ~ ~ ~ ~ ~ ~ ~ ~ ~ ( ~ ) ) ) ) ) ) ) _ ) ) ) ) O.O.O.) ) ) ] O.O.O.O.O.O.O.O.O.O.+.O.O.] O.O.+.+.+.O.O.] ] ] _ _ ] ] ] [ [ [ [ O.O.O.O.] O.O.O.O.O.O.+.+.+.O.O.O.O.O.+.O.O.+.+.+.+.+.+.+.+.+.+.+.+.+.+.+.+.O.O.O.O.O.O.O.O.O.O.O.O.O.O.O.O._ O.) _ _ _ O.O.O.O._ _ _ _ _ _ _ _ ) ) ) ) ) ) ~ ~ ~ ~ ~ ~ ~ ~ ~ ~ ~ ~ ~ ~ ) ) ) ) ",
"X X * o = = = = = = * * * * * * * * * * = = * * * * * = = = = = = = = = = = = = = = = = = = = = = = = = = = - = = = = > > > > - > > > > > > > > > - - - - - - > - - - - - - - - - - 3 3 3 3 - - 3 3 u u u u u u u u u u u u u u u u u u u u 0 0 u 0 0 0 0 0 0 0 0 0 t t t t t t t t t e e e t t t t t t t t t t t T T T T Q Q T Q Q Q Q Q Q Q Q Q Q Q Q Q Q Q Q Q ! ! ! ! ! ! Q ! ! ! ! ^ ^ ~ ~ ~ ~ ~ ~ ~ ~ ~ ~ ( ( ( ( ) ) ) ) ) ) ) ~ O.O.O.O.) ) O.O.O.O.O.O.O.O.O.O.O.O.O.O.] ] ] O.O.O.] ] ) ) ) ) ) ) ) ) _ _ _ ] ] ] ] O.] ] ] ] ] O.O.O.O.] ] ] ] ] ] ] O.O.O.O.O.O.+.O.O.O.+.+.+.+.O.O.O.O.O._ _ _ _ _ O.O.O.O.O.O._ _ _ ) ) ) ) ) ) ) ) ) ) ) ) ) ) ) ) ) ) ) ( ( ( ( ( ) ) ~ ~ ~ ~ ~ ~ ~ ~ Q ! ~ ~ ~ ~ ~ ) ) ",
"X X X X X X X X * * * = * * * * * * * * * * * * * * * = = = = = * = = = = = = = = = = = = = = = = = = = = = = = = = = - - > > - - - - - - - - - - - - - - - - - - - - - - - - - - - - - 3 3 3 3 3 3 - 3 5 5 5 < 3 3 3 3 3 3 3 3 u u u 0 0 0 0 0 0 0 0 0 0 0 0 0 0 0 0 0 e 0 0 0 0 0 e w w e t t e e t t t t t t t t t t T T T T T T T T Q Q Q T Q Q Q Q W Q Q Q Q ! ! ! ! ! ! Q Q ! ! W W ! ! ! ! ! ! ! Q Q ~ ~ ~ ~ ~ ~ ~ ~ ) ) ( ) ) ~ O.O.O.O.O.O.O.) O.O.) ) O.) ) _ ] ] ] ) _ ) ) ) _ _ ) ) ( ( ~ ~ ~ ~ ~ ~ ( ( ) ) ) ) ) ) ) ) ) ) _ _ ] ] ] ] _ _ ) ) _ _ ) _ _ _ _ _ ] _ ) _ ] ] ] _ _ ) ) ) ) ) ) ) ) ) ) ) _ _ _ ) ) ) ) ( ( ~ ~ ~ ~ ~ ( ( ( ( ( ( ~ ~ ( ( ( ( ~ ~ ~ ~ ( ( ( ~ ~ ~ Q Q Q Q Q Q Q Q Q ( ~ ~ ~ ~ ",
"X X X X X X X X * * * = * * * * * * * * * * * * * * * * * * * * = = = = = = = = = = = = = = = = = = = = = = = = = = = - > > - - - - - - - - - - - - - - - - - - - - - - - - - - - - - - 3 3 3 3 - 3 - - 5 5 3 - 3 3 3 3 3 3 3 3 u 0 - u u u u u 0 0 0 0 0 0 0 0 0 0 0 0 e 0 0 0 0 0 0 w e e w w e t t t t t t t e e t t t T t T T T T T T T T T t t t d d Q Q Q Q Q Q ! ! ! Q Q Q ! W W W W W ^ ! ! ! Q Q ~ ~ ~ ~ ~ ~ ~ ~ ~ ) ) ) ) ) ) O.O.O.O.~ ~ ) ) ) ~ ~ ~ ~ ) ) ) ) _ _ ) ) ) ) ~ ) ) ( ( ~ ~ ~ Q ! ! ! ! ~ ~ ~ ~ ~ ~ ~ ~ ~ ~ ~ ~ ) ) ) ) ] ] ) ) ) ) ) ) ) ) ( ( ( ( ( ( ~ ~ ~ ~ ) ) ( ~ ~ ( ( ) ) ) ) ( ) ) ( ( ( ( ~ ~ ~ ~ ~ ~ ~ ~ ~ ~ Q ! ~ ~ ~ ~ ~ ~ ~ ~ ~ ~ Q Q ! ! Q Q Q ~ ! ! Q Q Q Q Q ! Q Q Q Q Q Q Q Q ",
"X X X X X X X X X * * * * * * X * * * * * * * * * * * * * * * * * * * * = * = = = = = = = = = = = = = = = = = = = = = - - - - - - - - - - - = = - - - - - - - - - - - - - - - - - - - - - 3 3 - - - - - - - - - - 3 3 3 3 3 3 3 < 0 0 0 0 5 5 5 3 5 3 3 3 3 0 0 5 u 0 0 0 0 0 0 0 0 0 0 e e e e e e t t t t e w e t e e t t t t t t t t t t t t t t t t t d Q Q Q Q Q Q ! ! ! ! Q ! ! W W W ~ ~ ^ Q Q Q ~ ~ ~ ~ ( ( ( ( ) ) ) ) ) ) ) O.O.O.O.O.~ ~ ~ ) ~ ~ ~ ~ ~ ~ ~ ) ) ) ) ) ) ~ ~ ~ ~ ~ ~ ~ ~ Q Q ! ! Q Q Q Q Q Q Q Q Q Q ! ! ! ! Q ~ ~ ~ ~ ~ ~ ~ ~ ~ ~ Q Q ~ ~ ~ ~ Q ~ ~ ~ ~ ~ ~ ~ ~ ~ ~ ~ Q ~ ~ ~ ~ ~ ~ ~ ~ ~ ! ! ~ Q ! ! Q ! ! ! ! ! ! ! ! ! ! ! ! ! ! ! ! ! ! ! ! ! Q Q ! Q Q Q Q ! ! ! Q Q ! W Q Q ! ! Q Q Q Q ",
"X X X X X X X X X X * * * X X X X X X X * * X * X X * * * * * = * * * * = = = = * * * * * * * * * = = = : : : : = = = - - - - - - - - - - - = = = - - - - - - - = = = = = = = = - - - - - - - - - - - - - - - - - - - - - - - - 3 3 3 0 5 5 - > 5 5 3 3 3 3 3 u 5 5 3 0 0 0 3 3 3 3 3 0 0 0 0 0 0 0 e e e e w w w e e e e t t t t t t t t t t t t t t t t t t t T T Q Q Q ! ! Q Q Q ! ! ! ^ ^ ^ ^ Q ~ ~ ( ( ( ) ( ) ) ) ) ) ) ) ) ) ) ~ ) ) ) ~ ~ ~ ~ ~ ~ ~ ~ ~ ~ ~ ~ ~ ( ) ) ~ ~ ~ ~ ~ Q Q Q ! Q ! ! Q Q Q Q Q W Q Q Q Q Q Q Q Q Q Q Q ! ! ! ~ Q Q Q Q ! ! ! ! Q Q ! ! ! ! ! ! ! Q ! ! ! Q Q Q Q Q ! Q Q Q Q Q Q Q Q Q Q Q Q Q Q Q Q Q Q Q Q Q Q Q Q Q Q Q Q Q Q Q Q Q Q Q Q Q Q Q Q Q Q Q Q Q Q Q Q d Q Q Q Q Q Q Q Q ",
"X X X X X X X X X X X * X X X X X X X X X X X X X X * * * * * = * * X X * * = = * * * * * * * * * * * = = = = = = = = = = = = = = = = - = = = = = = = - - = = = = = = = = = = = - - - - - - - > - - - - - - - - - - - - - - - - - - - - - - - - > > 3 3 3 3 5 5 5 3 3 3 3 3 3 3 3 3 3 3 3 3 3 3 0 0 0 e e e e e e e e e t e t t t t t t t t t t t t t t t t t t T T Q Q Q Q Q Q Q Q ! ! ! ! ! Q ~ ~ ~ ~ ( ( ( ~ ( ) ) ) ) ) ) ) ) ( ( ~ ~ ~ ~ ~ ) ) ) ) ) ) ) ~ ~ ~ ~ ~ ~ ~ ~ ~ ~ ~ ! ! ! ! ! ! Q Q Q Q Q Q Q Q W Q Q Q Q Q Q Q Q Q Q Q Q Q Q Q Q Q Q Q Q Q Q Q ! Q Q Q Q Q W W Q Q Q Q Q Q Q Q Q Q Q Q Q Q Q Q Q Q Q Q Q Q Q Q Q Q Q Q Q Q Q Q Q Q Q Q Q Q Q Q Q Q Q Q Q Q Q Q T Q T T T T Q Q t t t t t t t Q T T Q Q ",
"X X X X X X X X X X X X X X X X X X X X X X X X X X X * * * * = * * * X * * = * * * * * * * * * * * * * * = = = * * = = = = = = = = = = = = = = = = = = = = = = = = = = = = = = = = = = = = = = - - - - - - - = - - - - - - - - - - - - - - - - > > - - - - - > - 3 - - - - - 3 - - 3 3 3 3 3 3 3 0 0 0 0 0 0 0 0 e e e e t t t t t t t t t t t t t t t t t t t t t T T Q Q Q Q Q Q ! ! ! ! ! Q ~ ~ ~ ~ ~ ~ ( ( ( ( ) ) ) ) ) ) ) ) ( ~ ~ ) ~ ~ ) ) ) ) ) ) ) ) ~ ~ ~ ~ ~ ~ Q ! ! ! ! ! ! ! ! ! Q Q Q Q Q Q W W Q Q Q Q Q Q Q Q Q Q Q Q Q Q Q Q Q Q Q Q Q Q Q Q Q Q Q Q Q W W W Q Q T Q Q Q T T Q Q Q Q Q Q Q Q Q Q Q Q T T T T T T T T T T T T T T T t T T t t t t t t t t t t t t t t t t t t t t t t t t T t T T T T ",
"X X X X X X X X X X X X X X X X X X X X X X X X X X * * * * * * * * * * * * X X X X X * * * * X * * * * * * * * = = = * * * * * * * = = = = = = = = = = = = * * = = = = = = = = = = = = = = = = = = = - - - = = = = - - - - - - - - - - - - - - - - - - > > > > - - > > 3 3 3 3 - 3 u u - 3 - 3 3 0 0 0 0 0 0 e e e e e e e t t t t t t t t t t t T T T T T T T Q Q Q Q Q Q Q Q Q Q Q Q Q Q Q ! ~ ~ ~ ( ( ( ) ) ) ) ( ) ) ) ) ) ( ) ) ) ~ ~ ) ) ~ ( ~ ( ( ) ~ ~ ~ ~ ~ Q Q ! ! Q Q Q ! ! ! ! ! Q Q W W Q Q Q Q W Q Q t t t t t t T T T T T T T T T T T t Q Q Q Q t T T Q Q Q Q Q Q Q T T T T T T T T T T Q Q Q Q Q Q T t t r T T t t t t t t t t T t t t t t t t t t t t t t t t t t t t t t t t t t t t T t t T t t t t ",
"X X X X X X X X X X X X X X X X X X X X X X X X X X X * * * * * * * * * X * X X X X * * * * * * * * * * = = * * * * * * * * * * * * * = = = = = = = = = = = * * = = = = = = = = = = = = = = = = = = = - - - = - = - - - - - - - - - - - - - - - - - - - - - - - - - - 3 3 3 3 3 - 3 u u - 3 3 0 3 0 0 0 0 0 e e e t e e e e t t t t t t t t t t T T T T Q Q Q Q Q Q Q Q Q Q Q Q Q ( ( ~ ~ ! ! ~ ~ ~ ~ ( ( ) ) ) ) ) ( ~ ( ( ) ) ~ ~ ) ~ ~ ~ ~ ) ~ ~ ~ ~ ~ ~ ~ ~ ! Q Q Q Q Q Q Q Q Q ! ! ! ! ! Q W W Q T T T Q Q Q T t t t t t t T T T T T R t t t t t t t t t t t t t t t t d d d t t t t t t t t t t t t t t t t t t t t t t t t t t t t t t t t t e e w e e e e e e e e e e t e e t t t t t t t t t t t t t t t t t t ",
"X X X X X X X X X X X X X X X X X X X X X X X X X X X X X X X X X X X X X X X X X X * * * * * * * * * * * * * * * * * * * * * * * * * = = = = = = = = = = = = = = = = = = = = = = = = = = = = = = = = - - - - - = = - - - - - - - - - - - - - - - - - - - - - - - - - 3 3 3 3 3 3 3 0 0 < 0 0 0 0 0 0 0 0 0 e e t e 0 w e e t t t t t t t t t t Q Q Q Q Q Q Q Q Q Q Q ( ~ ~ ( ( ( ( ) ) ( ~ ~ ~ ~ ~ ( ( ) ) ) _ ) ) ~ ~ ~ ~ ~ ~ ~ ~ ~ ~ ~ ~ ~ ~ ~ ~ ~ ~ ~ ~ Q ! ! ! Q Q Q Q Q Q W Q Q Q Q Q Q Q Q Q T T T T T T T t t r t t t t r t t t r r r r t t t t t t t t t t t t t t t t t e e e e e e e e e e r r e e e e e e t t t t t t t t t t t t t t t e e e w w w e e e e e e e e e e e e e t t t e e 0 e e e e e t t t t ",
"X X X X X X X X X X X X X X X X X X X X X X X X X X X X X X X X X X X X X X X X X X * * * * * * * * * * * * * * * * * * * * * * * * * * * * * * * * * * * * * = = = = = = = = = = = = = = = = = = = = - - - - - = = - - - - = = - - - - - - = = - - - - - - - - - - - - 3 3 3 3 3 3 0 u 0 0 0 0 0 0 0 e e e t t t t t e e e t t t t t t t t t Q Q Q Q Q Q Q Q ( Q Q ! ~ ( ( ( ( ( ) ) ) ) ( ( ( ~ ( ( ( ) ) ) ) ) ( ~ Q ~ ~ ~ ~ ~ ~ ~ ~ ~ ~ ~ ~ ~ ~ ~ ~ Q Q ! ! ! Q Q Q Q Q Q W Q Q Q Q Q Q t t Q T T T T T T T T t t r t t t t t t t t t t t t t r t e e e e e e e e e e e e e e e e w w w w e e e e e e e e e e e e t t t t t e t t t t t t t t t e e 0 0 0 e e e e e e e e e e e w 0 0 0 0 0 0 0 0 0 0 0 0 0 0 0 0 0 ",
"X X X X X X X X X X X X X X X X X X X X X X X X X O X X X X X X X X X X X X X X X X * * * * * X * * * * * * * * X X * * * * * * * * * * * * * * * * * * * * = = * * = = = = = = = = = = = = = = = = = - - - - - = - = = = = = = = = = - - - - = - - - - - - - - - - - - 3 3 3 3 - 3 u u 0 0 0 0 0 0 0 e t t t t t t t t t t t t t t t t t Q Q Q Q Q Q Q Q Q Q ~ ! ! ~ ~ ~ ~ ~ ~ ( ) ) ) ) ) ) ) ) ( ) ) ) ) ) ) ~ ~ Q Q ~ ~ ~ ~ Q ~ ~ ~ ~ ~ ~ ~ ~ ~ ~ ~ ~ ~ Q ! Q Q Q Q Q Q Q Q Q Q T d d t t t T T t t t t t t T t t r t t t t r t t t t t t t t t t t e e e e e e e e e w e e t w w w w w w 0 w w e e e e e e e e w w w w w w e e e i e e i i 0 0 0 0 0 0 0 0 0 0 0 0 0 0 e e e 0 0 0 0 0 0 0 0 0 0 0 0 0 0 u 0 0 0 0 ",
"X X X X X X X X X X X X X X X X X X X X X X X X X X X X X X X X X X X X X X X X X X X X * X X X X X X X * * X * X X * * * * * * * * * * * * * * * * * * * = = = * * * = = = = = = = = = = = = = = = = - - - - - = = = = = = = = = = = - - - - - - - - - - - - - - - - 3 3 3 3 3 - 3 u u 0 0 0 0 0 0 0 t t t t t t t t t t t t t Q Q Q d d Q Q Q Q Q Q ! ! Q Q ~ ! ! ! ! Q ~ ~ ~ ~ ( ) ) ) ) ) ) ) ) ) ) ) ( ~ ~ Q Q Q ! ~ ~ ~ Q Q ~ ~ ~ ~ ~ ~ ~ ~ ~ ~ ! ~ ~ ~ ! ! ! ! ! Q Q Q Q Q Q Q Q Q t t t T t t t t t t t t t t r t t t r r r t t t t t t t t t t e e e e e e e e t e w w t w w w w w w 0 e 0 0 0 0 0 0 0 e e 0 0 0 0 0 0 e e 0 0 0 0 0 0 0 0 0 3 3 3 3 0 2 2 2 2 3 3 3 2 0 0 0 0 0 0 0 0 0 0 0 0 0 0 0 0 0 0 0 0 ",
"X X X X X X X X X X X X X X X X X X X X X X X X X X X X X X X X X X X X X X X X X X X X X X X X X X X X X X X X X X X * * * * * * * * * * * * * * * * * X * * * * * * = = = = = = = = = = = = = = = = = - = = - : = = = = = = = = = - - - - - - - - - - - - - - - - - 3 3 3 - - - - 5 u u 0 0 0 0 0 0 t t t t t t t t t Q Q Q Q Q Q Q Q Q Q Q Q Q Q Q ! ! ! Q ~ ! ! Q Q Q Q ~ ~ ~ ) ) ) ) ) ) ) ) ) ) ) ) ( ~ ~ Q Q ! ! Q Q Q Q Q ~ ~ ~ ~ ~ ~ ~ ~ ! Q Q ! Q Q ! Q ! ! ! W Q Q Q Q Q Q Q Q Q t t t t t t T t T T R R t t R t t t t t r r t t t t t t t e e e e e e e e e e e w w e e e y 9 w 0 0 0 0 0 0 0 0 0 0 0 0 0 0 0 0 0 0 0 0 0 0 0 0 0 0 0 0 0 3 3 3 0 0 3 3 3 3 3 3 3 3 3 3 3 0 0 3 0 0 0 0 0 3 0 0 0 0 3 3 3 3 ",
"X X X X X X X X X X X X X X X X X X X X X X X X X X X X X X X X X X X X X X X X X X X X X X X X X X X X X X X X X X X X * * * * * * * * * * * * * * * * * * * * * * * = = = = = = = = = = = = = = = = = = = = = : : = = = = = = = = - - - - - - - - - - - - - - - - 3 3 3 3 - - - - 0 u u 0 0 0 0 0 0 t t t t t t t t t Q Q Q Q Q Q Q Q Q Q Q Q Q Q Q Q ! ! Q ~ ~ ~ Q Q Q Q ~ ~ ~ ~ ) ) ) ) ( ( ) ) ( ( ( ~ ~ ! Q Q ! ! ! ! Q Q Q Q ~ ~ ~ ! ! ~ ^ Q ! Q ! Q Q ! Q ! ! ! W W Q Q Q Q Q Q Q Q t t t t T T T T T T T T R Q Q Q R t R R R t t T T T t t e e e e e e e t e e e e e w e e 9 9 9 0 0 0 0 0 0 3 3 0 0 0 0 0 0 0 0 0 0 0 0 0 0 0 0 0 0 0 0 0 0 3 3 3 0 0 0 0 3 0 0 0 3 0 3 3 3 5 u 3 3 3 0 0 0 3 0 0 0 0 3 3 3 3 ",
"X X X X X X X X X X X X X X X X X X X X X X X X X X X X X X X X X X X X X X X X X X X X X X X X X X X X X X X X X X X X X X * * X X X * * * * * X X X X = = = = X * * * = = * * * * * * * * * * = = = = = = = = = = = = = = = = = - - - - - - - > - - - - - - - 3 3 3 - 3 3 3 3 3 - 0 u u 0 0 0 0 0 0 a t t t t t t t d Q Q Q d Q Q Q Q Q Q Q / Q Q Q ! ! ! Q Q Q ~ ~ ~ ~ ! ! ~ ! ! ~ ~ ~ ~ ~ ~ ~ ~ ( ( ( ~ ! ! Q Q ! ! ! ! ! ! ! ! Q ! Q Q ! ! Q Q ! Q Q Q Q Q Q ! ! W ! Q Q Q Q Q Q Q T T T T T T T T T T T T T T T Q Q Q T t t t t d t t t t t t t e e e r r e e e e t e e e e e e 0 0 0 0 0 0 0 0 0 0 0 0 0 0 0 0 0 0 0 0 0 0 0 0 0 0 0 3 3 3 3 3 3 0 0 0 3 3 3 3 3 3 3 3 u 3 0 3 3 3 3 3 3 5 5 u 0 0 0 0 0 3 3 3 3 ",
"X X X X X X X X X X X X X X X X X X X X X X X X X X X X X X X X X X X X X X X X X X X X X X X X X X X X X X X X X X X X X X X X X X X X * * * * * X X X o = o = X * = * = = * * * * * * * * * * * * * * * = = = = = = = = = = = = - - - - - - - > - - 3 3 3 3 5 5 3 3 3 3 3 3 3 3 3 0 0 u 0 0 0 0 0 0 i t t t t t t t Q Q Q Q d Q Q Q Q Q Q / ( Q Q Q Q Q ~ Q ~ ~ ~ ~ ! Q Q ~ ~ ~ ~ ~ ~ ~ ~ ! ! ! ~ ( ( ( ~ ! ! ! Q ! ! ! ! ! ! ! Q Q Q Q ! Q Q Q Q Q Q Q Q ! ! ! ! Q Q ! ! Q Q T Q Q Q Q T T T T T T T Q T Q Q T T Q Q Q Q T T T T d d d t t t t t t t t e e e e e t t t e e e e e e 0 0 0 0 0 0 0 0 0 0 0 0 0 0 0 0 0 0 0 0 0 0 0 0 0 0 0 3 3 0 3 3 3 3 3 3 3 3 3 0 0 3 3 3 0 3 3 3 3 3 3 3 3 3 3 3 3 3 3 3 3 3 3 3 - ",
"X X X X X X X X X X X . X X X X X X X X X X . O . X X X X X X X X X X X X X X X X X X X X X X X X X X X X X X X X X X X X X X X X X X X X X X X * * X X X X X X X * * * * * * * * * * * * * * * * * * * * * = * = = = = = = = = = = - - - - - - - - 3 3 3 3 5 5 5 5 5 0 3 3 3 u 3 3 0 0 0 0 0 0 0 0 i i i t t t t t t t Q Q Q d / Q Q Q Q / / ( / / / Q Q Q Q Q ! Q Q ! ! Q ! ! ~ ! Q Q ! Q Q Q ! ~ ( ( ~ ~ ~ ~ ! Q ! Q Q Q Q Q Q Q ! ! ! ! Q Q Q Q Q Q ! ! ! ! ! ! Q Q ! Q Q Q Q T T T T Q Q Q Q Q Q Q Q Q Q Q Q Q Q Q Q Q Q T T T d d d t t T t t t t t t t e 0 0 t t t e e e e 0 e 0 0 0 0 0 u 0 0 0 0 0 0 0 3 0 0 3 0 0 0 0 0 0 0 0 0 3 3 3 0 3 3 3 3 3 3 - 3 3 3 3 3 3 3 3 3 3 3 3 3 3 3 3 - - - > > > > > 3 - - - ",
"X X X X X X X X X X . . O X . . . O O O . . . X . . . X X X X X X X X X X X X X X X X X X X X X X X X X X X X X X X X X X X X X X X X X X X X X X X X X X X X X X X * * = * * * * * * * * * * * * * * * * * = * = = = = = = = = = = = - - - - - - - - 3 3 3 3 5 5 5 5 u u u u u 0 0 0 u 0 0 0 0 0 0 i i p t t t t t t t t t t t Q T T Q Q Q Q Q / Q Q ! ! ! Q Q ! ! ! Q ! Q Q Q Q Q Q Q Q Q Q ! ! ~ ~ ~ ! ! ~ ~ ! Q ! ! Q Q Q Q Q Q ! ! ! ! ! ! ! ! ! ! ! ! ! ! ! Q Q Q Q Q Q Q T T T T Q Q Q Q Q Q Q Q Q Q Q Q Q Q Q Q Q Q Q Q Q Q R t t t t T e t t t t t t e 0 0 t t t w e e e 0 e 0 0 0 0 0 u u 3 3 0 0 0 0 0 0 3 - - - - - 0 3 3 3 0 0 3 3 3 3 3 - - - - - - - 3 3 3 3 3 3 3 3 - - - 3 3 3 - - - - - - > > - - - - ",
"X X X X X X X X O . . . . . . . . . . . . . . .     . . X X X X X X X X X X X X X X X X X X X X X X X X X X X X X X X X X X X X X X X X X X X X X X X X X X X X X X * * * * * * * * * * * * * * * * * * * * * * = = = = = = = = * = = = = = = - - - - - 3 3 - 3 3 5 5 0 0 0 u u u u u u 0 0 0 0 0 e i i i i i t t t t t t t t t Q Q T T Q Q Q Q Q Q Q ! ! Q ~ ( ) ) ( ~ ( ~ ! Q Q Q ! Q ~ ~ ! ! Q ! ! ! ! ! ! ~ ~ Q Q ! Q Q Q W W Q ! ! ! ! ! ! ! ! ! Q Q Q ! ! ! ! Q Q Q Q Q T T T T T Q Q Q Q Q Q Q Q Q Q T T Q Q Q Q Q Q Q Q Q t t t t t t t t t t t t t t t 0 e t t t e w e e 0 0 0 0 0 0 0 0 0 - - 3 0 0 3 0 0 < < - - - - - - - - - 3 3 5 3 3 - - - - - - - 3 3 u u u u 5 3 - - - - - - - - - - - > > > > - - - - ",
". . . X X X X X . . . . . . . . . . . . . . . X     O . O X X X X X X X X X X X X X X X X X X X X X X X X X X X X X X X X X X X X X X X X X X X X X X X X X X X X X * * * * X X * * * * * * * * * * * * * * * * * * = = = = = = * * = = = = = - - - - - - - - - - 5 5 0 0 3 0 u 0 u u u u 0 0 0 0 e i a i i i t p p t t t t p t t T T T T Q Q Q Q Q Q ~ ~ ) O.+.$.+.O.O._ ) ~ ! ! ! ! Q Q Q Q Q ! ! ! ! Q Q ! ~ ! Q ! Q Q Q W W W Q Q Q Q ! ! ! ! ! Q ! ! ! ! ! ! ! Q Q Q T T T T T T T Q Q Q Q Q Q Q T Q Q T T Q Q Q Q Q Q Q T T t t t t t t e e e e t t t t e e e t e e e e e e 0 0 0 0 0 0 0 0 0 3 3 3 3 0 3 0 0 0 - - - > > - - 3 3 3 3 3 3 - - - > - - - - - - - 0 u u u 0 0 3 - - - - - - - - - - - > - - - - - - ",
". . . . X X X X . . . . . . . . . . . X X X X X   O O X X X X X X X X X X X X X X X X X X X X X X X X X X X X X X X X X X X X X X X X X X X X X X X X X X X X X X X X * X X X X * * * * * * * * * * * * * * * * * * * * * = = = * * = = = = - - - - - - - - - - - 3 3 0 0 3 3 3 3 5 u u u 0 0 0 0 0 0 0 e t t t t t t t t t p p t T T T T Q Q Q Q ( ) ] O.#.-.-.v.v.-.-.$.+.) ~ Q ! ! ! Q ~ ( ( O._ ) ( ! Q Q Q ! ! Q Q Q Q W W W Q Q Q Q Q ! ! ! ! Q Q Q Q Q Q W Q Q T T T T T T T T T T W Q Q Q Q T T Q Q Q Q T T Q Q Q Q T T t t t t t t e e w e t Q / / T t T T t t e e e e e 0 0 3 0 0 0 0 0 0 0 3 3 3 3 3 0 0 3 - - - > - 3 3 3 3 3 3 3 3 - > > > > - 0 0 0 0 0 0 0 0 0 0 i 0 0 0 0 0 3 - - - - - - - - - - - - > ",
"      . . X X X . . . . . . . . . . X X X X X X O O X X X X X X X X X X X X X X X X X X X X X X X X X X X X X X X X X X X X X X X X X X X X X X X X X X X X X X X X X X X X X X * * * * * * * * * * * * * * * * * * * * * * = = * * = = = = - > - - - - - - - - - 5 0 0 0 3 3 3 - 3 5 u u u 0 0 2 2 0 0 0 e e w t t t e e t t t t t t T T Q Q Q ( ) O.#.=.-.v.v.N.N.B.m.v.-.+.) ~ ~ ! ~ ( _ O.+.$.#.+._ ~ ! Q Q Q Q Q W W Q Q Q Q Q Q Q Q Q ! ! ! ! Q Q Q Q W W s s t t T T T T t t t t t t s s T T T T Q Q Q Q Q T T T Q Q T t t t t t t t e e w e d / ( ) / T Q Q T T t e e e e 0 0 3 < 0 9 9 0 0 0 3 0 0 0 3 0 0 3 - - - - - 3 3 3 3 3 3 3 - - > 5 > > < 0 0 0 e e e e e t e p i 0 0 0 0 0 0 - - - - - - = = = > > > ",
"  .       . . .     . . . . . . X O O X X O X X X X O O O O O O O O X X X X O O X X X X X X X X X X X X X X X X X X X X X X X X X X X X X X X X X X X X X X X X X X X * * * X X X X X * * * * * * * * * * * * * * * * * = * * * * = = = = = = = : = = - - - - - - 3 0 0 3 - 3 3 > > - 3 3 3 3 3 0 0 0 0 0 0 0 0 0 0 w e t t t t t Q Q Q t t Q ) +.=.=.-.-.-.z.v.N.N.N.N.v.-.+.) ~ ~ ( ) O.=.=.-.-.-.#.O.~ ! Q Q t s W Q Q Q Q Q Q Q Q Q Q Q Q Q Q Q Q Q Q Q Q Q t t d d d d d Q d d t t t t t t t t Q Q W W W ! Q Q Q s d Q T t t e e e e w e 0 0 t / _ O.O._ Q ! Q Q T t r y 0 e e 0 0 0 e e e w w w w w w 0 3 9 0 0 3 - - - - > 3 3 3 3 3 3 3 3 3 - - - 0 0 e e e r t / / d d / / / T t t t e e e 0 3 3 - - - : = - - ",
"      . . . O .     . . . .     O O . O O . O X X X X X X X X X O O X X X X O O X X X X X X X X X X X X X X X X X X X X X X X X X X X X X X X X X X X X X X X X X X X X * X X X X X X * * * * * * * * * * * * * * * * * = * * * * * = = = = = = = = = - - - - - > 3 0 0 0 u 3 0 5 - - - 3 3 3 3 3 3 3 0 0 0 0 0 0 0 w e t E / Q Q Q Q Q Q Q _ +.v.v.v.v.v.v.v.v.v.n.m.M.v.-.+.O.O.O.O.O.+.#.=.=.-.$.+.) ~ ! ! Q Q Q Q Q Q Q Q Q Q Q Q Q Q Q T T Q Q Q Q Q Q d d t t t t t d Q d t t t t t t t t t t Q Q W W W ! Q Q Q s d d t e t t t t t e e e t T ( O.+.+.O.) ~ Q Q T T t e e w e 0 0 0 e e t t t t t t w w 0 0 0 3 3 3 - 3 3 - 3 3 3 3 3 3 3 3 3 3 3 0 0 e e t e t Q ( _ _ ~ ( ( / / / t t t T t e 0 3 - - - = - - 0 ",
"    . . O O .   . . . . . .     O O O X X O O O X X X X X X X X O X X X X X X O X X X O X X X X X X X X X X X X X X X X X X X X X X X X X X X X X X X X X X X X X X X X X X X X X X X * * * * X * * * * * * * * * * * * = = * * * * * = = = = = = = = - - - - - > - 0 0 u u u 0 0 0 3 - - 3 3 - 3 3 3 3 - 3 0 0 0 e e t / / / / ( ( ( ) _ O.=.v.N.N.N.Z.N.N.n.v.v.v.v.v.x.-.=.$.+.+.+.+.+.+.+.#.$.+.) ~ Q ! Q Q Q Q Q Q Q Q Q Q Q T T T T T T T T Q t t d t t t t t t t t t t t t t t t t t t t T T Q Q W W Q Q W Q Q W d t t t t t t t t e e e t Q ( O.+.+.O.O.~ Q Q T T t t e 0 0 0 0 0 t t t d t t t r e e e e e 0 3 3 3 3 3 - 3 3 3 3 3 3 - 3 3 3 3 3 0 e w t t Q ( _ O.O.| ) ) ) ( Q Q T t E T t 0 0 3 - - - - 3 0 ",
"                . . . O O . . . . O X X X X X X X X X X X X X X X X X X X X X X X X X O O X X X X X X X X X X X X X X X X X X X X X X X X X X X X X X X X X X X X X X X X X X X X X X * * * * X * * * * * * * * * * * * = = * * * * * * = = = = = = = - - - - - - - 3 0 i i t t t 0 0 3 3 3 - - 3 3 3 - - - 0 0 0 e e / / ) _ ) O.O.+.+.$.-.v.v.N.B.N.Z.Z.Z.B.v.v.v.v.x.-.-.-.-.=.-.=.$.+.O.O.O.O.O.) ~ ! Q Q T Q T T t T T Q Q T T t t t t t r t t t t t t t t t t t t t t t t t t t t t t t t t t T T T T T R t Q Q Q t d t t t t t t t t r T / Q ~ ~ O.O.O.~ ~ Q Q T T t e e e 0 0 0 e t t t t d t t t r t t w e 0 0 0 3 3 3 - 3 3 3 3 3 3 3 3 3 3 3 3 0 e w t t Q ~ ) _ ) ~ ~ ( ( ! Q Q T T T T t e 0 0 3 3 3 3 0 0 ",
". .   . O O O O     . O O . O . . O X O X X X X X X X X O O O X X X X X X X X X X X O O X X X X X X X X X X X X X X X X X X X X X X X X X X X X X X X X X X X X X X X X X X X X X X X * * * * X * * * * * * * * * * * * = = * * * * * * = = = = = = = = = = - - - 3 0 e t p d d t t e 0 3 3 - - 3 5 > > - < 0 0 3 e t Q ) [ _ ) O.+.+.#.$.-.z.c.c.v.v.m.B.N.v.v.v.v.v.-.=.$.$.$.#.=.-.#.+.) ) ) ) ) ( Q Q T T T T t t t t T T T T t t r t t r r t t t t t t t t r r r r r r r r t t t t t t t t e t t t t t t t r t Q Q Q d t t t r r t Q W W Q Q ~ ~ ~ ~ ) ~ ~ ^ ! Q T t t e w w w e e e e e t t t t r r e t t t t e 0 0 3 3 3 - 3 3 3 3 3 3 3 > > > > 3 3 0 0 w r Q ^ ~ ~ ! ! Q ! Q Q Q Q T T T t t t 0 0 0 3 3 3 0 w ",
".         O . .     . O O O O .   O O O O O X X O O O O O O . . X X X O O X X X X X O O X X X X X X X X X X X X X X X X X X X X X X X X X X X X X X X X X X X X X X X * * * X X X X X * * * * X * * * * * * * * * * * * * * * * * * * * * = = = = = = - = = - - - 3 e w t d Q Q d d t e 0 3 - - - - > > - 0 0 0 0 e t ( _ O.O.) O.O.+.+.O.+.$.$.-.-.c.v.v.v.z.-.-.-.-.$.+.+.O.O.O.+.+.+.O.) ( ~ Q ~ ~ Q Q t t t t t t t t t t t t t t t t t t r e t t t t t t t e e e e e e e e e e e e e e t e e e e e t t e e e t t Q Q Q t t W r r W Q ! W ! ~ ~ ~ ~ ~ ( ~ ~ ! ! Q t t t w w w w w e w e e r e e e e e e t t t e 0 0 0 0 3 3 3 3 3 3 3 3 3 3 > > > > - - 0 0 e e d Q Q Q Q Q Q Q Q Q Q Q Q Q t t t t t e 0 3 3 3 0 9 ",
".   O X X X O . O O X O X X . .   O O O O O X X X X X X X X X X X X O O O O X X X X O O X X X X X X X X X X X X X X X X X X X X X X X X X X X X X X X X X X X X X X X X * * * X X X X * * * * * * * * * * * * * * * * * * * * * * * * * = = = = * * * * * = - - - 3 0 w t t t d t t t e 0 3 3 - - - > > 5 0 0 0 e w d ( O.O.) ~ _ O.O.) ) ) O.+.$.=.-.-.-.$.+.+.+.+.O.O._ ) ) O.O.O.O.O.) ( Q Q Q Q Q Q T t t t t e e e e e e e t e e e e e e e e e e t t t e e w e e w w w e w w w w w w w w w w w w w e e w e e e e t t Q Q d W W r W Q ! ! ! ~ ~ ~ ^ ! Q Q ! Q t t t t e e 0 0 0 0 0 e e e e w w e e e 0 0 0 0 0 0 0 0 3 3 - 3 3 3 3 3 3 3 3 3 - - > - - 0 0 0 w t Q d Q Q d Q Q Q Q Q Q Q Q t t t t t e 0 0 0 0 9 y ",
"X X X + , o X X X X X X X X X . O X O O O X X X X = = : : = * X X X O O O O X X X O O O X X X X X X X X X X X X X X X X X X X X X X X X X X X X X X X X X X X X X X X * * * * X X X * * * * * = * * * * * * * * * * * * * * * * * * * * = = = = * * = = = * - - = - 0 e e e e e q w w e 0 3 - - - - - > 3 3 0 0 w t Q ) O.O.) ~ ~ ) ) ) ~ ( ) O.O.+.#.$.+.O.O.O.O._ ) ~ ~ ~ ~ O.O.) ~ ) ! Q Q Q Q d d t t t t t t e e e e e e e e e e e e e e e e e e e e e e e e e w e w w w w w w w w w w w w w w 0 0 0 0 0 e e w w r t Q ! Q Q Q Q Q Q Q Q Q ~ ~ ^ W d Q t t t t i i 0 0 0 0 0 3 3 3 0 0 0 0 0 0 0 0 0 0 0 0 0 0 3 3 3 3 3 3 3 3 3 3 3 3 3 3 3 3 3 5 5 0 0 0 i t t d t t t t s s s Q ! ^ ^ ^ d t t t t e e e i e e t ",
"X = 5 a a a u 3 - - - = X O O X X X . . X = - 3 2 a f f f p u 3 5 - = X X O X X O X X X X X X X O X = - > > 5 3 - - = = o o = = X * X X X X X * X X X X X X X X X X X * * * * X * * * * * * * * = = = * * * * * = * * * * * * = * * = = = = = = = = = = = = = - ; - - 3 0 0 e e 0 e e w 0 3 - - - - - > > > - 0 y t Q ) O.O.( ! ~ ~ ( ( ~ ~ ~ ~ ) ) ) ) ) ) ~ ! ~ Q Q Q Q Q Q ! Q Q Q ! ! Q Q T T T T t t t e t e e e w w w w e e e e e e e e e t t t t e e e e w w e e e e w 0 0 0 0 w w w 9 9 0 0 0 0 0 0 0 0 0 e e w r t T Q W W Q Q T Q T Q Q W W s t t e e e 0 0 0 0 0 0 0 - 3 0 0 0 0 0 0 0 0 0 0 0 0 0 0 0 0 3 3 - - - 3 - - 3 3 3 > 5 5 3 3 5 5 3 3 0 0 0 0 w w w y w w w e t d ! ! Q Q d t t e e e e t t t t t ",
"- a f _ _ _ _ f f p p 0 - = = = X X X X = 5 p p ( +.;.;.| | _ _ p a 5 : o X O X X X X X X X X X X = - 0 i i a a 0 u 3 1 = = = = * * = = * * * * X X X X X X X X X X * * * * * X * * * * * * * * = = * * * * * * * * * * * * * * * * = = = = = = = = = = = = - - - - - - - 3 0 0 0 0 0 0 0 3 - - - - - - > > 0 0 w t Q ! ~ ~ ! Q ~ ~ ~ Q Q Q Q Q ! ! ! Q Q Q Q Q Q T t T T Q W Q Q Q ! ! ! W R t T T t t t e t e e e e w w w e e e e e e w w e e e e e e e e w e w w w w 0 w 0 0 0 0 0 0 0 0 0 0 0 0 0 0 0 9 9 0 0 0 0 9 y r t t t t T T T T T T t t t r e y e e 9 9 0 0 0 0 0 3 - 3 0 0 0 0 0 3 0 0 0 0 0 0 0 0 0 3 3 3 - 3 3 3 3 3 3 3 3 3 3 3 3 - 5 3 3 3 3 0 0 0 0 w w w w e e w w t Q Q Q d d t t e e e e e t t t t ",
"w / +.;.-.-.-.=.+.+.| / p i a u > : X X - p ( | O.#.=.$.+.+.O.[ _ / p u - = X X X X X O O . X = = - e T / / / / p p e 0 a u 3 3 - - - = = = = * * * * X X X o o = = * * * * * X * * * * * * * * = * * * * * * * * * * * * * * * * * = = = = = = = = = = = = = - = = - - - - - - 3 3 0 0 3 3 - - - - - = - - 3 0 w t d Q Q Q Q Q Q Q Q Q Q d Q Q d d t t t t r r r r r r T R t t W Q ! ! ! W t t t t t t t e e e e e e e e e e e e e w e w e e e e w e e w w e e w e w 0 w 0 0 9 0 0 0 0 0 0 0 0 0 0 9 9 2 2 2 2 0 9 2 9 9 9 y e r e e e e e r r e e e e e 0 0 - 9 0 0 0 0 3 - 3 3 3 0 0 0 0 0 0 0 0 3 3 3 3 3 5 u 3 3 3 3 3 3 3 3 3 3 3 3 3 3 3 3 3 5 3 3 3 3 3 0 0 0 0 0 0 3 3 0 0 9 w r t t t t w w y w w w w t t t t ",
"/ _ +.$.-.-.-.-.-.-.=.=.+.} _ / a u - = 3 p _ | O.O.%.+.+.+.O.O.] ) / p 0 3 = = * X X O     * - - 0 T ~ ( ) ) ( / / / / / / / p p t 0 ; - - - * * * * = = = = = = = * * * * * X * * * * = * * * * * * * * * * * * * * * * * * * * * = = = = = = = = = = = = = - = - - - - - - - - - 3 3 3 - - - - - = - > > 3 0 w t d d d d t t d d t t t t t e t t t t t t r y e e r t T T T T W Q ! ! ! W R t t t t t t t e e t e e e e e e e e e e e e e e e e e e e e e e e w e w 0 0 0 0 2 9 9 0 0 0 0 0 0 9 9 2 2 2 2 2 9 2 2 2 2 2 9 0 e e e e e e e 9 9 e 0 0 0 0 3 - - ; ; - 3 3 - - - 3 3 0 0 0 0 0 3 0 3 3 3 3 3 5 5 5 3 3 3 3 3 3 3 3 3 3 3 3 3 3 3 > > 5 3 3 3 3 3 3 3 3 3 3 3 3 3 3 3 0 9 9 w y w e e e e e e e w w w w w ",
"_ O.+.+.#.=.-.-.-.-.-.-.-.=.;._ ( p e 0 a / _ +.O.O.+.+.+.+.+.+.+.O._ ( p 0 - * * X X O O X = 3 u p / ( ) _ _ _ ) _ _ [ O.+._ _ _ / t w w 0 3 - - = = = * = = o = * X * * * * X * * * * * * * * * * * * * * * * * * * * * * * * * * = = * * * * = = = = = - = - - - - - = = = = = - - - - - - - = = = - > - - 3 w t t t w w t t t w w w w w w w t w w w e t e e t e r t t T T T Q ! ! ! Q Q Q T t T T t t t e e e e w w e e e e w w w w e e e e e e e e e e e e e e 0 0 2 0 9 9 2 2 2 2 3 3 - - 2 2 2 0 0 0 0 0 0 2 2 2 2 2 9 9 e e 0 e e e 0 0 e 0 3 2 2 3 3 - ; ; - - 3 3 3 3 3 3 3 0 3 3 3 3 3 3 3 3 3 3 > > 5 - 3 3 3 3 3 - 3 3 3 3 3 3 3 3 3 3 5 3 3 3 3 3 3 3 3 3 3 3 > > 3 3 3 3 0 0 0 0 3 0 0 0 0 0 0 0 w 0 0 0 ",
"O.O.+.;.;.;.;.;.-.-.-.=.=.=.+.O.O._ / p / _ ;.=.O.O.O.+.O.O.O.+.+.+.O._ / p 3 = * X X X X = 3 i p f ( ) ) _ | | O.O.O.O.+.+.+.O.[ _ ( / / p p e 0 0 - = * = = = = = X * * * * X * * * * * * * * * * * * * * * = * * * * * * * * * * = = = * * * = = = = = - = - = = - - = = = = - - - - - - - - = = - 3 5 - - 3 e e e 0 0 0 e e e e 0 w w e e e w w w w e e e e t e r r t t T Q Q ! Q Q W T W T Q T T T t t t t e e w w w w e e e e w w e e e w w w y e w e e e e e 0 0 0 0 0 2 2 2 2 - 3 3 3 - 2 2 3 0 0 0 0 0 2 2 2 2 2 2 2 0 0 0 0 0 0 0 0 0 0 0 2 2 3 2 2 2 2 - 3 3 0 3 3 0 3 3 3 3 3 3 3 3 3 - - 3 3 3 3 3 3 3 3 3 3 3 3 - > 3 3 3 3 3 3 3 3 3 5 5 3 - 3 3 3 3 3 3 > > > > - 3 3 3 3 3 3 3 3 3 - 3 3 3 3 3 0 0 0 0 ",
"O.+.+.+.;.;.;.;.-.-.=.+.+.+.+.O.+.O.( ( _ +.;.;.O.O.O.+.+.O.+.O.[ [ [ _ ( p i - X X * = = 3 0 p / / ( ( ( _ ) O.O.O.O.O.O.O.O.O.[ _ _ | _ _ / Q t t 0 - - > = = = = * * * * * * * * * * * * * = * * * * * * * * * * = = = = * * * * = = = = * * = = = = = - - - = - - - - = = = - - - - - - - 3 - - - 3 3 - 3 0 0 0 0 0 0 0 0 0 0 0 0 0 w w w e w w w w t t t e t e r t t R d d Q Q Q Q W T T T Q T T t t t t t e e w w w 0 e e 0 0 e e e e 9 9 y y y y w 0 0 0 e 0 0 0 3 3 0 3 3 3 0 9 3 3 3 3 2 3 3 0 0 0 0 2 2 2 2 2 2 2 2 9 0 3 0 0 0 0 0 0 0 3 3 3 3 3 2 2 3 3 0 0 0 0 0 0 3 3 3 3 3 3 3 3 3 3 3 3 3 3 3 3 - - 3 3 - - - - > 3 3 3 3 3 3 3 3 3 3 3 3 3 3 3 3 3 3 3 - 5 3 3 3 3 3 3 3 3 3 5 - 3 3 3 3 - 3 3 3 3 3 3 ",
"O.O.O.O.O.O.+.+.+.+.+.+.+.+.+.O.;.+.O.[ [ O.+.[ +.O.+.O.O.O.[ [ _ _ [ ( / p u = o X * - 3 0 p d Q ! ( ( ( ( ) ~ ) ) _ _ _ _ _ _ O._ _ | | ) ( / Q t e i a u 3 = = = = * * * * = * * * * * * = = * * * * * * * * * = = = = = = * * * = = = = * * = * = = = - = - - - - - - - = = - - - - - 3 3 3 3 3 3 3 3 3 3 0 3 3 0 3 0 0 0 3 0 0 0 0 0 w w e t t t t t t t t t r r t W s s s d d s d s t t t Q Q T t t t e e e w w w 0 0 0 0 0 e e e e 9 9 9 y y y y 9 0 0 0 0 0 3 3 3 3 3 3 0 0 0 9 2 2 2 2 2 3 3 3 2 2 2 2 2 2 2 2 2 2 2 9 2 2 0 0 0 0 0 0 0 0 3 3 3 3 3 3 3 3 0 0 0 0 3 0 3 3 3 3 3 0 3 3 3 3 3 3 3 3 3 3 3 3 3 3 3 - - - - 3 3 3 3 3 3 3 3 3 3 5 3 3 3 3 3 3 - 3 3 3 3 3 3 3 3 3 3 3 - > 3 3 3 3 3 3 3 3 - - - - ",
"O.O._ O._ O.O.O.O.O.O.+.+.+.+.+.| O.| O.O.O.O.O.O.O.O.O.| | _ _ ( ( ( / p i 0 3 = = - 3 w t d / ! ! ~ ~ _ _ _ _ _ _ _ _ _ | | ) O.| ) | | ) ! ^ d d t i i i 3 3 - - = * * * = = = = * * * * * * * * * * * * * = * * = = = * = = = = = = = = = = * * = = - - - - - - - - - - - - - - - - - - - - - - 3 0 0 0 3 3 3 0 0 0 0 0 0 0 0 0 0 0 0 0 w e e e t t e e e t t e r r r r t t t t t t t r t t t t t t t e e e e e e e e 0 0 0 0 0 0 0 0 0 9 9 w w 9 9 9 0 0 0 0 3 3 3 0 0 0 0 0 0 0 2 2 2 2 2 3 3 3 3 2 9 2 3 2 2 2 2 2 3 3 3 2 2 0 0 0 0 0 0 0 0 0 0 3 3 3 3 - 0 0 0 0 0 3 3 3 3 3 3 0 0 0 3 0 0 3 3 3 3 0 0 3 3 0 2 2 2 3 - - 3 3 3 3 3 3 3 3 3 3 3 3 3 3 3 3 3 3 3 3 3 3 3 3 3 3 3 3 3 3 3 3 3 3 - 3 3 3 3 - - - - ",
"[ _ ( ( ( _ _ _ [ [ [ [ [ [ [ [ +.O.[ [ [ O.O.[ O.[ [ _ _ ( ( ( Q Q Q Q t e 0 3 3 3 3 0 w d / ( ~ ) ) ) ) _ _ _ O._ _ O.O.O.O._ O.) _ _ ) ) ! ! d d t t a 0 0 3 - - = * * = = = * * * * * * * * = = = = = = = = = = = = = = = = = = = = = = = = = = = = = = - - = - - - - - - - - - - 3 3 3 3 3 3 3 3 3 3 3 3 3 3 0 0 0 0 0 0 0 0 0 0 0 2 0 0 0 w w w e e e e e e e r r r r t e t t t t r r r r t t e e e e e e e e e e 0 0 2 2 0 0 9 0 2 9 9 w w w 0 9 0 0 0 0 3 3 3 3 0 0 0 0 0 0 2 2 2 2 2 2 3 3 3 3 2 9 2 3 2 2 2 2 2 2 2 2 2 2 0 0 0 0 0 0 0 0 0 0 3 3 3 3 3 3 0 0 0 0 3 3 2 3 3 3 0 0 0 3 0 3 3 3 3 0 0 3 3 3 0 0 9 2 3 3 3 3 3 3 3 3 3 3 3 3 3 3 3 3 3 3 3 3 3 3 3 3 3 3 3 3 3 3 3 - 3 3 3 3 3 3 3 3 3 3 3 - - - ",
"_ ( / ( ( ( ( ( ( _ _ _ _ _ _ [ [ _ _ _ _ _ _ ( [ _ ( ( ( ( / Q Q Q Q Q t t 0 0 i e e t d d ( ( ) ) ) _ _ _ O.O.O.O.O.O.O.O.O.O.O.O._ ) ) ( ! Q Q Q d t e 0 3 - - = = = = = = = * = = = = * = = - - - - - - - - - - = = - - - = = = = = = - - - = = = = = - - - - - - - > > > - - - - 3 3 3 3 3 3 3 3 3 3 3 3 3 3 3 0 0 0 0 0 0 0 0 0 0 0 3 0 0 0 0 0 e e e e e e e 9 y y w w w e e e r y y y y e e y e e e e y 9 e 9 0 2 2 2 2 2 2 2 2 2 2 0 0 w 0 0 9 0 0 3 3 3 3 3 3 3 3 3 3 3 3 2 2 9 9 3 3 3 3 2 3 2 2 3 3 2 2 2 2 3 3 3 3 3 3 0 0 0 0 0 0 0 0 3 3 - - 0 0 3 3 0 0 0 3 3 3 2 2 3 3 0 0 3 3 0 0 3 3 3 3 3 3 3 0 0 w w 0 0 3 3 3 3 3 3 3 3 3 3 3 3 3 3 3 3 3 3 3 3 3 3 3 3 3 3 3 3 3 3 3 3 3 3 3 3 3 3 3 3 3 3 - - - ",
"/ / / / / / / / / / / ( ( ( ( ( ( ( ( _ ( ( ( ( ( ( ( / Q Q Q Q Q Q Q Q Q t t p p t t d d Q ! ( ~ ) ) ) ) ) ) _ O.O.O.O.O.O.O.O.O._ _ ) ) ( ! ! ! Q Q s r e 0 - - = = = = = = = = = = = = = - - 0 e 0 0 0 3 3 3 u > - - - - - - - - = = = - - - - = = = = - - - - - - - > > > > - - - - 5 3 3 - 5 3 3 3 3 3 3 3 3 3 3 0 0 0 0 0 3 3 2 0 0 3 3 3 0 0 0 0 0 0 0 0 0 0 9 9 0 0 0 0 e e e e 9 9 9 9 0 0 9 9 9 0 9 9 9 9 9 9 2 2 2 2 2 2 2 2 2 3 3 0 0 0 0 9 2 2 - ; 3 3 3 3 - - - - - - 2 2 9 2 2 3 3 3 2 2 2 2 3 3 3 3 3 3 3 3 3 3 3 3 3 0 0 0 0 - 0 3 3 3 - 3 0 0 3 0 0 0 0 0 3 0 2 2 3 3 0 3 3 - 3 0 3 3 3 3 3 3 3 0 w w w 0 0 0 3 3 3 3 3 3 3 3 3 3 3 3 3 3 3 3 3 3 3 3 3 3 3 3 3 3 3 3 3 3 3 3 3 3 3 3 3 3 3 3 3 3 - - ",
"/ / Q Q Q Q Q Q Q Q / / / / / / ( ( ( ( ( ( ! ! ! Q Q Q Q Q Q Q Q Q Q Q Q Q Q T t t d d Q ! ! ( ~ ~ ( ( ( ( ) ) ) ) ) _ _ _ _ _ _ _ ) ) ) ) ) ) ) ~ ~ Q d e e 0 - - - = = = = = = = = = = - 3 0 e t t t t w 0 i i u 3 3 - - - - - - = = = = = = - - - - - - - - - - - - - - - - > > 5 5 5 5 5 5 > - - - 0 3 0 0 3 3 3 3 3 3 3 3 3 3 0 0 0 3 3 3 3 3 3 3 2 2 2 3 0 2 2 2 2 2 0 0 0 0 0 2 2 2 2 3 2 2 2 2 2 2 2 9 9 9 2 2 2 2 2 2 2 2 2 2 3 3 3 0 0 0 0 2 2 2 ; ; 3 3 3 3 3 3 - - - - 2 2 9 9 3 3 9 9 9 9 3 3 3 3 3 3 3 3 3 3 3 3 3 3 3 3 3 3 3 3 3 3 3 3 3 3 3 3 2 0 0 0 9 9 0 0 2 2 3 3 0 0 - 3 3 3 3 3 3 3 3 3 3 0 0 0 0 0 0 0 0 0 3 3 3 3 3 3 3 3 3 3 3 3 3 3 - - 3 3 3 3 3 3 3 3 3 3 3 3 3 3 3 3 3 3 3 3 3 3 3 3 - 3 ",
"t t t t t t t t t t t d p p / / / / ( / Q Q Q Q Q d d d d Q Q Q Q Q d Q Q / Q Q T t d d Q Q Q ~ Q Q ( ! ! ! ( ( ~ ( ( ) ( ( ( ( ) ) ) ) ) ) ) ) ) ) ~ ~ Q t e e 0 3 - - = - = - = = = = - 3 0 w t Q Q Q Q t t p p t 0 0 3 3 - - - - = = = = - = - - - - - - - - - - - - - 3 3 3 - - 3 3 3 3 3 3 3 - < 0 0 0 0 3 0 0 3 3 3 3 3 3 - 3 3 0 3 3 3 3 3 3 3 3 3 3 3 2 3 3 3 3 3 3 3 3 3 3 3 3 ; ; - - 3 2 2 2 2 2 2 2 2 2 2 2 2 2 2 2 2 2 3 3 3 3 3 3 0 0 2 2 2 2 ; ; 3 3 3 3 3 3 - - - - 2 9 9 9 3 3 9 9 2 2 3 2 3 3 3 - - 3 3 3 3 - 3 0 3 3 3 3 3 3 3 3 3 3 3 3 3 3 3 0 0 0 9 9 9 9 2 2 3 3 0 0 3 3 3 3 3 3 3 3 3 3 2 3 2 2 2 2 2 0 0 0 3 3 3 3 3 3 3 3 3 3 3 3 3 3 3 3 3 3 3 3 3 3 3 3 3 3 3 3 3 3 3 3 3 3 3 3 3 3 3 3 - - ",
"p p p p p t t t e e t p p p p p p / / / d d d d / d t t t d d p / / / d Q Q / Q Q d d d d Q Q / Q Q Q Q Q Q ! ! Q Q ( ~ ~ ~ ! ~ ~ ~ ~ ) ) ) ) ) ) ) ( ~ Q Q t t t 0 3 - - - - - - - - - 3 0 w w t Q Q Q Q Q Q Q t t e 0 0 3 3 - - - - - - - = = - - - - - - - - - - - - 3 3 3 3 0 0 0 0 0 0 0 0 0 e e 9 9 9 9 0 0 0 < 3 3 0 3 3 - - - 3 3 3 3 3 3 3 3 3 3 3 3 3 3 3 3 3 3 3 3 3 3 0 0 3 ; ; 3 3 3 3 2 2 2 3 3 3 2 3 3 3 3 3 3 2 3 3 3 3 2 2 2 3 0 2 2 2 2 2 3 - 3 3 3 3 2 2 2 2 3 3 3 9 2 3 3 3 3 3 2 2 9 9 9 9 2 2 2 3 3 3 3 3 3 3 3 3 - 2 2 2 3 3 3 3 3 3 3 3 3 2 0 9 2 2 2 3 3 3 3 3 0 3 3 3 3 3 3 3 3 3 3 3 3 2 2 2 2 2 2 3 3 3 3 3 3 3 3 3 3 3 3 3 3 3 3 3 3 3 3 3 3 3 - 3 3 3 3 3 3 3 3 3 3 3 3 3 - - - - - - - - ",
"i i i i a i e e i i i i i i i i p p p p t t t p p p p t p p p p p t p d t t t t T t t t t d Q Q Q Q Q Q Q Q Q Q Q Q Q ! ! ! ^ ^ ^ ^ ~ ~ ~ ~ ~ ~ ~ ~ ~ ~ Q d t t p e 0 - - 3 - - 3 - 3 3 3 e w t t d W W W W W Q t r t e 0 3 3 - - - - - - - - - = = - - 3 3 - - - - - 3 3 3 0 0 w w w w w w w w t e e r r y e e 0 0 < 3 3 0 3 3 - - - - 3 3 3 3 0 0 0 0 0 0 0 0 3 3 3 3 3 3 3 3 0 0 0 3 3 3 3 0 3 3 3 2 3 3 0 0 3 3 3 3 3 3 3 3 3 3 3 3 2 2 2 9 0 3 2 2 9 9 9 3 3 3 2 2 2 2 2 2 3 3 2 2 2 3 3 3 3 2 2 2 9 9 9 2 3 3 2 2 9 3 3 0 2 2 2 2 2 2 2 2 2 2 3 3 3 3 3 2 3 2 2 2 2 2 2 3 3 3 3 0 3 3 3 2 0 3 3 2 2 2 2 3 3 3 2 2 2 2 3 3 3 3 3 3 3 3 3 3 3 3 3 3 3 - - 3 3 3 3 3 3 3 3 3 3 3 3 3 3 3 3 3 - - - - - - - - - - - - ",
"0 a a i u u 0 0 u 0 0 0 0 0 0 i e e e a a e e i i a e e w t a a p p t t t t t t p p p p p t d d d d d Q Q Q Q d Q Q Q Q Q Q Q Q ^ ^ ! ~ ~ ~ ~ ~ ~ ~ ~ Q Q Q d t w w 0 0 u u u 3 3 3 3 3 0 e t t d t t t t t t t e e w 0 2 3 3 3 3 3 3 3 3 - - - - - - - - - - - - - - - 3 0 w w w w t t t t t t d d d d t t r y 9 9 9 9 0 0 0 0 0 - - 3 3 0 0 0 3 3 3 3 3 3 3 3 3 3 3 3 3 3 3 3 3 3 3 3 3 3 3 3 3 3 2 2 2 2 2 2 3 3 3 3 3 3 3 3 2 2 3 3 3 9 2 2 2 2 2 9 9 2 3 3 0 3 3 3 2 2 2 2 3 3 3 3 2 2 3 3 3 3 3 3 3 3 3 0 9 9 3 3 3 3 3 3 9 9 9 2 2 2 3 3 3 2 2 2 9 9 9 9 3 3 3 3 9 9 3 3 9 0 3 3 2 2 2 2 0 0 2 2 3 3 3 3 2 2 2 2 2 2 3 3 3 3 2 2 2 2 2 2 2 2 3 3 3 3 3 3 3 3 3 3 3 3 3 3 3 3 3 3 3 3 3 - 3 3 - - - - - - - - - - ",
"5 5 5 5 5 3 3 3 3 3 3 3 0 0 0 0 0 0 u 0 0 u u u u u 0 0 e e e 0 e e 0 0 e t t t p p i i t t t t d d d d Q d d d d Q Q Q Q Q Q Q ^ ^ ! ~ ~ ~ ~ ^ ^ ^ ! ! Q Q t t w w 0 0 u u u 3 0 3 3 3 0 e e w e t t t t t t e e e 0 0 3 3 3 3 5 5 5 5 3 3 5 3 3 3 - - - - - - - 3 - 3 3 w w t t t t t t t t t r d d Q Q t r r y y e y w w e 0 0 0 3 0 3 0 0 0 0 0 0 0 0 0 0 0 0 0 3 3 3 3 3 0 3 3 3 3 3 3 3 3 2 2 2 2 2 3 3 2 3 3 3 3 3 3 2 2 3 2 3 3 0 9 9 9 2 2 2 2 2 2 3 3 0 3 3 3 2 2 2 3 3 3 3 2 2 2 3 3 3 3 3 3 3 3 3 3 9 9 3 2 3 3 3 3 9 0 9 2 2 2 3 3 3 3 2 9 2 2 9 9 3 3 3 3 9 9 9 3 9 0 3 3 2 2 2 2 2 2 2 2 3 3 3 3 2 3 2 2 2 2 3 3 2 3 2 2 2 2 2 2 2 2 3 3 3 3 3 3 3 3 3 3 3 3 3 3 3 3 3 3 3 3 - - 3 3 3 3 - - - - - - - - ",
"- > > > - - - - - 3 3 3 0 u u u u u u u u 5 5 5 u u 0 0 0 0 0 0 0 0 0 0 0 0 e i a a a a e e e e w w t t t t t t t t d Q Q Q Q Q Q ! ! ! ! ! ! ! ^ Q Q Q Q t t w w 0 0 0 u u 3 3 0 0 3 3 0 0 e e 0 0 0 0 i i 0 0 9 0 0 3 3 3 3 0 0 0 3 3 3 3 3 3 3 3 3 - - - - - 3 - - 3 3 0 w e r t t t y y r r q r s s W s t t t t t t r e w w 9 0 0 0 0 0 3 2 3 3 3 0 0 0 0 0 3 2 3 2 2 2 2 2 2 2 2 2 2 2 2 2 3 3 3 3 3 3 3 3 2 2 2 2 2 2 2 2 3 3 3 3 0 0 0 3 3 3 3 3 2 3 3 3 9 9 2 3 2 2 3 3 3 3 2 2 2 2 3 3 2 9 3 3 3 3 2 2 9 2 2 2 2 9 3 3 3 3 3 3 2 3 3 3 2 2 2 9 3 2 3 3 3 3 2 2 2 2 3 3 9 9 3 3 2 3 2 2 2 2 2 2 2 2 3 3 3 3 3 3 2 3 3 3 2 2 2 2 2 2 2 2 2 3 - - 3 3 3 3 3 - 3 3 - 3 3 3 3 3 3 3 3 3 3 3 3 3 3 3 3 3 3 3 3 3 3 3 ",
"= = = = = = = = 3 3 5 5 5 5 5 u 5 5 5 5 5 5 > > 5 5 5 3 3 3 3 3 - 3 0 0 0 0 u a a a u 0 0 0 0 e e 0 e e t e e e t p p t d d d Q Q Q Q Q Q Q Q Q d d d t t t w w 0 0 0 3 3 3 3 3 3 - - 3 3 0 0 0 0 0 0 0 0 0 0 0 0 3 0 3 3 3 3 0 3 3 3 3 3 3 3 3 3 3 3 0 0 0 3 3 0 3 3 3 0 9 9 y r r r e y y y r r r r r t t t T t t t t r r r r 9 9 9 0 0 0 3 2 2 2 2 2 0 0 0 0 3 0 2 3 2 2 2 2 2 2 2 2 2 2 2 2 3 3 2 2 3 3 3 3 2 2 2 2 2 2 2 2 2 3 3 3 2 2 0 0 3 3 3 3 3 3 3 3 0 0 3 3 3 3 3 3 3 3 9 9 9 2 3 3 2 2 2 2 3 3 3 2 2 2 2 2 2 2 2 2 3 3 3 3 2 3 3 3 2 9 9 9 3 2 3 3 3 3 2 2 2 2 2 3 2 9 3 3 3 3 2 2 2 2 2 2 9 3 3 3 3 3 3 3 2 3 3 3 2 2 2 2 2 2 2 2 3 3 - 3 3 3 3 3 3 - 3 3 - - - - 3 3 3 3 3 3 3 3 3 3 3 3 3 3 3 3 3 3 3 3 ",
"= = = = = = = : = > 5 5 5 3 5 5 5 5 3 - - = = - 5 5 3 3 - - - - = - 5 u u u u u u u u 3 0 0 0 0 u 0 e e e e 0 0 e t t t t t t d t d d d d d d d t t w w t e 0 0 0 3 3 3 3 3 3 - - - 3 3 3 0 0 0 - 3 3 0 0 0 3 3 3 3 3 3 3 3 3 3 3 3 3 3 3 3 3 3 3 3 0 0 0 0 0 0 0 0 0 0 0 9 y r r t t t e e w t e e y y r e e t r r r r r r r r y 9 9 0 0 0 9 2 0 0 0 0 0 0 0 0 0 0 9 9 2 2 2 2 2 2 2 2 2 2 2 2 0 0 3 3 3 3 0 9 2 2 2 2 9 9 9 9 3 3 3 3 3 3 3 3 3 3 3 3 3 3 3 3 9 2 2 2 3 3 3 3 3 9 9 9 3 3 3 3 2 9 3 3 3 3 2 2 3 3 2 3 9 9 2 2 2 2 3 3 3 3 3 3 3 3 2 2 2 2 3 3 3 9 9 9 3 3 3 3 2 2 2 2 3 3 3 3 3 3 3 3 9 9 9 9 2 2 3 3 3 3 3 3 3 3 2 2 2 2 2 2 3 3 3 3 3 3 3 3 3 3 - 3 3 3 3 - 3 3 3 3 3 3 3 3 - - 3 3 3 3 3 3 3 3 2 2 ",
"= = = = = = = = : : 5 3 3 3 3 3 3 3 - - - = - - - - - = - = = = = - 3 5 5 5 3 3 0 3 3 3 3 0 0 0 0 0 0 0 i i 0 0 0 0 e e e e e e e w w t t w e e w 0 0 0 0 0 0 3 3 3 3 3 3 3 - - 3 3 3 3 0 0 0 0 3 3 3 3 0 0 3 3 3 3 3 3 3 3 3 3 3 3 3 3 3 3 3 3 3 3 3 0 0 0 0 0 0 0 0 0 e w e t r t t t e w w w e e e e e e e e 9 9 r r r r e e r 9 9 9 0 0 0 9 0 0 0 0 9 9 0 0 0 0 9 2 2 2 2 2 2 2 2 2 2 2 2 2 2 9 2 2 2 9 9 9 2 2 2 2 2 9 9 9 2 2 2 2 2 2 2 2 2 2 2 2 2 9 2 2 9 9 2 2 3 3 3 3 2 9 9 9 2 2 2 2 9 9 3 3 3 3 2 2 3 2 2 3 9 9 3 2 2 2 3 3 3 3 3 3 3 3 3 3 2 2 3 3 2 2 2 2 3 2 2 3 2 2 3 2 3 3 3 3 3 3 3 3 9 9 2 2 2 2 3 3 3 3 3 3 3 3 2 2 2 2 2 2 2 3 3 3 3 3 3 3 3 3 3 3 3 3 3 3 3 3 3 3 3 3 3 3 - 3 3 3 3 3 3 3 3 3 2 2 ",
"= = = - - - - - : : 5 5 3 3 3 3 3 3 3 - - - - - - = = = - = = = = = - 3 3 - - - 3 3 3 3 3 3 3 3 3 3 0 0 0 0 0 0 0 0 0 0 0 0 0 0 0 0 0 0 a u 0 0 3 2 2 0 0 u 3 5 3 3 3 3 3 3 3 - 3 3 3 3 3 3 3 3 3 3 3 3 0 0 3 3 3 3 3 3 3 3 3 3 - - - 3 3 3 3 3 - 3 3 0 0 0 0 3 3 3 0 0 0 w e t t w w w e e 0 0 0 0 e e e e 9 9 9 9 9 r w w w e e e e 0 9 9 9 y 9 9 9 9 9 9 9 9 9 9 9 2 2 2 9 9 9 9 9 9 9 9 9 9 9 9 9 9 9 9 9 9 9 9 9 9 9 9 9 9 0 9 9 9 9 9 9 9 9 9 9 9 9 9 9 9 9 9 9 2 2 2 2 2 2 2 2 2 2 2 2 2 2 3 3 3 3 2 2 9 3 2 3 3 3 3 3 3 2 2 2 2 3 3 3 3 3 3 3 3 3 2 3 2 3 2 2 2 2 2 3 3 3 3 3 3 3 3 3 3 2 2 3 3 3 3 2 2 2 2 2 2 3 3 3 3 3 3 2 2 2 2 2 2 2 2 3 ; 3 3 2 2 2 2 2 2 2 2 2 2 3 - 2 2 2 2 ; 2 3 3 3 3 3 3 3 3 3 3 3 3 ",
"* = : > - > > > = - - - - - - - > > - - = - - - = = = = = = = = = - - - - - - 3 3 - - - 3 3 3 3 3 3 3 0 0 0 0 3 3 3 3 0 0 0 0 0 0 0 0 u u 0 0 3 3 3 3 3 3 5 5 5 3 3 3 3 3 3 3 - 3 3 3 3 3 3 - - 3 3 3 - 0 0 0 3 3 3 3 3 3 3 3 3 3 3 3 3 3 3 3 3 - 3 3 3 3 3 3 3 3 3 3 0 9 y r e q y w 0 0 e 0 0 0 0 0 0 9 9 9 9 0 0 e e e e w e e e e 0 9 y y w 9 9 9 9 9 9 9 9 w 0 0 0 0 0 w w 9 9 9 9 9 9 9 9 9 9 9 9 9 9 9 9 9 9 9 9 e 9 9 9 9 9 9 9 9 9 9 9 9 9 9 9 9 9 9 9 9 9 9 2 2 2 2 2 2 2 2 2 2 2 2 2 2 2 2 2 2 2 2 2 2 2 2 2 2 2 2 2 2 2 2 2 2 2 2 2 2 2 2 2 2 2 2 2 2 2 2 2 2 2 2 2 2 2 2 2 2 2 2 2 2 2 2 2 2 2 2 2 2 2 2 2 2 2 2 2 3 3 2 2 2 2 2 2 2 2 2 ; - 2 2 2 2 2 2 2 2 2 2 2 - - ; ; ; ; ; ; - 3 3 3 3 3 3 3 3 3 3 3 ",
"= , = = = = = = = = = = = = = = = = = = - - - - = = = = = = = - = = - - = = = = - - - - - - - - 3 - 3 3 3 3 0 0 3 3 3 0 0 0 0 3 0 0 0 3 3 3 3 3 3 3 5 5 3 3 5 5 3 3 3 3 3 3 - - 3 3 3 3 3 3 3 3 3 3 3 3 3 0 0 0 3 3 3 3 3 3 3 3 3 3 3 3 3 3 3 3 3 3 3 3 3 3 3 0 9 2 3 3 3 9 9 9 9 0 0 0 0 0 0 9 0 0 0 0 0 0 0 0 0 0 0 w 0 0 0 0 w e 9 9 9 e 9 9 9 9 9 9 9 9 9 9 0 9 9 9 9 9 w w 9 9 9 9 9 9 9 9 9 9 9 9 9 9 e 9 9 9 9 9 9 9 e 9 9 9 9 9 9 9 9 9 9 9 9 9 9 9 9 9 0 9 2 2 2 2 2 2 2 2 2 2 3 9 9 9 2 2 2 2 2 2 2 2 3 2 3 3 3 3 3 3 2 2 2 2 2 2 2 2 2 2 2 2 2 9 0 0 2 2 2 2 2 2 2 2 2 2 2 2 2 2 2 2 2 2 2 2 2 2 2 2 2 2 2 2 2 2 2 2 2 2 2 2 2 2 2 2 2 2 2 2 2 2 2 2 2 2 2 2 0 2 2 2 9 9 2 2 ; ; 2 2 2 2 3 3 3 0 3 3 2 3 3 3 ",
"= = = = = = = = = = = = = = = = = = = = = = = = = = = = - - = = = = - = = = = = - - - - - - - - - - - - - - 3 3 - 3 - - 3 - - - 3 3 3 3 3 3 - - - 3 3 3 3 3 3 3 3 3 3 3 3 3 3 3 3 3 3 3 3 3 3 3 3 3 3 3 3 3 0 0 3 3 3 3 3 3 3 3 3 3 3 3 3 3 3 3 3 3 3 3 3 3 3 3 0 3 3 3 3 2 9 0 9 0 0 0 0 0 0 9 0 0 0 0 0 0 0 0 0 0 0 w 0 0 0 0 0 e 9 9 9 9 9 9 9 9 9 9 9 9 9 9 0 0 9 9 9 9 w w 9 9 9 9 9 9 9 9 9 9 9 9 9 9 e e 9 9 9 9 9 9 e e 9 9 9 9 9 9 9 9 9 9 9 9 9 9 e e 9 9 9 2 2 2 9 9 9 9 9 0 0 0 9 9 2 0 0 9 0 0 0 0 9 9 0 0 0 0 0 0 2 2 2 2 2 2 2 2 9 9 9 2 9 9 9 9 0 0 0 0 0 2 0 0 2 0 0 0 0 0 9 0 9 9 9 9 2 2 0 0 9 9 9 9 2 9 9 9 0 0 9 9 2 2 0 0 0 0 0 0 2 2 2 2 2 2 2 9 0 0 0 2 9 9 9 2 2 2 2 2 2 3 - - 3 0 3 3 2 2 3 3 ",
"* * * * = * * * = = = = = = * = = = = = = = = = = = = = - = = = = = = = = = = = = = - - = = - - - - - - - - - - - - - - - - - - - - - - - - - - - - - 3 3 3 3 - 3 3 3 3 3 3 3 3 3 3 3 3 3 3 3 3 - 3 3 3 3 3 3 3 3 3 3 3 3 3 3 3 3 3 3 3 3 3 3 3 3 3 3 3 3 3 3 3 - - - - - 3 3 3 9 9 0 0 9 9 9 9 0 0 0 0 2 9 9 9 2 0 0 9 0 0 0 0 0 9 9 9 y y 9 9 9 9 9 9 w 9 9 9 9 9 9 9 9 9 9 w 9 9 9 9 e e 9 9 9 9 9 9 9 9 9 9 9 9 9 9 9 9 9 9 9 9 9 9 9 9 9 9 9 9 9 9 y y y y 9 9 9 9 9 9 9 9 9 9 9 9 9 9 9 9 9 9 9 9 9 9 9 9 9 9 9 9 9 9 9 9 2 2 9 9 9 9 9 9 9 9 9 2 9 9 2 9 9 9 9 9 9 9 9 9 9 9 2 9 2 9 9 9 0 0 9 0 9 9 0 0 9 9 9 9 9 9 9 9 9 9 9 9 9 9 0 0 9 2 2 2 2 2 2 2 9 9 9 0 0 9 9 9 2 2 9 0 3 3 3 2 3 3 3 3 3 2 2 9 9 2 2 2 ",
"= = * * = * * * * * = = = = = = = = = = = = = = = = = : : : : : = = = = = = = = = = = ; = = - - - - - = = = = = = = = - - - - - - - - - - - - - - - - - 3 - - - - - - - 3 3 3 3 3 3 3 3 3 3 3 3 3 3 3 3 3 3 3 3 3 3 3 3 3 3 3 3 3 3 3 3 3 3 3 3 3 3 3 3 3 3 3 3 - - - - - 3 2 2 2 2 2 2 2 2 2 9 0 0 0 0 2 9 9 9 0 0 2 9 9 9 0 0 e 9 9 9 y y 9 9 9 9 9 w w w 9 9 9 9 9 9 9 9 9 9 e e 9 y y y 9 9 y e y y y y y y e y y y y y y y e e e e e e e e 9 9 9 9 y y y y y 9 9 9 9 9 9 q 9 2 9 9 9 9 9 9 9 9 9 9 9 9 9 9 9 9 9 9 9 9 9 9 9 9 9 9 9 9 9 9 9 9 9 9 9 9 2 2 9 9 9 9 9 9 9 9 9 9 2 9 9 9 9 9 0 0 0 0 9 9 9 0 9 9 9 9 2 9 9 9 0 9 9 9 9 9 9 0 2 2 2 2 2 2 2 2 9 9 0 0 0 0 9 9 2 2 2 2 2 3 3 3 2 2 2 2 9 9 9 9 q 9 2 2 ",
"= = = * = * * * * = = = = * * * = = = = = = = = = = : : = = = = = = = = = = = = = = = = = - - - - - = = = = = = = = = = = = = = = = = - - - - - - - - - 3 3 - - - - - - 3 3 3 3 3 3 3 3 3 3 3 3 3 3 3 3 3 3 3 3 3 3 3 3 3 3 3 3 3 3 3 3 3 3 3 3 3 3 3 3 3 3 0 3 3 3 3 2 2 2 2 2 2 2 2 2 2 2 2 2 2 2 2 2 2 2 2 2 2 2 2 2 9 9 9 9 e 9 9 9 y y 9 9 9 9 9 w w w 9 9 9 9 9 9 9 9 9 9 e y y y y y 9 9 9 9 9 9 9 9 y 9 e e 9 9 9 9 9 9 9 9 9 e e e y y 9 9 9 y y q q q r q q 9 9 9 q q 9 9 9 9 9 9 9 9 9 9 9 9 9 9 9 9 9 9 9 9 9 9 9 9 9 9 9 9 9 9 9 9 9 9 9 9 2 2 2 2 9 9 9 9 9 9 9 2 9 9 9 9 9 2 2 2 9 9 2 2 2 2 9 9 9 9 9 9 9 9 2 2 9 9 2 2 2 2 9 9 9 9 9 9 9 9 9 9 9 9 9 9 9 9 9 9 9 9 9 9 9 9 9 9 9 9 9 9 q q r r r y 2 2 ",
"* * = * = * * = = = = = = = = * = = = = = = = = = = = : = = = = = = = = - - - = = = = = = - - - = = = = = = = = = = = = = = = = - - - - - - - - - - - 3 3 3 - - - - - - - - - - 3 3 3 3 3 3 3 3 3 3 3 3 3 3 3 3 3 3 3 3 3 3 3 3 3 3 3 3 3 3 3 3 3 3 3 3 3 3 0 0 9 9 2 2 2 2 2 2 2 2 2 2 2 2 2 2 2 2 2 2 2 2 2 2 2 2 9 9 9 9 9 9 9 0 9 9 9 9 9 9 9 9 9 9 9 9 9 9 9 9 9 9 9 9 9 9 w w 9 9 9 9 9 9 9 9 e 9 9 9 9 9 y e 9 9 9 9 9 9 9 9 9 e e e y y r 9 9 q q q q q q q q 9 9 9 q q 9 9 9 9 9 9 9 9 9 9 9 9 9 9 9 9 9 9 9 9 9 9 9 9 9 9 9 9 9 9 9 9 9 9 9 9 2 9 9 9 9 9 9 9 9 9 9 9 9 9 9 9 9 9 9 9 9 9 9 9 9 9 9 9 9 9 9 9 9 9 9 9 9 9 9 9 9 9 9 9 y y y y 9 9 9 9 y y 9 9 9 9 9 9 9 9 9 9 9 9 9 9 q q q r r s s W s r y 0 ",
"o = = = = = = = = = = = = = = = = = = = = = = = = = = : : : = = = = = = = = - = = = = = = = - - = = = = = = - - = = = = = = = = - - = = = - - - - - - - 3 - - - - - - - - - - - 3 3 3 3 3 3 3 3 3 3 3 3 3 3 - 3 - 3 3 3 3 3 3 3 3 3 3 3 3 3 3 3 3 3 0 3 3 3 3 0 3 2 2 2 2 2 2 2 2 2 2 2 2 2 2 2 2 2 2 2 2 2 2 2 2 2 9 9 9 9 9 9 2 0 9 9 9 9 9 9 0 0 0 9 2 2 9 9 9 9 9 9 9 9 9 9 2 9 9 9 9 9 9 9 9 9 9 9 9 9 9 9 9 9 9 9 9 9 9 9 9 9 y y y y y y 9 y y 9 q q q q 9 9 9 9 9 9 9 9 9 9 9 9 9 9 9 9 9 9 9 9 9 9 9 9 9 9 9 9 9 9 9 9 9 9 2 2 9 9 9 9 9 9 9 9 9 9 y y q 9 9 9 9 9 9 9 q 9 9 9 9 9 q q y q q q 9 9 9 y 9 9 9 9 9 9 9 9 y y y y 9 9 9 y y y y y y y y y y y y y q q q q q 9 9 9 9 q q q r r s W W W W W W W r r ",
"o o = = = = = = * * = = = = = = = = = = * = = = = = : : : : : : = = = = = = = = = = = = = = - - = = - - - - - - = 1 = = = = = = = = = = = - - - - - - - 3 3 - - 3 3 - - - - - - 3 3 3 3 3 3 3 3 3 3 3 3 3 3 3 3 - 3 3 3 3 3 3 3 3 3 3 3 2 2 2 2 3 3 3 3 2 2 9 9 3 3 2 2 2 2 2 2 2 2 2 2 2 2 2 2 2 2 2 2 2 2 2 2 2 2 9 9 9 9 9 9 2 2 9 9 9 9 9 9 0 0 9 2 2 2 2 2 9 9 9 9 9 9 9 9 2 2 9 9 9 9 9 9 9 9 9 9 9 9 9 9 9 9 9 9 9 9 9 9 9 9 9 y y y y y y y y 9 9 y y y 9 9 9 y y y 9 9 y y 9 9 0 9 9 9 9 9 9 9 9 9 9 9 9 9 9 9 9 9 9 9 9 9 2 9 9 9 9 2 9 9 9 9 9 y y y q q y y y 9 9 9 q q y 9 y y q q y y y y y y y y y 9 9 9 y y y y y y y y y y y y q q y y y y y y y y y y y y y q y q q q q q q q W W W ^ ^ W W W ^ W R r ",
"o o o = = = = o o = = = = o o o * = = = = = = = = = = = = - - - = = = = = = = = = = = = = = = = = - - - - - - = = = - - - - = = = = = = = - - - = = - 3 - - - - - 3 - - - - - - - - - 3 3 3 3 3 3 3 3 3 - - 3 3 3 3 3 3 3 3 3 3 3 3 2 2 2 3 3 3 3 3 3 3 9 9 3 3 2 2 2 2 2 2 2 2 2 2 2 2 2 2 2 2 2 2 2 2 2 2 2 2 2 2 9 9 9 9 9 9 9 9 9 9 9 9 9 9 9 9 9 2 2 2 2 2 2 2 9 9 9 9 2 9 9 9 9 9 9 9 9 9 9 9 9 9 2 2 9 9 9 9 9 9 2 2 2 2 2 9 9 9 9 9 q q 9 9 q q y y y y y y y 9 9 9 9 9 9 9 9 9 9 9 9 9 9 9 9 2 0 0 9 9 e 9 9 q 9 9 9 9 9 9 9 q q q 2 2 9 9 q 9 y y y y y y q y y y y y y q y y y q q q y r e e r r r r y q q q q q q q q q q q q r q q q q q r r q q q y y r r r r r r r q q q q r r W W W W ^ ^ ^ ^ ^ ^ ^ W W ",
"o o o = = = = o o = = = = o o = * = = * = = = = = = = = = = = = = = = = = = = = = = = = = = = = = - - - - - - = = = - - - - = = = - = = - - - - = = 3 3 - - - - 3 3 - - - - - - - - 3 3 3 3 3 3 - 3 3 3 3 3 - 3 3 3 3 3 3 3 3 3 3 3 2 2 2 3 2 2 3 3 3 2 9 9 0 3 2 2 2 2 2 2 2 2 2 2 2 2 2 2 2 2 2 2 2 2 2 2 2 2 2 2 9 9 9 9 9 9 2 9 9 9 9 9 2 2 9 9 9 9 2 2 2 2 2 2 9 9 9 9 9 9 9 9 9 9 9 9 9 2 9 9 9 9 2 9 9 9 9 9 9 9 2 2 2 2 2 9 9 9 9 9 9 q 9 q q q y y y y y y 9 9 9 9 9 y 9 w 9 9 9 9 9 9 9 9 2 2 9 9 9 9 y 9 y 9 9 y 9 9 q 9 9 9 q q 2 q 9 q 9 q y y y y y y q q y y y y q q y q y y q q y y y y y y y y y y y q q q q q q q q r q q q q q q q r q q q q q q r r r r r q r q q q r r W W W W ^ ^ ^ ^ ^ ^ ^ ^ ^ W ",
"o o o = = = o o o = = = = = = = = = = = = = = = = = = = = = = = = = = = = = = = = = = = = = = = = = - - - - - - = - - - - - = = - - - - - - - - - - 3 3 - - - - 3 - - - - 3 - - - - - - 3 3 3 3 - - 3 3 3 3 3 3 3 3 3 3 3 3 3 3 3 3 3 3 2 3 2 2 3 3 2 2 2 2 3 3 2 2 2 2 2 2 2 2 2 2 2 2 2 2 2 2 2 2 2 2 2 2 2 2 2 2 0 0 9 9 2 2 2 2 2 2 9 9 2 2 2 9 9 9 2 2 2 2 9 9 9 9 2 2 9 9 2 2 2 2 9 9 2 2 9 9 9 9 2 2 9 9 2 2 9 9 9 9 9 9 2 9 9 9 9 9 q q 9 9 q q y y y y y y 9 9 w w 9 9 9 9 9 9 9 9 9 w w 0 2 2 9 9 q q r r r r r r y 9 q q q q q q q q q q q q y y q 9 q q q q q y y y y y y y y y y q q q q y y y q q y y y y y y q y q q r r q q q q q q r r q q q q q q r r r r q q q q q y r t W W W ^ ^ ^ ^ ^ ^ ^ ^ ^ ^ ^ ",
"o o o = = = = = = = = = = = = = = = = = = = = = = = = = = = = = = = = = = = = = = = = = = = = = = = - - - - - - - - - - - - = = - - - - - - - - - - 3 3 - - - - - - - - - - - - - - - - 3 3 3 3 3 3 3 3 3 3 3 3 3 3 3 3 3 3 3 3 3 3 3 3 2 3 2 2 3 3 2 2 2 2 3 3 2 2 2 2 2 2 2 2 2 2 2 2 2 2 2 2 2 2 2 2 2 2 2 2 2 2 0 0 0 9 2 2 0 9 9 9 9 9 2 2 2 9 9 9 2 9 q 9 9 9 9 2 2 2 2 9 2 9 2 2 9 9 2 2 2 2 9 9 9 2 9 9 2 2 9 9 9 9 9 9 2 9 9 9 9 9 9 q 9 9 q q q q y y y y 9 0 w w 9 9 w w w w 0 0 w w 0 0 9 9 9 q q r r r r s s t t r r q q q q q q q q q q q q q q 9 q q q q q y 9 9 q q y y y y y y y y y y y y y r y y y y q q q q q q r r r r q q q q r r r r q q q q r r q q q q q q q r t W W W W W ^ ^ ^ ^ ^ ^ ^ ^ ^ ^ ",
"o o o = = = = = = = = = = = = = = = = = = = = = = = = = = = = = = = = = = = = = = = = = = = = = = = - - - - = - - - - - - - - - - - - - - - - - - - 3 3 3 3 - - - - - - - - 3 - - - 3 - 3 3 3 3 3 3 3 3 3 3 3 3 3 3 3 3 3 3 3 3 3 3 3 3 2 3 3 2 3 2 2 2 3 3 3 3 2 2 2 2 2 2 2 2 2 2 2 2 2 2 2 2 2 2 2 2 2 2 2 2 2 2 0 0 9 9 9 9 9 0 9 9 9 9 9 9 2 2 9 9 q q q q 2 2 9 9 2 2 2 2 9 9 9 2 2 9 9 9 2 2 2 9 9 9 9 9 2 9 9 9 9 9 9 9 2 9 9 9 9 9 9 9 9 9 y y y q q y 9 y 9 9 w w 9 9 9 9 9 9 9 9 9 9 0 9 2 9 q r r s W W W W W W W r r r q q q q q r q q q q q q q q y y y y q y y y y y y y y y q q y y y y y y y y q y q q q q q q q q q r q q q q q q q q q q q q q q r r r r r r r r r r s s W W W W ^ ^ ^ ^ ^ ^ W ^ ^ ^ ",
"o o o = = = = = = = = = = = = = = = = = = = = = = = = = = = = = = = = = = = = = = = = = = = = = = = - - - - = = - - - - - - - - = = - - - - - - = - 3 - 3 3 - - - - - - - - - - 3 3 - 3 3 3 3 3 3 3 3 3 3 3 3 3 3 3 3 3 3 3 3 3 3 3 2 3 2 3 2 2 2 2 2 2 2 2 2 2 2 2 2 2 2 2 2 2 2 2 2 2 2 2 2 2 2 2 2 2 2 2 2 2 2 2 9 9 9 9 9 9 9 9 9 9 9 9 9 9 9 9 9 q q q q q q q q q 9 9 2 2 9 9 9 2 2 9 9 9 2 2 9 9 9 2 9 9 2 9 9 9 9 9 9 9 2 9 9 9 9 9 9 9 9 9 y y y q q q y y y 9 9 9 9 9 9 9 9 9 9 9 9 9 9 9 q q r s W W W ^ ^ ^ ^ W W W R r r r r r q r q q q q q q q q q q y y q y 9 9 y y y y y q q q r r y r r r r r q q q q q q q q q r r r r r r r r r r r r r r r r r r r r r r r r r r s s s W W W W W W W W W W W W W W ",
"o o o = = = = o = = = = = = = = o = = = = = = = = = = = = = = = = = = = = = = = = = = = = = = = = = - - - = = = - - - - = = - - = = - - - - = = = = - - 3 - - - 3 3 3 3 3 3 3 3 - 3 3 3 3 3 3 3 - 3 3 3 3 3 3 3 3 3 3 3 3 3 3 3 3 3 2 2 2 3 3 3 2 2 2 2 2 2 2 2 2 2 2 2 2 2 0 0 0 0 0 9 2 2 0 0 9 9 9 9 9 9 9 9 2 2 2 9 2 2 9 9 9 9 9 9 q y 9 9 y y y y q q q q q q q q q q 9 9 9 q 9 9 2 2 9 2 9 9 9 9 2 2 2 9 9 9 9 9 9 9 9 9 2 2 9 q 9 9 9 q q q y q y q y y q y y y 9 9 9 9 y y y 9 y y y y y q q r s s s s W W ^ ^ W W W W W W s r r r r r r r r q q q q q q q y y y 9 9 9 y y y r r r q q q q q r r r r q r r r r r r r r r r r r r r r r r r r r r r r r s s s s s r r r r r r s s s W s W W W W W W W W W W W W ",
"o o o = = = = o = = = = = = = = o o = = = = = = = = = = = = = = = = = = = = = = = = = = = = = = = = - - - - = = - - = = = = = - = = = - - - = = = = - - 3 - - - 3 3 3 3 3 3 3 3 - - 3 3 3 3 3 3 - 3 3 3 3 3 3 3 2 2 2 2 2 3 3 3 3 3 2 2 2 3 3 3 2 2 2 2 2 2 2 2 2 9 0 0 0 0 0 0 0 0 0 9 9 0 0 0 9 9 9 9 9 9 9 9 2 2 2 2 2 2 2 9 9 9 9 9 9 q 9 9 y y y y y q q q q y y y y q q q 9 2 9 9 9 9 9 9 9 9 9 9 2 2 2 9 9 9 9 9 9 9 9 9 2 2 9 q 9 9 9 9 q q q q q q q y q q y y 9 9 y y y y y 9 9 y y y y q r r s s s s W W W W W W W W W W W s s s s r r r r r q q q q q q y y 9 9 9 9 y y y r r r q r r r r r r r r r r r r r r r r r r r r r r r r r r r r r r s s s s s s s s s s s s s r r s s W s s W W W W W W W W W W W ",
"o o o = = = = = = = = = = = = = = = = = = = = = = = = = = = = = = = = = = = = = = = = = = = = = = = = - 3 - - - - = - - - - - - = = = - - - = = - - - - - - - - - - 3 3 3 - - - 3 3 3 3 3 3 - 3 3 3 3 3 3 3 3 3 3 3 2 2 2 2 3 3 2 2 3 3 3 2 2 2 3 2 2 2 2 2 2 2 2 2 2 0 0 0 0 2 2 2 2 2 9 9 9 9 2 2 9 9 9 9 2 2 9 9 9 9 2 2 2 2 9 9 9 q q q 9 9 y y y y y y y r y y q q q q q q q q 9 9 9 9 9 9 9 9 9 9 9 9 9 9 9 9 9 9 9 9 9 9 2 q q q 9 9 9 9 q q q q q q y y y y y y y y y y q q q q q q q q q q q r s s s s W W W W W W W W W W W W W W s s s r r r r q q q q q q q q q q q q q q q q q r r r r s s W r r W r s s s s s s s r s r r r r r r r r r r r r s W W s s s s s s s r r r r r s s s s s W W W W W W W W W s ",
"o o o = = = = = = = = = = = = = = = = = = = = = = = = = = = = = = = = = = = = = = = = = = = = = = = = - = - - - = = - - - - - - = = - - - - = = - - - - - - - - - - 3 3 3 3 - - 3 3 3 3 3 3 - 3 3 3 3 3 3 3 3 3 3 3 2 2 2 2 3 3 2 2 3 2 3 2 2 2 3 2 2 2 2 2 2 2 2 2 2 0 0 0 0 2 2 2 2 2 9 9 9 9 2 2 9 9 9 9 2 2 9 9 9 9 2 2 9 9 9 9 q q q q q 9 y y y y y y y y y y q q q q q q q q q 9 9 9 9 9 9 9 9 9 9 9 9 9 9 9 9 9 9 9 9 9 9 9 q q 9 9 9 9 q q y y y r y y y y y y q q y y y y y q q q q q q q q r r r s s s s s s W W W W W W W W W W s s s s r r r q q q q q q q q q q q q q q q q q r s s s s W W s W W W s W s s s s s W W W s r r r r s s r r r r s s s s s s s s r r s s r r r s s r s s s r s W s W s s s s ",
"o o o = = = = = o = = = = = = = = = = = = = = = = = = = = = = = = = = = = = = = = = = = = = = = = = = - = = - - = = = - = = = = = = - - - - - - - - - - - - - - - - 3 3 3 3 3 - 3 3 3 3 3 3 3 3 3 3 3 3 3 3 3 3 3 3 3 3 2 2 3 3 2 3 3 3 2 2 2 2 3 2 2 2 2 2 2 2 2 2 2 0 0 0 9 9 0 0 9 9 9 9 2 2 2 2 9 9 9 9 2 2 9 9 9 9 9 9 9 9 9 9 q q q q q y y y y y y y y y q y q q q q q q q q q q q q 9 9 q q q q q q q q q q q 9 9 9 q q 9 9 9 q 9 9 q q 9 y q y y y y q y y y y q q q q q q q q q q q q q q q r r r r r s s s s s s s s s s W W s s s s r r r r r q r r q q q q q q q q r q q q q r r s s s s s r r r W r r s r s r r s s s s s s s r r r r r r r r r s r r s s s s r r q q q q q q q r s s r r r r r t r r r s ",
"o o o = = = = = o o = = = = = = = = = = = = = = = = : : : : : : = = - - - - - - = = = = = = = = = = = = = = - - = = - - - = = = - - - - - - - - - - - - 3 - - - - - 3 3 3 3 3 3 3 3 3 3 3 3 3 3 3 3 3 3 3 3 3 3 3 3 2 3 2 2 3 3 3 3 3 3 3 2 2 2 3 2 2 2 2 2 2 2 2 2 0 0 0 0 9 9 0 0 9 9 0 2 2 2 9 9 9 9 9 9 2 9 9 9 9 9 9 9 9 9 9 9 q q q q q y r r r r r r r r y y q q q q q q q q q q r y y 9 y q q q q q q q 9 9 9 y q q q q y y y y q q 9 q q q q y y q y q 9 y y y q q q y q q q q q q q q q q q r r r r r r r r r r r r r r r r r r r r r r r r r r q r q q q q q q q q q q q q q q r r s r r r r r r r r r r r r r r r r r s s s s s s s r r r r r r s s r r r r r r r r q r r r r r t t t r r r r t t R r r r r ",
"o o o = = = = = = = = = = = = = = = = = = = = = = = = = = = = = = = = = = = = = = = = = = = = = = = = = = = - - - - - = - - - - - - - - - - - - - - - - 3 3 3 - - - 3 3 3 3 3 3 - - 3 3 3 3 3 3 3 3 3 3 3 3 3 3 3 3 3 3 2 2 3 2 3 3 3 3 3 3 3 3 2 2 2 2 2 2 3 2 2 2 0 0 0 0 2 9 0 0 2 9 9 9 9 2 9 9 9 9 9 9 9 9 9 9 9 9 9 9 9 2 9 9 q q q q y y y q q y q q q y y y q q q q q q q q q r r r r r y y y y q q q q q q q q q q q q q q r r q q q q y y y y q q r q y q q q q q y y y q q q q q q q q q q r q r r r r q q q q q q q r r q q q q q q r r r r r r q q q q q q q q q q q q q r r r r r r r r r r r r r r r r r r r r r r r s s W r r r r r r r r r r r r r r r r r r r q r q q q q r r r r r r r r r y R R r r ",
"o o o o = = = = = = = = = = = = = = = = = = = = = = = = = = = = = = = = = = = = = = = = = = = = = = - - = = - - - - - = - - - - - - - - - - - - - - = - 3 3 - - - - 3 3 3 3 3 3 3 3 3 3 3 3 3 3 3 3 3 3 3 3 3 3 3 3 3 3 2 3 3 3 2 2 2 2 2 2 2 2 3 2 2 2 2 2 2 2 2 2 0 0 0 0 2 2 9 9 2 2 9 9 9 9 9 9 9 9 9 9 9 9 9 9 9 9 9 9 2 2 9 9 9 q q q q y y q q y y y y y y y y q q q y y q q r r r r e r y y y y q q r q q q q q q q q q q q q q q q q q q q q q q q q q q q q q q q q q q q q q q q q q q q q q q r r r r q r q q q q q r r q q q q q q q r r r r r q q q q q q q q q q q q r r r r r r r r r r r r r r r r r q r r q r q r r r r r q q t R r r r r r r r r r r r q q q q q q q q q r r r r r r r r r r q q q q ",
"o o o = = = = = = = = = = = = = = = = = = = = = = = = = = = = = = = = = = = = = - - - = = = = - - - - - = = - - - - = = = - - - = - = = - - - - = = = - - - - - - - 3 3 3 3 3 3 3 3 3 3 3 3 3 3 3 3 3 3 3 3 3 3 3 3 2 2 2 3 3 3 2 2 2 2 2 2 2 2 2 2 9 0 0 0 0 0 2 9 9 9 9 2 2 2 9 2 2 2 9 9 9 9 2 2 9 9 9 9 9 2 2 2 9 9 9 9 2 2 2 9 9 9 9 9 9 9 9 9 9 9 y y y y y y q q q y y y q q q y y y y y r r r r r r r r r r q q q q q q q q q q q q q q q q q q q q q q q q q q q q q q q q q q q q q q q q q q q q r r r r r r r r r r r r r q r r r r r r r r q r q q q q q q q q q q q q r r r r q q q q r q r r r q q q q q q q q q q q r r r r r r q q q q q r r q q q q q q q q q s d d d d d d | | | | | o.:.:.:.:.:.:.:.",
"o o o = = = = = = = = = = = = = = = = = = = = = = = = = = = = = = = = = = = = = 3 3 3 3 - - - 3 3 3 - - = - - - - - = = = - - - = = = = = - - - = = = - - - - - - - - 3 3 3 3 3 3 3 3 3 3 3 3 3 2 2 2 3 3 3 3 3 3 3 2 2 2 2 3 3 2 2 2 2 2 2 2 2 2 2 9 0 0 0 2 2 2 9 9 9 2 2 2 2 9 9 2 2 9 9 9 9 2 9 9 9 9 9 9 2 2 2 9 9 9 9 2 2 2 2 9 9 9 9 9 9 9 9 9 9 9 9 9 w 9 9 q q y y y y q q 9 9 y y y y r r r r r r r r r r q q q q q q q q q q q q q q q q q q q q q q q q q q q q q q q q q q r r r r q q q q q r r q q q r r r q q q r q q q q r q r s r r q q q q q q q q r r q q q q q r r r q q r q q q q r r r q q q q q q q q q 9 q r r r s d d _ _ | | | +.+.;.;.;.:.:.:.M.i.M.J.J.i.i.i.i.J.I.I.P.P.I.'..X.X.X.X.X.X.X",
"o = = = = = = = = = = = = = = = = = = = = = = = = = = = = = = = = = 1 1 = = = = = = 1 3 - - = = 1 1 1 = = = 1 1 1 1 = = = = = = = = = 1 1 1 = = = = = = = = = - - - - 3 3 3 3 3 3 3 3 3 3 3 3 3 3 3 3 2 3 2 2 2 2 2 3 3 3 3 3 2 2 2 2 2 2 2 2 9 2 2 0 9 9 2 2 2 2 9 9 9 9 2 9 9 9 9 9 9 2 2 9 9 2 2 9 9 9 9 9 2 2 2 9 9 9 2 2 2 2 2 2 2 2 9 9 9 9 9 9 9 9 w w w 0 9 y q q y 9 y 9 9 q q q q 9 9 y r r r q q q q q q q q q q q q r q q q q q q q q q q q q q q r q q q q q q q q q q q q q q q q q q q q q q q q q q q q q q q q r r r r q q r r R r r R R R R R R y q r q q q r q q q q q q q s s d d d f N | | | | ;.:.:.:.:.:.M.i.i.P.P.I.I.I.I.I.I.I.I.@X.X.X.X=X=XtXyXyXyXyXyXdXyXyXyXyXpXyX%X%X*X%XpXsXmXmXsXsXsXdX",
"o = = = = = = o = = = = = = = = = = = = = = = = = = = = = = = = = = 1 1 = = = = = = 1 3 - - = = 3 3 - = - - - 3 - - = = = = - = = - = = - - - - = = = = = = - - - - 3 3 3 3 3 3 3 3 3 3 3 3 3 3 3 3 3 2 3 3 2 2 2 2 3 3 3 3 2 2 2 2 2 2 2 2 2 2 2 2 0 9 9 9 2 2 2 9 9 9 2 2 9 9 9 9 9 9 2 2 9 9 2 2 9 9 9 9 2 2 9 2 9 9 9 9 2 2 2 2 2 9 9 9 9 9 2 2 9 9 9 9 0 0 0 9 9 q q y y y y y y q q q q 9 q q q q q q q q q q q q q q q q q q q r r r r q q q r R r r q q q q q q q q q q q q q r r r r r r r r r q q q q r r r r r r r r r r r r r q q r q q q q r r r r r r Q ! ( ( | +.&.o.:.:.:.i.N.J.I.I.I.P.I..X.X.X.XrXrXtXtXtXtXtXyXyXdXdXpXpXtX%X*XoXoX*XtXuXdXgXmXmXmXmXsXdXsXmXmXmXmXmXmXmXmXmXsXdXdXdXsXsXsXmXmXsXdXdX",
"+ , = = = = = o = = = = = = = = = = = = = = = = = = = = = = = = = = = = = = = 1 = = 3 3 - - - - - - - - = = - - 3 3 - - 3 3 3 3 - - - - 3 3 3 3 3 3 - - - - = = - - 3 3 3 3 3 3 3 3 3 3 3 3 3 3 3 3 3 2 3 3 3 3 2 2 3 3 2 2 2 2 2 2 2 2 2 2 2 2 2 2 0 9 9 9 9 9 2 2 9 9 9 9 9 9 9 9 9 9 2 2 9 9 9 9 9 9 9 9 9 9 9 9 9 9 9 9 2 2 2 2 9 9 9 9 9 9 9 9 9 9 9 9 9 9 9 9 q q q y y y y y q q q q q q q q q q q q q q q q q q q r r r r r r q q q q q r r r r r r r t q q q r r r q q r r r r r r q r R R R R R R R R r r r q q q q q q q q q r s s ^ d ~ | | :.:.:.:.:.M.i.J.J.J.I.@X.X.X.XoX+XtXtXtXdXuXtX%X%XtXtXtXtXuXuXuXuXuXuXuXpXpXdXdXpXpXtX%X%X%X*X%X%X&XuXpXpXsXdXaX:X$X;XpXdXdXsXsXsXsXmXsXpXpXpX>X&X&X=X=X=X=X&X*X",
"+ , , = = = = o = = = = = = = = = = = = = = = = = = = = o o o o = = = = = = = 1 = = 3 3 - - - 3 - - - - - - - - 3 3 - - 3 3 3 3 - - - - 3 3 3 3 3 3 3 3 = = = = - - 3 3 3 3 3 3 3 3 3 3 3 3 3 3 3 3 3 2 3 3 3 3 2 2 3 3 2 2 2 2 2 2 2 2 2 2 2 2 2 2 0 9 9 9 9 9 2 2 9 9 9 9 9 9 2 2 9 9 9 9 9 9 9 9 9 9 9 9 9 9 9 9 9 9 9 9 9 9 9 9 9 9 9 9 9 9 9 9 9 9 9 9 9 9 9 y y q q q q y q q q q q q q q q y q q r r r r q q q q q q q q r r r q q r r r q q r r q q q q r r t t r q r r r r r r r r r r q q q q r r s W W s d m | | &.$.:.:.:.i.i.i.J.J.I.I.I.I.I.@X@X.X.X.X.XoXoXoX%XuXuXuXuXuXuXuXtXtXpXtX*X*X*X&X&X*X*X%X%X*XoXoX*X*X%XtXtXtXtXtXtXtXtX%X%X%X%X*X*XoX.X*X%X+XXXoX*XtXyXyXyXyXyXyXyXyXyXpXpXpX>X&X&X&XyXyXyXyX",
"+ o = = = = = o = = = = = = = = = = = = = = = = = = = = o o o o = = = = = = = = = = - 3 3 3 3 3 - - - - - - - - - - - - 3 3 3 - - - - - - - - - 3 3 3 3 3 3 3 3 = = 3 3 3 3 3 3 3 3 3 3 3 3 3 3 3 3 3 3 3 3 3 3 3 3 3 3 2 3 3 3 2 2 2 2 2 2 2 2 2 2 0 9 9 9 9 0 2 9 9 9 9 9 9 9 2 2 2 9 9 9 9 9 9 9 9 9 9 9 9 9 9 9 9 9 9 9 9 9 9 9 9 9 2 2 9 9 9 9 9 9 9 9 9 9 9 y y y q q q 9 q q q q q q q q q q q q q r r r r r r r r r r r q q r r r r r q r r r r q q q q q q q q q q r r s d d d | | | | o.:.:.:.i.J.J.J.I.I.I.@X.XrXrXtXrXtXtXtXtXtXtXtXtXtXtXtXtXtXtXtXtX%X%X%X$XOX$X:X&X%X&XuXuXpXyXtXyXyX*X*X&XyXyXyXyXpXpXpXtXtXtXuX&X%XtXtXtXtX%XoX%XoX.X.XoX+X%X*X*XtXtXtXtXuXuXyXyXyXyXsXsXsXdXdXmXmXmXmXmXmXmXmXmXmXsXmX",
"o o = = = = = o = = = = = = = = = = = = = = = = = = = = = = o o = = 1 = = = = = = = 1 3 3 3 1 1 = = = 3 3 3 1 1 3 3 3 3 3 3 1 1 1 1 3 3 3 3 3 3 3 3 3 3 3 3 3 3 - - 3 3 3 3 3 3 3 3 3 3 3 3 3 3 3 3 3 3 2 2 2 2 2 2 2 2 2 2 2 2 2 2 2 2 2 2 2 2 2 2 0 9 9 9 9 9 2 2 9 9 9 9 9 9 2 2 9 9 9 9 9 9 9 9 9 9 9 9 9 2 9 9 9 9 9 9 9 9 9 9 9 9 9 2 2 2 9 9 9 9 9 9 9 9 9 9 9 9 q q q q q q q q q q q q q q q q q r r r q q r r r q q q r r r r r q s s r r r r r s ! | | &.;.:.:.M.N.N.J.I.I.I.I.I.@X@X@X.X.X+XtXtXiXgXgXgXgXdXgXgXgXgXgXgXgXfXdXuXuXuXuXiXuXuXiXuXuX%XtXtXtXtX%X%X%XtXuXuXuXpXdXsXdXdXpXpXpXdXsXsXsXdXdXsXsXsXpXpXpXpX&X&X&XpXpXpX&X&X&X&X*X*X%X&XpXpXpXpXpXpXdXdXdXdXmXmXmXmXmXmXmXmXsXsXsXsXsXsXsXdXpXpXyXyX",
"o o = = = = = o = = = = = = = = = = = = = = = = = = = = = = o o = = 1 1 = = = = 1 = 1 1 3 3 = = 1 1 1 3 3 3 3 1 3 3 1 1 1 1 1 1 1 1 1 1 3 1 3 3 3 3 3 3 3 3 3 3 3 3 3 3 3 3 3 3 3 3 3 3 3 3 3 3 3 3 3 3 2 2 2 2 2 2 2 2 2 2 2 2 2 2 2 2 2 2 2 2 2 2 2 2 2 2 2 2 2 2 2 2 2 2 2 2 2 2 2 2 2 2 2 2 2 2 2 2 2 2 2 2 9 9 9 9 9 9 9 9 9 9 9 2 2 9 2 2 2 9 9 9 9 9 9 9 9 9 9 9 9 9 q q 9 q q q q q q q q q q q q q q r q q q q q q q r q r s d d | | o.:.:.i.J.J.J.J.J.@X@X.X.X+XrXtXtXiXiXiXuXuXuXiXiXiXiXaXdXfXgXgXgXfXdXdXsXsXdXdXdXdXdXdXdXdXdXdXdXdXuXtX%X%X%X%X%XtXtXtXuXuXtXtXuXpXpXuXuXuXuXuXuXtXtXpXpXsXsXsXsXdXsXsXsXsXsXsXsXyX>X>XaXdXdXaXpXpX>X&X&X;XpXaXpXaXpXdXsXmXmXmXsXmXmXmXmXmXmXmXsXpXpXpXpXpXpXpX&X*X*X&X&X",
"o o = = = = = o = = = = = = = = = = = = = = = = = = = 1 1 1 1 = = 1 1 1 = = = = 1 1 1 1 3 1 1 = 1 1 1 1 1 1 1 1 1 1 1 1 1 1 1 1 1 1 1 1 1 1 1 3 3 3 3 3 3 3 3 3 3 3 3 3 3 3 3 3 3 3 3 3 3 3 3 3 3 3 3 3 2 2 2 2 2 2 2 2 2 2 2 2 2 2 2 2 2 2 2 2 2 2 2 2 2 2 2 2 2 2 2 2 2 2 2 2 2 2 2 2 2 2 2 2 2 2 2 2 2 2 2 2 9 9 9 9 9 9 9 9 9 9 2 2 2 2 2 9 2 2 9 9 9 9 9 2 0 0 0 9 9 q q 9 9 q q q q q q q r r r r r r q q q q s d | | -.:.M.N.J.I.@X.XrXrXbXbXbXiXiXiXiXiXiXiXiXaXaXiXiXiXgXgXdXdXdXdXdXdXaXdXdXfXfXgXgXgXdXdXdXdXdXdXpXpXpXdXdXdXdXsXsXsXdXdXsXsXdXpXtXtX+X$XuXpXpXuXuXdXuXuXtX%X+XoX*X%X%X%XuXpXdXsXdXdXsXsXmXmXmXmXmXmXmXmXmXmXmXmXmXmXdXdXpXpXdXsXsXdXfXdXsXmXmXmXmXmXmXmXmXmXmXsXsXdXdXpXpXpXaXdXpX;X;XyXyXyX",
"= = o = = = = = o o = = = = o o = = = = = = = = = = = = 1 1 = = = = 1 = = = = = = = 1 1 1 1 = = = = 1 1 1 3 1 1 1 1 1 1 1 1 1 1 1 1 1 1 1 1 1 4 1 1 1 3 3 3 1 1 3 3 3 3 3 3 3 3 3 3 3 3 3 3 3 3 3 3 3 3 2 2 2 2 3 4 2 2 2 2 2 2 2 2 2 2 2 2 2 2 2 2 2 2 2 0 9 9 2 2 2 9 9 2 2 9 2 9 9 9 9 2 2 2 2 9 e e w e 9 9 9 9 9 9 9 9 2 2 9 2 2 9 9 9 2 9 2 2 2 9 9 9 2 2 9 9 y y y y q q q q q q q q r r s d ^ | | o.:.i.J.I.I.'.@X@X+XtXiXiXiXiXgXdXaXaXiXiXaXdXdXdXiXiXdXgXgXgXgXgXgXgXfXfXgXgXgXgXfXdXdXdXdXdXdXdXdXdXdXdXdXdXdXdXdXdXpXpXpXdXdXdXdXsXdXdXdXdXsXsXdXpXuXuXpXdXpXuXuXaXpXpXpX;X%X$X%X;X;X;X;XuXpXaXdXsXdXdXsXmXmXmXmXmXmXmXmXmXmXmXmXmXmXmXmXmXmXmXmXmXdXdXdXsXmXsXdXdXsXmXmXmXdXdXaXpXdXpX&XpXdXpX>X&X>X>XyXyX",
"= = o o o = = = o o = = = = = = = = = = = = = = = = = 1 1 1 1 = = 1 1 = = = = = 1 1 1 1 1 1 = = = = 1 1 1 3 1 1 1 1 1 1 1 1 1 1 1 1 1 1 1 1 1 1 1 1 1 3 3 3 1 1 3 3 3 3 3 3 3 3 3 3 3 3 3 3 3 3 3 3 3 3 2 2 2 3 3 4 2 2 2 2 2 2 2 2 2 2 2 2 2 2 2 2 2 2 2 2 2 2 9 9 2 2 2 2 2 2 2 2 2 2 2 2 9 9 2 9 9 9 9 9 9 9 9 9 9 9 9 w w e w 9 9 9 9 9 2 9 y 9 2 2 2 9 9 9 w w q 2 q s d ~ ^ | | :.u.J.J.J.I.@X@X@X@XrXtXiXpXdXdXaXaXiXiXiXaXaXaXaXfXfXaXaXfXfXgXgXgXgXgXgXgXgXgXgXgXgXgXdXdXdXsXsXsXdXsXsXsXsXdXdXsXsXsXsXsXgXgXsXsXgXgXmXdXdXdXpXpXdXdXdXpXpXpXpXdXdXdXfXfXdXsXsXdXpXpXdXpXdXsXsXfXaXaXaXaXaXaXaXdXdXfXsXmXmXmXmXmXmXmXmXmXmXmXmXmXmXmXmXmXmXmXsXmXmXmXmXsXdX>XpXaXpXpXpXdXmXmXmXdXpX;X&X>X&X>X>XpX>X>X&X>X>X>X&X",
"o o o o o o o o o o = = = = = = = = = = = = = = = = = 1 1 1 1 = 1 = = 1 1 1 1 = = = = = 1 = = = = = 1 1 1 1 1 1 1 1 1 1 1 1 1 1 1 1 1 1 1 1 1 1 1 1 3 3 3 3 3 3 3 3 3 3 3 3 3 3 3 3 3 3 3 3 3 3 3 3 3 3 3 3 3 3 2 2 2 2 2 2 2 2 2 2 2 2 0 2 2 2 2 2 2 2 2 2 2 2 2 2 2 2 2 w w 9 9 9 9 2 2 2 2 2 2 2 2 2 2 2 9 9 y y y y y y 9 9 y 9 9 9 q 9 q q 9 9 q d d f | ;.:.:.i.i.J.J.I.P.I.'.@X+XbXiXiXiXbXbXbXbXbXiXiXaXdXdXdXdXaXaXiXiXaXfXfXfXfXdXdXdXgXgXgXgXgXgXfXfXgXgXgXgXmXmXmXgXsXsXsXsXsXgXsXgXmXmXgXmXmXmXmXmXgXgXgXgXsXsXgXgXsXsXdXpXpXdXdXsXsXgXgXgXgXfXfXfXaXdXdXdXdXpXdXdXdXdXfXdXfXfXfXfXfXfXfXfXfXfXfXfXmXmXmXsXsXsXsXsXdXdXsXsXsXdXaXaXpXpX;X&X:XpXpXpXdX>X&X&X&X&X*X&XpXpX>X&X&X*X*X*X*X&X&X&X&X&X&X&X&X&X*X*X",
"o o o o o o o o o o o = = = = = , , , , , , , , = = = 1 1 1 1 = 1 1 1 1 1 1 1 1 = = = = 1 1 = = = = 1 1 1 1 1 1 1 1 1 1 1 1 1 1 1 1 1 1 1 1 1 1 1 1 3 3 3 3 3 3 3 3 3 3 3 3 3 3 3 3 3 3 3 3 3 3 3 3 3 2 3 3 3 3 2 2 2 2 2 2 2 2 3 3 2 2 2 2 0 0 2 2 0 0 0 2 2 2 2 q 2 2 2 2 9 2 4 2 2 2 2 2 2 2 9 9 w 9 9 9 9 2 9 9 9 q 9 q y y 9 9 9 q f N | :.:.i.i.J.I.I.@XrXrXtXtXtXiXiXiXiXiXiXiXiXiXiXiXbX+X+X-XbXbXiXiXaXgXgXgXgXgXgXgXgXgXgXgXgXgXgXgXgXgXgXgXgXgXgXgXgXgXgXgXgXmXmXmXmXsXsXsXsXsXsXsXsXsXsXgXgXsXdXpXpXtX&XtXuXpXpXpXpXpXpXpXuXuXuXaXaXdXdXdXdXpXuX;X;X;XpXdXpXdXdXdXdXdXdXpX>XaXdXfXfXdXdXfXdXaXdXdXsXdXaXaXpXaXaX>X>X>XpXaXpX;X&X$X$X*X$X|.}.}.OX%X&X>X>X&X&X;X&X*X*X&X&X&X&X&X&X;X&X&X>X>X&X&X&X>XpX>X>X&X%X",
"o o o o o o o o o o o o = = = = = = = = = = = = = = = 1 = = 1 = 1 1 1 1 1 1 1 1 1 1 = = = = = = = 1 3 3 1 1 1 1 1 1 3 1 1 1 1 3 1 1 1 1 1 1 1 1 1 3 3 3 3 3 3 3 3 3 3 3 3 3 3 3 3 3 3 3 3 3 3 3 3 3 3 2 3 3 3 2 2 2 2 2 2 2 2 2 2 2 2 2 2 2 2 2 0 0 0 0 2 2 2 2 9 9 9 2 2 9 9 2 0 9 0 0 9 9 2 2 2 2 2 2 2 2 9 9 4 q q d f | ;.:.M.i.J.P.'.@X@X.XtXtXiXiXiXiXiXiXiXiXiXiXiXiXiXiXiXiXiXiXiXiXiXiXiXiXiXiXiXiXgXdXaXaXgXgXgXgXdXdXgXgXgXgXmXmXgXgXfXgXgXgXgXgXgXfXgXgXfXdXdXdXdXdXaXdXdXdXdXdXdXaXdXfXfXaX;X&X;X;X&X*X*X&X;X;X&X;X;X;X;X;X;X;X;X;XpXpX&X&X*X&X:X;X;XaXdXaXdXsXfXfXmXmXfXfXfXmXmXmXsXsXfXdXdXmXmXmXsXdXdXdXfXfXaX>X>X>X>X;X&X*X*X$X*X#X}.{.}.OX&X;XpXpXpXpXpX>X;X;X;X;XpXpXdXdXdXpX;X;X;X&X&X>XpXpX&X&X&X%X",
"o o o o o o o o o o o o o = o o = = = = = = = = = = = 1 = = 1 = 1 1 1 1 1 1 = = 1 1 = = = = = = = = 5 1 1 1 1 1 1 3 3 1 1 1 1 1 1 1 1 1 1 1 1 1 1 1 3 3 3 3 1 1 3 3 3 3 3 3 3 3 3 3 3 3 3 3 3 3 3 3 3 3 3 3 2 2 2 4 2 2 2 2 2 2 2 2 2 2 2 2 2 2 2 2 2 2 2 2 2 9 2 2 2 2 2 2 2 2 2 2 2 2 2 2 9 9 4 4 q q f N | :.:.i.J.P.I.@X.X+XrXtXtXiXiXiXbXbXiXiXiXiXiXiXbXiXiXiXiXiXiXiXiXbXiXiXiXiXiXiXaXgXiXaXiXiXiXiXiXiXuXaXdXgXgXfXfXfXsXfXsXsXmXsXdXdXfXfXfXfXdXaXaXaXaXaXuXuXaXaXaXaXaXaXaXaXaXdXdXdXdXfXfXuX:X:X;XdXdX;X&XpXpXpX&X&X&X:X:X:X:X:X$X$X;X:X&X&X>X>X>X>X;X>X>X>XpXfXsXfXsXmXmXfXfXsXfXmXsXsXsXsXmXmXmXmXmXmXmXfXfXfX>X>X;X;X>X;X&X&X;X;X>X:X$XOXOX:XuXpXpXpX;X;X;X>XpXdXpXpXpXpXpXpX>X&X&X&X&X*X&X&X&X*X=X*X*XoX",
"o o o o o o o o o o o o o = : : o o o o = = = = : = = = = = = = 1 1 1 1 1 1 = = 1 1 1 1 = 1 1 1 1 1 5 1 1 1 1 1 1 1 1 1 1 1 1 1 1 1 3 3 5 5 1 1 1 3 3 3 1 3 1 1 3 3 3 3 3 4 3 3 1 1 1 1 3 3 3 3 1 1 1 4 4 4 4 4 2 2 3 3 3 3 2 2 4 4 4 2 2 2 2 2 2 2 2 2 2 2 2 9 4 2 2 2 9 9 2 9 9 q d f f N | *.:.u.i.i.J.P.@X.XrXbXtXiXiXiXiXiXiXiXtXiXiXiXiXiXiXiXiXiXiXiXiXiXiXiXiXiXiXiXiXiXiXiXiXiXiXiXiXiXiXiXiXaXaXdXaXaXaXfXgXgXfXfXdXaXmXmXfXfXaX>XaXfXfXdXdXaXaXaXaXaXfXaXaXaXaXaXaXaXaXaXaXaXaXdXdXdXfXdXaX:X$X$X$X;X;X:X$X$X:X;X&X$XOX$X$X$X$XOXOX$X$X$X;X>X>X>X>X&X>X>X>X;X;X>X>X>X>X>XaX>X>X>XpXaXfXfXaXsXdXmXdXdXdXdXaXaXaXaX>X>X>X>XaXpX>X>XpXaXfXfXpX;XaXdXdXdX>X>X;X&X:X;X>XaXpX;X&X&X*X&X&X>X&X&X*X&X&X*X*X*X=X$XoXoX",
"o o o o o o o o o o o o o : : : 1 1 1 : 1 1 1 1 : : = 1 1 1 = = = 1 1 = 1 = = = 1 1 1 1 1 1 1 1 1 1 1 1 1 1 1 1 1 1 1 1 1 1 1 1 5 3 3 3 3 3 1 1 1 1 3 3 1 1 1 1 3 3 4 4 3 3 3 3 1 1 1 1 1 1 3 3 1 3 3 2 4 4 4 4 2 3 3 3 3 3 2 2 4 4 4 2 2 2 2 2 2 2 2 2 2 2 2 2 2 2 w f _ _ | ;.:.:.i.J.I.@X.X.X+XtXiXiXiXiXiXiXiXiXiXiXiXiXiX-X+X+XiXiXiXiXiXiXiXiXiXiXiXiXiXiX:XuXiXiXiXiXiXiXiXiXiXgXaXiXiXiXiXiXaXdXfXfXfXaXaXaXiXuXuXpXaXdXdXsXdXpX;X&X>XdXaXaXaX;X;X;XaXaXaX;X;XuXaXaXaXaXaXpX>X>X>X>X:X&X&X&X$X$X$X$X$X$X:X:X$X|.|.$XOX}.OX$X$X$X$X$X$X$X:X;XdXsXdXaXaXdXmXsXaX>X>X>X>X;X;X>XaXaXaXaXsXsXfXfXfXfXsXdX>X>X>X>XaXaXfXfXfXfXfXfXfXsXfXsXdXdXsXdXpXpXdXsXdXpX>X>X;X;XpXaX>X>XpXpXpX>X>XpXpXdX>X&X*X*X*X*X*X*X&X%X%X+X",
"o o o o o o o o = = = = o : : : 1 1 1 1 1 1 1 1 1 1 1 1 1 1 1 1 1 1 1 1 = = 1 1 1 1 1 1 1 1 1 1 1 1 3 3 1 1 1 1 1 1 1 1 1 1 1 1 1 1 3 3 5 3 5 3 5 1 1 1 1 1 1 1 1 1 3 3 4 4 3 3 3 2 3 3 3 3 3 3 4 4 3 3 3 3 3 ; 2 ; = - 3 2 0 0 2 2 2 4 4 4 4 9 q q 4 d f f | :.:.i.K.I.I.(..X+XtXtXtXiXiXiXiXiXiXiXiXiXbXbXbXbX+XbXiXiXiXiXiXiXiXiXiXiX:XiXiX-X+X+X%X%X%XtXuXiXuXiXiXiXiXiXiX:XiXiXaXfXdXaXaXfXdXuX%X&XuXaXuX;X;X&X$XOX$X;XuXuX;XdXdX;X&X:X>XaXaXaXdXaX;X;X:X;X;X;X;X>XaXaXaXaX>XaXdXfXfXaX:X$X$X$X$X$XOX|.$X:X;XaXaX;X;X;XaX;X;X>XaX>X;X;X>XaXfXfXfXmXdXdXfXfXmXdXmXaX>X>X>XaXaXaXaXaXaXaXaXfXfXaXaXfXfXaXaXaXfXfXfXaXfXfXfXfXfXaXaXfXfXaX;X;X;X;X;X:X$X;XaXaXaXuXuXuX;X;XuXuX;X:X;X;X$X$X%X&X&X&X&X*X$X*X*X*X$X$X$XoX",
"= o o o o o o o o o o o o o = + 1 1 1 1 1 1 1 1 1 1 1 1 1 1 1 1 1 1 1 1 = = 1 1 = 1 1 1 1 1 1 1 1 1 3 3 1 1 1 1 1 1 1 1 1 1 1 1 1 1 3 3 3 3 5 3 1 1 1 6 6 6 6 3 1 1 1 2 2 2 3 4 4 4 4 3 3 3 2 4 = 3 2 2 2 2 2 0 0 0 3 3 1 2 2 2 4 2 4 4 4 f | | *.:.i.P.I.I..X.XtXtXpXpXuXuXiXiXiXiXtXtXbX+X+X+X+X+XbXbXbXiXiXiXiXiXiXiXiX:XiXiXiXiXiXiXuXiXiXiXuXiXiXiXiXaXaXaXdXdXdXaXaXfXaXuXuXaXdXaXuXuXaXfXuXuX;X;XuXaXaXaXaXaXaX;X:XaXdXaXaXfXdXaX;X;XaXdXaXdXaX;X$X$X:X:X:X;XaXaXaXaXaX;X;X:X;XaXaXaX;X:X$X$X:X:X$XOX|.#X;X>X>X;X:X>XaXaX>X;X&X*X&X&X>X>XaXaXdX>X>X>XdXaX>X>X>X>X:X:X;X;X;X;X;X;X;X;X;X;X;X;X>X>X>X>X>XaXaXaXaXaXaXaX>X;X;X:X:X;X;X;X:X$X;X;X:XOX XOX:X;X:X;X;X;X:X;X;X;X$X$X$X$XOXOXOX#X*X*X$XOXOX$X:X;X$X$XOXoX",
"o = = o o o o = o o = = : : : : 1 1 1 1 1 1 1 1 1 1 1 1 1 1 1 1 1 1 1 = = = = = = = 1 1 1 1 1 1 1 1 1 1 1 1 1 1 1 1 1 1 1 1 1 1 1 3 3 3 5 5 1 1 5 5 5 5 5 3 3 3 1 1 3 4 2 2 2 2 4 4 4 1 = 4 3 4 = 3 3 3 2 2 2 2 2 2 2 4 4 0 f g | :.:.i.i.K.I.@XrXrXbXtXtXtXbXtXuXuXuXuX:X%X:X:XbXbXbXbX+X+X-X-X:XiXiXiX:XuXiXiXiXiXiXiXiXiXiXiXaXaXaXaXdXdXdXaXaXaXaXdXdXaXdXfXfXfXdXaXaXaXuX:X;XuXaXuX:X:X;X;X:XuXaXaXaXaXdXfXfXfXfXaX;XaXaXaX;X;X;X;X;X;X;X;X>XaXaX;X:X$X$XOXOX-X:XOX$X:X;X;X#X|.|.$X:X:X$XOX$X$X$X$X$X$X$X$X&X;X&X#X|.#X*X*X#X#X|.#X*X&X;X;X*X&X$X*X*X*X&X;X:X$X:X$X$X:X:X:X;X:X:X:X:X;X;X:X;X;X:X:X:X;X;X;XaXaXaX>X>X>X;X;X:X$X$X:X;X:X:XOX$X:X:XOXOXOXOX$X$X:X;X;X;XuXuX;X;X:X$XOX$X$X$XOX$X$XOX|. XOXOX%X$XOX|.XX",
"o o = = o o o = o o o + + + + + 1 1 1 1 1 1 1 1 1 1 1 1 1 1 1 1 1 1 1 = = = = = = = = 1 1 1 1 1 1 1 1 1 1 1 1 1 1 1 1 1 1 1 1 1 1 3 3 3 5 1 1 1 5 1 1 1 = 3 5 5 6 3 3 3 2 2 2 3 3 4 3 4 4 3 4 4 = = 4 4 4 4 4 4 w f | :.t.i.I.I..X.XtXtX%X+XtXbXbX.XXXXXXXXXXXXX+X+X+X+X+X+XbXbXbXbXbXiXbX-XiXiXiXiXiXiXuXuX%X%X+XuXiXaXaXiXaXaXiXuXuXuXiXuXuXuXuX:X%X%X%X%X%X;X;X%X$XOXOX$X$X$X:X:X:X-X-X-X-X}.OX:X;X;X:X:X;XaXaXfXfX;X&X:X:X:X$X$X$X:X$X X X}.|.#X$X:X;X:X:XOX X X}.}.OX$X:X&X&X&X$X:X:X:X$X$X$X$XOXOX$X$X;X;X>X>X&X#X#X*X&X&X$X;X;X>X;X:X&X&X:X:X;X;X;X:X;X;X:X:X:X:X:X;X;X;X;X:X:X:X:X:X:X:X$X:X:X:X:X;X>X>X>X>X;X;X:X;X;X;X:X:X:X:X;X;X:XOXOX:X:X:X:X:X-XOX:X:X;X:X;XuXuX;X:XOXOXOXOX+XOXOX|.|.oXOXOXOXOXOXOXOX}.XX",
"+ : + : + + + + o o o o : : : : 1 1 1 1 1 1 1 1 1 1 1 1 1 1 1 1 1 1 1 = = = = = = = 1 1 1 1 1 1 1 1 1 1 1 1 1 1 1 1 1 1 1 1 1 1 1 1 5 5 5 5 1 1 1 3 3 3 3 5 5 5 3 - - - 3 3 ; ; ; = 4 4 4 4 4 4 1 6 f g P *.t.i.P.I..X.XoXoXtXtXtXtXtXtXtXbX+X+X+XXXXX+XbXiXiX-XbXiXiXiXiXiXbXiXbXbXbXbX+XXX+X+X:XiXiXuXuX%X%X%X:XuXiX:X:X:XuXuX%X%X%X+X+X%X%X&X;X%X%X*X%X%X&X&X:X$X$XOX$X:X:X:XuXuX:X-X-X-X-XOX$X:XaXaX;X;X;X;X;XaXaX>X>XaXpX;X>X;X;X:X:X:X$X$X:X$X$X:X;X;X:X-X-XOX X XOX$X;X>X>X>X>X:X$X$X$X$X$XOX$X$X:X:X:X:X:X:X*X#X$X:X:X:X:X;X;X;X$X XOXOX$X:X:X:X:X$X$X$X$X$X:X$X$X:X:X:X:X:XOXOX#X$X$X$X$X:X:X$X$X:X:X;X:X;X:X:X$X$X:X;X:X$X$X:X;X:X$X|.|.|.|.|. XOXOXOXOX X XoX+XoXXX|.|. X}.}.}.}.|.OX|.|.OX$X$X$XOX|.oX|. XXX",
"o o o o o o o o o o o o o o : : : : : : 1 1 1 1 1 1 1 1 1 1 1 1 1 1 1 = = = = = = = 3 3 1 3 3 1 1 1 1 1 1 3 1 1 1 3 1 1 1 1 3 3 1 1 5 5 5 5 1 1 1 5 6 6 3 1 1 1 3 3 3 3 4 4 4 4 4 4 4 4 f P :.:.i.L.I.U..XoX%XtXtXtXtX%X+X+X+XtXiXtX+X%XiXiXbX-XbXbXiXbX+X+X+X+X+X+X:XiX+X+X+X-X+X+X+XXXXXXXXX+X%XuXiXuX%X%X%X%X%X%X-X+XOX+X%X:X%X%X:X:XuXuXuXuXuXuXuXpX;XpXaXaXaXaX;X;X;XaX;X;X;XaX;X;X:X:X$X$X:X;XdXfXfXfXaX;X&X>X>XaXaXsXdX;X;X:X:XOXOXOX:X;X-X X}.}.OXOX}._.)._.~.Y.h.K.[.|.*X*X$X}._.^.[.}.}.}.}.|. XOXOX|.|.OX|.|.|.|.|.}.}.}. X|.}.}.}.}.}. XOX X|. X|.|.$X$X:X$X XOXOXOX$X$X$X#X#X$X$X$X:X:X:X$X$X$X$X:X:X:X:X:X#X#X$X$X$X#X$X$X:X:X$X#X#X|.|.|.$X$X$X$X}.[._.}.oXXX}.}.+X+X+XXX}.}. XoX|.|.oX#X#X|.].[.}.}. XXX",
"1 1 1 1 1 @ 1 o o o o o o o o o o + : : : = 1 1 1 = = = 1 1 1 1 1 1 1 1 1 1 = = = 1 1 3 1 1 1 3 5 1 1 1 5 5 5 5 3 5 3 3 3 3 - - = = 1 1 5 1 1 1 1 6 1 1 1 1 4 1 4 4 4 4 4 4 N *.*.:.i.K.P.[..XoXtXtXtXtX&X%X%X%X%XtXuXiX:X:XiXtXiXuXiXiXiX:X+X+XoX+X+X+X+XoX+X%X%X%X%X%X%X%X%X:X:XbX+XbX+X+X%XtX%X:X%X%X%X%X%X+XoX+X+X-XOXOX+X%X+X:X:X:XiXaXuX%X:X;XaX;X:X:X:X:X:X:X:X:X:X:X:X$XOX XOXOXOX$X|.|. X$X:X;X;X>X;X:X*X*X$X$X$XOXOX X X}.).T.f.T.Y.~.T.j.j.f.T.Y.T.T.f.Y.~.~.T.Y.~._.|.|.}.{.~.~._._.{._._._._.}.}.}.|.OX$XOXOXOX$XOX X XOXOXOX X}.}.OX$X:X:X$X$X:X:X:X:X>X:X:X:X:X:XOX$X:X$X$X$X$X$X:X$X$X$X$X:X;X;X:X:X:X$X#X$X$X$X$X$X$X$X$X&X&X&X>X&X&X;X>X>X&X&X$X|.OX+X:X%X+X+X+X%X+XoX}.}.}.}.].].].|.OX|.|.}.}.}.}.}.",
"*.P N g f f f 6 6 6 6 6 1 1 : : o o + + : = 1 1 o o o = = = = 1 1 1 1 1 1 1 = = 1 1 3 3 1 3 1 3 5 1 1 1 5 5 5 5 3 3 3 3 3 3 - - = = 1 5 5 1 1 1 1 1 1 1 1 6 a f g P :.:.t.i.P.I..X.XoXoXoXoXoX*X+X.X@X].}.XX+X+XuXtX%X+X+X+XtXtXuX%X%X%X+X+X%X+X%X%X%X%X%X%XuXiXuXuXiXiXtX%XoXXX-X-X-X-X-X+X+X+X+X+X+XoX+X%X%X+X+X+X-X-XOXOX+X+XOXOXoX}.oX+XOX}.}.-X:X$X|. XOXOX X XOXOX X XOX$X X{.{.{. XOXOX X:X:X:X:X;X;X:X:X:X:XOX}._.~.~.{.{.).T.s.p.s.R.T.R.y.y.y.s.T.T.T.T.Y.).).).{.{. XOXOX X}. X X}.{.}.}.[.{.[.|. X|.#X*X$X$X|.|.$X$X#X#XOXOXOX|.|.}.OX$X$X#X#X#X$X:X#X#X$X#X#X$XOX|. X$X:X$X$X|.|. X$X|.}.}.|.|.#X:X:X$X$XOX#X$X$X:X:X:X$X*X*X*X&X>X>X&X*X*X*X*X=X=X*X$X$X+X%X+XoX}.oXoXoXXXXXXX}.}.|.}.}.OX#XOX|.}.(._.).).",
"i.i.u.u.:.:.:.*.| | N N N f f f f 4 4 4 4 1 3 = 1 1 1 1 1 1 1 = = = : : = = 1 1 1 1 = - - = - = = 1 3 5 5 > > > 5 3 1 4 1 4 3 3 4 4 4 4 4 4 4 4 f f P *.*.t.i.i.I.I.I.'.@XXX.X.X@XXXXXoX.X.XoXoXXX+X*X+XoX+X%X+XoXXX.X.X.X.XXXoXoX+X+XoX+X+XoX%X%X%X%X%X%XuXtX%X+X+X+X+X+XoX.XXX+XuX+XXXXXXX+XXXXXoXXXXXXXXXXX}.XXXX}.{.{.}.}.}.|.OXOXOX|.OXOX|.}.|.*X*X&X>X>X>XpX>X>X>X>X&X&X%X:XOX}.}.|.OX#X#X*X:X:X-X X{.[.}. X XOX}.).Y.Y.Y.W.T.T.T.T.T.T.W.T.T.T.T.T.T.T.T.Y.~.).~.)._.{.[.[.[.}. XOX X X X}. X X|.|.$X$X|.$X|.|.}.}.|.*X&X&X*X$X|.|.#X$X#X#X*X;X&X&X;X*X*X*X*X*X=X#X#XOX$X:X:X&X&X>X>X;X$X*X*X*X&X*X*X&X>X>X;X&X&X>X>X>X>X>X>X>X>XpXaXdXaXdXaX>X>X>X;X>X>X:X;X%X%X%X%XoXoXoX*X=X*X*X*X*X*X&X&X%X$X*X$X$XOX_././.g.",
"u.u.r.r.r.u.:.:.u.u.:.:.:.:.o.o.| o.| N N N N f f f f f f f f f f f a a 4 4 4 4 4 4 4 4 4 4 4 4 4 4 4 4 4 4 4 0 w 4 4 4 f f f f f f g N | *.:.i.i.P.I.I.I.[..X.X.X@X@X@X'.`.@X@XXX+X+X+XoXoXXXXX+X+X*X+XoXoXXXXX'.`.`.].].XX.XXXoXXX].XX+X+XoXoX%X+X%X+XoX+XoXoX%X+XoX+X%X%X%X%XuXuX%X+X+X+X:XuXiXiX:X+X+X+X+X}.}.}.XX X|.OX$X$XuXuXuXuXpXpXpXaXaXuX;XpXsXsXsXdXpX;X;X;X;X*XOX X{.{._.)._.'.).~.~._.{.).~.~.).'._._.).E.Y.Y.Y.Y.T.T.T.T.Y.Y.E.E.).Y.~.~._._.{.{.{.}. X XOXOXOX X|.OX:X:X:X$XOXOX:X:X:X:X:XaX;X&X&X&X&X&X*X*X&X>X&X&X*X*X=X*X$X&X*X*X&X&X;X;X$X&X*X&X>X&X=X#X#X#X$X;X>X>X&X&X&X;X&X&X&X&X*X*X&X>XpX>X;X>XpXpXpXpXaX>X;X:X&X>XpXdXpX>X>X;X:X;X;X;X>X&X%X*X%X%X%X*X&XuX%X*X*X*X%X%XtXtXtX&X%X%X%XoX].`.`.'.",
"6.6.2.X.6.9.5.w.5.5.9.6.2.2.2.2.6.6.6.6.6.X.X.X.X.o.X.o.o.o.o.o.o.o.o.o.o.o.o.o.G G G | | | X.| | | | | | m  . .X.G o.o.*.*.*.*.u.u.i.i.h.P.'.@X@X.X.X.X].].`.@X`.`.XXXXXXXX}.XXoXoXoX+X+X+XoXoX+XoX.X]..X.XoX+XXXoX+X+X+X+X+X%XuX+XoXoX%X+XoX%X+X+XuX%X%X%X%XuXuXuX+X+X-XuXpXsXsXdXuXuXuX%X%X;XuXiXiX:X:X:X:XOX+X%X:X%X%X:X;X;X;X$X%X;XpX;X&X;X:X$X|.#X*X*XOX|.$X}.].}.|.[.~.g.T.T.T.f.f.f.y.w.y.f.Y.Y.Y.E.).{.).).).).).)._.{.{._.{.{.}.OXOXOXOXOX XOXOX:X;X;X;X;X;X;X:X:X:X:X$X$X:X:X:X$X$XOX#X$X$X$X&X;X:X*X#X*X&X&X*X*X&X&X>X>X;X&X=X#X*X&X*X*X&X&X;X>X;X;X&X>XpX>X&X=X=X#X=X&X>X>X&X&X&X&X>X>X;X*X=X*X&X;X&X&X*X&X;X>X>XpXpX;X$X$X$X$X+XOX|.|.$X$XOXOXOXOX|.].(.(.`.}.}.}.oX%XoXoXoXXXoXXXXX|.oXoXXXoXOX].XX].XX].",
"2.2.X. .,.2.2.2.X.2.,.,...S ........>.,.,.,.,.,.,.,.,.2.2.4.4.6.9.9.5.9.9.9.9.9.9.9.9.9.9.9.9.9.4.9.9.9.9.9.0.0.0.p.s.f.W.W.W.W.'.'.'.'.@X@X@XXXXXXXoXXXXXXXoXoX%X+XoXoXoXoXoX=XXXXXoXoX+X+X+X+X*X*X*X*X%X*X+X%XiXtX+X+X+X+X+X+XuX%X%XuXuX%X%X%X+X+XuX%X%XtXuXiXuXaXiX-X+X+X%XpXpX&X$X%X:X$XOXOX$X:X:XOXOX+X$X$XuXuXuX;X%X%X%X%X|.}.}.OX*X|.].[.'._.(.(._._._._.'.~.Y././.g.d.a.y.y.p.a.a.a.p.8.y.s.T.h.Y.).{.{.{.{.{.}.OXOXOX XOXOX X XOXOX$X:X;X;X:X:X$X$X$X:X:X;X>X>X&X*X|.}.}.[._.[.|.$X$X$X#X*X*X*X*X;X$X#X#X$X$X$X$X$X$X&X$X&X&X#X[.[.|.#X#X|.#X*X*X&X*X*X*X&X&X&X*X=X=X=X#X=X=X=X*X&X&X*X*X&X*X#X#X#X*X#X&X*X*X*X#X#X=X*X%X$X*X$X$XoX].].(.[.}.+X+X}.].}.}.'.~.Y.E.).'.'.}.XX}.{.`.'.'.).`.`.].].].XXXX}.XX}.XX}.",
"6.2.2.2.2.2.2.2.2.2.2.2.2.,.,.2.2.2.2.,.,.,.,.,.,.,.<.<.<.<.<.<.<.4.9.9.9.9.9.9.4.4.9.9.9.9.9.9.9.9.0.p.s.f.Q.W.W.W.'.@XXXXX@X@XXXXXXXXX+X+X+X+X.XXXXXXX.XXXoXoX%X*XoXoX%X%X*XoX.X.X].].XXXX+X+XoX+X%X%X%X+X+X%X%X+XXXXX].].XXXXXXoX+X%X%XuX%X%XoXXXoXoXXXoXoX%XXX+X+X+XOX}.|.*X&X;X$X+XOXoXOX$X%X;X;X%X$X$X$XOX%X;XuX;X*X*X%X$X X}.{.}.}.]._.~.~././.~.~.~.).)./.Y.Y./.(.~.g.f.f.f.f.Y./.E.W.T.W.).{._.[.}.}.}. XOX-X:X:X:X:X:X$X$X:X:X$XOXOXOXOX$X$X:XOX|.|.|.|.$X&X&X*X|.|.|.|.}.[.|.#X&X$X$X&X;X;X&X&X;X:X*X$X$XOX X X X X|.|.OX$X|.}.}.#X*X#X#X|.|.|.OX$X$X$X|.|.OXOX|.#X&X&X&X&X*X&X&X&X*X$X$X$XOXOX$XOX].|.OX$X$XOX|.|.|.|..X]..XXXXX].].`._.}.%X%X}.].}.}.`.).~.~./.).).`.}.)././.Y.Y.Y././.'.'.'.(.).).`.`.}.`.",
"X.2.2.2.2.6.5.5.5.5.5.5.9.6.9.9.w.5.5.9.6.6.9.9.9.9.9.4.4.<.<.<.<.4.9.9.9.9.9.9.9.4.5.5.5.9.p.s.s.f.E.'.`.]..X.X.X.X.XoX.X.X.X.X.X].`.`.]..XoXXX*XoXoXoX.X.X.X.X].XXXXXX+X+X+X+X*XoXoXXX.XXXXXXXXX+X+X+X*X%XtXtX%X%X+XXXXX].XXXX+XoXoXXXoX%XiXuXoX}.XXXXXXoXoX+X%X+X+X+X+XOX$X%X%XuX;X$X#XOX$X:X%X%X:X%X;X;X%XOX}.OX*X$X$X$X%X:X X}.{._._.].]._.}.XX}._.'.}.}._.'.'.`.XXXX}.`.}.}.}.}. XXXOXXX}. X X X|.#X$X#X|.|. XOX$X#X#X#X#X;X;X;X:X$XOXOX$X$X$X$X:X:X$X:X;X:X$X$X$X$X$X:X:X;X:X:X;X&X$X*X$X&X;X;X&X&X&X$X$XOX|.}.[.}.}.}.}.OX$X:X$X$X:X:X;X;X:X$XoXoXOX%X%XOX}.}.XXoXXX$XuXpXpX;X*X$X|.|.}. X}. X XXX X}._.}.XX+X%X+XOX+X+XoX|.}.oXoXoXXX}.}.`.].+X+X}.`.}.oXXX}.].`.`.].}.XX*XoXXX].].].].`.`.`.)./.Y.Y.Y.f.Y.).).",
" . . .X.X.2.6.6.5.9.9.6.6.6.6.6.6.6.6.6.6.6.6.6.9.9.4.<.<.<.<.1.1.4.6.6.6.6.9.5.u.u.a.d.d.g.P.'.'.]..XoX=X=X.X.X=XoX=X=XoX.X.X.XoX.X].].].].XXXX.X.X.X.XXXXXXXoXoX+X+X+X+X+X+XuXtXtX%X%X%X+X+XXXXX+XiXtXuXuXtX%X*X%X%X+XXX]..XoXtX%XoXXX].oXuXiX+XXXXX@X@XXXoX%X%XoX}.}.}.`._.}.}.oXoX*X*X%X%X%XoXXX}.|.+X%X$X|._.].OX|.|.|. XOX X}.{.{.}. XoX X|.oXoX|.|.OX*XoX|.XX+X%X%X&X%X%X%X%X%X$X%X%X$X$X:X$X&X;X>X;X&X&X:X$X$X$X$X$X$X&X&X&X$XOX|.|.OX$X:X:X:X:X:X$X;XaX&X&X:X:X:XOXOXOXOXOX$X$X*X#X$X$X&X&X&X*X&X$X$X$X$X$X|.|. XOX$X$XOX$X$X$X$X$X$XOX$X:XOX}.}.}.+XoXoX X}.XXoX+X%XuX&X%XoX}._._.~.~.).).)._._.).).).'.`.{.`.'.'.'.'._.).'.`.`.`.)././.Y./.'._.~.Y.Y.)././.).)._._.`.].oXoXoXXX].].].].`.'.)./.E./.Y.f.g.)./.",
".... . . .X.X.X.2.2. . . . .2.2.9.9.9.9.6.6.2.2.2. .,.,.1.>.>.>.1.2.5.w.u.a.a.f.P./.`.].].]..X.XoXXX.X.X.X.X.X.X.XXXoXXXXX.X.X.X]..X.X.X].].].]..X]..XXXoXoXoX+X%X=X=X*X%X%X%X*XoXoX*X%X%X%XoXXX`.@XXXXXoX*X*X.X=X=XoXXX`.`..X+XoXoX*XoX].`.XX+X+XXX{.{.).'.`.].XX].XXoXoX}.`.OX+X%X.X*XyXpX&X+X+XOX}.].}.oXoX}.oX+X%X$X|.}.{.{.{.{.}. XoXOXOXoX#X$X*X*X#X=X*X&X*X*X$X$X*X&X*X$XOX$X$X$X$X$X*X*X&X*X&X>X>X*X#X#X$XOX|.|.OX$X$X#X#X#X|.|.|.|.|.|.|.}.OX$X:X:X;X>X>X&X$XOXOX|.}.}.}.}.}.}.|.|.#X$X*X$X#X#X*X&X%X$X$X#XOXOXOX$X$X$X|.OX|.|.OXOX|.[.}.OX}.{.`.{.XX`.].}.XXXXXXoX%X%XoXXX}.`.`.{.{._.'.'.).{.{._.{.}.XXXXXX{.`.{.XXXX).).).`.{.`.'.{.).).`.{.{.).E.E.W.T.T.T.E.E.).).`.XXXX}.`.'.`.`.[.(.(.)._.}.}.].Y.).}.{.",
" . ..... .,. . . ......... . . .2.2.X.X.X.X.X. . . .,.,.,.,.6.9.u.a.f.g.E.E././.'.@X.X]..X.X.X.X.X.X].].].]..X.X.XXXXXXX].'.(.'.'.`.`.'.(.(.'.`.`.`.`.`.].].]..X.XoX%X%XoXoXoX.XoX].].oXtX+XXX'.`.{.'.{.+X+XXX]..X+X*XXX`.XX+XXX].(.'.`.{.T.s.f.).'.E.Y./.).`.].oX%XuX&XtX&X*X%X&XtX*X%X&X&X%X+XoX%XXX].].(.].XXoX%X%X*X#XOX|. XOXXX}.|.OXOX#X#X#X;X*X*X$XOX*X%X&X%X%X:X:XOXoXOX+XoXoXOX%X&XuXpXpX&X=X=X*X$X|.|.|.#X#X#X#X|.}.[._.~.^._.[.[.{.[.}.}.}.OX$X$X=X#X|.|.OXOX|.}.}.[.}.[._.{.{.{.{.{.{.{.~.~.{.{.).)._.~.).).).).).~.~.).~.).'./.(.(.(./.E.).).).).)././.'.`._.`.}.}.`.'.Y.).{.{.).E.).).).).{.{.{.OXOX}.`.`.'.E./.'.Y.T.f.E.{.)./.`.`.`.}.{.).E.W.)./.).E.W.).E.f.Y./.'.'.)./.E.).}.XX`.).`.`.}.+XXX(.].].].",
".. ... .X.2.X.X.,.,.,.,.,. . . ... . .X.X.X.X.X.6.6.6.5.9.p.a.s.g.g.g./.'.'.'.'.(.(.].].[.].].].].].].'.(.'.]..X].`.'.(./.P././.(.(.(.'./././.(.(.'.(.(.(.`.`.`.`.].oXoX].].].]..X.XoXtXuX+XXX'.@XXX@X@XXX+X@X`.`.XXXX/.g.).`.'.K./.'.`.).Y.f.h././.g.d.g./.(.].oX%X&X&XyX&X=X.X.X%X%X%X&X%X*X*X%XuX%X*XoXoXoXoXoXoX#X*X&X:X:X$X:X%X$X$X$X*X*X*X%X;X$X$XOX|.*X%X%X%XOXOXOXOXOXOX$XOXOX#X*X&X&X&X*X=X=X*X*X*X#X$X$X$X*X|.[.^.~.~.~.Y.g.K.~.~.~.~.}.}.}.|.}.[._.^._.[.[.[.[._._._.~.~.~.Y.Y.Y.Y.Y.~.Y.T.T.T.Y.T.T.T.T.T.T.T.T.T.f.Y.Y.h.Y.~.Y.Y.E.E.f.f.f.f.f.E.E.g.g./.'.{.'.).E.T.T.R.T.W.W.Y.T.E.E.E.E.E.E.).`.{.{.'.).E.f.T.W.W.T.T.W.{.)./.).E.).{.W.f.a.s.T./.Y.f.s.W.E.f.g.f.f.f.Y.f.f.f.f.g.f.f.f.a.d.E.E.Y./.`.'.",
" . . .X.X.X.X.X............. . . .2.6.5.5.w.w.u.p.u.u.a.a.d.d.h.K.K.K.K.P.P.P.P.I.(.(.(.(.(.(.(.'.(.(.P.K.P.'.`./.K.g.g.g.g.g././././././.g.g./.`.`.`.`.].XXXX.X].].oX+X+XoXXX`.`.XX+XtX+XXX`.`.`.{.).E.E.E.).)./.`.(.g.a.f.Y.d./.]..X.XXX].`.].].XX].(.'.].]..X.X=X=XoX*X*X.X].oX%X:XuXuX&X&X%X%XuX%X*X*X%X%X%X%X*X#X#X*X*X$X#X}.}.|.#X#X$X$X%X;X;X$X$XOX|.OXOX|.OXoX}.}.oX$X%X*X*X$X*X$X#X#X#X[.|.|.|.|.}.}.}.|.|.}.}._.~.~.~.~.~.~._._._._._.}.}.}.|.}._.[.[.}.[._._._._._._._._._._.).~.~._.{.).~.T.).).Y.Y.).).).).)./.Y.Y.).).Y.`.{.).'.{.E.E.E.T.T.E.E.).'.).).{.XX{.W.T.Q.Q.R.s.R.T.T.T.E.T.E.E.T.T.Y.E.Y.Y.Y.E.T.Q.Q.R.Q.R.R.Q.Q.Q.T.W.W.W.W.W.s.p.s.W./.T.s.s.Q.W.W.W.W.W.W.W.W.W.Q.Q.f.f.Q.s.y.y.f.T.s.T.E.E.",
" .X.X.X. .A A A  . . .X.X.6.5.w.u.a.d.h.h.h.g.g.g.g.g.g.g.g.K.K.K.K.P.K.K.K.P.P.[.[.].`.(.(.P.P.(.(.(.P.P.P.(.(.P.P./.'.`.`.`.`.`.`.'.'.'.(./.(.`.].].]..XoXoXoX.X.X.XoX+XXX@X`.`.@XXX`././.).'.'.'.E.T.T.E.`.`.@X].`.'.'.{.).g.]..X*X=X.X`.`.].XX*X+X].`.].XXoXXXXX}.`.}.XX}.`.}.oXXXXXoX=X*X*XoXOX]..XXXXX*X%X%X&X&X=X|.[.[.[.(.[.}.|.|.|.|.|.OX$X$X:X;X;X;X%X#XOX|.|.|.$X&X>X&X*X$X$X$XOX#X#X#X*X=X#X|.}.[.[.}.[.[.}.}._.~.Y.~.~._.[.}.}.|.|.}.|.|.#X#X|.OX-X X}.}.[.[.[.[._.[.[.[.[.[.[.}.}.}. X|.}.}.[._._.}._.'.].oXoX].'.).).).{.{.).W.W.W.W.W.W.W.W.W.W.W.W.f.T.W.R.0.p.!.R.R.R.W.W.W.W.W.f.f.T.s.f.f.f.Y.f.f.T.W.Q.s.p.4.1.7.8.8.0.0.0.0.0.0.p.0.p.Q.W.W.Q.s.s.s.s.s.0.0.8.0.0.R.R.s.s.0.0.0.8.4.4.0.0.4.8.0.p.",
"V A A G G J o.o.r.r.w.u.a.d.d.h.h.h.g.K.K.K.g.K.g.K.K.K.P.P.P.P.(.`.`.(./.K./.(.[..X.X].`.(.(.(.(.`.(.(.(.`.].].(.(.].XXXXXX.XXX.X].].].`.'.(./.`.].].]..X.X.X].].].`.`.'././.).@X@X{.E.f.T.E.{.{.{.{.)./.`.XX.XXX.X.X.XoXXXXX]..X=X*X=X.X(./.'.oXoXoX'.K./.`.].`.`.}.}.`.`.`.`.'./.Y./._.].oXXXXX].].}.XX].].XX%X&X;X*X|.[.[.].|.|.#X$X$XoX}.].].}.$X:X;XaX;X;X:XOX X X}. XoX$X$XOX|.}.}.[.[.[.}.|.|.}.[._.^.~.~.~.~._.^.~.~.Y.~.~.~.~.^.^.[.}.}.|.|.*X$X|.OXOX}.[.[.[.}.}.[.[.[.}.[.[.[.}.}.|.}.|.}.}.}._.~.~.]._./.].oX+XoXXX`.`.).`.`.).T.a.s.s.s.p.p.s.s.s.s.s.5.0.p.8.6.8.s.T.f.f.T.E.W.E.f.a.s.s.p.a.f.g.Y.f.f.E.W.f.f.f.Q.f.W.W.R.0.8.8.8.1.,.<.<.7.q.q.0.0.0.q.<.1.>.>.1.1.7.0.0.0.0.0.q.7.>.>.>.>.<.>.S >.1.<.",
"o.o.o.*.r.e.d.d.h.h.g.g.g.K.K.K.g.K.K.K.K.K.K.K.K.K.K.P.P.P.P.P.(.(./.~.K.K.K.K.(.]..X].].`.(.(.].].(.(.(.].].].].].`.`.`.`.`.].].].].].`./.P.K.'.`.`.`.]..X].].(.`.`.`.}.`.).`.{.{.'.W.W.E.'.@XXXXX@X`.`.`.XXXX.XXX.XoXXX].`.oX+X*X=X.X].`.`.+X+XoXXX].`.}.}.`.(.(.`.].`.'.`.XXXX`.).}.oX*X%X%XoXXX`.}.XX`.`.}.%X%X&X&X#X.X].].[.}.|.|.oX X}._._.(.}.}.}.OXOXOXXX{.W.Y.T.T.Y.Y.[._._.~.~._._.(.[.].].}.|.|.}.[.~.~._.[.^.~.~.~.}.}.|.}.[.[.|.$X|.|.}.|.oX}.[.{._._.{.}.}.[.[.[.~._.~.~.)._._.~._._.~.~._.).Y.Y.T.f.f.Y.Y.Y.Y.E.'.`.).`.}.'.E.a.s.Q.R.s.s.s.R.R.s.s.s.R.Q.s.p.s.W.W.W.f.f.a.f.Q.T.f.T.Q.s.a.f./.W.f.s.f.f.W.W.W.E.E.@X'.W.Q.R.Q.!.0.q.q.q.1.1.1.>.>.1.7.1.>.>.1.1.1.7.q.q.7.<.<.7.1.1.1.>.I 1.>.>.>.1.1.",
"i.i.i.i.h.K.K.P.P.P.K.K.K.K.K.K.K.P.P.P.P.P.P.P.P.P.P.P.K.K.K.K.K.g.g.g.g.g.K.K.P.P.(.(.(.(.(.(.P.P.P.P./.(.(.(.`.'.(.'.(.(.(.'.'.'.`.`./.Y.g.g.g./.E.E.'.`.`.'.(.].}.XX+XXX`.`.'.'.).).).).`.}.XXXX@X`.`.`.`.`.XXXX.X].`.(.(.`.`.`.'./.(.'.`.XX].`.`.}.XXOXXX}.(.(.'.`.'.`.oX+XoX`.`.XXoXoX%X+X*XXX`.`.`.`.`.}.oXoX+X$X$XoX]./.~.).).~./.).).~.h.h.(._.~.[.}.}.{.).Y.W.T.T.T.T.~._._._.].OX$X$X[.[.[.}. X X X}.OX$X$X&X#X[.[.[.}.OX$X$X#X|.OX$X}._.~.~.).).).~.).~.~.[.}.}.[.[.}._.~.Y.Y.).).).~.~.Y.Y.~.~.Y.Y.T.T.T.T.f.a.a.R.E.T.f.Y.E.T.s.p.Q.W.Q.R.s.Q.Q.Q.R.Q.W.W.W.R.s.s.Q.W.W.W.W.f.E.W.W.Q.Q.s.s.s.s.W.W.Q.p.9.0.0.s.0.0.0.s.0.5.0.8.0.0.q.q.0.q.7.1.1.7.7.7.7.q.7.1.7.1.1.>.1.1.1.<.7.>.>.1.7.1.I >.I >.>.1.1.",
"g.K.K.K.K.K.h.h.h.h.h.i.h.h.h.h.h.K.K.K.L.L.K.K.K.K.h.h.h.h.h.d.j.d.h.h.d.d.h.K.K.K.K.K.P.P.K.K.g.g.P.P.g.g.K.g.K.g.g./././.g.g.g.g.Y.g.f.a.d.h.E.E.Y.Y./.'.)./.`.].}.}.`./.g./.`.'./././././.'.(.(./.E./.f.a.a.f.g.g.d.f.f.a.d.a.f.Y.E.{.@X}.].].'.(.]._.(.(.~./.Y.~.E.Y.'.XX@X(.K.g.`.`.'.].XXXXXX`.`.`.`.`.).XX].XXoXOX}.).Y.g.Y.Y.g.g.).`.).g.g.}.}._.[.[.}.OX+X-X-X-XOX}.[.{.}.}.}.|.$X&X$X]._.(.[.[.[.[.}. XOX$X:X$X#X[.[._.}.|.}._.^._.[.{.Y.y.y.R.T.Y.T.d.j.h.~.[.[.[.^.|._.~.h.T.~.~.~.~.~.~.K.g.h.j.h.h.h.f.T.f.a.a.a.T.f.a.a.s.p.5.5.5.0.0.8.4.8.0.8.p.s.s.s.p.0.0.5.8.0.p.s.f.s.T.W.W.s.0.0.s.0.0.p.s.s.0.>.>.1.7.1.7.7.7.q.0.!.8.q.0.7.7.7.7.1.>.>.1.1.>.7.!.q.1.7.8.7.<.7.<.<.7.7.1.1.7.0.8.1.<.1.1.1.1.1.",
"i.h.h.g.h.h.d.i.e.e.d.d.i.d.i.h.K.h.i.i.t.t.t.t.i.i.h.h.h.h.h.h.d.h.g.g.g.d.h.d.h.h.g.g.K.K.g.g.d.g././.E.g.g.g.g.g.P.P.P.g.g.g.f.h.f.f.f.h.f.g.E.E.E.E.E./././.'./.g.E./.g.g.g.g././.g.g.g.P./.g.g./.(.K.d.d.d.h.g.g.K./.g.h.f.g.Y.E.).{.{.`.].(./././.E.Y.T.T.E.E.T.R.R.T.W.W.f.a.f.T.f.a.E./.(././.Y.Y.g.h.g.Y.E.(.`.].].(.~.K.K.K.h.K.~.~.^.K.^.[.[.[._.[.}.|.OX$X$X$XOXOX$X;X:X|.[.[.[.|.[.[._.^.[.#X#X}.[.[.[.|.|.[.[.}.~.~.}.|.}.[.~.~.~.~.Y.T.j.j.j.h.g.h.j.j.Y.~.~.~.[.^.~.~.K.h.~.[.[.[.[.(.~.K.h.h.h.~.~.~.K.h.h.d.d.Y.Y.Y.g.e.r.3.D D D D ,.,.>.1.1.5.5.4.7.7.4.q.7.7.7.7.4.4.8.s.Q.s.8.1.1.7.7.<.1.1.1.1.>.>.>.>.1.7.7.7.4.R.R.8.0.0.q.q.7.<.1.>.1.<.<.4.0.p.p.a.T.T.f.d.e.3.2.8.7.<.<.s.0.8.4.8.0.p.8.1.1.",
"i.i.i.h.h.h.d.d.e.e.e.d.h.h.h.h.g.h.i.i.i.i.i.i.g.g.K.g.h.g.g.g.g.g.K.g.g.h.h.h.f.h.g.g.g.g.g.Y.g.g.E.E.E././.E.E.E./.E.g.g.Y.E.g.g.g.Y.E.E./././.)./.E.g.E./.(././.E././.E.g.g.E.E.Y.f.h.g./.(././.(.(.(./.(.'.'.(./././.E.g.f.g.E.E.W.f.f.g.E.E.f.a.a.s.s.s.p.p.s.p.p.a.s.T.f.p.5.5.p.p.p.T.g.h.K./.Y.f.a.y.y.e.d.h.K.~.(.].].K.^.K.K.~.~.^.L.^.[.[.#X#X#X|.[.^._.[.}.}.|.#X#X&X*X#X#X#X=X|.[._.}.|.#X$X$X#X#X#X#X#X#X[.[.}.^.^.|.#X$X|.[.[.^.[._._.~.~.~._._.~.~.~.~.~.^.[.|.}.^.^.K.K.^.|.#X#X[.[.[.[.[.[.[.}.].].].(.(.K.g.g.h.h.d.r.r.w.5.5.5.5.9.5.2.4.9.4.1.>.>.1.7.7.7.1.1.1.1.7.7.8.0.0.<.1.7.q.7.1.>.1.<.7.1.1.1.7.7.7.0.0.4.8.8.8.0.0.0.4.4.8.8.8.0.p.p.0.s.T.E.).}.XX'.g.h.d.a.p.0.8.0.s.0.4.4.0.s.f.s.0.0.",
"i.i.d.h.h.d.d.d.e.e.e.d.d.e.d.d.d.d.d.d.d.h.h.h.g.g.g.h.h.h.h.h.K.K.g.h.d.f.f.a.a.f.g.g.g.E.Y.Y.g.f.f.f.f.g.g.g.f.f.f.h.h.g.Y.E./.E.g.P./././.(./.(.(.(././././.~././.E.E.f.f.f.f.f.Y.E.Y.g.E.g./.P.P.K.K.K.K.K.g.d.d.d.h.h.g.Y.E.E.E.f.e.w.y.a.s.a.p.0.0.0.8.4.8.0.p.p.a.Y././.T.a.w.f.R.T././.K.(.].'./.g.g.g.h.K.~.~.~.(.}.#X#X|.[.[.[.[.[.|.|.[.=X=X#X|.[.[.[.|.}.}.#X*X*X#X[.[.[.[.[.[.[.^._.|.#X#X#X*X*X*X*X#X|.[.^.^.^.K.K.^.[.|.|.}.|.}.}.}.}.[.^.^.[.}.}.[._.[.[.[.#X*X*X#X[.[.[.[.=X[.[.U.^.=X=X=X|.[.[.[.[.[.].(.K.K.h.d.d.d.e.w.5.5.5.5.5.p.s.p.p.s.0.4.>.>.1.1.1.1.1.<.<.7.4.4.4.<.8.<.<.q.q.q.7.<.8.0.s.0.0.q.q.q.q.7.0.8.4.0.p.s.4.<.4.5.5.p.p.s.s.f.p.e.h.g.~.[.}.~.g.T.T.f.a.y.w.a.w.5.5.5.s.f.g.W.Q.R.",
"d.d.d.d.j.a.e.e.y.e.d.d.d.e.e.d.e.e.e.d.d.d.d.d.d.d.d.d.d.d.d.d.h.d.d.d.d.a.a.a.d.d.d.g.g.h.d.a.a.a.y.a.a.a.a.a.f.f.d.d.d.d.h.g.g.g.g.K./.(./././.P.P./././.g.g.d.d.d.d.a.a.u.u.a.h.E././.E.g.d.g.K.P.P.K.P.K.g.e.r.e.e.w.d.E.(./.E.g.d.a.a.a.f.a.f.f.T.s.p.0.p.s.s.s.f.Y.`.XXXX`./.g.'././.'.`..X=X=X*XoX].]..X].].`.`.)._.].|.|.|.[.[.[.[.|.=X#X[.[.#X[.^.^.L.[.[.^.^.[.#X#X[.^.^.^.^.^.^.K.K.K.~.^.^.[.#X*X*X#X X|.}.^.~.~.K.j.j.K.L.~.^.[.}.}.[.[.[.[.[.[.[._.~.~._.[.[.[.#X#X[.[.[.|.[.[.^.U.L.L.P.(.(.(.~.K.K.h.h.d.e.w.e.w.r.w.a.e.3.D A ,.,.,.5.p.0.p.p.p.9.<.<.4.4.4.8.0.0.s.p.0.p.p.p.5.5.5.0.0.0.p.p.s.R.Q.R.0.0.0.0.0.<.0.s.W.W.W.s.0.p.f.s.y.y.5.5.p.f.a.a.g.h.h.K.L.h.y.8.0.0.a.a.g./.d.a.a.a.h.h.g./.E.f.",
"e.e.e.e.w.r.r.w.w.y.y.a.y.y.y.e.e.e.e.d.d.a.e.w.e.e.a.a.d.d.d.d.d.a.e.a.d.d.d.d.d.d.d.d.d.d.e.e.y.y.y.a.a.y.a.a.f.h.g.g.g.h.d.d.g.g.P./.(.`.`.'.`.(.K.K.K.K./.'./.g.h.f.f.f.f.f.f.g.E.E.g.g.g.h.K.(.`.`.(.(.P.K.d.e.a.a.a.g.(.'./.K.g.h.g.g.E.E.g.Y././.Y.a.a.f.E./.E.E./.(.`.`.].(.P.'.g.h.Y.).'.`.].oXoX].].[.(.~.g.f.h.h.h.K.K.K.K.^.^.^.[.].}.(.^.[.[.[.^.K.K.K.K.j.h.~.~.K.h.h.h.K.^.^.K.j.t.t.j.K.^.^.^.^.[.[.#X:X#X X|.[.^.~.~.K.K.~.^.[.~.~.~.[.[.|.}._.T.j.j.Y._._._.[.[.[.[.|.oX].~.~.g.h.a.e.w.w.w.p.w.5.3.2.X.D  . .,.I I 6.8.4.,.,.4.4.,.<.4.0.0.0.0.4.<.<.<.4.4.9.p.p.0.4.4.0.s.s.w.5.5.5.5.w.u.a.f.s.p.5.5.8.0.s.0.4.0.W.W.W.W.s.s.W.W.f.a.p.5.U 4.s.f.g.)./.h.h.K.Y.T.p.0.s.p.p.f./.g.T.T.Y.g.h.K.K.h.a.",
"a.a.e.e.r.w.w.w.w.w.w.y.y.y.e.y.e.e.e.j.a.e.w.r.e.a.d.d.d.d.h.d.d.a.a.d.d.d.h.h.g.d.d.d.h.h.h.h.f.h.f.f.a.a.a.d.f.h.g././.g.g.h././.'.'.'.`.'./.P.P.P.h.d.d.g./.f.a.a.u.a.f.f.f.f.f.f.a.a.d.h.g.g.P./.P.h.d.d.a.h.d.a.f.Y.'.`.(.K.K.g.g.g.g.g././.~.g.g.d.a.a.f.E.E.E.Y.g.g.g.Y./.(./.Y.a.w.p.f.y.a.a.E.(.g.g.g.h.d.j.e.e.j.j.j.j.d.h.h.h.h.h.h.K.K.^.(.[._.~.K.K.~.h.j.e.j.j.e.w.w.w.y.h.~.~.h.j.j.j.h.h.j.e.j.K.~.}.$X#X#X&X$X[.^.^.~.h.h.h.Y.T.j.j.j.~._.`.).y.8.8.p.R.f.Y.Y.Y.Y././.E.R.s.y.4.4.4.1.>.>.1.1.>.>.>.>.>...>.<.>.I I >.<.4.4.4.9.9.<.<.4.0.0.4.<.1.1.1.1.>.1.1.<.<.>.>.>.<.4.<.4.4.0.5.4.5.5.p.p.w.5.5.5.5.8.p.8.6.4.p.5.2.w.5.5.s.s.p.p.s.p.8.8.p.p.s.W.f.w.w.f.Y.E.g.f.f.p.4.5.a.f.f.a.f.f.h.K.g.a.p.",
"h.h.d.j.j.j.e.e.d.j.e.e.e.e.e.e.e.e.e.e.e.e.e.e.e.a.d.d.d.d.d.d.d.a.d.d.d.d.a.a.d.e.e.d.h.g.K.K.h.d.d.d.a.e.e.e.a.a.a.h.f.h.f.f.g.g.g.g.g.g.g.d.e.u.a.u.w.3.5.5.5.4.5.5.w.u.a.u.w.w.w.w.e.a.d.h.d.d.d.a.u.w.w.w.e.u.e.a.E.'.).)./.g.h.f.d.f.f.g.E.g.h.h.d.a.a.s.f.s.a.f.f.f.f.f.f.T.f.a.y.5.w.e.w.a.e.d.d.e.h.g.j.e.e.e.e.e.r.e.j.d.j.e.e.e.r.r.e.h.K.K.~.K.j.j.Y.~.g.j.e.w.w.U w.y.y.w.w.j.T.T.Y.T.f.s.y.5.U 5.w.w.a.Y.Y.Y.{.{.).Y.).~.T.T.a.y.y.8.2.3.w.f.T.f.p.8.,.6.4.5.4.4.8.4.8.5.4.,.,.I I <.7.<.1.<.7.7.<.<.1.>.>.1.<.<.7.<.1.>.<.1.>...<.<.1.1.<.<.4.1.>.>.>.>.1.1.1.7.>.>.>.1.1.1.>.>.1.7.0.0.5.5.0.p.5.5.5.5.5.2.4.5.5.5.2.2.2.2.w.w.p.a.p.5.5.0.8.p.s.p.4.4.9.2.2.5.s.s.u.w.w.5.4.<.4.p.Q.p.5.0.p.p.a.p.8.4.",
"h.i.i.j.i.h.i.i.j.e.e.e.e.e.e.e.e.e.e.e.e.e.e.e.e.e.e.e.e.e.e.e.e.e.e.e.e.r.r.r.w.r.r.e.d.g.d.d.w.r.w.e.e.w.r.r.u.w.w.u.p.e.w.p.a.a.e.r.e.i.e.r.3.3.5.5.5.3.,.D I ,.2.6.6.w.w.3.2.6.4.6.5.e.d.d.a.a.p.w.6.2.4.4.6.w.p.a.Y./.(.).'.Y.a.p.p.p.s.a.s.s.s.f.s.p.p.s.s.p.p.a.f.f.a.s.s.f.f.y.d.j.h.i.i.K.h.i.i.i.K.g.h.h.g.g.h.d.j.d.g.g.d.e.e.e.e.r.e.d.j.j.g.g.j.d.h.g.~.g.j.w.U U U U U U U 5.8.8.w.3.3.4.4.I I I I I 1.8.0.8.s.s.s.y.R.R.s.s.0.8.8.8.8.8.p.a.p.5.4.4.1.,.<.6.4.<.1.1.<.8.4.4.8.7.1.4.7.1.1.<.8.8.7.7.<.1.<.4.0.0.8.8.<.<.4.4.<.<.9.9.<.<.<.1.<.<.2.<.<.1.1.<.<.<.1.<.4.4.<.1.,.,.>.<.0.0.0.0.p.p.4.2.2.8.5.2.4.p.p.p.5.5.w.u.a.a.h.f.a.2.4.,.I 8.p.5.4.<.>.Z D 4.u.p.4.<.<.1.>.4.<.4.s.5.2.4.4.4.1.>.>.1.",
"e.e.r.r.r.r.r.e.r.r.r.w.w.r.w.e.e.e.e.e.e.e.w.w.w.e.w.w.3.r.r.e.a.e.w.w.e.w.r.r.e.w.w.e.e.e.r.r.3.w.w.e.d.e.r.3.r.w.5.5.0.5.2.4.r.3.6.2.X.6.6.3.5.9.4.4.4.<.>.>.,.1.1.<.5.6.,.1.1.1.<.4.0.p.p.a.p.p.5.4.1.1.4.2.4.4.0.p.s.T.T.Y.Y.T.s.p.p.p.p.0.p.a.g.g.f.a.a.e.p.f.h.g.g.~.h.g.g.g.g.h.g.h.(.].].(.I.L.L.L.L.L.K.L.[.U.=X[.=X[.=X=X[.U.P.L.L.K.L.L.L.L.~.[.~.~.(._.[.^.~.h.a.3.J D S I >.1.1.,.B B C I I I I I I I C I U U U U I <.8.8.8.8.<.I <.8.8.p.f.Y.Y.a.5.5.4.8.p.5.p.s.0.8.s.E.g.h.f.a.e.3.5.4.5.s.s.a.p.p.u.r.a.g.g.d.d.a.5.w.u.a.a.d.d.d.a.u.u.r.3.w.w.p.p.9.5.2.p.5.4.4.4.<.<.<.<.>.,.>.1.q.0.0.9.4.<.<.4.1.1.4.1.1.0.s.1.>.<.4.,.2.4.0.8.<.,.S C >.<.1.>.>.I I ,. .,.2. .>.<.1... .S >.<.<.,.,.4.4.<.>.>.I ",
"r.w.r.r.r.r.r.w.w.r.r.w.w.3.3.r.r.r.5.w.w.r.r.3.r.w.w.w.3.3.3.r.w.w.r.w.r.r.r.w.w.w.w.w.r.r.r.w.w.w.w.e.e.e.r.r.3.3.2.5.4.2.2.4.6.6.2.,.,.4.9.9.6.2.1.1.1.1.1.1.,.1.1.<.<.,.,.>.1.1.>.<.4.8.8.5.5.5.5.4.1.<.8.8.0.0.w.w.a.a.a.a.h.g.Y.f.f.f.f.E.Q.f.g.P.E.E.E.g.Y.E././.'.`.~./.(.(.K.K.`.'..X*X.X.X|.=X[.[.[.U.L.[.=X=X=X=X=X=X=X=X=X=X=X=X=X=XU.L.[.^.[.}.(.[.|.|.|.}.[.`.`.Y.d.w.U S I 6.2.2.U I I 2.8.8.8.4.8.4.U w.w.5.U 4.8.8.8.8.2.4.4.1.8.8.p.s.R.E.E.E.T.T.s.R.T.f.W.W.E.Y.`.oX].`.'./.f.y.a.a.s.E.f.h.d.h.g.g.P.`.'./.K.h.d.g.g.P.`.].(.(.P.K.P.P.h.d.u.e.u.a.a.w.s.9.2.<.<.4.8.<.<.>.,.>.>.1.<.<.>.>.>.>.<.1.>.<.>.>.<.q.>.>.>.>.S ,.>.>.>.1.>.>.>.>.S 1.<.>.S >.,.D S >.I S I S B C C S S S S D I ,.,.,.>.>.",
"3.3.3.3.3.w.w.w.3.H D U U U U 3.3.2.2.3.3.3.3.3.3.3.5.5.3.3.3.3.r.r.r.r.3.o.3.3.r.3.3.3.3.r.w.e.w.3.3.o.*.r.r.r.2.D ,.,. .D D ,.,...>.>...4.9.9.2.,.S S >.4.4.4.6.,.1.,.,. .,.1.4.,.,.1.6.4.5.5.3.5.w.p.0.0.p.s.f.f.f.g.g.g.g.K./.]..X].].].].].{.`.'.'.].XX.X(./.(./.]..X.X].(.(.(.P.P.].P.(..X[.|.=X=X=X=X=X[.[.[.=X=X=X=X=X=X=X=X=X=X=X[.[.=X[.L.L.L.^.(.K.~.|.oXoX].(.].}._.~.Y.f.a.f.f.a.y.p.p.y.T.T.T.f.f.f.d.d.~.'.g.a.y.R.R.s.s.p.a.a.p.s.s.T.T.Y.T.f.f.T.T.s.T.g.g./.{.`.~.`.+XXX`.`.`.Y.f.h.f.g.Y.g.d.d.d.g.(.`.`./.g.E.g.g.`.P.P..X].K.K.g.P.P.P.g.d.w.r.w.w.u.5.9.2.>.1.<.7.q.<.<.<.<.1.>.>.>.>.>.>.S ..1.1.1.>.>.1.>.>.>.>.>.>.S ..>...S <.>.>.q.1.S >.1.>.S >.>.Z Z Z Z S I I S C C B B B B B B C D Z D ,.",
"H X.H H 2.3.3.3.2.D B B F D D D H D F H 3.o.o.X.2.2.2.3.3.3.3.3.o.o.o.o.H 3.3.3.3.3.3.H o.r.e.a.3.X.X.X.o.r.w.5.,.D ..S Z Z Z Z .......... .4.9.u.6.2. .2.5.u.u.r.X.o.3.X.D 2.5.w.3.X.X.2.5.e.a.i.d.d.g.g.f.h.g.h.g.P.'.@X`.(.].XX*X*X=X=XoXoX.X].].[.[..X=X.XP.K.K.K.(..X=X.X[.[.=X[.[.=X(.K.K.L.(.[.|.=X|.*X[.^.(.[.[.#X#X=X=X|.#X#X#X}.(.[.|.|.[.K.K.~.~.j.h._.}.XX].(.(.].}.[.[.[.}.|.|._.~.T.Y._._.'./.K.h.h.h.K.K.(.~.h.d.Y.Y.d.f.a.g.d.d.g.d.d.Y.Y.f.a.y.w.y.s.f.d.e.h.Y.f.p.a.T.T.s.T.W.R.s.a.a.d.h.d.a.d.d.a.s.f.f.a.e.s.p.p.E.h.d.f.f.p.5.5.p.a.a.p.5.4.4.8.0.9.2.4.>.>.>.1.1.>.>.1.<.9.0.4.1.>.<.4.8.2.2.<.7.1.>.<.0.<.>.1.>.1.1.<.>.<.1.1.<.>.S 7.1.>.>.>.>.>.<.<.>...S S I ,.,.,.,.,.S D  .,. .S S D B Z >.",
"3.3.3.3.3.3.3.3.2.X.X.X.H H D D D B B H 3.r.o.o.U D D H 3.r.r.L H H H H o.r.r.r.r.r.3.3.3.r.w.w.6.2.2.6.2.6.5.6.,.>...S Z  .,.S >.,.,.,. . .5.p.a.w.6.6.6.5.u.w.r.o.r.w.2.X.6.p.w.r.6.3.2.3.3.w.e.h.K.P.g.h.d.h.h.h.h.g./.P.K.K.(.(.[.[.[.[.[.[.L.L.U.[.[.[.(.K.K.L.K.K.P.[..X[..XoX.X.X*X.X[.(.P.[.(.].(.(.`.P.d.h.h.g.g./.~.(.~.~.~.g.h.h.g.K.(.}.[._.[._.~.~._._.'.`.`.`.}.$X$X|.[.|.=X&X#X[.~.[.|.}.].[._.~.g.K.K.L.K.h.h.Y.~.T.e.f.a.g.d.d.~.d.a.g.Y.Y.f.a.p.a.T.Y.h.h.d.a.8.,.<.8.8.7.4.0.0.s.0.5.5.p.a.p.a.p.4.,.4.5.4.<.7.4.8.p.s.w.p.0.8.1.1.7.<.4.<.>.>.1.q.!.s.p.0.<.<.7.7.7.1.>.<.9.9.p.s.4.2.5.p.s.a.p.0.0.4.4.0.p.0.<.<.>.I >.4.4.4.4.0.0.<.>.I >.>.I I >.1.7.q.q.1.1.1.>.S S ,.1.4.,. .6.9.4.<.>.I S >.>.",
"3.3.r.r.w.3.X.H 3.3.3.3.3.3.2.3.2.H D 3.e.e.e.r.2.H H 3.r.r.r.*.o.H H H o.r.r.r.o.X.X.2.3.3.o.H 2.2.,.,.2.2.2. .U ,.S D  .4.9.4.,.,.4.5.2.H 3.w.2. .,.<.,.,.,.,.,.X.6.5.4.,.4.9.w.5.5.6.,.D D H r.d.h.h.f.e.w.a.g.d.a.d.g.g.h.t.i.i.K.(.K.P.(.P.L.L.L.[.[.[.(.(.P.K.g.e.d.h.(.K.(.(.(.(.].]..X.X`.].`.'.g.g.E.f.a.d.d.a.y.f.h.g.g.g.g.g.K.'.(.P.(.|..X[.}.XX].`.).Y.a.a.T.Y.Y.~._._.(.[.[.|.[.K.~.{.].'.'._.).T.f.Y.).Y.h.j.h.T.s.y.w.s.s.E.T.f.E.f.f.W.).).T.a.s.p.s.f.f.W.W.R.0.<.<.0.0.4.<.<.q.0.0.4.4.0.p.0.5.4.1.1.<.4.4.<.<.8.0.p.f.a.p.s.0.4.<.<.4.4.<.>.1.1.7.0.s.f.s.0.1.1.<.7.<.<.4.9.p.f.E.a.p.p.f.E.E.E.f.a.s.f.f.s.f.f.Q.s.5.5.5.a.s.a.a.w.p.6.C I 1.1.1.<.<.>.<.q.q.7.1.>.1.4.4.8.5.p.a.f.a.5.,.,.>.I >.>.",
"3.3.3.3.w.3.X.X.2.X.o.3.3.3.3.3.3.X.X.3.e.i.i.e.r.3.3.o.3.3.3.H V A G G o.r.r.r.G V n A X.o.G A A D D D D X.X.X.X.X.D D X.6.5.5.2. .2.6.2.H 2.3.D B D  .D D S Z S S ,.6.4.,.2.5.w.5.4.4.,.S D D r.a.d.e.y.w.w.u.d.a.a.f.f.h.d.e.a.e.d.g.g.g.g.h.d.a.a.g.P.P.P.P.g.g.g.g.d.d.d.d.Y.g.h.h.K.K.].].'.(.).E.T.f.f.s.f.E.g.g.h.Y././.Y.g.K./.'.].`.'._.]./.~.'.}.`./.f.a.5.2.5.p.5.5.5.p.a.f.g.h.d.e.s.R.s.a.a.f.f.s.8.p.s.s.p.5.5.p.4.,.<.0.0.0.0.0.0.8.0.p.R.Q.f.s.p.4.5.p.s.Q.Q.!.0.q.q.0.0.0.8.9.q.0.0.0.0.0.p.p.8.4.5.p.f.s.p.0.4.4.s.s.s.a.s.s.Q.s.0.0.p.s.p.0.0.q.7.q.0.f.f.0.8.4.q.0.0.0.0.0.0.s.f.s.a.s.f.E.).'.`./.(.XX'.Y.E.@XXXXX`.g.f.).`./.a.u.a.e.2.2.8.p.p.p.0.<.,.0.s.0.1.<.s.W.f.f.g.(.XX.X/.a.w.a.4.I S >.",
"H H H D H H H X.X.X.2.3.3.3.3.3.3.3.3.r.r.t.i.t.r.r.H G A V D D l l n G H *.*.H G n l n G J G A V V B B D X.X.6.r.3.X.H o.o.o.6.X.D X.2.2.X.3.5.3.H X.X.A Z D Z Z Z D X.5.6.6.w.u.w.5.5.5.2.3.3.r.r.r.L r.r.r.r.w.r.u.u.5.u.d.a.u.r.w.a.a.a.a.u.0.4.6.w.d.g.g.h.e.u.g.'.).f.a.y.a.y.y.d.d.j.K.K.g.g.Y.T.s.s.s.s.T.'.`.].~./.h.j.a.y.f.g.f.g.f.f.f.T.f.s.f.T.T.s.y.p.2.,.8.0.4.,.1.<.8.8.p.u.w.5.7.q.0.0.w.w.p.s.0.8.4.8.0.4.<.<.7.<.1.7.7.7.7.<.<.<.1.1.1.4.0.s.8.,.0.p.0.0.7.7.7.7.1.<.0.0.0.8.0.0.0.0.s.p.s.s.s.p.p.f./.g.a.p.1.>.s.p.p.a.s.s.f.Q.s.0.p.s.s.R.s.0.7.q.8.s.s.<.0.8.7.q.0.0.4.4. . .H 3.3.5.w.a.h.E.`.g./.XX`.g.g.].(.oXXXK.d.'.oX(.t.i.h.a.a.w.a.T.W.W.W.s.p.T.(.f.5.p./.].[.P.].XXoX.X(.K.(.`.s.U B ..",
"G G A A V V V H H X.X.H H H o.o.3.o.o.*.r.e.r.*.*.J J J M n V n n A A n n M G J G n j l n b b b l B Z Z Z G o.*.r.*.G H o.H H H H A D 3.6.X.X.6.3.3.w.o.o.A A Z B b Z  .2.2. .2.2.6.w.w.3.3.w.a.i.d.r.r.H 3.w.w.3.3.2.S S ,.w.a.w.3.5.p.p.w.2.2.4.4.7.4.5.a.s.p.5.a.f.(.].P./.f.a.5.y.f./.P.K.g.(.(.E.f.s.s.p.p.a./.+XoX'.Y.g.d.d.d.f.f.s.s.a.a.p.f.T.a.5.p.s.w.p.a.s.5.4.0.8.4.<.<.0.p.a.d.h.j.w.p.8.0.4.2.s.p.0.0.8.5.2.2.I 1.8.0.8.,.I S >.<.4.<.1.>.>.,.4.0.0.8.0.0.8.<.>.1.1.>.1.>.>.4.4.<.4.8.5.5.u.a.a.w.u.w.5.s.f.s.p.5.,.I <.8.0.0.8.0.0.R.0.4.<.7.q.q.0.7.7.7.0.0.0.9.1.1.1.1.1.1.>...B l l c c C I ,.5.p.a.a.s.E.T.a.a.f.Y.f.f.T.f.f.K.g.d.a.a.f.f.a.a.h.g.d.f.s.p.p.g.f.s.h.`..XU.L.P.(.P.P.[.[.[.K.d.r.V o.",
"J H G A n l n V A A A n l n A G A G G G G G J J G M G J M n A V n A D V n G J J J G n n n n b n b B Z Z A G J L L L J o.o.G G G V l n A A V V G o.o.o.o.J J A n Z B A  .X. . . . .X.6.3.X.X.w.d.g.E.f.a.3.5.a.a.w.e.5.5.U l G i.r.J H 3.3.H H 3.3.0.s.0.w.a.a.u.s.f.h./.`.(.{.W.s.p.s.W.E./.(.'.'./.E.f.p.0.0.w.s.E.`.`./.Y.f.h.T.g.g.f.R.!.s.s.a.s.s.a.a.a.s.s.s.f.Y.w.5.8.0.8.7.1.4.p.E.).'.~.~.Y.f.T.f.a.T.R.y.p.p.s.p.2.I U 0.s.s.p.5.5.8.5.8.<.>.>.>.<.<.<.8.<.<.<.<.<.>.>.>.>.>.>.>.<.1.>.>.4.5.5.w.a.e.o.H H D 3.w.3.2.,.I C I 1.<.4.,.I <.4.<.I I 1.1.1.q.7.7.7.0.0.0.0.>.>.>.1.7.7.q.4.,.D S D C C S I ,.,.,.,.2.5.5.5.5.p.a.5.5.s.p.p.y.y.p.5.5.a.a.y.y.a.g.d.s.p.U 3.a.p.p.E.E.E.Y.w.y./.`.P.K.K.h.a.a.y.3.w.",
"J X.o.H A n n A G G G A n z n n n n n n n n M G M n M G M n n n n A D V n G o.*.*.J J M M n n n n n n b A G J L J L J *.o.G J H A n l n n n n n n n G J J G n n b B  . . . .A  . .X.X.X.2.6.2.5.w.w.w.a.w.3.H H 3.a.a.E.a.x N L.*.G n J *.*.*.*.J r.a.y.d./.g.d.a.f.d.h.g.d.E.f.s.p.s.p.5.p.p.s.p.p.p.0.8.4.4.4.8.w.p.a.p.p.5.5.0.a.d.a.0.7.8.8.p.5.5.5.5.5.5.5.p.w.y.3.p.p.0.<.1.I >.4.p.g.'.].[.^.~._./.g./.Y.h.d.a.T.s.w.3.5.p.T.W.f.s.E.T.s.8.<.>.>.>.<.<.1.1.>.>.>.>.>...S S >.>.>.>.1.S Z Z <.2. .X.6.2.B l B c B F V F C I C C S I I C B Z S Z B C I I I 1.1.7.1.0.<.1.8...>.>.1.1.7.q.0.<.1.1.1.I I I I >.>...S S S S ,.S ,.6.I I <.<.4.4.4.4.,.2.p.a.a.d.d.g.g.f.p.2.5.p.2.,.s.p.5.s.8.4.s.a.w.r.5.5.2.2.5.5.5.",
"H 3.r.3.H H H J G H H G n n n n n n n G J o.o.J N M M M N N M M n n V n l n G J L J N G N N G J G G M V A J J o.J J G J H G H 3.H G A G G X.o.o.H H X.X.D B l j l n H A A  . .X.4.5.2.6.0.4.D C V n A 3.r.H G G J e.d.g.d.J L t.t.e.r.r.i.P.K.i.t.e.h.h.K.]./.g.d.g.h.i.d.e.d.y.s.p.p.5.,.6.2.,.I >.,.>.I I I I ,.,.I ,.2.,.>.>.I 4.a.p.4.,.,.,.5.5.2.2.4.2.D D ,.3.a.r.w.5.6.,.>.I >.,.2.3.d.'.[.~.h.g.d.e.d.f.h.f.p.p.p.5.5.5.5.p.s.a.p.s.s.8.1.1.>.>.>.1.<.<.1.1.<.>.S S S Z Z S >.>.>.>.Z B S 1...Z Z  .,.Z B C B c B B B C I I I S Z B B b B Z B b B D S S >.>.>.>.<.>.S >.Z S >.>.1.1.1.<.>.>.>.>.I I >.>.1.>.>.>.I Z Z Z S S S S S I S <.0.2.>.>.1.0.a.a.g./.u.W.W.s.0.p.0.,.,.s.p.w.s.a.a.s.4.I I ,.,.D C I I ,.",
"G H o.H A A A G n n n n n n n G G G M G o.o.o.o.N K N J N J L J K k k z l l j n M M M N o.o.J G G G A G H G G G G G n G G A A H H H D H X.X.3.r.r.r.w.5.2.H A A G G H A G X.3.3.w.a.a.u.p.5.D D J o.o.G o.r.e.e.r.r.i.e.e.e.t.t.i.h.h.i.K.L.L.L.K.K.K.K.h.h.i.e.j.g.K.h.i.e.d.e.f.a.a.w.5.8.4.6.4.8.5.2.I 4.8.4.4.6.2.2.4.4.4.4.>.4.p.a.w.r.5.4.0.0.5.4.4.2.D D ,.5.f.u.a.a.5.2.2.D D ,.2.2.3.w.g.a.a.a.5.2.2.5.a.p.4.4.<.<.4.4.<.>.,.4.4.<.<.1.>.>.1.>.>.>.<.4.7.7.q.<.>.>.S D  ...>.<.<...Z  .>.>.S S ..S ....>.>.S S S S S S S >.>...S Z B B Z A B b Z D Z Z S I >.1.S >.S Z S S ..>.>.>.>.....S S S S S >.>.>.I C C S I S C >.S S S >.>...<.9.,.....>.4.5.p.a.s.2.p.p.4.4.8.8.1.9.f.f.a.e.a.g.f.0.7.1.>.I S S S S >.",
"n n n l j j l n n A G G G G G G G G G A A G G G k M J L J N L J k k z n A n b l j z n G o.o.J M n n n B A A V B D D A H X.A V D D D D  . .X.3.w.i.e.e.e.e.d.i.i.e.r.r.r.e.d.d.a.i.g.g.g.d.e.r.r.r.e.i.r.e.a.a.a.d.e.g.e.r.d.d.d.d.d.e.e.e.e.t.t.d.h.i.i.t.r.e.r.e.d.h.d.d.e.d.e.a.a.d.p.0.0.8.5.w.a.d.e.w.a.a.a.e.u.w.3.w.w.5.0.<.<.4.5.u.i.a.p.4.2.,.2.2.D D 2.2.2.p.w.a.s.w.6.5.2. .6.9.4.,.2.4.4.0.R.0.4.<.,.5.0.<.<.>.<.<.q.7.>.>.<.<.1.1.7.1.>.>.>.>.1.4.5.<.<.q.<.<.<.4.<.2.<.>.<.<.....4.4.<.,.4.4...Z S >.1.1.>.>.>.>...S S S S ..S D Z >.>.S Z S I Z Z D S S >.B S S B S Z Z D Z Z Z Z S S S S Z S >...D Z C C I ,.S B S >.>.>.>.>.>... .Z D >.S S I 2.2.,.,.,. .S Z 1.1.I 4.4.0.8.I 8.s.p.5.4.,.S S I 1.>.>.>.",
"n n n n b b V G A G G J o.J A V V A V B b b n b b n G J n n A n b n n A G G A n b b B A  .X.D A B b b B B D D D 2.2.3.3.3.H H H H H  .2.6.5.w.a.i.i.t.e.e.i.g.g.d.e.e.d.g.K.h.h.h.h.h.g.g.h.i.t.i.e.h.d.h.e.3.3.e.e.h.d.e.e.e.e.a.w.3.3.3.o.o.r.r.r.t.t.e.e.j.j.d.d.d.a.d.e.d.d.a.e.e.e.9.4.4.5.u.d.g.g.d.d.a.w.e.a.5.2.6.6.2.6.>.>.>.,.5.w.w.5.1.S S ,.,.D X.6.X.o.w.3.2.2.2.6.5.9.2.5.9.4.4.8.>...4.s.0.0.4.4.4.8.>.>.S S >.1.>.>.>.1.<.1.1.1.1.1.,. . .,.<.4.<.1.<.>.1.<.4.<.<.<.>.>.1...1.4.0.0.4.0.0.<.....>.1.2.,.1.>.Z S Z Z B S ..S >...>.>.S Z S S B B A D S >.Z S Z C I Z Z Z B B B B D Z S S S S S Z B B C S I ,.I B B S S S S >...Z b B S S Z C C D D B >.Z Z Z B S >.S S Z I >.I 4.4.<.I I D Z D ,.,.D S S ",
"n n b n n n n V z j k n n n l l l b B B B b b l b l b B b n B b B Z B B B G G n B Z B Z D  . .D S B Z D ,.I I S 2.5.3.w.r.H 3.3.3.2.X.2.2.2.6.w.r.u.a.r.*.r.d.d.r.r.i.g.K.h.t.d.a.a.d.h.g.d.a.r.*.e.g.d.a.3.H 3.5.u.a.e.r.r.r.r.3.3.2.D A X.3.w.w.r.d.e.e.d.y.e.y.a.f.a.u.r.a.h.a.w.r.3.4.,.,.6.w.u.a.f.a.w.5.3.3.p.4.,.2.4.>.>.>.>.,.,.<.<.,.D S Z >.2.2. .3.5.r.o.o.2.4.6.,.,.,.2.X.X.2. .S <.<.S  .,.,.4.4.5.0.0.S S B B S S C S D D 2.<.1.>.>.1.2.X...S >.,.>.>.>.>.I >.>.>.>.<.>.>.1...1.<.0.0.2.4.4.2.<.1.>.,.2.2.D Z B Z Z Z B D ..S >.>.S D Z B B B b l Z Z Z S Z Z Z S >.S D D B B B B Z B Z S S Z Z B Z B B C S S I S C S Z S S S S D B B S S S S Z C C B S Z Z B Z B S S D Z S S S D I >.>.>.I B B V B B Z B ",
"l n V A B b b b l j l l B l l l B B B B B B b b b l b V D A b b D Z B b B A A V B B B b b A A Z S  .D B Z ,. .Z X.2.6.3.3.D D 2.5.5.6.2.D D D  .H X.H D D 2.3.2.2.5.w.w.3.3.2.D U 2.w.u.e.e.3.2.,.5.w.r.H A D X.2.X.9.6.9.,.,.,... .D D D 2.5.w.w.6.2.4.5.5.5.4.5.5.w.e.w.w.u.a.e.3.3.4.D Z  . .o.o.H J V D I S D 2.2.9.a.9.,.,.<.>.S  .>.>.S S B B S ,.<.,.,.4.,.Z A Z Z ,.S Z B B D D A B Z  .I Z B B B D ,.<.<.>.S S Z B Z D S >.I I >.S S I H X.3.o.H A Z D ..S S S S Z Z Z ....>.1.<.<.,.D ,. .S S ,.<.<.<.1.>.S D B l l b b b B 2.D B  .,.Z b B b B D l b l l n Z Z Z S Z Z D S S Z Z B B S B B D ,.D B B B Z Z Z Z S ,.S >.,.,.Z Z S Z B B B D Z ,.>.S S S S C S I I C S I I S Z B B C C S S S ,.,.B l j b l Z b ",
"n n A A A b b b l l l B B B B B V A H H X.H B B B V V B V A A D D D B l B V V n B B B n b V V V D 2.D B B D D b b A V A H A A D 2.2.6.2. .D D  .D D S C C D D D D D D D D 3.2.C C C D H D D D C S D H A b b B B Z Z 2. .,. ... .,. .D Z D ,.6.6.X.D S D  .,.,.,.,.,.2.2.U 2.5.p.5.5.5.0.4.1.,. .A j j l l B D B B  .2.p.W.s.2.,.<.,.S S >.>.S Z B B Z D D Z B D b b b B Z Z Z Z B B B S  . . .,.S B l l l b Z >.I S Z S B B S S S >.>.,.,.D S S D X.X.X.D Z Z D ..S Z S ..S S Z S ..,.1.1.,.D Z S S S I I S >.,. .D Z B b j l b B b Z 2. .B D ,.Z B B l B A b n l j l B B B B B B B Z Z Z Z C B B B B B Z D S S D Z B B B Z D D Z D D Z Z S Z Z B B Z B Z S S ,.2.,.S I >.I I I >.>.S D B B B B Z Z Z D D B b B n b A l ",
"B B B A Z b b b b l l B V V A A G o.*.r.r.H A V D D D V A D H X.H A V B B A V B V A A G G A A A X.2.X.b b A B l j l b b B B Z D D  .2. .Z Z D D >.,.,.,.D V B n n B l l A 5.5.D l l l j j l B B Z Z B b b B B B Z Z  .Z Z Z Z S ..D B B B S ,. .D S Z S S S S ......S D D B D 2.2.2.4.4.4.4.2.2.b h 7 l b B B Z Z ,.,.5.f.s.2.4.4.,.Z Z S S Z Z Z Z b l j l n A n j b B Z Z Z S D Z S ,.4.5.4.4.,.D B b b B D I >.>.>.,.S B S S S 4.2.3.w.6.S S S S S  .D Z Z ..>.S S S ,.<.,..... .>.>...S S S S S S S S Z Z Z Z Z D Z B l b Z D Z  .6.A b Z ,.D Z Z l b Z B Z B l b Z Z B Z Z Z B B B B B B l b B B b b Z ,.1.S Z B b b b b B b b b B B Z Z B B Z D B B B D ,.D Z B D S S S S S Z B B B B B B B B B B B B B A l l n l ",
"V l l B b b l b j j l n n G J J N J J J o.J V V H H J H *.r.o.H H H J G H J H F G o.o.o.H H H G G J G n B A B l j b b b b b B D Z D D B B B Z D A H 3.3.H n j j j j j h n o.2.B l h j 7 7 b b B Z Z B B B Z B B Z Z Z b l l b B Z B b b B B Z Z  .....S S S S S ....S D B B B C S D D D S ,.2.6. .B B D S S S Z  .2.D D 5.5.2.5.4.,.Z B Z Z Z Z  .S B j h l n A k j l b B Z Z Z B Z S D  . . .,.S D B B Z D Z S I >.1.<.,.S 1.1. .5.w.u.a.5.,.I S S S ,.>...S >.>.S S S <.9.4.<.,. .D S D  .,.2.<.>.S S >.D B b b B D D B b B Z ,.,.2.6.A b D <.>.>.S B B D Z S S C Z S S Z B B Z B b b b n l l l b b b B Z D Z S S D B b B B b b l l b B Z Z Z B D 2.Z B B B D Z b l B B Z D B b l l c B B l l l B B b l l l B l l b b ",
"G n l V A b l j j j j k k M N N n n M M G G G J L L L *.t.t.*.*.*.r.r.*.J J J G J *.*.J G G A V n z l n B B l l l b m b j l b b A B B B B D  . .G G J o.J n b b b n n n B A Z b l l b b b Z Z D D Z B b b b b b B B l j j j l B B b b b b B B Z D S S S Z B B Z Z Z Z Z B l l l B b b B D Z S ,.1. .,.1.>.>.>.S D 2.D B  .X.D 2.2. .D Z S Z Z Z ..>.S B B B V b l j l l B Z D Z B B B B B n b B Z Z Z D D Z Z S S >.>.1.>.S ,.,.X.5.3.*.*.X.D S Z Z >.<.<.>.>.>.S S S Z  .2.4.,. .D Z B Z  .4.0.4.,.S S ,.D b l h j l l j h l B I >.4.2.D D ,.<.1.,.D b b B Z D ,.S S >.>.S Z B Z B B B B B B B B B B B Z B B B Z >.,.Z B B Z B B l j l B B B B Z D 2.b l b B S S b l l b B B b j j l b B B l l j n B B B B b b B B B Z ",
"J M M J H M j j j j j h j k k k z n z z M M M G J J N L *.*.*.r.*.r.r.*.J J G J P *.*.G z n n l k j j n V b l l j j j j j l b j b b b B A X.X.X.o.M n n A A D D Z D  .,.S Z Z Z B Z ,.S Z >.>.>.D Z B b b l l b l l l l l l B B B l b b b b b B B C S C B l l B Z B B B B l l l B b l B Z B B D I I 1.1.>.>.>.Z D ,.D c B B b B D B B Z S S Z C Z Z S S S D D A A A J G A D  .,.D S D Z B V B B S Z Z S S Z S S I >.>.,.Z B D Z X.2.X.A n B Z B B B D ,.,.>.S S B B B b B D  .S Z B b b b Z D  .,.D B B b b l j 7 j j h 7 7 h l Z >.4.4.D .. . .D A l 7 7 j k k B B B S >...Z B B B B Z Z Z C Z S S S S Z B B B B S S B B Z S Z B b l l b B B B B Z D l l B B Z Z B b B Z Z B b l l l B B B l j l b B B B B B B B Z B D ",
"L P J *.*.J n k l j j j j k n n G M z k n M M M z M G N J *.*.*.J *.*.J J M G G J o.J G z z M M G K k n A n l k j 7 7 j 7 j j 7 j l b b B A H X.G n j j b A Z Z B Z D  .D B Z Z S S >.I S >.>.>.S Z Z B b b b B b B B l B B D B B b l b n l b B B Z S Z B l l B B B B B B B B l Z B b b B B B B C Z S >.S S S Z Z D B c l l l b B l l B S I Z C b b B C S D D D 3.o.e.r.*.2.,.1.,.,.S Z Z A Z B Z Z Z B B B B C S S S S Z B D D 2.,.D B l b Z B l l b B Z B B B B B b b b B B Z B b l l l l l l B B l j j j l l j l l j 7 7 j n C S 4.,.Z D Z B B l 7 # 8 8 7 7 h j l b Z Z b b b l b B Z Z C C D S S S Z Z Z B B Z D Z Z S I I S D B B B Z D Z B Z A l V D Z B B B D D ,.D B B B b B B B B l l b B B B Z B B B B Z b Z ",
"L L P *.*.*.G M n n n k M M G G *.L M k n n k k l G G G J *.J G J J J J M M M G H H J G M M N L *.N M M G n n k j 7 7 k 7 7 7 7 j l b l l l n A A n j j j n b b B B A A B B Z B Z Z S B B Z D S Z Z C B B b l B b B B B Z B D B C B l n b b b B S S >.S B l l B c B B B B D B B S Z B l B C B B B B D S Z Z S Z Z B B B B B B Z D B l B S I S B n l l B C B B A 3.*.e.t.e.6.>.>.>.>.S C B B Z Z B B B B b l b B I I S Z B B A Z  .S S Z B B D b j l l l l b B B b b b b B B B Z B B l l l l b b l l l l z n n l l l l l l l l B B B ,.S B B B b C l h 7 8 7 j j x z l l B B l j 8 7 j b B B B B b B B B Z S Z b l l b B Z Z Z Z Z Z Z B B B Z Z B B b j A 2.D B B B D D Z B l n B B B B B B B B B B C Z Z B B B S D B A ",
"L P P P *.*.*.P N N K M *.*.*.t.L.*.G n M J N n A G J L J J J J *.L M M G M n G J J G G J M G H H G n n n n n l l l l l l j j 7 j l l b B B B B B b A b b b b m n G j j l b l l B B B l l B Z Z Z Z B B b b B Z D Z B l D C B b B j B V B D D I S B S U A Z D S B B B D D 5.2.D D B B B D D D Z B B S S S Z B B B Z B B Z B B B A b B C S >.S Z B l l l V n l D J n r.u.*.X.D I S B Z B B Z Z B B B B B B b B D I 1.C B C l A n B Z Z Z D C B B b A l l B B B V n B B b n b b B b b b b B B b b b b l l V V b l l b l l j j j l l B B D B D D B B l j j j j l B B V B B B c b l j j j b B Z B B b b b b Z B b l l l l b n l j l l b l l l b B b b l j l B A B b l B B l l l l l l V j l l b l C B B B B D B B D D Z B A ",
"*.N N N N J J J K K k N *.*.*.L.L.*.M M N J J M M M N L L L *.r.*.L M M J J G n n M M M M n G G A n b n n A A A G A B b b l l j l b b B B B b n B l B b n A b j k k 7 7 7 j j j j l V n l B Z B b b B B B A X.2.,.D Z B ,.,.D A X.B A D D  .,.,.I Z S ,.D H 2.,.C S C ,.D 5.6.D ,. .D Z B b B B B Z S I I Z B B B D B B B b l l n l B Z S I S S B C B l l V D 3.G z X.o.G B B C b l B b l B B B B B Z Z B B B B S ,.Z S  .B D B Z B B Z B B B b B D B B B l l l j l l l b l l b b b b B B B b b b b l l l l l l j l l l j h h j l l B D B D Z B b l l l l n B B B B B S B B D B b b B B b l l b Z A n n B b l j b n b b n l h h j l l j l b b l l l l b B B b b B n n b l l j j n l l l l b B B C b l b B B B D Z B B B ",
"L M M n n n M M K k 8 K o.J L t.*.J k K N P N M M K N P L L *.*.L N G H r.r.J n k M M M n n V V B B B B B D 3.3.X.H D B b b b l B Z Z Z B b l l l j l B B V n j 7 8 7 7 8 j 7 7 7 j n b j n b b l l B B V A X.6.,. .2.,.5.0.,.2.5. .,. .,.,.1.1.,.,.I 4.5.3.5.2.C S Z D B ,. .D ,.,.,.D B b B B D Z S S I S Z C Z Z B b B B b B b b Z S S I S S S ,.,.B D 3.r.u.o.n V B B B B Z b j b b l B Z Z Z B Z S Z Z Z C D S Z S ,.,.5.D  .B b B B B B B B S C B B j j h j j l l l l l l b b b B A A b l l l B B B l l l j l l l j 7 h j l l l l B B B B l l B B Z D Z B C c B Z B B  .Z l b B B B b b B b A n l l l b b b b b l l l l l l l l l n n B B B b b A B b l b B l l j l l l l b l B l l B B D F l j b l b B D B B B B ",
"N n z l l l k k M k j z G n n H N k 7 k N J N K z z M N L P L L P N G H o.r.o.n K J G M M A A B B B B B B D 3.3.H D D B B B B b D D D B B l l B l l b B B l l l 7 j j j b j j 8 k 7 k 7 7 l b b l l B B n n n A V A 6.2.2.4.D 2.6. .2. .D D ,.,.4.6.,.4.5.3.p.w.2.2.,. .Z ..D S ,.,.,.D Z B B B B B B Z Z Z Z S D D D b B D B B Z Z S Z S >.>.S I 1.4.5.p.a.w.w.w.H B B D D D S n l b b b Z ,.1.S Z Z I I I I S S S Z Z ,.2.p.5.6.B B B b B D Z B S B B l j j h l l l l l l l b B B b B Z B l l j l B B B B l n V V b l j h j l B B B b D B B Z B B Z S ..>.,...C b l l l B D Z l b B B b b b l l B l j j l B b l l b b l l b V b l j j l b B Z Z B B Z B b b n B l l l l n V V b l A l B B b D V j j b b b B Z B l l B ",
"M k z n n n k k n n n n n n n A z 7 7 k K N M k j l z z M M N N L N M z j M M k k G M n n n n l l l B B n V H H V B A Z Z D Z B D D Z B l l l V b b B B B B b l b l b b b l l l j j 7 7 7 l B B l c B B l h 7 7 j b X.A B  .D ,.A Z D Z D Z D D ,.2.S I U U a.a.w.3.3.2.D  .S >.,.1.,.D Z Z B B B B B B B B Z D  .2.6.X.2.2.Z D ,. .D B B ,.,.Z S I 2.5.a.a.3.3.u.2.D S ,.,.S S n j j b B D ,.<.S C B S I I >.I >.>.I Z Z D 5.6.2.B B B B Z ,.D Z S C B B l l l n l l l l b B B B B B B B l j j n B B B B l l V 3.H B l l j l V D H X.2.w.2.D Z b B B Z S >.>...Z B l j b Z B B l B Z B b l l l b B b l B B Z b l l B B B l l B l j h j l l B B B B B B B B l l l B B B B B V B l l B j D A l V F l j n b b b b B l j l ",
"M M n M M n k k k K K 8 k K K k l h 7 7 j k n j j l l j j z n M N M n 7 $ 7 j 7 n G M k n n n j 7 7 j l l l l l l B A A D D D A B A B b l j l l A n n A D X.X.A l l B B B l l l b j j j z V V B B B B B n h 7 7 j j V B l D D ,.n b B b B A B b B S C C D D 5.w.J G o.X.D ,.S S 1.>.S Z B B Z S  .D Z B B B D 2.5.5.5.X.X. .D ,.2. .D b B  . .Z Z S  .D 2.2.D H 5.2.S ,.,. .D Z B l l Z A B D S C B B C S I >.I I 1.,.C B l V b B B B B B D ,.D Z D D V B B B b l l j l l B B B B B B B B B b n X.2.H V B l V 2.3.D B l l b B D 2.3.3.3.w.6. .D B B A A S >...Z B B l j A A l n b b B b b b b b B D B B S D D B j j l B B B B b l l l B B B B Z C B B B B B l l B B B b b B B B n l l j H D l V H l j n b l l l n j h j ",
"N M M M M K k 8 8 K 8 8 8 8 8 7 j 7 8 7 7 j z j j j l l j l n M M M n 7 7 7 7 7 z G M M N M N K k k k j j j j j l n A G G A A A V V n j j j j z G J G J *.u.w.G l l D D B b l l n n G G G J A V Z B C D B l j n n l B B l V b V B B A l B A B j l B C C C D D D V n 2.X.D ,.I I >.S S S Z Z ,.<.5.2.D Z B D 2.5.w.w.X.V B b B Z ,.S Z B B Z D S Z D Z b B B B A D ,.S ,.D B B Z B B B D B l b b l l l B C S S C B S D B b l l j B B B B l B D B b V V V B B B B c l h x j l l l B B Z Z D C A D 2.X.A n n B D 2.A B B B B B B D  . .D D X.2.S S D D o.o.2.,.S C B b b l B D n V X.A B b b n b b B Z B B D D D B j l l l B Z D V l l B B D B C S S C C S S D D H 3.A l j j l l B b n n A H D B A 2.V j j j j j j j h h j ",
"M K K K K k 8 7 8 k 8 7 7 8 8 7 7 8 8 8 7 j k j 7 j j z z z n G J J M k k k j j j A G G J L *.*.P N k z j j j j j z n n n n n n n n l h h j z V L *.*.*.t.e.e.G G n H D B l l n l A r.r.*.*.H H H D S D D B B D D C C I B l j l l B D l B F V l l B C c B D B B l B 2. .Z ,.S S I S S >.,.,.,.4.2.,.S S S D X.X.X.X.V V A B Z Z S B Z D Z Z Z  .D Z b l b l l B B S S 2.Z b B C B B A G j 7 j b h h j l b b B l j B B l l l l l C I D l l B B l l n B B l l C B B l 7 # 7 j l l l B D S Z B B D B b h h l V B B B B B C C B B B B B l b B D B B D H J H H S C B D B D D D 2.H o.r.3.X.b j j l n B B l l B B B l l B V B B D H B l l B C C C Z S D B C S I ,.6.a.a.H j j l h h j l l A 5.H B B D X.n 7 x j 7 7 x j j j z ",
"G n k j k j 7 7 j 7 7 8 8 8 8 7 7 7 7 7 j k 8 7 7 j n G G G J J *.*.N N N N N k j k N J L L L L J J J N M M G n z j G G G G k z l z M k j z n J *.t.r.r.r.J J J G n V n l l n l j n G J J J J *.H H A V B B B l B B H X.H n $ j l l B B B B B B B B B B B B B B B B D B B Z Z B Z Z Z S I 1.,.,.A D C C B B V A A b Z S D S ..S S S S Z Z Z Z S D B l l l l B b B B B D A l b b b b b n j 7 j k j j 7 k j 7 j 7 7 j j j j l D Z Z S D B l l c c l j l n B n l n n j 7 h j j l j l B V V l j l c l l j 7 h j j j B l l B B B l l l j j j j l b n l n *.w.B ,.B l D B B V V 2.2.2.2.2.D n l l n B D B B b l l l l B D D A b D 2.B B l A D D S S S D B D B ,.,.u.g.a.H b l l j j n B H w.u.X.B B B G h 7 h 7 7 7 7 j j n V ",
"M k j j l j j j j j j K K k k k j 7 7 7 k k j 7 7 7 j z M M N N L P K N N J N K j j k N J J P J N N J J J J o.J n n o.*.*.o.G G A G G M M n M J L *.H 3.J V x z h j j h 7 j j h j l n M M J J J J V l l l l n l n V 3.r.*.M 7 h j l l l l l l b B l j l b B B B B B D B B Z Z B B B B B C I S D l B B S D l l B B B S ,.S Z I I >.>.>.>.,. .Z B D 2.D B B B Z B B B B Z Z l b b b b b B b j l n l l h l j 7 l h h j j j l B D D C B B l j l B C B l B D C B l l h 7 h h l l l j l l l j j l l l b b l j j j h h j j j j l l l j j j h 7 h j j j h k *.w.2.4.D c D B l l l V V V B A V b b b B A B B V B l B B c B B B D B 5.5.B A n r.3.X.D B B B B D B 4.,.2.u.3.D V B l l B A 2.3.w.w.H B l l l 7 h j j h l l l n H H ",
"k j 7 7 j j j j j 7 k M M k k n K K k 8 K M n k k 7 7 k k N N N N K 8 k M M M n k j 8 K N N K K N N N J *.*.o.J M G *.*.*.o.J G H H M J L J J L o.H A H B H h z $ j k 7 7 k z x h j k k k K J J M k j j 7 h z n z z *.*.o.n 7 7 h h j l h 7 h n n j h l n V A D ,.I ,.D D  . .D D D B l B D D B B B B ,.D B B S D S >.>.I S S I 1.>.S ,.4.5.2.H 6.p.2.D I D S Z S I S S D B D D I S S D D B B D B B l B l l B l l B b b b B D D B l l j j j B S S B S ,.S B l l h 7 l j l l l l j j 7 7 h j l l b B B b b l j j 7 7 7 h h h j j j h h 7 7 7 7 h z z M G 2.2.U D V V h j j j l l l l l l b n A A B l n l l D S C D B l A l 5.2.A 3.o.d.d.3.H B l l B B B 2.B n o.V B B B l B B B D A H X.A B B l j h j l l l V D D H a.w.",
"j 7 7 7 j j 7 7 j 7 j k k k k K M M K k K M M n k j j h x k K N K 8 7 j j j j k z 7 8 k k K K K M k K N J J G n n n M M M M G J o.o.M L r.L r.*.*.H A V B H V n z J J M N G n j j j x 7 $ K N J k k z n j j n G M z *.H G j j j 7 7 7 k 8 % 8 K z j l V A G X.3.2.D D B Z  .D D D D l l l B B B A B b D D B Z  .D S S >.>.S S I 1.S B S 4.w.5.2.5.p.6.D ,.,.S S I 1.1.I S Z D ,.<.1.>.S Z Z Z S I S C S B B S C B D D B b b Z D B B l l l b D I S B I I C C B B l l l j j l l B l l h h h j l l n B B B B l j j h h h h h h j z j l j h h h j z G o.o.o.u.D D D n A h l j j l l B l l l b b A A B l l j j B D D D B B l l H B A u.3.g.a.3.H B l l V H B V l j G l l l l l B B c B b B B l b l j n l l l j l D 2.U 2.f.w.",
"8 7 7 j j j 7 7 7 7 7 j j j j k k n k j l n n n j l j j h 7 8 k 8 8 8 j h h j k j j k k 8 8 k M A k j z M n k j j 7 7 7 7 k M G J J M *.t.*.*.*.L J z V J J *.J L *.*.J J G n l l l j k K G M z z z A G n z n G n n r.H H l l l k j h j k 7 7 7 j j n V V G X.3.H n l j l A B B Z n j j j l B b n l l A G A Z B D B B Z D D D D D D Z S 2.2.D F H D D D D ,.,.S S ,.,.S S Z B B S S S B B Z Z S >.I S S C C S C B D D B B B B A B Z V l l V D S B B C C B D B B B B j l j l l B B B B l l l l l b B B B c l l l l l l l l l l l l B n l j j l n D 3.w.3.u.A V H B A l l l j l l l l l l l l B A D b l j h l l l B B B j l V l A w.H w.3.D D B l n G o.A l j j k z h h h l l B B B V V l l l n j V l j j l l B D C V w.J ",
"7 7 8 k K K k 7 7 7 7 7 h j k j 7 j j j h j l l l l n l j 7 7 7 8 7 k j h h j n k n N K 7 7 k M A j 7 7 7 j j j x 7 7 7 # 7 k k k K K J *.L L P N K k J *.J L J J M M G G B b b V A G G J H J V A n n A A n n l l z 3.U H V l l A V n l z n z l l l B B l G o.3.V l j l l B B B B b h j j h l l h 7 7 k A A V l B B B B b l l B B A A A B B B H B l V D D 2. .D Z D D D ,.D l j B Z D B Z D B D I C C D C C S C B B B l B A l l b B V l j V D B l l l l B D B j l l h n l l l B C C B B B B B l B B B B B B b V B B B B c c B B B B B l j l l B B D D A o.G n G B V l l l l l B l l B V j j l B B l l j j j h h j l l h B n j n D n G V B B B l l n J A l j h 7 z j h h j j l B C D A l j l V j j h 7 j l l l l B B H z ",
"7 8 k k k j j 8 7 7 j j h j j 7 7 8 j j j j j j l l l l l j 7 7 7 7 k j j j 7 k j n N K 7 7 j n n j 7 7 7 j j j k k 7 7 7 7 j 7 8 7 x K N K 8 k k 7 k M J M M z k 7 h l l j l n V A J J H J H 3.D B l n n n n l z n H H H J z z H H J G G 3.3.F v B C B V L r.o.V z n G z n V A B A l l l h l j 7 7 7 k V V V l l B b b b l j v A D A B l l n H l l V V A D B n l n B V 2.H l j B Z D A D D b D 2.B B D D D S C B B B l V V j j l l l l j l l l l j h 7 n A l j l l j l l j l V B B B B B D D B B C C C B B B D D D B B B B B B B B b l l l B B c l l B X.o.n B B B l l j l n V V l l n j j z l l l l l l V l h j l l j n n j j j h j h l l v l l l V B B l j h V l l j j j l c B V A n j l l h 7 $ $ j l l l j B B V l ",
"7 j k k j j 8 8 8 j j j h 7 7 7 7 7 7 j x h 7 7 l j j j l j j 7 7 7 k j j k 7 j 7 k k k 7 7 j j z j j 7 7 k n k k k 8 8 7 7 k 7 8 8 k k 8 8 # 7 j 7 x 7 7 M k h k 7 h l j h j k j j M J J G J H B l l n n n n n M G J J L r.M N *.t.*.N L t.e.J F C C F J t.i.*.G z H H n n J J A X.A A A n J G G J J H 2.D F v l l l b V n l V 2.2.D B l j h j h l n j l n h j h j l n H H l n A B A A D A l D 3.G G D A D B B l B V B V V j l j h j n z h 7 h j j x 7 z V l b A l V j z h l H l B B l l C S B Z S S D B B l B B B B B B B B B b l l l B B B B l l b V B X.l C B l l l h j l n A j h j j z v j l n B l B D A l l V l l l n z j # 7 7 $ h h z x l B B B C B l A V B l l l l l l l l V V z l j h 7 7 7 h z z l l l l l l ",
"j j j j 7 7 7 7 7 h h h 7 7 7 7 7 7 7 7 j j 7 7 h h h h h h h 7 7 7 j j j j j j h h h 7 7 7 7 7 j 8 8 # 7 j j j 8 8 8 K 8 k M M k 7 G n 7 7 7 7 j h j j j l j 7 j j l l j 7 h j j 7 7 k z z z k x l l c B B A G A A G G J L r.*.*.r.*.L J J H H U U H H J e.t.L J M L L L *.r.*.L r.H H H G 3.r.r.r.e.f.a.H J r.J 7 M x o.o.M L d.w.V H o.x 7 $ z l l l b l j 7 j h B D D B n 2.3.l l l B B b B o.2.X.A b b B U B B D l l n j z l l b B n l l j l l j h l c j l B j l l V j V H B B B B B B B b B B l z l j l l l l l B C S C B B l l c B D B l j l l l l V j B B B B l h h n B l h h x 7 x V n H V l c B H D B c D 2.D B B l j 7 j h 7 h h l l B B B V B l B D D B l l l j j j l j l l l l l j h h j l v z z j z l j j ",
"7 7 7 7 7 7 7 7 7 7 7 7 7 7 7 7 7 7 7 7 7 7 7 7 7 j z j h 7 7 7 x 7 7 7 7 j k k j j h h j 7 7 7 # # @ @ # 7 7 7 8 8 8 K k M J G k z G n x 7 7 j l j l l l z j 7 l j l n n j j j 7 7 # # $ x x 7 $ h j l l n n n k j n V z J r.L J J J N K z V H D F D J J r.*.M J M L t.t.L.t.t.t.t.r.L J n U r.H U w.a.y.U L t.t.L L J *.r.*.j.K.t.r.J *.K J J J V l b D A V l n l B B F V l V V j l l l B l l A D D B B B U 4.U l l B l j l l A X.B B B l l l l l l l l B l B B l b b B l D 2.H V A D B B l l l j 7 7 7 h j z l l l B D ,.D D V B B B B D B b n V D B l V l A B B l l 7 j A H X.A V J k x z z H l j j l V V l l V D B l c l l l B v l j j c c B l l l l l B C B c l l l l l l l l j l l v v l z l l v v z j h 7 7 $ $ ",
"7 7 7 7 7 7 7 7 # 7 7 7 # # # # # 7 7 7 7 # 7 7 7 j z j j 7 7 j 7 7 7 8 7 7 j j 7 7 7 j j j 7 # # # # # # # 7 7 8 8 8 8 8 k M n k n n n j 7 j n n l n l l z j h j 7 h l l j 7 7 7 7 % # # 7 $ @ @ # 7 7 7 7 8 7 8 # j z j l J G k z z K k h j V V B V V G J J N J M J r.t.t.*.t.t.t.j.t.L M L L F F F U U J L t.L.t.t.t.r.r.h.K.L.t.t.*.*.L t.h.e.U B l B B B D V B B C F V l V V l l A D B B n V B B B b B U 8.2.l l D V j l l H 5.B C B l l l l n n l l B l B B l l b A H 2.X.G l n V B l j n n n 7 k j j j j l j l B ,.,.D B b B B B C C B l B D 5.D b D b 2.D A l l h n H X.5.H V J x $ $ k z h j l l z j h h z V l l l l B B C B B c c c B v l j j j l B D B l l c c c l l B B B v l c B B v c l l l j h $ # # # # ",
"7 7 # # # 7 $ 7 # # # # # # @ @ # @ @ # 7 7 7 7 7 7 h 7 7 7 7 7 # 7 7 7 7 7 7 7 7 7 7 h j j 7 7 7 7 8 8 7 7 7 7 8 % % 8 8 7 j 7 h n j j j h l l l j l l h l j h j 7 7 j l j 7 7 7 7 $ # $ 7 % @ # # % @ # # 7 # # # 7 j h h l j 7 7 k z j h j l l l l l l G G G H G F H U J Y L t.i.K.i.L L r.H H F v v G *.t.t.t.t.t.K.t.*.K.L.t.L.t.t.t.t.t.K.d.a.H l l l B 2.D B F U 3.H V 3.e.o.J e.w.D D D V B B B l l B H F B V D B l n B D 2.C B b l l l l l l l l l l b B B l V D 2.H A k 7 j B b l n H X.H l B B l l l l l l V D D D b l b B B C C B c b D 5.2.B D b 2.2.D l B l o.3.X.3.D V V h $ $ h x h z z z x h j h h z l l l l l B B c l c l c B v l j j l B V A B B c c c l l l l F D F l l B F C B c l j j h $ $ $ $ $ ",
"7 7 # # # # 7 # 7 7 # @ @ @ @ @ @ @ @ # 8 7 7 7 7 7 7 7 7 7 7 # 7 7 7 # # # # 7 7 7 h x 7 7 j j j 7 8 8 7 7 7 7 7 % % 8 8 7 h h h n 7 h l h j l j j l j h j j 7 7 7 7 j j j 7 7 7 7 7 7 $ $ $ $ 8 % # % 8 8 7 7 7 k k j h 7 7 7 7 7 7 j j j l l l l j l j n V A X.D V B F v v L e.r.r.r.L J J J J H H J r.d.t.r.H r.H g.t.L i.t.t.K.K.L.L.t.L j.e.d.*.n n n A 3.3.D H 3.3.r.H e.h.d.*.d.w.D D D V B B B j 7 h j l n V l l V n A D B D B l l l j j l l n V n b l l B V D B V n l j h l l l B D 3.5.2.l b l l l B B l l V F D D F D D B B B B C B B B 2.H D D b D D X.B A V 3.w.3.2.D V H v V j x z z J J J z x l l j l l l n l l l l l l l j v V l l l l l n n l l n c c l l l l j V D V l c B F C B c l j j j j h h h j ",
"7 7 # # # # 7 7 7 7 # @ @ @ @ @ @ @ @ # # 7 7 7 7 7 x 7 7 $ # # 7 7 7 7 # 7 7 7 7 7 j x 7 7 x j j 7 7 7 7 7 h k k k # 7 7 7 h j j k # # j h j h j j z l h j 7 # 7 7 h j k 7 7 $ 8 7 j j h $ $ 8 7 7 7 8 8 7 7 7 k z k j j h 7 8 k 7 7 7 j l l l l l l n l B l l V n l n H H J r.e.J M J H n l V G *.r.r.r.e.r.G V D v r.r.J t.t.t.r.t.t.L.t.t.*.H J z h j n D 3.5.U H F U 3.H J r.i.r.r.H B F v l B B l j j h 7 h j n l V A l G X.l D B l l l j j l V H o.G G l B B B B l l j h l l l j j l V H U D l l l l l l l l l l l B D H 3.3.H B B B C B B l V D U 5.V V n V V V l H 2.H H V V D F U V A J H r.e.r.*.v v v l l l l n j h j l l z j h z A v l V l l l j h j l l l l l l l z z V V v B V V B c l z j z x j j l l l ",
"7 7 # # # # # # 7 7 # # # @ @ @ @ @ @ # 8 7 7 7 7 h j 7 7 # # # # # 8 7 8 7 7 7 7 7 x 7 7 7 7 j h 7 7 7 h j j n n n k j j h j k h 7 # # 7 7 7 7 7 7 k j h j 7 # 7 x j k k k K K 8 j j l h # # # k k j j 7 7 # # 7 k j j h h 7 7 x x 7 7 7 h h h j z l n l A B l j j j l G J V H U V J H H G z z n G H H o.H G l l v j V H J r.r.r.J J L e.L r.J V l h h z n V H H D U B V F l n F 3.3.H D V F j j v c l l A V l j l B B A V l A H n D B B b l l l B A r.r.*.H A B c l c j j h 7 z z z h $ j l B C B j z l l j j j h h j j l B F 3.3.H D C B B l l l l A H 5.H V j j V l h n n V A l v c v F v A 3.w.r.r.*.r.G U v c c l l B l h h l l B l j l B B B D B l c j j j l l l l l z z z z V A A A V c l l V V n z z j j l l l ",
"7 7 # # # # # # # # # 7 # # @ @ @ @ @ # 7 k 7 # 7 7 7 $ # # # @ # # 7 7 7 7 7 7 7 7 7 7 7 $ $ $ $ $ 7 7 h j x j l z j j l h h 7 x x % % 7 $ # # # # 7 7 $ x x $ 7 7 x x k M N P N M z z j $ $ 7 k z z j 7 7 $ 7 $ 7 j l h j x $ j h 7 7 7 # # $ $ x h j l J A l j l l l l V l v v G J V A V z j l l V H 3.J V l j z j l F D H H J J V M J M V l F l l G H A B B B C U D C c j l B D U U 2.U H j h v B l B 2.2.C B V V V l l V H A B B B B b l l n V D w.e.r.r.J F c c c j h 7 7 j j k 7 $ j l B C B j z l j j j j j x j l l l c H H H D C c B l h j j V V U D l 7 $ j h 7 z j l V z v l l l h l A o.H r.G H V 3.B B B l B B c l l l c F D B c c l B D B l B l z l B B l j j j h x x z J H G V v j v V J J V z j h j l l ",
"7 7 7 $ # @ @ # $ # # # # # @ @ @ @ # # 7 7 $ # $ $ # # 7 # # # @ # 7 7 7 7 $ 7 7 7 $ 7 h $ # $ $ $ 7 $ $ 7 h h x 7 7 x k 7 # # % 8 7 $ $ $ # 7 # # $ 7 # $ 7 $ $ 7 7 7 x k z n V V z j h 7 7 k z k 7 7 7 7 8 8 8 $ h z h j h x k $ h 7 $ $ 7 h h h h j l z l z z l l l l j j h j z V j z V z j z l A F C F B l l l l l l l z z l z z z V h z j v v V J H H H U C c b n B n l l c D H V V F V j j l v c C D D F C B V B l B H 3.A n l B B l l n A H D H 3.*.L J V n l l z z z k l z j j 7 7 l c F c l l l l l l c B l l j l v B V D B F F B B v x 7 h V F A v l x $ h $ j z z z z j v z j j z z z G J J V J z r.V V v v C C c l z l l V V A A A l l l v F H V h z B B l j h 7 7 $ $ z z v V B B l l z z z V V l j z l j ",
"7 7 # # # % % % # # # # 8 # @ @ % % % 7 8 $ # # # # # # # # @ # # % 7 7 7 7 $ 7 7 7 $ 7 7 $ # # # $ 7 $ $ $ 7 h 7 $ $ 8 8 $ # @ @ % $ # $ 7 7 x # # # # # # # $ 7 7 7 7 7 h h h x x h $ 7 7 7 k k x 7 $ # # # 7 $ $ h l j h h j z h h h $ $ 7 j j j j l l l z v l l l l j j j h j l M h z V n l l l V B c v l l l l l j j h j h z z z z z h z j l l z V V A V V l l l l l l l l l l l h j l v l l l l c c c B B c l c B l b V D n j j l b l l n A D B V V J G J z j z z z z z K l l l z j h j v F c l c c l l l B B l l j l v v z V B B v l l l k x j l v z z z z $ x h z V V M M z z h h x z n G V n z l V z r.J J J V F C c l j l j B l A H H v l l l v v j $ j l v l h 7 h z x $ h z l v l l l l j j z V V l h z v v ",
"8 7 # # % % % % # # # 7 8 % @ @ % % % 8 8 # @ # # # @ # # @ @ # % 7 7 $ 7 $ $ $ $ 7 $ 7 7 $ # # # 7 8 8 $ $ 7 7 $ # # % % % @ @ @ @ # # # 7 7 x 7 $ # # # # # $ 7 7 7 7 h h h h j h 7 7 h h 7 $ 7 k z k 7 # # $ $ $ h V l j h j z h j h 7 7 h l l B l l v V V l l l l l j j j j j z V h z z l l l l l l l l l l l l l l j h h h z z j x z z z z z j j z z z j j h 7 7 h j l n n l j h h h j v H F l j l c l c V v l l l l l B n l h h j l l l l B V l l h z k N 7 $ 7 h h h k k l l c V l j j l v c c v B c l l B v l l l l l l l l V V j h h z j j j z j h z G n h j x z V n J J z z $ $ x M J J V V z l l h M J J J V V B c j h j j z j n J A l j j j l z h $ 7 z l l j h h l z $ h j z l j j l l j h j v V l j z V A ",
"8 8 8 8 % @ @ @ # # # 7 8 # @ @ @ @ @ % % # @ # % # # # # # @ @ # 8 7 $ $ $ # $ $ $ $ 7 7 7 # # 8 8 8 8 7 $ 7 7 $ # % @ @ % 8 8 8 $ 7 7 # # 7 $ x 7 $ # % # # 7 x 7 7 h h j z z j h 7 x k j h $ 7 k M M x $ $ $ 7 $ j A l j h h z h h h h h h l c V c j l H F j l l l l j j l l z j z j z l j v B l l l l l l l l l v v l j j x z z h j z V V l j j x l z x h h k x 7 h j l l l l j j l j j V 3.U v j l V V V A V l l l l l l j l j j z n n b l B B l j h k k k $ $ x j h h x x l l c B l l h x l l c l l v v c l z j j l l l h j j V z h $ $ 7 h h j j h 7 k G M z j x k z z z z z z $ $ 7 z A V V V V z z $ 7 z M M z l v l l j j x k % 8 M k h j h h z z x $ $ h j l l j h j l j j l z z h h x x j h j l V z j z z V ",
"7 8 8 8 % @ & @ @ % 7 # # # # @ @ @ & @ % % # # % $ # # $ % # @ # 7 8 7 x 7 $ $ $ $ 7 7 7 7 7 # 8 % % % $ 8 8 8 7 7 % % % 8 k K z k z j 7 $ 7 7 x x 7 $ 7 7 7 k k x h h h h h h h h 7 7 x x h h $ 7 7 x 7 $ 7 k h h x V z z h $ k 7 7 7 x x h l c c l j l V V l l l l j j l l l j j l h l l l B V l l z l z l l j l v l l j j l z j h h h V l l $ h x z z x x x z j j j l B B l l j j l l l v H V B V F H F B B l l B B l l j h j j j l l l B B B l z h k z z k 7 7 x l l j z x l v C c l l j h j B V l j l l l j j h h j l l j h h z x $ # # $ h h h x h $ 7 k z z x $ 7 x h h j h k 7 $ h z z z v z z h x h $ j z z j j l l z x x 7 % & % K K h x h h z z k $ $ 7 h h j j j l l l V z j j 7 $ $ 7 x h h z z k j x j z ",
"# # # % @ @ @ @ # $ 7 # @ # 8 8 % % @ @ % % # # # % # $ 7 7 # # # 7 k k k k 7 7 $ $ 7 7 7 7 7 # % @ @ % 8 K 8 8 7 7 7 $ # 7 k z z z j x x k K z j h 7 7 x 7 7 x x x x x h 7 7 $ x x 7 7 h h 7 h $ # # # # $ 7 x x h h j h j x h k 7 7 $ 7 k h l l j l z l l v V l l j j j z l z j l V h j l l l z j j j j z h h h j l j j j l l z z j j j V l l h h x x j h h x j j l l B D D B l l j l l c c l j l V V v l l l l l B B l l l l l l l l l c B B C l j $ z z J j x h l v V l j 7 l V U B l v z j l V A j 7 h j j h h $ $ j l l z h $ h $ # # $ x j j j x x h $ $ h z h $ $ x $ h h $ h h h h h h x x x h h x x x h x x $ h j h h 7 $ $ @ @ % K 8 h h x h j z k $ # x z z j h j l l l V j 7 h h h $ $ 7 7 x x x 7 h h h x ",
"# # @ @ @ # % 8 $ 7 % 7 8 8 % 8 8 8 % % % % @ # # # # 7 x $ # $ $ 7 K K 7 7 8 7 # # $ 8 % 8 8 7 % % % 8 K 8 8 8 % $ $ $ $ $ 7 x 7 7 $ 7 k K M z x 7 7 x 7 $ $ h 7 7 x j x 7 $ $ k k 7 7 h 7 7 7 7 $ # $ $ $ $ 7 x 7 $ x 7 h h h x h h $ $ 7 h l l j l z j j l V z j h h j x l l j x z $ h x h 7 7 $ h h h x 7 $ $ 7 h j l z l l z j z z l B l c l j h h h 7 7 h h j l B B C F F n l l l l v l l j l z j h j l l v B n l j l B B V F F C B B C I C z $ $ z V 3.V n j B C D z x $ x z H l l A v l c v l j $ $ 7 h h 7 7 h j l l l 7 $ $ $ # $ x x h j j h h x x $ 7 x $ $ $ 7 $ x x $ j j x $ $ 7 x h h x x h h $ $ $ # # $ h $ $ $ $ x $ % % $ # h $ x z j z k $ # k V v z j j j j j z h 7 h j j h 7 7 7 7 x h h h h $ $ ",
"# # % % @ % % 8 8 % 7 8 8 8 % 8 % % % % % @ @ % % # $ k k $ # 8 k 8 K k # # 8 $ # # % % % 8 8 8 8 8 8 8 8 % % % 8 % $ $ 7 $ $ 7 % 8 # $ k M k h z 7 7 k 7 $ $ $ $ $ 7 x 7 $ # $ $ 7 7 h h 7 $ % $ % # # # $ $ 7 7 # $ x 7 7 7 h 7 j j 7 7 7 h l l j j h h z l j j h $ 7 h h h h h $ x $ 7 7 # $ # $ h h $ h 7 $ $ 7 h z z l l j h h z z l B l c l h 7 h h h h 7 h v C C B c c l l l l l j l l z l l j h j l v l l l l j h j l c V c c B c c C I B n # $ x F 5.D n j l C U l 7 # 7 h z $ j G B l l j j j 7 $ $ x 7 x x j j l l j $ $ $ x $ $ z z h x x h h x x h $ x $ $ $ $ $ x $ $ x x 7 # # $ x $ $ x x $ $ $ @ @ @ # $ h 7 $ $ 7 x $ 7 # 8 $ x h z V z x x $ # x z l j j j j z j z j 7 h h h j j x k $ 7 j l z x $ $ ",
"% % % % % % 8 8 8 8 8 K 8 % % 8 % @ % % % @ @ @ @ @ % k k 7 # $ 8 8 8 % % @ @ % @ @ @ @ @ @ % % $ 8 % @ # % # 8 k 8 % 8 $ $ $ % % % # # 8 K 8 x h 7 7 k 7 $ # $ # # # # # # # $ 7 h 7 7 h 7 7 $ 7 7 $ 7 x 7 $ $ # # $ 7 $ $ 7 7 h x j z h $ 7 x h j j $ $ j x h 7 $ $ $ $ $ $ $ 7 7 7 $ # # # # # # $ x h # $ 7 $ $ h z x j h h h j h h j h j l j l h 7 h h h h x h l B B v j h 7 h j z l z l j j l l l l v c c j h $ 7 j z l l h l l l c c l h x x $ 7 B C D v l l j l j j $ $ $ 7 $ $ x x j j v l 7 h j h h x 7 $ 7 j l n z j h $ $ 7 $ # $ $ 7 x x h h x x h h $ $ $ $ $ $ $ $ # $ 7 $ @ @ % % % $ $ $ $ # # @ & & @ $ h h h $ h h $ $ x # k k k G G j h h $ # 7 x h z z $ 7 z x $ $ $ # $ 7 x x k k $ 7 j V M z h $ ",
"@ @ @ @ % % 8 8 8 8 8 8 8 % % % % @ @ % % @ & & @ @ # $ $ # # % $ # # # @ & & @ @ @ & @ & @ @ % 8 8 8 % % % % 8 K K % % % @ @ @ & & & & 8 8 7 8 x $ 7 8 7 $ $ 8 $ # # @ # # $ 7 h x 7 7 h 7 7 7 h h 7 x k 7 7 $ $ # $ k 7 $ 7 7 h z j n j h x x $ h h h h z z x $ $ $ 7 $ # # $ 7 7 $ $ # @ @ # # $ 7 z k $ $ 7 $ $ h x j h $ h h j h j j h h h j z h h x x x x x h l l l l h $ $ $ 7 j j j j j z z z z x x j l x h h h j j j j l z z j j h 7 $ $ x h j B B B l l l l l z z h x x x 7 7 x 7 $ $ l z $ h z j x x 7 $ 7 j z z j j h $ $ $ # @ # # $ h x 7 $ h h $ 7 $ $ $ $ $ $ $ $ $ $ 7 # @ @ % $ % $ $ $ $ # # @ @ @ @ $ j j x x z z x x x $ K k k n V j h 7 $ @ # 7 7 j j 7 x x 7 # # # # # $ 7 7 k k $ 7 h z h x $ $ ",
"@ & @ @ % % % 8 8 8 8 % % % % % # @ % 8 8 % @ @ @ @ # % # @ # % $ # @ @ @ @ @ @ @ @ & & @ @ % % $ 8 % % % % % 8 k k % % @ @ @ @ & & & & % % # 8 7 # # % $ $ $ 8 % # @ @ # # 7 x j j 7 7 h h x x x j x k z k 7 $ $ $ 7 k 7 $ x 7 x z z M z k z x $ h x h h z z j h h h h $ # $ 7 7 7 $ $ # # # # # $ x z z h 7 7 7 $ h j h h $ 7 j z j z z h $ $ h j h h h x x x $ $ h j j z x 7 7 $ $ h j j j j x x x 7 $ # $ x z x h h h h 7 7 x z x $ $ 7 $ @ # x z z v l l j j j j l x x h z 7 7 7 x x $ $ h x h $ h x j x x 7 $ 7 h j j h h j j x $ @ @ # # $ $ $ $ $ $ $ $ $ $ $ $ $ $ $ $ $ $ 7 $ @ & & @ % @ # $ h 7 $ # # $ % $ $ h j x z M M z x x $ K K k k z l j x $ # $ 7 $ h x $ 7 7 $ $ # # # $ 7 $ $ 8 7 $ # $ $ $ $ x k ",
"@ & @ @ % % % 8 8 8 % % @ % % % # @ % 8 8 % @ @ @ % % % @ @ # 8 7 # @ # % % % @ @ @ @ @ @ @ % % # % % @ % % # $ k 8 % @ @ @ @ @ @ @ & @ % % # 8 7 @ @ # % % % % % # # # # 7 7 h j z 7 7 7 7 h x z k x k k k 7 7 7 7 7 k 7 $ x 7 7 z k M k z z x 7 k k 7 7 x j j j j j h $ # 7 k h h 7 $ # # # # $ $ 7 z z h h x h $ h h h 7 $ $ h z j z z x $ # $ j h $ $ $ $ $ # # $ h j z k k x 7 $ h j x j j x h $ $ @ @ # x x j h h h $ $ $ $ x $ # $ 7 $ @ $ x z l l j j x h h h l j x $ x $ $ 7 7 x 7 $ x x # # $ j j x j 7 # 7 7 h h 7 7 j z z 7 # # # $ $ $ $ # # # # $ $ $ # # $ $ $ $ $ $ 7 $ @ & & & @ & @ $ x x $ $ $ x 8 $ $ 7 7 h x v M z x x # k 8 k 7 h l z x 7 8 7 7 # $ $ $ 7 7 7 k 7 # # 7 x x 7 k 7 8 # 7 7 8 8 K k "
};
